/* XPM */
static char * east_xpm[] = {
"128 128 12944 3",
"   	c #5A516A",
".  	c #C0B194",
"+  	c #975B64",
"@  	c #9A5860",
"#  	c #A15861",
"$  	c #A35761",
"%  	c #A55B60",
"&  	c #A56069",
"*  	c #AC6568",
"=  	c #AB5A67",
"-  	c #B46468",
";  	c #B66468",
">  	c #B3585F",
",  	c #B35B61",
"'  	c #B5686A",
")  	c #C87B74",
"!  	c #B85F67",
"~  	c #C16A70",
"{  	c #C86A73",
"]  	c #C56B6C",
"^  	c #C46D74",
"/  	c #C36C76",
"(  	c #C57A7C",
"_  	c #C2797C",
":  	c #BB6F74",
"<  	c #C67579",
"[  	c #C17979",
"}  	c #D18885",
"|  	c #C5787B",
"1  	c #C2817F",
"2  	c #CC8083",
"3  	c #C37A7B",
"4  	c #BF767E",
"5  	c #C98184",
"6  	c #C47A81",
"7  	c #C47B7F",
"8  	c #C17C7A",
"9  	c #C37975",
"0  	c #C8777A",
"a  	c #C27D7D",
"b  	c #C1786E",
"c  	c #C2757E",
"d  	c #BD797A",
"e  	c #B97B7A",
"f  	c #B77578",
"g  	c #BF7A7E",
"h  	c #CA8680",
"i  	c #C17B7C",
"j  	c #BD7A79",
"k  	c #C27C81",
"l  	c #B76E72",
"m  	c #AE686B",
"n  	c #B77476",
"o  	c #C2777B",
"p  	c #AF5E65",
"q  	c #AC5E64",
"r  	c #B95B65",
"s  	c #AB515A",
"t  	c #A7515A",
"u  	c #A4535D",
"v  	c #503C36",
"w  	c #484761",
"x  	c #5B597E",
"y  	c #666285",
"z  	c #7E6D8D",
"A  	c #975B63",
"B  	c #A25A64",
"C  	c #A85A63",
"D  	c #A75860",
"E  	c #AB5760",
"F  	c #A5575A",
"G  	c #B1695A",
"H  	c #AB635E",
"I  	c #AA5C60",
"J  	c #C27375",
"K  	c #B1555D",
"L  	c #C77876",
"M  	c #C67D76",
"N  	c #B86669",
"O  	c #B57372",
"P  	c #B67471",
"Q  	c #BC7B7C",
"R  	c #B86E72",
"S  	c #BC6F72",
"T  	c #C3787B",
"U  	c #C57078",
"V  	c #C67B7C",
"W  	c #C78181",
"X  	c #C37B7D",
"Y  	c #B56E71",
"Z  	c #B67478",
"`  	c #CD8189",
" . 	c #C07781",
".. 	c #E19993",
"+. 	c #BC777A",
"@. 	c #D38587",
"#. 	c #C97A7D",
"$. 	c #C97A7E",
"%. 	c #C2807E",
"&. 	c #CD8486",
"*. 	c #CA8485",
"=. 	c #C27D7C",
"-. 	c #B97875",
";. 	c #D38388",
">. 	c #E08C90",
",. 	c #D5868B",
"'. 	c #DB8892",
"). 	c #D7878E",
"!. 	c #D98B8F",
"~. 	c #EA9C97",
"{. 	c #DE908F",
"]. 	c #D18983",
"^. 	c #DD928D",
"/. 	c #CE8284",
"(. 	c #CC7D81",
"_. 	c #CE8A87",
":. 	c #C27676",
"<. 	c #C27678",
"[. 	c #BC7770",
"}. 	c #B16266",
"|. 	c #AD5F63",
"1. 	c #A9575B",
"2. 	c #A25158",
"3. 	c #A1595E",
"4. 	c #99535A",
"5. 	c #312E31",
"6. 	c #444059",
"7. 	c #564F69",
"8. 	c #AA7178",
"9. 	c #211818",
"0. 	c #D7C799",
"a. 	c #985C62",
"b. 	c #A25D66",
"c. 	c #A35D65",
"d. 	c #AB656D",
"e. 	c #B4696D",
"f. 	c #A65E67",
"g. 	c #A66063",
"h. 	c #B2656A",
"i. 	c #B56668",
"j. 	c #BE6B6F",
"k. 	c #C37375",
"l. 	c #B15C62",
"m. 	c #B76265",
"n. 	c #CA636D",
"o. 	c #BF656D",
"p. 	c #C4696F",
"q. 	c #C56972",
"r. 	c #CE7B7A",
"s. 	c #C36C72",
"t. 	c #D07C84",
"u. 	c #C37378",
"v. 	c #C37474",
"w. 	c #C07075",
"x. 	c #C87C7B",
"y. 	c #CA7B7F",
"z. 	c #C97B7E",
"A. 	c #D18088",
"B. 	c #BF7678",
"C. 	c #C4787E",
"D. 	c #CA7D82",
"E. 	c #BF7A7D",
"F. 	c #C3767E",
"G. 	c #CA7980",
"H. 	c #CC7E81",
"I. 	c #C47979",
"J. 	c #C47679",
"K. 	c #C77C7F",
"L. 	c #C3757C",
"M. 	c #C0787B",
"N. 	c #C88382",
"O. 	c #BA7077",
"P. 	c #B87574",
"Q. 	c #BC7674",
"R. 	c #BF7778",
"S. 	c #BD767A",
"T. 	c #B57876",
"U. 	c #B77071",
"V. 	c #B66A6D",
"W. 	c #C47A7C",
"X. 	c #AB6869",
"Y. 	c #A85D62",
"Z. 	c #AB6063",
"`. 	c #A44F57",
" + 	c #A55058",
".+ 	c #A3515A",
"++ 	c #A06B64",
"@+ 	c #B5A781",
"#+ 	c #2F1F22",
"$+ 	c #3F384B",
"%+ 	c #52475F",
"&+ 	c #B9AC8B",
"*+ 	c #A2606A",
"=+ 	c #A25B65",
"-+ 	c #A25862",
";+ 	c #AC5A63",
">+ 	c #AC5962",
",+ 	c #B16C66",
"'+ 	c #B06A61",
")+ 	c #A95D5A",
"!+ 	c #AD5D5B",
"~+ 	c #B46768",
"{+ 	c #B16A68",
"]+ 	c #BC7166",
"^+ 	c #BA746E",
"/+ 	c #BA6369",
"(+ 	c #BD6E71",
"_+ 	c #B8666D",
":+ 	c #BA7375",
"<+ 	c #BA6B74",
"[+ 	c #BE7276",
"}+ 	c #C07978",
"|+ 	c #CA8880",
"1+ 	c #C4767C",
"2+ 	c #C97D7F",
"3+ 	c #CA8182",
"4+ 	c #BA7477",
"5+ 	c #C78481",
"6+ 	c #D38688",
"7+ 	c #C57F7B",
"8+ 	c #BC7A7B",
"9+ 	c #E19091",
"0+ 	c #C27582",
"a+ 	c #CF8488",
"b+ 	c #CD8481",
"c+ 	c #D58584",
"d+ 	c #C37F7E",
"e+ 	c #C27D80",
"f+ 	c #DA988D",
"g+ 	c #C4827E",
"h+ 	c #D7898C",
"i+ 	c #D28B8D",
"j+ 	c #D28586",
"k+ 	c #D2828A",
"l+ 	c #D2878A",
"m+ 	c #CA7E84",
"n+ 	c #DE9091",
"o+ 	c #E09293",
"p+ 	c #DA908B",
"q+ 	c #CD8087",
"r+ 	c #C9827F",
"s+ 	c #EBA095",
"t+ 	c #CC8482",
"u+ 	c #BC6C74",
"v+ 	c #BE7172",
"w+ 	c #BE6C6F",
"x+ 	c #D37E7D",
"y+ 	c #AC545D",
"z+ 	c #A3585A",
"A+ 	c #AB545D",
"B+ 	c #A76163",
"C+ 	c #BDAF87",
"D+ 	c #7B4F53",
"E+ 	c #966169",
"F+ 	c #9D666F",
"G+ 	c #C3848D",
"H+ 	c #C98892",
"I+ 	c #493134",
"J+ 	c #C1B28A",
"K+ 	c #A96A6E",
"L+ 	c #B16A74",
"M+ 	c #A25E64",
"N+ 	c #A9636A",
"O+ 	c #A76267",
"P+ 	c #B06364",
"Q+ 	c #A7535D",
"R+ 	c #BB7170",
"S+ 	c #D28282",
"T+ 	c #AD575E",
"U+ 	c #B45B60",
"V+ 	c #B46867",
"W+ 	c #B06066",
"X+ 	c #BD636C",
"Y+ 	c #BB6469",
"Z+ 	c #BF676A",
"`+ 	c #BE636E",
" @ 	c #C66C74",
".@ 	c #C36971",
"+@ 	c #C97C7C",
"@@ 	c #C16C77",
"#@ 	c #D17F81",
"$@ 	c #BF7A79",
"%@ 	c #CC7A75",
"&@ 	c #D6868C",
"*@ 	c #C6747E",
"=@ 	c #BF6F76",
"-@ 	c #C87B7F",
";@ 	c #CA8581",
">@ 	c #C77B7F",
",@ 	c #C2757B",
"'@ 	c #D17781",
")@ 	c #C97A80",
"!@ 	c #C5757A",
"~@ 	c #CA767D",
"{@ 	c #C67C79",
"]@ 	c #CB7A80",
"^@ 	c #C1756B",
"/@ 	c #C8797A",
"(@ 	c #C5787C",
"_@ 	c #CF7D7D",
":@ 	c #BE7A78",
"<@ 	c #CA7A76",
"[@ 	c #C27A78",
"}@ 	c #AF686B",
"|@ 	c #B67273",
"1@ 	c #AC6667",
"2@ 	c #B86F6E",
"3@ 	c #AB6667",
"4@ 	c #AB5A5E",
"5@ 	c #A35158",
"6@ 	c #A35A5C",
"7@ 	c #9E6661",
"8@ 	c #AB9E7A",
"9@ 	c #B4737C",
"0@ 	c #BE7C85",
"a@ 	c #B97982",
"b@ 	c #BF7D87",
"c@ 	c #774E54",
"d@ 	c #D9C99B",
"e@ 	c #A6606A",
"f@ 	c #A65D67",
"g@ 	c #A45A63",
"h@ 	c #AA5D64",
"i@ 	c #B26968",
"j@ 	c #AC565E",
"k@ 	c #AB665F",
"l@ 	c #A85658",
"m@ 	c #BC746E",
"n@ 	c #B76667",
"o@ 	c #C77F79",
"p@ 	c #B56365",
"q@ 	c #B86767",
"r@ 	c #B46066",
"s@ 	c #B56A6D",
"t@ 	c #BA7674",
"u@ 	c #B76E73",
"v@ 	c #CC797D",
"w@ 	c #C37476",
"x@ 	c #D78986",
"y@ 	c #C27679",
"z@ 	c #CA7E83",
"A@ 	c #CB807E",
"B@ 	c #C57B7D",
"C@ 	c #C5807D",
"D@ 	c #DA8D8F",
"E@ 	c #CE8281",
"F@ 	c #D28A8A",
"G@ 	c #D08583",
"H@ 	c #C87E7A",
"I@ 	c #C97E82",
"J@ 	c #D38B8B",
"K@ 	c #CA8081",
"L@ 	c #D58D8A",
"M@ 	c #D38C8C",
"N@ 	c #D48685",
"O@ 	c #D18D88",
"P@ 	c #E18E8F",
"Q@ 	c #E3918F",
"R@ 	c #CA7F82",
"S@ 	c #DD8A8F",
"T@ 	c #CA8085",
"U@ 	c #CC8583",
"V@ 	c #F19C9F",
"W@ 	c #E39B94",
"X@ 	c #D0827F",
"Y@ 	c #E59892",
"Z@ 	c #DA8E88",
"`@ 	c #C6817E",
" # 	c #BD6E70",
".# 	c #B8696C",
"+# 	c #B66568",
"@# 	c #A65559",
"## 	c #A4515A",
"$# 	c #9D575C",
"%# 	c #B7A882",
"&# 	c #8E5C61",
"*# 	c #C38089",
"=# 	c #C07F89",
"-# 	c #CA8892",
";# 	c #D7959F",
"># 	c #D6959F",
",# 	c #D4939D",
"'# 	c #845A60",
")# 	c #B39B7C",
"!# 	c #A06C6B",
"~# 	c #B26B70",
"{# 	c #A55E64",
"]# 	c #B85F6B",
"^# 	c #AE696C",
"/# 	c #B0666A",
"(# 	c #B56B6B",
"_# 	c #C47A77",
":# 	c #B26066",
"<# 	c #BB6A6B",
"[# 	c #B15E61",
"}# 	c #B7686D",
"|# 	c #BC6269",
"1# 	c #B85E64",
"2# 	c #C16C71",
"3# 	c #B76267",
"4# 	c #C0696F",
"5# 	c #C36670",
"6# 	c #BE7475",
"7# 	c #C16C74",
"8# 	c #C77780",
"9# 	c #C3767C",
"0# 	c #DA858E",
"a# 	c #C37177",
"b# 	c #C8777B",
"c# 	c #C57276",
"d# 	c #CB727D",
"e# 	c #CC8385",
"f# 	c #CC727B",
"g# 	c #CB727B",
"h# 	c #C9787C",
"i# 	c #C67177",
"j# 	c #C87377",
"k# 	c #C6767B",
"l# 	c #C17176",
"m# 	c #C17079",
"n# 	c #C87F7D",
"o# 	c #CA7580",
"p# 	c #BE7079",
"q# 	c #C87C83",
"r# 	c #BD7778",
"s# 	c #C7787A",
"t# 	c #C77D83",
"u# 	c #BC6F75",
"v# 	c #B87572",
"w# 	c #AF676B",
"x# 	c #B66970",
"y# 	c #B06165",
"z# 	c #AC6061",
"A# 	c #AE6163",
"B# 	c #AE6860",
"C# 	c #9B5F58",
"D# 	c #AEA07C",
"E# 	c #B1747C",
"F# 	c #CB8891",
"G# 	c #C6858F",
"H# 	c #CC8A94",
"I# 	c #CA8992",
"J# 	c #312124",
"K# 	c #D5C497",
"L# 	c #AA616C",
"M# 	c #A55F65",
"N# 	c #A85E63",
"O# 	c #A45B60",
"P# 	c #A5595E",
"Q# 	c #AC6265",
"R# 	c #B67068",
"S# 	c #B25961",
"T# 	c #B76A67",
"U# 	c #B66564",
"V# 	c #BE6F6B",
"W# 	c #BD6D6D",
"X# 	c #B76B65",
"Y# 	c #BD7375",
"Z# 	c #BB6C72",
"`# 	c #B4676D",
" $ 	c #BE6F76",
".$ 	c #BD6E72",
"+$ 	c #C47379",
"@$ 	c #CC7C81",
"#$ 	c #D28786",
"$$ 	c #C5747B",
"%$ 	c #D2897B",
"&$ 	c #CF8882",
"*$ 	c #CB8C88",
"=$ 	c #D58688",
"-$ 	c #CF8A87",
";$ 	c #CD797F",
">$ 	c #CA8080",
",$ 	c #CF8282",
"'$ 	c #C57E80",
")$ 	c #BE7879",
"!$ 	c #CF8583",
"~$ 	c #DF928D",
"{$ 	c #C8837F",
"]$ 	c #D08A85",
"^$ 	c #CB8281",
"/$ 	c #D78287",
"($ 	c #E0938C",
"_$ 	c #D48A8D",
":$ 	c #C88283",
"<$ 	c #E18F91",
"[$ 	c #E69A9A",
"}$ 	c #D08788",
"|$ 	c #CC7C7D",
"1$ 	c #D17F77",
"2$ 	c #D99089",
"3$ 	c #C37676",
"4$ 	c #CF7E80",
"5$ 	c #D1817B",
"6$ 	c #C0716E",
"7$ 	c #B26266",
"8$ 	c #A55259",
"9$ 	c #9F595C",
"0$ 	c #BCAF86",
"a$ 	c #A36A71",
"b$ 	c #CB8690",
"c$ 	c #C88891",
"d$ 	c #D4919B",
"e$ 	c #D6949E",
"f$ 	c #DB9AA4",
"g$ 	c #E2A0A9",
"h$ 	c #CA8E95",
"i$ 	c #DD9CA6",
"j$ 	c #B47F87",
"k$ 	c #9A8E6D",
"l$ 	c #AE7973",
"m$ 	c #A35B64",
"n$ 	c #9F5A62",
"o$ 	c #AC6169",
"p$ 	c #A86366",
"q$ 	c #BC7575",
"r$ 	c #CD8080",
"s$ 	c #B46568",
"t$ 	c #B36868",
"u$ 	c #B15660",
"v$ 	c #BB6868",
"w$ 	c #B8585E",
"x$ 	c #BC5F64",
"y$ 	c #B86566",
"z$ 	c #C97676",
"A$ 	c #B86067",
"B$ 	c #C86B76",
"C$ 	c #C57477",
"D$ 	c #B76C6F",
"E$ 	c #C27378",
"F$ 	c #CF8188",
"G$ 	c #D38584",
"H$ 	c #C37076",
"I$ 	c #C67176",
"J$ 	c #C87074",
"K$ 	c #CC767F",
"L$ 	c #CE7B81",
"M$ 	c #DD7A85",
"N$ 	c #C77279",
"O$ 	c #C47575",
"P$ 	c #C57077",
"Q$ 	c #BE6C61",
"R$ 	c #BF7574",
"S$ 	c #BD6C74",
"T$ 	c #C27078",
"U$ 	c #C4797A",
"V$ 	c #CF7F7E",
"W$ 	c #C2787D",
"X$ 	c #C8847E",
"Y$ 	c #C47877",
"Z$ 	c #B96A70",
"`$ 	c #AD6367",
" % 	c #B26969",
".% 	c #B05F63",
"+% 	c #B6716E",
"@% 	c #A26261",
"#% 	c #AB9070",
"$% 	c #946268",
"%% 	c #BD7E86",
"&% 	c #D28C97",
"*% 	c #CC8B95",
"=% 	c #D7959E",
"-% 	c #D895A0",
";% 	c #CF8F98",
">% 	c #CC8E96",
",% 	c #251B1A",
"'% 	c #D6C79A",
")% 	c #AD626D",
"!% 	c #AC5E68",
"~% 	c #AA5A65",
"{% 	c #AB5B63",
"]% 	c #AB5860",
"^% 	c #AE6464",
"/% 	c #B25F60",
"(% 	c #BF6A68",
"_% 	c #BD6D6B",
":% 	c #BE696C",
"<% 	c #BE706E",
"[% 	c #B26569",
"}% 	c #B76767",
"|% 	c #C27372",
"1% 	c #C27677",
"2% 	c #B8686B",
"3% 	c #C27479",
"4% 	c #CB7F7F",
"5% 	c #CB7779",
"6% 	c #C56E76",
"7% 	c #CB787C",
"8% 	c #CA8082",
"9% 	c #DE8990",
"0% 	c #C0797D",
"a% 	c #C78174",
"b% 	c #D68F8C",
"c% 	c #CF8783",
"d% 	c #D58781",
"e% 	c #CA757B",
"f% 	c #CD7E81",
"g% 	c #D48587",
"h% 	c #D17983",
"i% 	c #CA7A7F",
"j% 	c #D38682",
"k% 	c #D78C85",
"l% 	c #DB8C8E",
"m% 	c #C9767C",
"n% 	c #C87D7F",
"o% 	c #D28086",
"p% 	c #C9777D",
"q% 	c #DA9291",
"r% 	c #CB8482",
"s% 	c #D18082",
"t% 	c #CB797C",
"u% 	c #C77D7D",
"v% 	c #C36F71",
"w% 	c #CD817F",
"x% 	c #B45F66",
"y% 	c #B56267",
"z% 	c #AC595F",
"A% 	c #A4535C",
"B% 	c #B7A982",
"C% 	c #A26A70",
"D% 	c #C3828B",
"E% 	c #D6909A",
"F% 	c #DA96A0",
"G% 	c #DE9BA5",
"H% 	c #E19EA9",
"I% 	c #DF9DA7",
"J% 	c #D5969E",
"K% 	c #D3959B",
"L% 	c #D1949B",
"M% 	c #CD919A",
"N% 	c #C78C92",
"O% 	c #83765E",
"P% 	c #A88372",
"Q% 	c #A05C62",
"R% 	c #BC7373",
"S% 	c #AF666A",
"T% 	c #BE7577",
"U% 	c #BE7370",
"V% 	c #B35D61",
"W% 	c #B76B67",
"X% 	c #B66369",
"Y% 	c #B76666",
"Z% 	c #B55F64",
"`% 	c #B4575F",
" & 	c #B95B62",
".& 	c #BC6467",
"+& 	c #B97270",
"@& 	c #BD5F69",
"#& 	c #B9686F",
"$& 	c #C0656D",
"%& 	c #C87577",
"&& 	c #B96C71",
"*& 	c #CC7F81",
"=& 	c #CF8582",
"-& 	c #C17275",
";& 	c #CB7B78",
">& 	c #C66C72",
",& 	c #CA6C77",
"'& 	c #C86D77",
")& 	c #C77178",
"!& 	c #C8747A",
"~& 	c #BE6970",
"{& 	c #C16D6E",
"]& 	c #B86763",
"^& 	c #C07B76",
"/& 	c #BC7273",
"(& 	c #C26D76",
"_& 	c #C47779",
":& 	c #C7767C",
"<& 	c #BC6A6F",
"[& 	c #BE6A72",
"}& 	c #C27A79",
"|& 	c #BC636B",
"1& 	c #AF6464",
"2& 	c #C77677",
"3& 	c #B05E66",
"4& 	c #A95F64",
"5& 	c #B16A6D",
"6& 	c #B4A37F",
"7& 	c #825655",
"8& 	c #C4828B",
"9& 	c #CC8A93",
"0& 	c #DA959F",
"a& 	c #DE99A3",
"b& 	c #E09BA6",
"c& 	c #E29FA9",
"d& 	c #E09EA8",
"e& 	c #D0929C",
"f& 	c #DB99A3",
"g& 	c #2D2321",
"h& 	c #CFBF95",
"i& 	c #A35D66",
"j& 	c #AE5E68",
"k& 	c #AE5C66",
"l& 	c #AA5A61",
"m& 	c #AE6265",
"n& 	c #B0595D",
"o& 	c #BA696C",
"p& 	c #BB6769",
"q& 	c #C77A73",
"r& 	c #B66E71",
"s& 	c #B76164",
"t& 	c #B8666A",
"u& 	c #B96F6E",
"v& 	c #BD6C72",
"w& 	c #B96B70",
"x& 	c #C17073",
"y& 	c #B97977",
"z& 	c #D37B82",
"A& 	c #C27072",
"B& 	c #C7757B",
"C& 	c #BB7676",
"D& 	c #CA8B88",
"E& 	c #C57479",
"F& 	c #C88884",
"G& 	c #D7928F",
"H& 	c #CB8880",
"I& 	c #C67378",
"J& 	c #BD7376",
"K& 	c #C87779",
"L& 	c #CA787D",
"M& 	c #D68289",
"N& 	c #E28F8E",
"O& 	c #D68689",
"P& 	c #CE8880",
"Q& 	c #DA8885",
"R& 	c #D88686",
"S& 	c #CB817F",
"T& 	c #CB7E83",
"U& 	c #CD807F",
"V& 	c #BA7072",
"W& 	c #CA7C7B",
"X& 	c #CA7B7C",
"Y& 	c #CF7F7A",
"Z& 	c #D0817E",
"`& 	c #D68C87",
" * 	c #D48384",
".* 	c #C06E71",
"+* 	c #AA545D",
"@* 	c #BA6E71",
"#* 	c #BAA282",
"$* 	c #905E64",
"%* 	c #C88890",
"&* 	c #DD97A2",
"** 	c #E39DA7",
"=* 	c #DE9CA7",
"-* 	c #D4959D",
";* 	c #E6A2AB",
">* 	c #E5A0AA",
",* 	c #E4A0A8",
"'* 	c #EAA5AE",
")* 	c #E09DA6",
"!* 	c #D1939A",
"~* 	c #D3949D",
"{* 	c #776754",
"]* 	c #AF8C75",
"^* 	c #A35D63",
"/* 	c #C27D7E",
"(* 	c #AF696C",
"_* 	c #B36969",
":* 	c #B9636C",
"<* 	c #B36568",
"[* 	c #B96B71",
"}* 	c #B76466",
"|* 	c #B86367",
"1* 	c #BD5963",
"2* 	c #B65E61",
"3* 	c #C26C68",
"4* 	c #BE6F6A",
"5* 	c #B56968",
"6* 	c #C4626A",
"7* 	c #B6666B",
"8* 	c #C46E72",
"9* 	c #CA7376",
"0* 	c #D07D81",
"a* 	c #CC7E79",
"b* 	c #CC7F7A",
"c* 	c #C46D75",
"d* 	c #C56B76",
"e* 	c #D66D78",
"f* 	c #C76973",
"g* 	c #C76872",
"h* 	c #CD6A75",
"i* 	c #CA7279",
"j* 	c #BB6467",
"k* 	c #C0726E",
"l* 	c #C2756C",
"m* 	c #BF6A72",
"n* 	c #C97C7E",
"o* 	c #BF6B6F",
"p* 	c #BC7073",
"q* 	c #B06065",
"r* 	c #BC7574",
"s* 	c #BA6C6B",
"t* 	c #AD5960",
"u* 	c #AB5761",
"v* 	c #B76A71",
"w* 	c #A75F63",
"x* 	c #B9A183",
"y* 	c #795152",
"z* 	c #C7838C",
"A* 	c #C3838B",
"B* 	c #C98990",
"C* 	c #E29BA6",
"D* 	c #E6A0AB",
"E* 	c #E9A4AF",
"F* 	c #DA99A3",
"G* 	c #D797A0",
"H* 	c #D5979B",
"I* 	c #CF9298",
"J* 	c #E19FA9",
"K* 	c #28201D",
"L* 	c #D2C295",
"M* 	c #B2636E",
"N* 	c #B0606A",
"O* 	c #B35E68",
"P* 	c #B25B63",
"Q* 	c #B2635F",
"R* 	c #B76063",
"S* 	c #BB696D",
"T* 	c #C27273",
"U* 	c #C26E6E",
"V* 	c #BB716F",
"W* 	c #BC6E72",
"X* 	c #C27371",
"Y* 	c #B56868",
"Z* 	c #B85E68",
"`* 	c #B9666C",
" = 	c #BB676C",
".= 	c #CB847F",
"+= 	c #C8797E",
"@= 	c #BC6E69",
"#= 	c #C47479",
"$= 	c #D38687",
"%= 	c #D08888",
"&= 	c #CC8C87",
"*= 	c #C48082",
"== 	c #C8807B",
"-= 	c #C17177",
";= 	c #D08084",
">= 	c #C97E7C",
",= 	c #C9757C",
"'= 	c #DB8780",
")= 	c #CC867F",
"!= 	c #DB8B83",
"~= 	c #C87A7D",
"{= 	c #D18486",
"]= 	c #CF7B7E",
"^= 	c #C87578",
"/= 	c #D58388",
"(= 	c #CC7C83",
"_= 	c #C26F76",
":= 	c #DF908E",
"<= 	c #B46868",
"[= 	c #CA7A7A",
"}= 	c #CD7B7B",
"|= 	c #B96A6E",
"1= 	c #E38F90",
"2= 	c #AE6065",
"3= 	c #A7585E",
"4= 	c #BDA283",
"5= 	c #88595E",
"6= 	c #C5818A",
"7= 	c #D38C97",
"8= 	c #D8939D",
"9= 	c #D6939D",
"0= 	c #E29EA8",
"a= 	c #D6969E",
"b= 	c #E9A3AC",
"c= 	c #E9A3AB",
"d= 	c #E7A1A8",
"e= 	c #EFA7AE",
"f= 	c #EDA6AF",
"g= 	c #DD9AA4",
"h= 	c #E19EA8",
"i= 	c #E5A2AC",
"j= 	c #615845",
"k= 	c #BB967F",
"l= 	c #B36C71",
"m= 	c #D18785",
"n= 	c #B76F70",
"o= 	c #BB7173",
"p= 	c #C07374",
"q= 	c #B26269",
"r= 	c #C8787F",
"s= 	c #BD6369",
"t= 	c #B7676B",
"u= 	c #BC5A64",
"v= 	c #B3605F",
"w= 	c #CC7D76",
"x= 	c #BF6E72",
"y= 	c #B66767",
"z= 	c #BD6B6D",
"A= 	c #C27976",
"B= 	c #D88983",
"C= 	c #CA7D7D",
"D= 	c #CD7D78",
"E= 	c #C9757B",
"F= 	c #BE686F",
"G= 	c #CA777D",
"H= 	c #CF6A75",
"I= 	c #D56E79",
"J= 	c #C36A71",
"K= 	c #CC7277",
"L= 	c #C36A72",
"M= 	c #C97075",
"N= 	c #C16B68",
"O= 	c #C26E6B",
"P= 	c #C27670",
"Q= 	c #BF6D73",
"R= 	c #C8767A",
"S= 	c #C3716E",
"T= 	c #C68179",
"U= 	c #B56D6D",
"V= 	c #B86C6C",
"W= 	c #AC5A61",
"X= 	c #AB5E62",
"Y= 	c #AD6169",
"Z= 	c #BA9E82",
"`= 	c #755150",
" - 	c #C17D80",
".- 	c #C7848C",
"+- 	c #C6858B",
"@- 	c #CE8E96",
"#- 	c #E9A2AD",
"$- 	c #EEA7B2",
"%- 	c #EEA7B1",
"&- 	c #DD9BA5",
"*- 	c #ECA6AF",
"=- 	c #D6959D",
"-- 	c #E8A4AD",
";- 	c #E4A1AC",
">- 	c #201A18",
",- 	c #D7C79A",
"'- 	c #A95F69",
")- 	c #AC5E67",
"!- 	c #AF5D65",
"~- 	c #AB5B64",
"{- 	c #CB7879",
"]- 	c #C57571",
"^- 	c #C07271",
"/- 	c #BE7173",
"(- 	c #B6686B",
"_- 	c #B55C63",
":- 	c #B46065",
"<- 	c #B76167",
"[- 	c #BA5E66",
"}- 	c #BC676C",
"|- 	c #BB676D",
"1- 	c #C97C75",
"2- 	c #D47F78",
"3- 	c #BF6B71",
"4- 	c #C86F75",
"5- 	c #D27B83",
"6- 	c #DB8E8C",
"7- 	c #D2857F",
"8- 	c #CA8280",
"9- 	c #C8827C",
"0- 	c #C97478",
"a- 	c #C57D7B",
"b- 	c #C77979",
"c- 	c #C97278",
"d- 	c #D1847E",
"e- 	c #CF7C7F",
"f- 	c #C67679",
"g- 	c #D27F82",
"h- 	c #CE837C",
"i- 	c #BB6F72",
"j- 	c #CB7A7C",
"k- 	c #E28D91",
"l- 	c #E29390",
"m- 	c #C17775",
"n- 	c #D2847F",
"o- 	c #D27A78",
"p- 	c #C37573",
"q- 	c #CE787B",
"r- 	c #C87B79",
"s- 	c #CB757B",
"t- 	c #B6666A",
"u- 	c #C6A789",
"v- 	c #9A626A",
"w- 	c #CB8992",
"x- 	c #D38E98",
"y- 	c #DF99A3",
"z- 	c #E39DA8",
"A- 	c #E8A3AD",
"B- 	c #DF9DA5",
"C- 	c #E7A1A9",
"D- 	c #E6A1AA",
"E- 	c #EBA4AC",
"F- 	c #F3A8AF",
"G- 	c #E8A0A7",
"H- 	c #E8A2AB",
"I- 	c #EFA7B1",
"J- 	c #DB9AA3",
"K- 	c #DE9CA6",
"L- 	c #574C3D",
"M- 	c #B79D7F",
"N- 	c #B16768",
"O- 	c #B66F70",
"P- 	c #B5686E",
"Q- 	c #B6636B",
"R- 	c #B4646C",
"S- 	c #CC7C80",
"T- 	c #B35A62",
"U- 	c #B35E62",
"V- 	c #B55B61",
"W- 	c #C86C64",
"X- 	c #C5736A",
"Y- 	c #B56068",
"Z- 	c #B3686A",
"`- 	c #B36C6D",
" ; 	c #B06B6B",
".; 	c #D1797E",
"+; 	c #C57E78",
"@; 	c #BD7B7C",
"#; 	c #C67369",
"$; 	c #C37371",
"%; 	c #C67377",
"&; 	c #C8777D",
"*; 	c #C6777B",
"=; 	c #BF686F",
"-; 	c #C0676E",
";; 	c #C36B72",
">; 	c #C3666F",
",; 	c #D16A75",
"'; 	c #CA6671",
"); 	c #BF6A6F",
"!; 	c #BF6C6C",
"~; 	c #BC646A",
"{; 	c #CD817D",
"]; 	c #BF7073",
"^; 	c #BF7572",
"/; 	c #BF726F",
"(; 	c #B2676B",
"_; 	c #B36668",
":; 	c #AA6064",
"<; 	c #AD6366",
"[; 	c #A75F64",
"}; 	c #BDA486",
"|; 	c #593E3E",
"1; 	c #C38086",
"2; 	c #D48B95",
"3; 	c #D38D97",
"4; 	c #D6919A",
"5; 	c #E49DA8",
"6; 	c #E9A3AE",
"7; 	c #F2AAB5",
"8; 	c #DC98A2",
"9; 	c #E29EA7",
"0; 	c #E19EA6",
"a; 	c #DB99A0",
"b; 	c #E3A0A8",
"c; 	c #EBA5AF",
"d; 	c #1D1714",
"e; 	c #C3B18A",
"f; 	c #AF5F6A",
"g; 	c #B25F69",
"h; 	c #BE6E71",
"i; 	c #C1706C",
"j; 	c #B05B63",
"k; 	c #BE7374",
"l; 	c #B36267",
"m; 	c #B35F64",
"n; 	c #B25D61",
"o; 	c #BB6E6D",
"p; 	c #B66065",
"q; 	c #B96268",
"r; 	c #BC7573",
"s; 	c #CF7D7A",
"t; 	c #D28585",
"u; 	c #BC7171",
"v; 	c #BB676E",
"w; 	c #C4797D",
"x; 	c #BC7B7B",
"y; 	c #CC827B",
"z; 	c #C08178",
"A; 	c #C87F7E",
"B; 	c #BA7172",
"C; 	c #BC7474",
"D; 	c #CD807B",
"E; 	c #D18078",
"F; 	c #E18C85",
"G; 	c #D2827E",
"H; 	c #DD8E87",
"I; 	c #C36C73",
"J; 	c #DA8686",
"K; 	c #CB7375",
"L; 	c #C56E6F",
"M; 	c #E29189",
"N; 	c #D18182",
"O; 	c #C66E75",
"P; 	c #BD666E",
"Q; 	c #BA616A",
"R; 	c #DF887A",
"S; 	c #C77777",
"T; 	c #AC5A60",
"U; 	c #C27477",
"V; 	c #C2A488",
"W; 	c #7D5454",
"X; 	c #CB838C",
"Y; 	c #C9838E",
"Z; 	c #D58F9A",
"`; 	c #E79CA7",
" > 	c #DA969F",
".> 	c #E8A1AC",
"+> 	c #E49FAA",
"@> 	c #E29DA4",
"#> 	c #E19DA2",
"$> 	c #E09EA4",
"%> 	c #E09CA1",
"&> 	c #EFA6AE",
"*> 	c #F6ABB3",
"=> 	c #F4ABB3",
"-> 	c #F3ABB4",
";> 	c #F0A9B2",
">> 	c #E3A0AA",
",> 	c #D6979B",
"'> 	c #806456",
")> 	c #B79D7C",
"!> 	c #BD7675",
"~> 	c #C07A74",
"{> 	c #AC5F66",
"]> 	c #B96971",
"^> 	c #B4616C",
"/> 	c #BE797C",
"(> 	c #BC696D",
"_> 	c #BB5862",
":> 	c #B2575E",
"<> 	c #B66567",
"[> 	c #C97473",
"}> 	c #C67674",
"|> 	c #B26164",
"1> 	c #C57B78",
"2> 	c #BB7477",
"3> 	c #B96467",
"4> 	c #C8746A",
"5> 	c #B9666A",
"6> 	c #C26F77",
"7> 	c #CC7777",
"8> 	c #C9797C",
"9> 	c #BE626B",
"0> 	c #BB656D",
"a> 	c #C16C6F",
"b> 	c #C0636B",
"c> 	c #B86369",
"d> 	c #B85E65",
"e> 	c #B76362",
"f> 	c #B95E63",
"g> 	c #B75F65",
"h> 	c #CA7378",
"i> 	c #B96261",
"j> 	c #BC686A",
"k> 	c #BC746B",
"l> 	c #B16465",
"m> 	c #AC6865",
"n> 	c #A5595D",
"o> 	c #C9A58E",
"p> 	c #835E59",
"q> 	c #C47D86",
"r> 	c #C17D86",
"s> 	c #C78789",
"t> 	c #D5909A",
"u> 	c #EDA2AD",
"v> 	c #C98A8E",
"w> 	c #EAA2AE",
"x> 	c #ECA5B1",
"y> 	c #DC989E",
"z> 	c #DC9E9F",
"A> 	c #DE9CA3",
"B> 	c #DD9BA0",
"C> 	c #D59191",
"D> 	c #DD999F",
"E> 	c #CA8D91",
"F> 	c #D3969C",
"G> 	c #EAA5AF",
"H> 	c #281F1D",
"I> 	c #DCCC9D",
"J> 	c #AF606B",
"K> 	c #AD5E68",
"L> 	c #BE7377",
"M> 	c #D18887",
"N> 	c #BB6C67",
"O> 	c #B16261",
"P> 	c #B55961",
"Q> 	c #AF5E64",
"R> 	c #BB6268",
"S> 	c #BA6364",
"T> 	c #B3696B",
"U> 	c #B96F6F",
"V> 	c #C07275",
"W> 	c #C67776",
"X> 	c #BD7175",
"Y> 	c #C17574",
"Z> 	c #C37879",
"`> 	c #CE8785",
" , 	c #CE8480",
"., 	c #D18883",
"+, 	c #D78C88",
"@, 	c #BE7C77",
"#, 	c #B5706F",
"$, 	c #C6797F",
"%, 	c #CE8382",
"&, 	c #C97D76",
"*, 	c #BE6D71",
"=, 	c #D8837E",
"-, 	c #C87C7D",
";, 	c #C77579",
">, 	c #BE7071",
",, 	c #C16D70",
"', 	c #CC7B7A",
"), 	c #D38886",
"!, 	c #C16E71",
"~, 	c #D07A79",
"{, 	c #BA6366",
"], 	c #C8757A",
"^, 	c #D87F76",
"/, 	c #B76C6E",
"(, 	c #B2686A",
"_, 	c #C69D8A",
":, 	c #6E474B",
"<, 	c #C98089",
"[, 	c #CB848D",
"}, 	c #D18A91",
"|, 	c #D68F96",
"1, 	c #E39AA4",
"2, 	c #E19BA5",
"3, 	c #DB98A1",
"4, 	c #F8ADBA",
"5, 	c #E19CA5",
"6, 	c #E19EA1",
"7, 	c #F1A9B4",
"8, 	c #E29FA6",
"9, 	c #DF9B9D",
"0, 	c #F2A9B3",
"a, 	c #F9AEB8",
"b, 	c #F6ADB7",
"c, 	c #F5ABB5",
"d, 	c #E09C9B",
"e, 	c #D99A9E",
"f, 	c #5A4C40",
"g, 	c #C0A080",
"h, 	c #B15F6A",
"i, 	c #BA7075",
"j, 	c #AF5F68",
"k, 	c #CC797E",
"l, 	c #C2777C",
"m, 	c #BC676F",
"n, 	c #B55E64",
"o, 	c #B66366",
"p, 	c #C0716F",
"q, 	c #B75E65",
"r, 	c #B45D60",
"s, 	c #D78A80",
"t, 	c #BE726F",
"u, 	c #C46E71",
"v, 	c #BB6D71",
"w, 	c #BC6B6C",
"x, 	c #BF716A",
"y, 	c #C36C71",
"z, 	c #BA656B",
"A, 	c #B36A6C",
"B, 	c #C47372",
"C, 	c #B85F64",
"D, 	c #BC686B",
"E, 	c #B95C63",
"F, 	c #BE5862",
"G, 	c #BB6065",
"H, 	c #B45760",
"I, 	c #B76263",
"J, 	c #B56766",
"K, 	c #B65B64",
"L, 	c #C87675",
"M, 	c #BA7169",
"N, 	c #B16B6B",
"O, 	c #A96465",
"P, 	c #A3565D",
"Q, 	c #B6A581",
"R, 	c #70534E",
"S, 	c #C68183",
"T, 	c #BD7A82",
"U, 	c #C9898B",
"V, 	c #C6858C",
"W, 	c #D58F99",
"X, 	c #C98E91",
"Y, 	c #D18F98",
"Z, 	c #DF99A4",
"`, 	c #DC96A1",
" ' 	c #E6A3A6",
".' 	c #DFA0A2",
"+' 	c #F0ACAA",
"@' 	c #DE9C9B",
"#' 	c #DC9799",
"$' 	c #D9989A",
"%' 	c #DA999F",
"&' 	c #C88A8B",
"*' 	c #171112",
"=' 	c #E0D0A0",
"-' 	c #AE666E",
";' 	c #AE6068",
">' 	c #B3666C",
",' 	c #B15B63",
"'' 	c #AF5F65",
")' 	c #B16166",
"!' 	c #B55E65",
"~' 	c #B46466",
"{' 	c #BF7774",
"]' 	c #B56B6D",
"^' 	c #C97A7A",
"/' 	c #B8686C",
"(' 	c #B96E70",
"_' 	c #BF7A77",
":' 	c #BB7073",
"<' 	c #CE7E7B",
"[' 	c #C8817D",
"}' 	c #C77A78",
"|' 	c #CC817D",
"1' 	c #C27877",
"2' 	c #CD787C",
"3' 	c #C47579",
"4' 	c #C27776",
"5' 	c #C36972",
"6' 	c #C77375",
"7' 	c #CD807E",
"8' 	c #CB7E7E",
"9' 	c #D08081",
"0' 	c #C87A77",
"a' 	c #DB8E87",
"b' 	c #D18481",
"c' 	c #C97673",
"d' 	c #C37572",
"e' 	c #B86063",
"f' 	c #B75C62",
"g' 	c #C36D6A",
"h' 	c #C47275",
"i' 	c #CF7F84",
"j' 	c #BB9883",
"k' 	c #3B2A29",
"l' 	c #C77E88",
"m' 	c #C57E87",
"n' 	c #D38A93",
"o' 	c #DA909B",
"p' 	c #D7919B",
"q' 	c #EFA2AD",
"r' 	c #F3A6B2",
"s' 	c #DD9BA3",
"t' 	c #F1A8B3",
"u' 	c #E7A1AA",
"v' 	c #E29FA5",
"w' 	c #E9A4AE",
"x' 	c #E5A2A5",
"y' 	c #E29EA0",
"z' 	c #E7A2AA",
"A' 	c #F3AAB5",
"B' 	c #D19296",
"C' 	c #F8ADB8",
"D' 	c #DD9CA3",
"E' 	c #E29DA2",
"F' 	c #795E4F",
"G' 	c #BDA384",
"H' 	c #AB606A",
"I' 	c #BB6D76",
"J' 	c #AE5F69",
"K' 	c #C06C78",
"L' 	c #C07C77",
"M' 	c #BD6D70",
"N' 	c #B76268",
"O' 	c #D78A81",
"P' 	c #BC5B65",
"Q' 	c #CA7477",
"R' 	c #C26D6A",
"S' 	c #BF6A6A",
"T' 	c #D8867D",
"U' 	c #B96E71",
"V' 	c #D1747A",
"W' 	c #CF7A82",
"X' 	c #D17C7C",
"Y' 	c #C46A70",
"Z' 	c #BB585E",
"`' 	c #BF636C",
" ) 	c #BA5961",
".) 	c #CA7171",
"+) 	c #B86065",
"@) 	c #B75C63",
"#) 	c #C0666A",
"$) 	c #B15860",
"%) 	c #B35963",
"&) 	c #B26060",
"*) 	c #B76361",
"=) 	c #BE6F6C",
"-) 	c #BC706D",
";) 	c #B06867",
">) 	c #A86465",
",) 	c #B49B79",
"') 	c #7D5E57",
")) 	c #C47D82",
"!) 	c #CD818B",
"~) 	c #CC838C",
"{) 	c #C6828A",
"]) 	c #D08B93",
"^) 	c #CF8A93",
"/) 	c #CD8B92",
"() 	c #DA9A9C",
"_) 	c #D8969B",
":) 	c #F4AEAB",
"<) 	c #E09FA3",
"[) 	c #DF9EA2",
"}) 	c #E1A0A2",
"|) 	c #E59E9F",
"1) 	c #E9A4A4",
"2) 	c #D89997",
"3) 	c #D7989D",
"4) 	c #E6A1A9",
"5) 	c #D9989F",
"6) 	c #2C1F1F",
"7) 	c #DBCB9D",
"8) 	c #AB616B",
"9) 	c #AD5F69",
"0) 	c #B1666B",
"a) 	c #B6676F",
"b) 	c #B6676D",
"c) 	c #B46167",
"d) 	c #AF6167",
"e) 	c #BA6568",
"f) 	c #B26166",
"g) 	c #BA6D6E",
"h) 	c #BE6C70",
"i) 	c #BD7473",
"j) 	c #D48A85",
"k) 	c #AE5E63",
"l) 	c #C87773",
"m) 	c #B4686C",
"n) 	c #C4766E",
"o) 	c #C87D79",
"p) 	c #C97E7B",
"q) 	c #BF7471",
"r) 	c #BA7774",
"s) 	c #C17776",
"t) 	c #BE636B",
"u) 	c #C07174",
"v) 	c #B7626A",
"w) 	c #C26D73",
"x) 	c #BA6367",
"y) 	c #C77576",
"z) 	c #BC646B",
"A) 	c #CB7278",
"B) 	c #D57E86",
"C) 	c #DD8488",
"D) 	c #D27E79",
"E) 	c #BB6569",
"F) 	c #CE7E80",
"G) 	c #BE5863",
"H) 	c #B66267",
"I) 	c #B36163",
"J) 	c #B26469",
"K) 	c #BFA084",
"L) 	c #604742",
"M) 	c #D1848E",
"N) 	c #C47E86",
"O) 	c #D58893",
"P) 	c #D38A94",
"Q) 	c #DD939E",
"R) 	c #DC949E",
"S) 	c #F1A2AE",
"T) 	c #E49CA5",
"U) 	c #DB97A0",
"V) 	c #E39CA3",
"W) 	c #E49DA2",
"X) 	c #E6A2A6",
"Y) 	c #E9A3AD",
"Z) 	c #E49BA2",
"`) 	c #E7A3AB",
" ! 	c #EDA6B1",
".! 	c #DC9AA1",
"+! 	c #DA9AA1",
"@! 	c #DA9898",
"#! 	c #574839",
"$! 	c #C8A37C",
"%! 	c #AC606B",
"&! 	c #B46670",
"*! 	c #B96E6B",
"=! 	c #C57B7A",
"-! 	c #B06467",
";! 	c #BA666A",
">! 	c #CC807E",
",! 	c #D88781",
"'! 	c #C57470",
")! 	c #CD7678",
"!! 	c #BC7072",
"~! 	c #C57C7A",
"{! 	c #C7747D",
"]! 	c #D98886",
"^! 	c #BF6869",
"/! 	c #C36A69",
"(! 	c #C1676C",
"_! 	c #B96A6C",
":! 	c #B36E6C",
"<! 	c #B96465",
"[! 	c #B35F63",
"}! 	c #BA5F66",
"|! 	c #BD5863",
"1! 	c #B65962",
"2! 	c #B55B62",
"3! 	c #C27272",
"4! 	c #B56067",
"5! 	c #C97D7C",
"6! 	c #BD6B6A",
"7! 	c #AE6662",
"8! 	c #B3696A",
"9! 	c #BB997E",
"0! 	c #634E41",
"a! 	c #BB7679",
"b! 	c #BD777D",
"c! 	c #C67E86",
"d! 	c #C78289",
"e! 	c #D08691",
"f! 	c #D38C94",
"g! 	c #D38C96",
"h! 	c #D38F98",
"i! 	c #DA959D",
"j! 	c #DB969E",
"k! 	c #DB9B9D",
"l! 	c #F2A8B3",
"m! 	c #E9A5A2",
"n! 	c #F3AAAC",
"o! 	c #E2A0A6",
"p! 	c #E09DA2",
"q! 	c #D7979D",
"r! 	c #D39597",
"s! 	c #DC9BA2",
"t! 	c #D6979D",
"u! 	c #E4A0AB",
"v! 	c #51393D",
"w! 	c #CBB591",
"x! 	c #AC616B",
"y! 	c #AF626B",
"z! 	c #B05F69",
"A! 	c #B06068",
"B! 	c #B15D66",
"C! 	c #B7656B",
"D! 	c #B8656B",
"E! 	c #B65D66",
"F! 	c #BB6D6F",
"G! 	c #C37777",
"H! 	c #B9716E",
"I! 	c #C17373",
"J! 	c #DE888D",
"K! 	c #C87878",
"L! 	c #BF7371",
"M! 	c #CC7E7F",
"N! 	c #B66367",
"O! 	c #C06B6F",
"P! 	c #C37173",
"Q! 	c #B5666A",
"R! 	c #B05C64",
"S! 	c #B55A62",
"T! 	c #BC5E67",
"U! 	c #C26368",
"V! 	c #D27F85",
"W! 	c #E78E8D",
"X! 	c #C47177",
"Y! 	c #DC8485",
"Z! 	c #BA646A",
"`! 	c #DA8B8B",
" ~ 	c #B35C64",
".~ 	c #B9676D",
"+~ 	c #AE5E60",
"@~ 	c #B8A082",
"#~ 	c #493C33",
"$~ 	c #C07981",
"%~ 	c #CE828C",
"&~ 	c #C37F84",
"*~ 	c #CB848C",
"=~ 	c #E997A3",
"-~ 	c #DD929D",
";~ 	c #E296A2",
">~ 	c #DA969C",
",~ 	c #E7A0A3",
"'~ 	c #DC969B",
")~ 	c #E09BA2",
"!~ 	c #E49B9E",
"~~ 	c #E69FA4",
"{~ 	c #EAA2AB",
"]~ 	c #E59FA4",
"^~ 	c #E79BA0",
"/~ 	c #E3A0A5",
"(~ 	c #FFB2BE",
"_~ 	c #E7A2AB",
":~ 	c #DE9AA1",
"<~ 	c #E19DA6",
"[~ 	c #F3ABB5",
"}~ 	c #DE9BA4",
"|~ 	c #DB9A9D",
"1~ 	c #D5969A",
"2~ 	c #DC979A",
"3~ 	c #473D31",
"4~ 	c #BCA784",
"5~ 	c #A9606A",
"6~ 	c #B1666D",
"7~ 	c #BA7076",
"8~ 	c #B5686D",
"9~ 	c #C37A7A",
"0~ 	c #CA7C7C",
"a~ 	c #CB7E78",
"b~ 	c #C77072",
"c~ 	c #D18383",
"d~ 	c #C47075",
"e~ 	c #C57872",
"f~ 	c #CA7D7C",
"g~ 	c #C8767B",
"h~ 	c #C6767C",
"i~ 	c #C47473",
"j~ 	c #D28482",
"k~ 	c #C5776F",
"l~ 	c #BB6067",
"m~ 	c #C46F73",
"n~ 	c #C37472",
"o~ 	c #B5696A",
"p~ 	c #B35960",
"q~ 	c #AF6060",
"r~ 	c #AE5E61",
"s~ 	c #B86165",
"t~ 	c #B15862",
"u~ 	c #C17976",
"v~ 	c #C8797D",
"w~ 	c #CC8182",
"x~ 	c #C1706F",
"y~ 	c #AB9374",
"z~ 	c #8D6B5C",
"A~ 	c #B97479",
"B~ 	c #C0777C",
"C~ 	c #BD787D",
"D~ 	c #C07C83",
"E~ 	c #CC858E",
"F~ 	c #D48A93",
"G~ 	c #D38D93",
"H~ 	c #D49295",
"I~ 	c #E0979F",
"J~ 	c #ECA7A5",
"K~ 	c #E3A69E",
"L~ 	c #D8949E",
"M~ 	c #DF9FA1",
"N~ 	c #E7A0A5",
"O~ 	c #EFA7A7",
"P~ 	c #EEA8AA",
"Q~ 	c #E3A2A3",
"R~ 	c #DE9C9C",
"S~ 	c #D8999A",
"T~ 	c #F1A9B3",
"U~ 	c #DA9AA0",
"V~ 	c #E19FA1",
"W~ 	c #DA9AA2",
"X~ 	c #E7A2AD",
"Y~ 	c #7E575D",
"Z~ 	c #C8B88E",
"`~ 	c #B16C72",
" { 	c #BA7175",
".{ 	c #B0626A",
"+{ 	c #B15E67",
"@{ 	c #B65F69",
"#{ 	c #B9696C",
"${ 	c #B05F64",
"%{ 	c #BA6C71",
"&{ 	c #BB6D6D",
"*{ 	c #B45C62",
"={ 	c #B96F72",
"-{ 	c #B86A6E",
";{ 	c #CF7779",
">{ 	c #D28881",
",{ 	c #D08786",
"'{ 	c #C16069",
"){ 	c #B85F65",
"!{ 	c #BC6A6A",
"~{ 	c #BD656A",
"{{ 	c #B46265",
"]{ 	c #C36F73",
"^{ 	c #C66B74",
"/{ 	c #BD6C6E",
"({ 	c #D1797D",
"_{ 	c #D58083",
":{ 	c #D57F81",
"<{ 	c #BC696E",
"[{ 	c #DC8C85",
"}{ 	c #B6606A",
"|{ 	c #C37473",
"1{ 	c #AE5A64",
"2{ 	c #B89672",
"3{ 	c #6C594D",
"4{ 	c #C27680",
"5{ 	c #C27A82",
"6{ 	c #C98088",
"7{ 	c #CD848E",
"8{ 	c #DC9099",
"9{ 	c #D89199",
"0{ 	c #DC969D",
"a{ 	c #DF969E",
"b{ 	c #F7ACA6",
"c{ 	c #DC979C",
"d{ 	c #E39CA1",
"e{ 	c #DF9BA1",
"f{ 	c #E29BA3",
"g{ 	c #E79FA5",
"h{ 	c #E49CA4",
"i{ 	c #E3A0A4",
"j{ 	c #F5A9B5",
"k{ 	c #DE9AA4",
"l{ 	c #D69396",
"m{ 	c #E7A3A9",
"n{ 	c #E19EA5",
"o{ 	c #E39FA8",
"p{ 	c #D7959C",
"q{ 	c #DC97A1",
"r{ 	c #604C43",
"s{ 	c #B7A180",
"t{ 	c #AA636C",
"u{ 	c #B0636D",
"v{ 	c #B56971",
"w{ 	c #C27A77",
"x{ 	c #D18380",
"y{ 	c #C97F7A",
"z{ 	c #D4817E",
"A{ 	c #E89391",
"B{ 	c #BF6D70",
"C{ 	c #C36A6E",
"D{ 	c #C87772",
"E{ 	c #C6797D",
"F{ 	c #BA676E",
"G{ 	c #B75E66",
"H{ 	c #B2646A",
"I{ 	c #C16B6E",
"J{ 	c #B8696F",
"K{ 	c #B66666",
"L{ 	c #B55F66",
"M{ 	c #AE6165",
"N{ 	c #B05961",
"O{ 	c #AD595F",
"P{ 	c #B56268",
"Q{ 	c #B66167",
"R{ 	c #B5656A",
"S{ 	c #B97172",
"T{ 	c #C8797C",
"U{ 	c #A88B74",
"V{ 	c #695B4B",
"W{ 	c #BB7177",
"X{ 	c #BA7579",
"Y{ 	c #CC7D87",
"Z{ 	c #C77C84",
"`{ 	c #C17B84",
" ] 	c #CB858C",
".] 	c #C48289",
"+] 	c #D98F9A",
"@] 	c #DB9598",
"#] 	c #DE989C",
"$] 	c #D18F93",
"%] 	c #D89598",
"&] 	c #E6A1A2",
"*] 	c #DC9A9D",
"=] 	c #F4A69E",
"-] 	c #F7AAAF",
";] 	c #E5A5A5",
">] 	c #E49FA0",
",] 	c #E09E9F",
"'] 	c #D89696",
")] 	c #D19294",
"!] 	c #DE9CA4",
"~] 	c #E7A3AC",
"{] 	c #DD9DA1",
"]] 	c #E19FA8",
"^] 	c #DF9AA4",
"/] 	c #9D6B72",
"(] 	c #B5A281",
"_] 	c #AB676B",
":] 	c #B46872",
"<] 	c #B2606B",
"[] 	c #B6616B",
"}] 	c #C7777D",
"|] 	c #B35F65",
"1] 	c #BE6E6D",
"2] 	c #B9656C",
"3] 	c #D38785",
"4] 	c #CD857F",
"5] 	c #C47471",
"6] 	c #BB696E",
"7] 	c #BE6E72",
"8] 	c #C27373",
"9] 	c #BD716D",
"0] 	c #BC6266",
"a] 	c #BF5965",
"b] 	c #B46263",
"c] 	c #C05E67",
"d] 	c #C75B66",
"e] 	c #C56F76",
"f] 	c #C57475",
"g] 	c #AF6968",
"h] 	c #BC7572",
"i] 	c #CB7D7D",
"j] 	c #DA8A85",
"k] 	c #BD6A71",
"l] 	c #BB6C6D",
"m] 	c #BB6E6F",
"n] 	c #CD837C",
"o] 	c #A28B6F",
"p] 	c #5B5442",
"q] 	c #BE757C",
"r] 	c #CB7B86",
"s] 	c #D68590",
"t] 	c #D58792",
"u] 	c #CF858F",
"v] 	c #CD848D",
"w] 	c #DD909A",
"x] 	c #D98E9A",
"y] 	c #DF989C",
"z] 	c #DE939A",
"A] 	c #E09699",
"B] 	c #DE979E",
"C] 	c #DF98A0",
"D] 	c #E49DA4",
"E] 	c #E199A0",
"F] 	c #DE959A",
"G] 	c #E8A1A1",
"H] 	c #E49BA4",
"I] 	c #FCACB9",
"J] 	c #DD9BA1",
"K] 	c #DB979E",
"L] 	c #DD98A0",
"M] 	c #E19CA4",
"N] 	c #E19CA3",
"O] 	c #E09DA3",
"P] 	c #E09CA2",
"Q] 	c #DE99A1",
"R] 	c #D69193",
"S] 	c #D4929A",
"T] 	c #D18B90",
"U] 	c #504838",
"V] 	c #B0967B",
"W] 	c #AE646D",
"X] 	c #B06870",
"Y] 	c #BB6D74",
"Z] 	c #C67878",
"`] 	c #C77577",
" ^ 	c #BE7074",
".^ 	c #CE7C7E",
"+^ 	c #E69290",
"@^ 	c #B86068",
"#^ 	c #C87476",
"$^ 	c #BA676F",
"%^ 	c #C06769",
"&^ 	c #B96169",
"*^ 	c #BF6C6E",
"=^ 	c #BB7174",
"-^ 	c #CC7B7D",
";^ 	c #BF6E6E",
">^ 	c #B9686D",
",^ 	c #C07171",
"'^ 	c #B8676C",
")^ 	c #B96D6D",
"!^ 	c #B46669",
"~^ 	c #AF6366",
"{^ 	c #CE7B80",
"]^ 	c #B46968",
"^^ 	c #CD8384",
"/^ 	c #AA8675",
"(^ 	c #846F5C",
"_^ 	c #B76D73",
":^ 	c #BF727A",
"<^ 	c #C97B84",
"[^ 	c #D6848E",
"}^ 	c #CA8186",
"|^ 	c #D0858D",
"1^ 	c #C58287",
"2^ 	c #CF8A91",
"3^ 	c #D48A95",
"4^ 	c #D98F98",
"5^ 	c #E0959E",
"6^ 	c #D89299",
"7^ 	c #E09B99",
"8^ 	c #D89895",
"9^ 	c #EF9F9D",
"0^ 	c #F4ACA0",
"a^ 	c #F4A8A5",
"b^ 	c #F3ABA8",
"c^ 	c #E79F92",
"d^ 	c #DD9A9C",
"e^ 	c #E0A1A2",
"f^ 	c #D49699",
"g^ 	c #D39598",
"h^ 	c #F6ADB8",
"i^ 	c #E4A1A8",
"j^ 	c #DB9AA1",
"k^ 	c #E49FA9",
"l^ 	c #B67E85",
"m^ 	c #AC9F7A",
"n^ 	c #A8696C",
"o^ 	c #B2626D",
"p^ 	c #B2616A",
"q^ 	c #B3646C",
"r^ 	c #B7646A",
"s^ 	c #B46569",
"t^ 	c #D27C7E",
"u^ 	c #D7817E",
"v^ 	c #C5817B",
"w^ 	c #BD7278",
"x^ 	c #D48283",
"y^ 	c #B56B71",
"z^ 	c #B15E65",
"A^ 	c #D47E84",
"B^ 	c #B75760",
"C^ 	c #C17071",
"D^ 	c #B56063",
"E^ 	c #C4706E",
"F^ 	c #B25E63",
"G^ 	c #B35A5F",
"H^ 	c #B36367",
"I^ 	c #B36365",
"J^ 	c #C07072",
"K^ 	c #CB817D",
"L^ 	c #B1726A",
"M^ 	c #B5646B",
"N^ 	c #BD6F73",
"O^ 	c #BC7074",
"P^ 	c #A47F70",
"Q^ 	c #6F664F",
"R^ 	c #C2737C",
"S^ 	c #C77882",
"T^ 	c #DC8692",
"U^ 	c #C88087",
"V^ 	c #D0858F",
"W^ 	c #D68A93",
"X^ 	c #D88B95",
"Y^ 	c #D58F95",
"Z^ 	c #D99198",
"`^ 	c #DF959A",
" / 	c #E29D9A",
"./ 	c #E89B99",
"+/ 	c #E79C97",
"@/ 	c #DE979F",
"#/ 	c #E2979F",
"$/ 	c #DF979F",
"%/ 	c #DF979E",
"&/ 	c #E59C9D",
"*/ 	c #DB9496",
"=/ 	c #DE999A",
"-/ 	c #E69EA7",
";/ 	c #E4A2A1",
">/ 	c #E09B9F",
",/ 	c #E19BA2",
"'/ 	c #DE9BA1",
")/ 	c #E3A0A1",
"!/ 	c #ED9E9F",
"~/ 	c #E8A1AB",
"{/ 	c #D8929A",
"]/ 	c #E49CA7",
"^/ 	c #D4909A",
"// 	c #D7919A",
"(/ 	c #5C5241",
"_/ 	c #B79E80",
":/ 	c #B56C72",
"</ 	c #B36A71",
"[/ 	c #C4757A",
"}/ 	c #B97072",
"|/ 	c #B37368",
"1/ 	c #CD7F7C",
"2/ 	c #D98981",
"3/ 	c #BA696F",
"4/ 	c #BA6A6F",
"5/ 	c #DC878A",
"6/ 	c #CB767D",
"7/ 	c #CD7773",
"8/ 	c #B8656A",
"9/ 	c #C36F6F",
"0/ 	c #C57974",
"a/ 	c #CC7D79",
"b/ 	c #B16367",
"c/ 	c #B66B68",
"d/ 	c #B86365",
"e/ 	c #AE5C62",
"f/ 	c #B16765",
"g/ 	c #C77E79",
"h/ 	c #B86E6F",
"i/ 	c #AB6264",
"j/ 	c #BD7172",
"k/ 	c #BB8E7E",
"l/ 	c #927766",
"m/ 	c #C37D7E",
"n/ 	c #BD6F78",
"o/ 	c #C97882",
"p/ 	c #C67A82",
"q/ 	c #C37A81",
"r/ 	c #C38181",
"s/ 	c #BE7E7E",
"t/ 	c #C0817B",
"u/ 	c #D38692",
"v/ 	c #CA858B",
"w/ 	c #E49EA0",
"x/ 	c #EC9FA6",
"y/ 	c #EDA0A6",
"z/ 	c #DA959A",
"A/ 	c #DF9A9F",
"B/ 	c #FFB6AB",
"C/ 	c #E69C95",
"D/ 	c #E09D98",
"E/ 	c #DA989D",
"F/ 	c #E4998D",
"G/ 	c #D69694",
"H/ 	c #D39696",
"I/ 	c #D2949A",
"J/ 	c #E2A1A9",
"K/ 	c #E8A5A8",
"L/ 	c #C88B8D",
"M/ 	c #D19098",
"N/ 	c #CA8E93",
"O/ 	c #DC99A1",
"P/ 	c #D7949C",
"Q/ 	c #A79175",
"R/ 	c #B67876",
"S/ 	c #B6646F",
"T/ 	c #B4666D",
"U/ 	c #B0646B",
"V/ 	c #AB6365",
"W/ 	c #BD7575",
"X/ 	c #B66F6E",
"Y/ 	c #B96F71",
"Z/ 	c #D5877C",
"`/ 	c #CB7F7E",
" ( 	c #DA8882",
".( 	c #C87C7C",
"+( 	c #C56970",
"@( 	c #B96565",
"#( 	c #B95A63",
"$( 	c #B66467",
"%( 	c #B1585F",
"&( 	c #B85962",
"*( 	c #B55962",
"=( 	c #C06968",
"-( 	c #B4676B",
";( 	c #B2666A",
">( 	c #CA7C7D",
",( 	c #BF7373",
"'( 	c #C17372",
")( 	c #B36C6C",
"!( 	c #AA7F6D",
"~( 	c #80715A",
"{( 	c #BE6D76",
"]( 	c #C6767F",
"^( 	c #DA828D",
"/( 	c #DF8893",
"(( 	c #CA7E88",
"_( 	c #D0848E",
":( 	c #D0858E",
"<( 	c #CC868D",
"[( 	c #C6858A",
"}( 	c #D99191",
"|( 	c #D18F91",
"1( 	c #FBAFA6",
"2( 	c #DE939E",
"3( 	c #D28D95",
"4( 	c #E398A2",
"5( 	c #E69AA4",
"6( 	c #EA9BA6",
"7( 	c #DE979A",
"8( 	c #E59FA0",
"9( 	c #E29996",
"0( 	c #DF989E",
"a( 	c #ECA0AB",
"b( 	c #DE989E",
"c( 	c #E197A0",
"d( 	c #DF939B",
"e( 	c #E598A5",
"f( 	c #DD949F",
"g( 	c #DF9A9A",
"h( 	c #DE989A",
"i( 	c #F5A6B2",
"j( 	c #EA9EA9",
"k( 	c #DC959F",
"l( 	c #DC96A0",
"m( 	c #D8909A",
"n( 	c #796653",
"o( 	c #AF8E77",
"p( 	c #AC636D",
"q( 	c #C77C7C",
"r( 	c #BD7977",
"s( 	c #E3908F",
"t( 	c #BE7C75",
"u( 	c #B86B6E",
"v( 	c #E69297",
"w( 	c #B96D71",
"x( 	c #B8646E",
"y( 	c #B8636C",
"z( 	c #B55D66",
"A( 	c #BF696C",
"B( 	c #B56C70",
"C( 	c #B96C72",
"D( 	c #B16263",
"E( 	c #C27574",
"F( 	c #C67D79",
"G( 	c #BA5D68",
"H( 	c #BD7274",
"I( 	c #B76B6F",
"J( 	c #AE6A6A",
"K( 	c #A6826F",
"L( 	c #A37E70",
"M( 	c #BC7175",
"N( 	c #C6727D",
"O( 	c #CC7A84",
"P( 	c #C37981",
"Q( 	c #BD747F",
"R( 	c #BA757A",
"S( 	c #B8776D",
"T( 	c #CC8B88",
"U( 	c #BC7772",
"V( 	c #CB898D",
"W( 	c #D28C94",
"X( 	c #E2999D",
"Y( 	c #D28D92",
"Z( 	c #E79D9C",
"`( 	c #FDB8A5",
" _ 	c #F3A58E",
"._ 	c #DD9992",
"+_ 	c #E59DA0",
"@_ 	c #E3A2A0",
"#_ 	c #D7949A",
"$_ 	c #D59492",
"%_ 	c #C98F8A",
"&_ 	c #CF918C",
"*_ 	c #C9878C",
"=_ 	c #D9999A",
"-_ 	c #C98E8C",
";_ 	c #CC9093",
">_ 	c #C78986",
",_ 	c #D5928C",
"'_ 	c #D29199",
")_ 	c #CB8990",
"!_ 	c #CD8C93",
"~_ 	c #8D8264",
"{_ 	c #AD7D73",
"]_ 	c #B46D72",
"^_ 	c #AE686D",
"/_ 	c #B2636B",
"(_ 	c #B6686F",
"__ 	c #B9706F",
":_ 	c #CB7C7E",
"<_ 	c #DC8E8D",
"[_ 	c #B76D76",
"}_ 	c #C98481",
"|_ 	c #C27276",
"1_ 	c #BF7576",
"2_ 	c #B85D63",
"3_ 	c #B45860",
"4_ 	c #B36168",
"5_ 	c #B45A61",
"6_ 	c #C15B67",
"7_ 	c #B15F62",
"8_ 	c #B25C65",
"9_ 	c #B7676A",
"0_ 	c #B4696A",
"a_ 	c #B15A62",
"b_ 	c #A65A5D",
"c_ 	c #B36C6F",
"d_ 	c #A96A6B",
"e_ 	c #B88476",
"f_ 	c #977A69",
"g_ 	c #B96D74",
"h_ 	c #BB6F76",
"i_ 	c #C0727B",
"j_ 	c #CA7C85",
"k_ 	c #D1828C",
"l_ 	c #CF828C",
"m_ 	c #CE828B",
"n_ 	c #C07F81",
"o_ 	c #DE8E98",
"p_ 	c #E2929C",
"q_ 	c #D18891",
"r_ 	c #DE9297",
"s_ 	c #E19A9B",
"t_ 	c #E19597",
"u_ 	c #E2979E",
"v_ 	c #E49BA0",
"w_ 	c #EF9EAA",
"x_ 	c #E1969D",
"y_ 	c #E39894",
"z_ 	c #DA9298",
"A_ 	c #E2959B",
"B_ 	c #DF979A",
"C_ 	c #E2989E",
"D_ 	c #DC949A",
"E_ 	c #E0979E",
"F_ 	c #D28E8C",
"G_ 	c #DF9493",
"H_ 	c #C57F88",
"I_ 	c #D9919A",
"J_ 	c #E297A1",
"K_ 	c #E89BA7",
"L_ 	c #E399A4",
"M_ 	c #DF949F",
"N_ 	c #DC929D",
"O_ 	c #CC8790",
"P_ 	c #756B54",
"Q_ 	c #AF8979",
"R_ 	c #AC676E",
"S_ 	c #B66F75",
"T_ 	c #CB7E81",
"U_ 	c #BD7E79",
"V_ 	c #D18686",
"W_ 	c #C5777B",
"X_ 	c #C6787C",
"Y_ 	c #E0848D",
"Z_ 	c #B56970",
"`_ 	c #B9626B",
" : 	c #B25A63",
".: 	c #D57E87",
"+: 	c #AD5E66",
"@: 	c #D28584",
"#: 	c #C87A80",
"$: 	c #C17779",
"%: 	c #AF5B66",
"&: 	c #B2666D",
"*: 	c #A95F67",
"=: 	c #9D7768",
"-: 	c #8A7960",
";: 	c #B5676E",
">: 	c #BE7979",
",: 	c #B3676D",
"': 	c #BD757A",
"): 	c #B97178",
"!: 	c #C27C7D",
"~: 	c #BF757C",
"{: 	c #D4818D",
"]: 	c #CB8189",
"^: 	c #C88083",
"/: 	c #CD828B",
"(: 	c #D99497",
"_: 	c #EBA5A1",
":: 	c #DE9190",
"<: 	c #D7908F",
"[: 	c #F4A799",
"}: 	c #EEA29D",
"|: 	c #E69BA0",
"1: 	c #E2979A",
"2: 	c #DD949C",
"3: 	c #D0908F",
"4: 	c #CD8C8F",
"5: 	c #CB8D8B",
"6: 	c #DC9598",
"7: 	c #D39194",
"8: 	c #D69398",
"9: 	c #CE8E92",
"0: 	c #CB8C90",
"a: 	c #C08481",
"b: 	c #C08176",
"c: 	c #C98B87",
"d: 	c #E69BA6",
"e: 	c #D9919B",
"f: 	c #CE8891",
"g: 	c #81785C",
"h: 	c #AA8474",
"i: 	c #AD696E",
"j: 	c #AC636B",
"k: 	c #B0686D",
"l: 	c #BB6E71",
"m: 	c #BC6E75",
"n: 	c #DE908D",
"o: 	c #C98082",
"p: 	c #C68181",
"q: 	c #CF8480",
"r: 	c #C27977",
"s: 	c #D07C79",
"t: 	c #B35D62",
"u: 	c #AF5F62",
"v: 	c #AE585F",
"w: 	c #B46B6A",
"x: 	c #AF6265",
"y: 	c #A7575F",
"z: 	c #B96C6F",
"A: 	c #B26E6F",
"B: 	c #B37A75",
"C: 	c #AE8D79",
"D: 	c #AF6669",
"E: 	c #B1686F",
"F: 	c #CF7882",
"G: 	c #CE7A84",
"H: 	c #D17E89",
"I: 	c #CF8089",
"J: 	c #D88791",
"K: 	c #DA8893",
"L: 	c #C27D83",
"M: 	c #CA8287",
"N: 	c #C8828A",
"O: 	c #DD9194",
"P: 	c #E5949C",
"Q: 	c #E09695",
"R: 	c #EEA19E",
"S: 	c #E39698",
"T: 	c #ED9F9E",
"U: 	c #E0969C",
"V: 	c #E3949E",
"W: 	c #DD9098",
"X: 	c #F1A6A4",
"Y: 	c #F9AAA2",
"Z: 	c #DD9397",
"`: 	c #E0989B",
" < 	c #D99293",
".< 	c #D98F95",
"+< 	c #EB9F9F",
"@< 	c #DC959C",
"#< 	c #DA9594",
"$< 	c #CF8990",
"%< 	c #D08889",
"&< 	c #C9868C",
"*< 	c #CC8890",
"=< 	c #D28A94",
"-< 	c #D68F98",
";< 	c #D9909A",
">< 	c #DB8F9A",
",< 	c #CD888F",
"'< 	c #CC858F",
")< 	c #84785E",
"!< 	c #AC7F74",
"~< 	c #B16F72",
"{< 	c #BE7278",
"]< 	c #B97776",
"^< 	c #BC7576",
"/< 	c #B4676F",
"(< 	c #D58183",
"_< 	c #C4737B",
":< 	c #BF7377",
"<< 	c #B3656B",
"[< 	c #C7777B",
"}< 	c #B15F69",
"|< 	c #B76B72",
"1< 	c #BD7378",
"2< 	c #B56F70",
"3< 	c #B0686B",
"4< 	c #B16C6D",
"5< 	c #AE696F",
"6< 	c #A75E65",
"7< 	c #9A7067",
"8< 	c #918366",
"9< 	c #B1686C",
"0< 	c #BA6D70",
"a< 	c #BB7072",
"b< 	c #BA6B71",
"c< 	c #C3787A",
"d< 	c #BC7176",
"e< 	c #C98885",
"f< 	c #BC797D",
"g< 	c #C47F80",
"h< 	c #BF7F80",
"i< 	c #BE777C",
"j< 	c #C17F81",
"k< 	c #CD8B8A",
"l< 	c #CD898A",
"m< 	c #EB9996",
"n< 	c #E89891",
"o< 	c #F9A6A1",
"p< 	c #FAA79D",
"q< 	c #DF9496",
"r< 	c #E79790",
"s< 	c #E09394",
"t< 	c #E2988B",
"u< 	c #D3928C",
"v< 	c #D1918F",
"w< 	c #D69096",
"x< 	c #C98C89",
"y< 	c #CE8C90",
"z< 	c #D8959B",
"A< 	c #CE8F90",
"B< 	c #D08F91",
"C< 	c #C98A89",
"D< 	c #D2908D",
"E< 	c #D28E96",
"F< 	c #C38383",
"G< 	c #C9878F",
"H< 	c #DD909B",
"I< 	c #6C654D",
"J< 	c #B7917E",
"K< 	c #AE6A71",
"L< 	c #AD636C",
"M< 	c #B4696E",
"N< 	c #B56B68",
"O< 	c #C17A73",
"P< 	c #B77170",
"Q< 	c #BC7677",
"R< 	c #B36C6E",
"S< 	c #B87870",
"T< 	c #B5676C",
"U< 	c #BD6A6A",
"V< 	c #B25A65",
"W< 	c #B55C66",
"X< 	c #B35D66",
"Y< 	c #AF6062",
"Z< 	c #AA5C62",
"`< 	c #B16365",
" [ 	c #AA5C63",
".[ 	c #B66C6E",
"+[ 	c #A66165",
"@[ 	c #AE6F69",
"#[ 	c #A86C67",
"$[ 	c #A0866B",
"%[ 	c #BE6670",
"&[ 	c #B46A70",
"*[ 	c #B56D73",
"=[ 	c #BF7379",
"-[ 	c #CA7781",
";[ 	c #CF7C86",
">[ 	c #D28089",
",[ 	c #CE818A",
"'[ 	c #C97C85",
")[ 	c #E28B96",
"![ 	c #D4848E",
"~[ 	c #C67F86",
"{[ 	c #F8A9A8",
"][ 	c #EDA29E",
"^[ 	c #E89B9A",
"/[ 	c #DE9392",
"([ 	c #F5A9A8",
"_[ 	c #EAA0A0",
":[ 	c #F1A3A3",
"<[ 	c #E4959D",
"[[ 	c #F4A7A2",
"}[ 	c #DC9293",
"|[ 	c #DB9395",
"1[ 	c #DB9198",
"2[ 	c #DE939B",
"3[ 	c #DE9798",
"4[ 	c #DB9290",
"5[ 	c #D99294",
"6[ 	c #DD968E",
"7[ 	c #CF8A8C",
"8[ 	c #DF939E",
"9[ 	c #E698A4",
"0[ 	c #E1949F",
"a[ 	c #D78D98",
"b[ 	c #D88E98",
"c[ 	c #CC848D",
"d[ 	c #CC848E",
"e[ 	c #9F886F",
"f[ 	c #AA7574",
"g[ 	c #BD7C7D",
"h[ 	c #BE757A",
"i[ 	c #B06B6F",
"j[ 	c #C98280",
"k[ 	c #D78D8A",
"l[ 	c #BE7277",
"m[ 	c #D18384",
"n[ 	c #B86E71",
"o[ 	c #B3656C",
"p[ 	c #AC5B67",
"q[ 	c #B87273",
"r[ 	c #BC7076",
"s[ 	c #C37C7E",
"t[ 	c #B26B6F",
"u[ 	c #B77477",
"v[ 	c #AD716F",
"w[ 	c #9F716A",
"x[ 	c #96896B",
"y[ 	c #B66C70",
"z[ 	c #BA636D",
"A[ 	c #BB676F",
"B[ 	c #BD6B72",
"C[ 	c #C16E76",
"D[ 	c #BD6F74",
"E[ 	c #C0777D",
"F[ 	c #CB8585",
"G[ 	c #C87E82",
"H[ 	c #C17D7F",
"I[ 	c #BC8281",
"J[ 	c #CB8C87",
"K[ 	c #C38384",
"L[ 	c #DA8D86",
"M[ 	c #EA9E92",
"N[ 	c #FCAA9E",
"O[ 	c #F4A3A4",
"P[ 	c #EC9E9A",
"Q[ 	c #E1949A",
"R[ 	c #E59995",
"S[ 	c #E79C9A",
"T[ 	c #E8A1A0",
"U[ 	c #E29B98",
"V[ 	c #DC948C",
"W[ 	c #DD9492",
"X[ 	c #CE8D83",
"Y[ 	c #D28C91",
"Z[ 	c #D38E93",
"`[ 	c #CB8C8B",
" } 	c #D48E91",
".} 	c #C5858A",
"+} 	c #D18E91",
"@} 	c #CB8989",
"#} 	c #CC898C",
"$} 	c #CA8790",
"%} 	c #CC878D",
"&} 	c #C38189",
"*} 	c #C38087",
"=} 	c #C9848C",
"-} 	c #635746",
";} 	c #B69B80",
">} 	c #B36874",
",} 	c #B0696F",
"'} 	c #D18B86",
")} 	c #D58B8A",
"!} 	c #D58C86",
"~} 	c #CC837F",
"{} 	c #B4766E",
"]} 	c #C78380",
"^} 	c #B76C71",
"/} 	c #B26067",
"(} 	c #BC606B",
"_} 	c #AC6166",
":} 	c #B76D68",
"<} 	c #AC5C62",
"[} 	c #B06369",
"}} 	c #B06E64",
"|} 	c #AA6268",
"1} 	c #A76B6B",
"2} 	c #B28F7E",
"3} 	c #B56E72",
"4} 	c #B1666C",
"5} 	c #B6686C",
"6} 	c #B76D74",
"7} 	c #CD7881",
"8} 	c #C97C82",
"9} 	c #C87B81",
"0} 	c #D07F89",
"a} 	c #C57B83",
"b} 	c #D7848E",
"c} 	c #D3838D",
"d} 	c #D5878D",
"e} 	c #CB838A",
"f} 	c #DC8B92",
"g} 	c #D3878D",
"h} 	c #EE9D9B",
"i} 	c #E89896",
"j} 	c #DE8F97",
"k} 	c #F0A1A0",
"l} 	c #E49B9D",
"m} 	c #E09398",
"n} 	c #DD9596",
"o} 	c #E89CA0",
"p} 	c #D88C93",
"q} 	c #E18F97",
"r} 	c #DE9398",
"s} 	c #DC9295",
"t} 	c #D69093",
"u} 	c #DB9097",
"v} 	c #E79A96",
"w} 	c #DE9893",
"x} 	c #D58E91",
"y} 	c #CF888D",
"z} 	c #C8838A",
"A} 	c #BE7D82",
"B} 	c #CF868F",
"C} 	c #DA8D98",
"D} 	c #DE909B",
"E} 	c #E1919C",
"F} 	c #CA838A",
"G} 	c #D28690",
"H} 	c #BF7980",
"I} 	c #B4997D",
"J} 	c #C78480",
"K} 	c #AA6770",
"L} 	c #BC7E7B",
"M} 	c #C07C7A",
"N} 	c #D28487",
"O} 	c #D78E8C",
"P} 	c #AF636B",
"Q} 	c #BC6D74",
"R} 	c #B5666D",
"S} 	c #B86773",
"T} 	c #A85C67",
"U} 	c #C1787D",
"V} 	c #B9747A",
"W} 	c #B27073",
"X} 	c #A56368",
"Y} 	c #AB7D71",
"Z} 	c #AD8678",
"`} 	c #B06469",
" | 	c #BB646D",
".| 	c #BD6D72",
"+| 	c #BF6B72",
"@| 	c #C57179",
"#| 	c #C6777A",
"$| 	c #C6787E",
"%| 	c #C87B7B",
"&| 	c #C47778",
"*| 	c #CE7F84",
"=| 	c #D18A8B",
"-| 	c #D6918F",
";| 	c #C58981",
">| 	c #C28081",
",| 	c #DA8E84",
"'| 	c #CF8C86",
")| 	c #EB9F96",
"!| 	c #D98C8D",
"~| 	c #E29291",
"{| 	c #DE8D92",
"]| 	c #D78F8B",
"^| 	c #D79092",
"/| 	c #E09798",
"(| 	c #D79093",
"_| 	c #DF9492",
":| 	c #DD9193",
"<| 	c #E49C98",
"[| 	c #D69092",
"}| 	c #E49597",
"|| 	c #D99391",
"1| 	c #CB898C",
"2| 	c #D69095",
"3| 	c #D28E8E",
"4| 	c #BB8082",
"5| 	c #D58C96",
"6| 	c #D58A94",
"7| 	c #CB818B",
"8| 	c #594B39",
"9| 	c #B29A7E",
"0| 	c #B26873",
"a| 	c #AD6B70",
"b| 	c #B47072",
"c| 	c #B56F72",
"d| 	c #B26B6E",
"e| 	c #BF7A78",
"f| 	c #C47C78",
"g| 	c #CE857C",
"h| 	c #C47975",
"i| 	c #BA6974",
"j| 	c #B25D67",
"k| 	c #AE6166",
"l| 	c #B0666B",
"m| 	c #AD6365",
"n| 	c #AA605F",
"o| 	c #AA6167",
"p| 	c #AC6368",
"q| 	c #B27070",
"r| 	c #A56C68",
"s| 	c #A58D72",
"t| 	c #A85F63",
"u| 	c #BA656F",
"v| 	c #B46C70",
"w| 	c #C2757C",
"x| 	c #BB6D75",
"y| 	c #C6757D",
"z| 	c #CA777F",
"A| 	c #CE8688",
"B| 	c #CD7E87",
"C| 	c #E08793",
"D| 	c #C77E86",
"E| 	c #D1848B",
"F| 	c #D18A86",
"G| 	c #D28C89",
"H| 	c #DF9293",
"I| 	c #EA9B96",
"J| 	c #F7A9A0",
"K| 	c #F4A2A5",
"L| 	c #E8959C",
"M| 	c #DB8D95",
"N| 	c #DD8E95",
"O| 	c #E5989C",
"P| 	c #F29F9E",
"Q| 	c #DB8A8E",
"R| 	c #DC8D91",
"S| 	c #E09494",
"T| 	c #D88A94",
"U| 	c #D78C8E",
"V| 	c #D4888C",
"W| 	c #D78C91",
"X| 	c #D4898B",
"Y| 	c #D18A90",
"Z| 	c #CD828D",
"`| 	c #CB838B",
" 1 	c #C67F88",
".1 	c #DD8D98",
"+1 	c #D68994",
"@1 	c #CF858E",
"#1 	c #CB808A",
"$1 	c #C27C84",
"%1 	c #BE7A7C",
"&1 	c #BCA17E",
"*1 	c #C28181",
"=1 	c #B17377",
"-1 	c #CF847F",
";1 	c #CD8889",
">1 	c #C77E82",
",1 	c #C0757E",
"'1 	c #B77274",
")1 	c #AF646D",
"!1 	c #B46A72",
"~1 	c #AC646D",
"{1 	c #AE686F",
"]1 	c #C57D81",
"^1 	c #AD6E71",
"/1 	c #AC7972",
"(1 	c #A68E71",
"_1 	c #A95F63",
":1 	c #AA6365",
"<1 	c #AE5C65",
"[1 	c #BD6970",
"}1 	c #BF7175",
"|1 	c #C6777D",
"11 	c #C77678",
"21 	c #D18285",
"31 	c #CA7882",
"41 	c #CD8380",
"51 	c #CB7C80",
"61 	c #DB8C86",
"71 	c #CE8A88",
"81 	c #D7968C",
"91 	c #CD8D85",
"01 	c #CA8886",
"a1 	c #CE8986",
"b1 	c #D68B8F",
"c1 	c #D0838B",
"d1 	c #D78A90",
"e1 	c #DF9192",
"f1 	c #E7969B",
"g1 	c #DE9796",
"h1 	c #DC948F",
"i1 	c #DE9795",
"j1 	c #D18D87",
"k1 	c #D68C93",
"l1 	c #CC8A8C",
"m1 	c #D18D91",
"n1 	c #D0908D",
"o1 	c #D38A91",
"p1 	c #CE898F",
"q1 	c #D79391",
"r1 	c #D79496",
"s1 	c #CA848E",
"t1 	c #C5868B",
"u1 	c #C5838A",
"v1 	c #D08891",
"w1 	c #C67E87",
"x1 	c #C9808A",
"y1 	c #CC808B",
"z1 	c #4F4638",
"A1 	c #B89980",
"B1 	c #A9676F",
"C1 	c #AA646B",
"D1 	c #A8636A",
"E1 	c #C17876",
"F1 	c #BB7578",
"G1 	c #E1928B",
"H1 	c #C07E78",
"I1 	c #CB867F",
"J1 	c #B8706E",
"K1 	c #B6706F",
"L1 	c #AE636C",
"M1 	c #AC6869",
"N1 	c #A65F64",
"O1 	c #AD666B",
"P1 	c #A96E6B",
"Q1 	c #B7967B",
"R1 	c #AC6B68",
"S1 	c #AB5F65",
"T1 	c #B9666F",
"U1 	c #C56F78",
"V1 	c #CC7B7F",
"W1 	c #C16F75",
"X1 	c #D07A83",
"Y1 	c #CB7A82",
"Z1 	c #D18189",
"`1 	c #D27E88",
" 2 	c #D37F8A",
".2 	c #D3838C",
"+2 	c #D2828B",
"@2 	c #D78F8F",
"#2 	c #D28B87",
"$2 	c #F6A6A1",
"%2 	c #D6888B",
"&2 	c #F7A29C",
"*2 	c #FCBEB3",
"=2 	c #EB999C",
"-2 	c #DC8B94",
";2 	c #D88890",
">2 	c #DA8992",
",2 	c #ED9E9D",
"'2 	c #E08F90",
")2 	c #DF8D93",
"!2 	c #DC8C93",
"~2 	c #D2868C",
"{2 	c #E7999C",
"]2 	c #DE8E90",
"^2 	c #D98B90",
"/2 	c #E09694",
"(2 	c #CD838A",
"_2 	c #D2888E",
":2 	c #CE838B",
"<2 	c #CA8488",
"[2 	c #CC858A",
"}2 	c #CC8589",
"|2 	c #D38992",
"12 	c #CF838D",
"22 	c #C37C84",
"32 	c #C57C84",
"42 	c #C8807F",
"52 	c #945B5E",
"62 	c #BFAA88",
"72 	c #A86E71",
"82 	c #C17F7D",
"92 	c #E59595",
"02 	c #BB7677",
"a2 	c #CA8281",
"b2 	c #CC8280",
"c2 	c #CA8183",
"d2 	c #C07B7D",
"e2 	c #B36B72",
"f2 	c #AA626C",
"g2 	c #A9646C",
"h2 	c #B46C75",
"i2 	c #BF7D80",
"j2 	c #BD877D",
"k2 	c #A88D76",
"l2 	c #A8555E",
"m2 	c #AC5B62",
"n2 	c #B26068",
"o2 	c #C16670",
"p2 	c #C26872",
"q2 	c #C56C77",
"r2 	c #CA777E",
"s2 	c #CC757F",
"t2 	c #C87A7F",
"u2 	c #CD8086",
"v2 	c #E0938E",
"w2 	c #CE7B83",
"x2 	c #E1938D",
"y2 	c #E69F96",
"z2 	c #E3958F",
"A2 	c #DD928F",
"B2 	c #C88984",
"C2 	c #C78080",
"D2 	c #D3878F",
"E2 	c #DB8989",
"F2 	c #D78E91",
"G2 	c #D5888F",
"H2 	c #D3898B",
"I2 	c #E89D9A",
"J2 	c #E8979A",
"K2 	c #D99393",
"L2 	c #F3A1A1",
"M2 	c #E39294",
"N2 	c #D89086",
"O2 	c #D18687",
"P2 	c #D78C90",
"Q2 	c #DD9495",
"R2 	c #CB8889",
"S2 	c #D0898F",
"T2 	c #D98F94",
"U2 	c #D68B93",
"V2 	c #D48B91",
"W2 	c #D88C96",
"X2 	c #D28992",
"Y2 	c #CA8688",
"Z2 	c #C27C85",
"`2 	c #D48691",
" 3 	c #C17A80",
".3 	c #BD747E",
"+3 	c #4C4334",
"@3 	c #B3957C",
"#3 	c #A6656A",
"$3 	c #B27172",
"%3 	c #AF6871",
"&3 	c #B06B71",
"*3 	c #D58C81",
"=3 	c #BD7C78",
"-3 	c #C27770",
";3 	c #C3787F",
">3 	c #A96566",
",3 	c #A96369",
"'3 	c #A86769",
")3 	c #B0646F",
"!3 	c #A76465",
"~3 	c #A16266",
"{3 	c #AF9177",
"]3 	c #9A5157",
"^3 	c #A76162",
"/3 	c #AC5F63",
"(3 	c #AD6469",
"_3 	c #C06771",
":3 	c #C36E75",
"<3 	c #C06E76",
"[3 	c #C37077",
"}3 	c #CE757F",
"|3 	c #CF7781",
"13 	c #D88C87",
"23 	c #D48187",
"33 	c #D17C86",
"43 	c #E08C96",
"53 	c #E38F92",
"63 	c #D4848A",
"73 	c #D08388",
"83 	c #D28686",
"93 	c #DE928F",
"03 	c #DE9294",
"a3 	c #ED9F98",
"b3 	c #F5A19E",
"c3 	c #D5828D",
"d3 	c #DC8B93",
"e3 	c #F9A0A6",
"f3 	c #F19EA2",
"g3 	c #FAB5AF",
"h3 	c #F69F94",
"i3 	c #E29596",
"j3 	c #E59798",
"k3 	c #DA9292",
"l3 	c #D5898F",
"m3 	c #D8878F",
"n3 	c #D78C92",
"o3 	c #D88B93",
"p3 	c #D28B8F",
"q3 	c #CB8089",
"r3 	c #D58890",
"s3 	c #CF878E",
"t3 	c #CB8289",
"u3 	c #CD8585",
"v3 	c #CA7F89",
"w3 	c #D1838D",
"x3 	c #CC7E88",
"y3 	c #BC7479",
"z3 	c #BA7279",
"A3 	c #5D383B",
"B3 	c #C9B28E",
"C3 	c #AB6D71",
"D3 	c #B9787A",
"E3 	c #AD7073",
"F3 	c #C27B7E",
"G3 	c #D28887",
"H3 	c #E09692",
"I3 	c #B9737C",
"J3 	c #AC666F",
"K3 	c #B9727B",
"L3 	c #AD6974",
"M3 	c #A3626C",
"N3 	c #AF7E78",
"O3 	c #A38F73",
"P3 	c #A7595E",
"Q3 	c #A4565C",
"R3 	c #AC5D62",
"S3 	c #B6626B",
"T3 	c #BF656E",
"U3 	c #C7737C",
"V3 	c #C6727B",
"W3 	c #D18685",
"X3 	c #D07C82",
"Y3 	c #CB7B82",
"Z3 	c #D28689",
"`3 	c #C7807E",
" 4 	c #CD8684",
".4 	c #CC8A86",
"+4 	c #E69499",
"@4 	c #CF8D85",
"#4 	c #D38D8C",
"$4 	c #D08989",
"%4 	c #D08689",
"&4 	c #D38989",
"*4 	c #E69992",
"=4 	c #DD9395",
"-4 	c #EC9B9F",
";4 	c #CD8D8C",
">4 	c #EE9F93",
",4 	c #CB8584",
"'4 	c #DA8F8C",
")4 	c #D68A8E",
"!4 	c #D3888C",
"~4 	c #D0868B",
"{4 	c #DC8C96",
"]4 	c #D0868C",
"^4 	c #CE838D",
"/4 	c #C78688",
"(4 	c #B97D7D",
"_4 	c #CF838C",
":4 	c #C68387",
"<4 	c #CC7E8A",
"[4 	c #C17981",
"}4 	c #C97A84",
"|4 	c #C2757F",
"14 	c #544738",
"24 	c #BD9579",
"34 	c #A86870",
"44 	c #A4666A",
"54 	c #AC6A71",
"64 	c #BB7572",
"74 	c #CB817C",
"84 	c #BE7572",
"94 	c #AC696A",
"04 	c #B37172",
"a4 	c #AE6B70",
"b4 	c #AB676A",
"c4 	c #A46066",
"d4 	c #A7626C",
"e4 	c #A96A6C",
"f4 	c #B89477",
"g4 	c #93484E",
"h4 	c #A86162",
"i4 	c #B46869",
"j4 	c #AA5E63",
"k4 	c #BF646F",
"l4 	c #B6646C",
"m4 	c #C16A73",
"n4 	c #C57377",
"o4 	c #D57782",
"p4 	c #C8747B",
"q4 	c #D07681",
"r4 	c #D17D85",
"s4 	c #D17E85",
"t4 	c #D48088",
"u4 	c #D8858C",
"v4 	c #E19096",
"w4 	c #CD7E86",
"x4 	c #E18E93",
"y4 	c #D6898A",
"z4 	c #DB8E8F",
"A4 	c #E89692",
"B4 	c #FBA7A5",
"C4 	c #D7898D",
"D4 	c #E59399",
"E4 	c #E5929A",
"F4 	c #EB9299",
"G4 	c #E19290",
"H4 	c #E89897",
"I4 	c #E08F94",
"J4 	c #D7888B",
"K4 	c #DF9195",
"L4 	c #D68B90",
"M4 	c #D2838C",
"N4 	c #DA8B90",
"O4 	c #D88891",
"P4 	c #D48B8D",
"Q4 	c #CE8487",
"R4 	c #BF7B7B",
"S4 	c #D3898D",
"T4 	c #D5858F",
"U4 	c #C97E85",
"V4 	c #C1787C",
"W4 	c #C47C83",
"X4 	c #D1828D",
"Y4 	c #C87C85",
"Z4 	c #C0767B",
"`4 	c #BC727A",
" 5 	c #B97077",
".5 	c #3B2627",
"+5 	c #CFB290",
"@5 	c #B77678",
"#5 	c #B46F7A",
"$5 	c #A66970",
"%5 	c #CC8282",
"&5 	c #B4707B",
"*5 	c #A76670",
"=5 	c #A66770",
"-5 	c #A5636F",
";5 	c #A57670",
">5 	c #AF977C",
",5 	c #A75E61",
"'5 	c #B3656A",
")5 	c #AA575F",
"!5 	c #B6666D",
"~5 	c #AF6267",
"{5 	c #B8626B",
"]5 	c #D17C7E",
"^5 	c #C26F75",
"/5 	c #CA777B",
"(5 	c #CA787F",
"_5 	c #DD8C91",
":5 	c #C67577",
"<5 	c #C9787F",
"[5 	c #D47D8A",
"}5 	c #E0928A",
"|5 	c #EF9B9C",
"15 	c #D38A8B",
"25 	c #C7837D",
"35 	c #BF7C7B",
"45 	c #E79689",
"55 	c #DC8B82",
"65 	c #DA8E91",
"75 	c #F09C8A",
"85 	c #E49799",
"95 	c #E89999",
"05 	c #D98F8A",
"a5 	c #E89697",
"b5 	c #D98E8C",
"c5 	c #BD7E7F",
"d5 	c #D08585",
"e5 	c #CB8587",
"f5 	c #CC8183",
"g5 	c #CB8386",
"h5 	c #D78C94",
"i5 	c #C88487",
"j5 	c #D28A8F",
"k5 	c #C78488",
"l5 	c #CC858B",
"m5 	c #C18384",
"n5 	c #C87E88",
"o5 	c #C78286",
"p5 	c #C97E86",
"q5 	c #C67D85",
"r5 	c #C27980",
"s5 	c #C57680",
"t5 	c #4B4234",
"u5 	c #B59D7F",
"v5 	c #A7656F",
"w5 	c #CB8383",
"x5 	c #B27174",
"y5 	c #B37074",
"z5 	c #B37274",
"A5 	c #AF6A72",
"B5 	c #AA676F",
"C5 	c #BB767B",
"D5 	c #A6636D",
"E5 	c #A86670",
"F5 	c #B79B79",
"G5 	c #925555",
"H5 	c #A85159",
"I5 	c #A7565B",
"J5 	c #B75D66",
"K5 	c #B85E67",
"L5 	c #B2666C",
"M5 	c #CD737D",
"N5 	c #D87984",
"O5 	c #DD848E",
"P5 	c #D47C87",
"Q5 	c #D27A85",
"R5 	c #DE8E8E",
"S5 	c #D9868D",
"T5 	c #DE8A91",
"U5 	c #D78C87",
"V5 	c #DD8C8D",
"W5 	c #D78A88",
"X5 	c #F69A9E",
"Y5 	c #E8939E",
"Z5 	c #E39396",
"`5 	c #EB9796",
" 6 	c #E6979B",
".6 	c #DF8F8C",
"+6 	c #E58C97",
"@6 	c #E59192",
"#6 	c #E99C96",
"$6 	c #E99B99",
"%6 	c #D8848E",
"&6 	c #D98C90",
"*6 	c #DA878E",
"=6 	c #DF8B87",
"-6 	c #DB8F90",
";6 	c #D88F8D",
">6 	c #D1858A",
",6 	c #CF8888",
"'6 	c #D48C8E",
")6 	c #C78487",
"!6 	c #CE8583",
"~6 	c #C2787C",
"{6 	c #C9817A",
"]6 	c #C47F84",
"^6 	c #C37882",
"/6 	c #C2777E",
"(6 	c #BE6E77",
"_6 	c #B66B71",
":6 	c #332622",
"<6 	c #C9AF8E",
"[6 	c #B47279",
"}6 	c #BE7D7D",
"|6 	c #B17272",
"16 	c #B37075",
"26 	c #AE6C71",
"36 	c #A76672",
"46 	c #A0626B",
"56 	c #9E756D",
"66 	c #A09071",
"76 	c #B4686B",
"86 	c #AF6567",
"96 	c #AB5960",
"06 	c #AD535C",
"a6 	c #B25760",
"b6 	c #C05F69",
"c6 	c #B86169",
"d6 	c #B8636A",
"e6 	c #C16E73",
"f6 	c #C56C75",
"g6 	c #D38186",
"h6 	c #D38789",
"i6 	c #DA898D",
"j6 	c #DD8C87",
"k6 	c #D78785",
"l6 	c #D08587",
"m6 	c #E39993",
"n6 	c #DC8987",
"o6 	c #D38285",
"p6 	c #D5837C",
"q6 	c #DD8A8B",
"r6 	c #CC8687",
"s6 	c #CB8486",
"t6 	c #D28984",
"u6 	c #F4A095",
"v6 	c #EAA196",
"w6 	c #E59099",
"x6 	c #EB9C94",
"y6 	c #D0898A",
"z6 	c #CB817E",
"A6 	c #D78A89",
"B6 	c #CC7F88",
"C6 	c #BE7E7F",
"D6 	c #DA938D",
"E6 	c #DA8D93",
"F6 	c #D28E8D",
"G6 	c #C78385",
"H6 	c #CC8C8A",
"I6 	c #C98289",
"J6 	c #CB8285",
"K6 	c #D48A90",
"L6 	c #BC747D",
"M6 	c #C27B81",
"N6 	c #BE797F",
"O6 	c #CC7B86",
"P6 	c #C5767F",
"Q6 	c #B46C74",
"R6 	c #B0656E",
"S6 	c #635246",
"T6 	c #B3A07F",
"U6 	c #9F636A",
"V6 	c #B8757A",
"W6 	c #B77779",
"X6 	c #BE7675",
"Y6 	c #A9686E",
"Z6 	c #AC6E6D",
"`6 	c #A76A70",
" 7 	c #A6696E",
".7 	c #9D626A",
"+7 	c #BDAE86",
"@7 	c #773F43",
"#7 	c #AA535B",
"$7 	c #A75157",
"%7 	c #B0555C",
"&7 	c #BA5E67",
"*7 	c #C0636C",
"=7 	c #C1636D",
"-7 	c #C16972",
";7 	c #C36D73",
">7 	c #CE707B",
",7 	c #CB757C",
"'7 	c #CE7581",
")7 	c #CF7B83",
"!7 	c #E39796",
"~7 	c #CF7C85",
"{7 	c #F8AAA5",
"]7 	c #D48387",
"^7 	c #D58185",
"/7 	c #EB9D9B",
"(7 	c #D78D8B",
"_7 	c #E29297",
":7 	c #F2A2A1",
"<7 	c #DB8A8C",
"[7 	c #D7838C",
"}7 	c #E18D85",
"|7 	c #DF898D",
"17 	c #F59D99",
"27 	c #E59590",
"37 	c #F9A6A3",
"47 	c #CE8084",
"57 	c #DB8E90",
"67 	c #D9898F",
"77 	c #DF8F8F",
"87 	c #DC8989",
"97 	c #D18488",
"07 	c #CE888A",
"a7 	c #D18A8C",
"b7 	c #DC918C",
"c7 	c #CB8186",
"d7 	c #C67E85",
"e7 	c #CB8286",
"f7 	c #CE8481",
"g7 	c #BF7677",
"h7 	c #C57C80",
"i7 	c #C6787F",
"j7 	c #BD727B",
"k7 	c #B86B72",
"l7 	c #B97176",
"m7 	c #B86A71",
"n7 	c #BD6771",
"o7 	c #A95E63",
"p7 	c #3D362B",
"q7 	c #DAA792",
"r7 	c #B07474",
"s7 	c #A8686A",
"t7 	c #B17374",
"u7 	c #B17075",
"v7 	c #9B5E67",
"w7 	c #9E776D",
"x7 	c #9D8F71",
"y7 	c #9F545E",
"z7 	c #A6555D",
"A7 	c #AF6164",
"B7 	c #B36366",
"C7 	c #AE5B61",
"D7 	c #BC5862",
"E7 	c #B55A63",
"F7 	c #B75D65",
"G7 	c #C67175",
"H7 	c #E79294",
"I7 	c #E79093",
"J7 	c #DF8C8D",
"K7 	c #DC8C8A",
"L7 	c #BE736D",
"M7 	c #E28C8A",
"N7 	c #D48786",
"O7 	c #C7777C",
"P7 	c #EA9287",
"Q7 	c #D9888E",
"R7 	c #CF7D84",
"S7 	c #D08283",
"T7 	c #CB7F7B",
"U7 	c #D0847C",
"V7 	c #D78687",
"W7 	c #E49297",
"X7 	c #DD8D90",
"Y7 	c #D68B8B",
"Z7 	c #E79B95",
"`7 	c #C9847E",
" 8 	c #C87E80",
".8 	c #CD807D",
"+8 	c #DE9092",
"@8 	c #BB797F",
"#8 	c #CE8987",
"$8 	c #C47F85",
"%8 	c #C67F81",
"&8 	c #D28D8A",
"*8 	c #D18B8A",
"=8 	c #C48083",
"-8 	c #C37C7C",
";8 	c #DB9192",
">8 	c #BF777F",
",8 	c #BE767E",
"'8 	c #B97477",
")8 	c #B97071",
"!8 	c #C3707A",
"~8 	c #C26D77",
"{8 	c #A95C63",
"]8 	c #635445",
"^8 	c #AC9579",
"/8 	c #B37177",
"(8 	c #A86B6D",
"_8 	c #B9797A",
":8 	c #A6656F",
"<8 	c #A2656A",
"[8 	c #AD6F73",
"}8 	c #9E626B",
"|8 	c #BDAE88",
"18 	c #6A3A3E",
"28 	c #A8545C",
"38 	c #B75862",
"48 	c #AE535C",
"58 	c #AF535C",
"68 	c #B95A64",
"78 	c #B66067",
"88 	c #B76168",
"98 	c #C1666F",
"08 	c #D6707B",
"a8 	c #CC747A",
"b8 	c #CE767D",
"c8 	c #DA7984",
"d8 	c #E19190",
"e8 	c #DB868C",
"f8 	c #E08E90",
"g8 	c #E29195",
"h8 	c #EF9F9E",
"i8 	c #E38E8F",
"j8 	c #E3898E",
"k8 	c #DC8985",
"l8 	c #EA8F8C",
"m8 	c #D28F8C",
"n8 	c #EA9595",
"o8 	c #FAA7A2",
"p8 	c #E29487",
"q8 	c #D38281",
"r8 	c #F8A79D",
"s8 	c #E69599",
"t8 	c #E69495",
"u8 	c #DC8F92",
"v8 	c #D08086",
"w8 	c #D88788",
"x8 	c #D88A8F",
"y8 	c #DC8990",
"z8 	c #CB8287",
"A8 	c #D58C8D",
"B8 	c #CA8484",
"C8 	c #CE8685",
"D8 	c #CA8380",
"E8 	c #C67D82",
"F8 	c #CF8385",
"G8 	c #C47881",
"H8 	c #CE7782",
"I8 	c #BA7675",
"J8 	c #B86E70",
"K8 	c #AB5961",
"L8 	c #A3555C",
"M8 	c #6F5E4D",
"N8 	c #A88E74",
"O8 	c #A86867",
"P8 	c #975A61",
"Q8 	c #AF7276",
"R8 	c #9A756A",
"S8 	c #9E9271",
"T8 	c #9D5960",
"U8 	c #AD5963",
"V8 	c #AB5C65",
"W8 	c #B16569",
"X8 	c #B0555E",
"Y8 	c #B46365",
"Z8 	c #B96B66",
"`8 	c #AE5C60",
" 9 	c #BA6769",
".9 	c #C06C73",
"+9 	c #BD676D",
"@9 	c #BF6972",
"#9 	c #D78A8A",
"$9 	c #E19390",
"%9 	c #DF8C8C",
"&9 	c #DC8F90",
"*9 	c #D78378",
"=9 	c #D58489",
"-9 	c #E08B89",
";9 	c #D5888B",
">9 	c #D6858B",
",9 	c #DC898C",
"'9 	c #CB7A7E",
")9 	c #DA8B8F",
"!9 	c #D5898A",
"~9 	c #DB8D8C",
"{9 	c #E99698",
"]9 	c #D4868E",
"^9 	c #F9A7A8",
"/9 	c #D38881",
"(9 	c #D28380",
"_9 	c #BF8279",
":9 	c #CB8387",
"<9 	c #DC9294",
"[9 	c #C67D80",
"}9 	c #C38282",
"|9 	c #CF8489",
"19 	c #DE9195",
"29 	c #C98185",
"39 	c #5A5671",
"49 	c #806475",
"59 	c #C67B7B",
"69 	c #C27881",
"79 	c #CE8389",
"89 	c #C77C82",
"99 	c #BD767D",
"09 	c #BE727B",
"a9 	c #B46C73",
"b9 	c #B16C71",
"c9 	c #B66D72",
"d9 	c #B5656E",
"e9 	c #AF6168",
"f9 	c #AC5861",
"g9 	c #635A46",
"h9 	c #AA8F76",
"i9 	c #B27272",
"j9 	c #AB6A6F",
"k9 	c #B57178",
"l9 	c #A26569",
"m9 	c #B67577",
"n9 	c #BDAB86",
"o9 	c #5D3637",
"p9 	c #A6555F",
"q9 	c #A6555C",
"r9 	c #B1565F",
"s9 	c #B4555F",
"t9 	c #B4545D",
"u9 	c #B95862",
"v9 	c #BA636A",
"w9 	c #BE676E",
"x9 	c #BD646B",
"y9 	c #BD7072",
"z9 	c #D1707C",
"A9 	c #CA7179",
"B9 	c #D58386",
"C9 	c #D37E83",
"D9 	c #D58082",
"E9 	c #D17B83",
"F9 	c #E18E92",
"G9 	c #E29095",
"H9 	c #E59794",
"I9 	c #EC9899",
"J9 	c #DC878E",
"K9 	c #DB8785",
"L9 	c #D17E88",
"M9 	c #E28F91",
"N9 	c #E69892",
"O9 	c #D17F7B",
"P9 	c #F4A1A0",
"Q9 	c #E28B94",
"R9 	c #E98F8A",
"S9 	c #D8838A",
"T9 	c #D27E81",
"U9 	c #E49092",
"V9 	c #D7828A",
"W9 	c #D5848D",
"X9 	c #D08187",
"Y9 	c #DB888D",
"Z9 	c #CF7F86",
"`9 	c #D2888C",
" 0 	c #CB8586",
".0 	c #D18181",
"+0 	c #CB8484",
"@0 	c #DD908A",
"#0 	c #C57F80",
"$0 	c #CE8686",
"%0 	c #BF7178",
"&0 	c #C1777A",
"*0 	c #B3696E",
"=0 	c #B1696C",
"-0 	c #AD5F61",
";0 	c #A8585F",
">0 	c #9C5158",
",0 	c #7E7265",
"'0 	c #786781",
")0 	c #856D84",
"!0 	c #9E7C83",
"~0 	c #A08972",
"{0 	c #A15B64",
"]0 	c #9F5660",
"^0 	c #A95761",
"/0 	c #AB5E65",
"(0 	c #AA565F",
"_0 	c #A8585E",
":0 	c #B85661",
"<0 	c #AF585D",
"[0 	c #BD6A6F",
"}0 	c #BB666C",
"|0 	c #C77276",
"10 	c #C27476",
"20 	c #C4807C",
"30 	c #E79395",
"40 	c #E89293",
"50 	c #D98588",
"60 	c #D47F76",
"70 	c #D98788",
"80 	c #CF797F",
"90 	c #CE7F82",
"00 	c #E79993",
"a0 	c #D18385",
"b0 	c #D9908A",
"c0 	c #CC7C7A",
"d0 	c #D18275",
"e0 	c #D88289",
"f0 	c #D58187",
"g0 	c #D88380",
"h0 	c #D7888A",
"i0 	c #D48F8D",
"j0 	c #D18A84",
"k0 	c #C18480",
"l0 	c #BE7980",
"m0 	c #C78084",
"n0 	c #C67D83",
"o0 	c #C97C84",
"p0 	c #C77B7E",
"q0 	c #C78282",
"r0 	c #C1797D",
"s0 	c #B97478",
"t0 	c #7E6072",
"u0 	c #BA7878",
"v0 	c #C58281",
"w0 	c #C57982",
"x0 	c #C0777E",
"y0 	c #BD747D",
"z0 	c #B77076",
"A0 	c #BD7479",
"B0 	c #B77174",
"C0 	c #B86971",
"D0 	c #B06069",
"E0 	c #AF6069",
"F0 	c #A4555C",
"G0 	c #A24F58",
"H0 	c #8E7563",
"I0 	c #A38A71",
"J0 	c #896575",
"K0 	c #B58085",
"L0 	c #9A5E60",
"M0 	c #BBA583",
"N0 	c #523435",
"O0 	c #A0565E",
"P0 	c #A5555E",
"Q0 	c #A4535B",
"R0 	c #AB575E",
"S0 	c #AC545C",
"T0 	c #C05964",
"U0 	c #BB5D68",
"V0 	c #B85C64",
"W0 	c #BD6B6E",
"X0 	c #B76A6E",
"Y0 	c #BC686D",
"Z0 	c #C16B70",
"`0 	c #D16E79",
" a 	c #C96E78",
".a 	c #DF888B",
"+a 	c #D07E84",
"@a 	c #E39092",
"#a 	c #E29594",
"$a 	c #DF8990",
"%a 	c #E58E91",
"&a 	c #DA8489",
"*a 	c #D98889",
"=a 	c #D48C8C",
"-a 	c #DF8E93",
";a 	c #F69CA6",
">a 	c #D47D87",
",a 	c #EB9C9A",
"'a 	c #F19D9C",
")a 	c #DD868E",
"!a 	c #D6848A",
"~a 	c #D78C8D",
"{a 	c #CC8084",
"]a 	c #D2868A",
"^a 	c #CD7F87",
"/a 	c #CF8285",
"(a 	c #DC8A90",
"_a 	c #D68D8B",
":a 	c #E18D96",
"<a 	c #D58383",
"[a 	c #CB7A81",
"}a 	c #CC8483",
"|a 	c #CE8584",
"1a 	c #C47C7F",
"2a 	c #C17773",
"3a 	c #BE747A",
"4a 	c #BB7776",
"5a 	c #BB6A73",
"6a 	c #B3666D",
"7a 	c #B2646D",
"8a 	c #A75D61",
"9a 	c #A65358",
"0a 	c #A54F57",
"aa 	c #A1575F",
"ba 	c #826979",
"ca 	c #6C6382",
"da 	c #766A88",
"ea 	c #877185",
"fa 	c #A27883",
"ga 	c #9D5863",
"ha 	c #A45963",
"ia 	c #A85761",
"ja 	c #A95A62",
"ka 	c #AD5F62",
"la 	c #A7595F",
"ma 	c #AA5659",
"na 	c #B6626E",
"oa 	c #B16361",
"pa 	c #AD6265",
"qa 	c #C07976",
"ra 	c #CB7D7E",
"sa 	c #AF7A7E",
"ta 	c #6F5E72",
"ua 	c #615871",
"va 	c #7F6176",
"wa 	c #B36F75",
"xa 	c #D57F84",
"ya 	c #D07D85",
"za 	c #E1908E",
"Aa 	c #D78485",
"Ba 	c #CB7F84",
"Ca 	c #625872",
"Da 	c #7F6275",
"Ea 	c #BA7883",
"Fa 	c #D18B8B",
"Ga 	c #E28B86",
"Ha 	c #CE8888",
"Ia 	c #BF7780",
"Ja 	c #615872",
"Ka 	c #C98183",
"La 	c #CB8788",
"Ma 	c #CE8687",
"Na 	c #735F75",
"Oa 	c #936871",
"Pa 	c #B67676",
"Qa 	c #B67176",
"Ra 	c #B67076",
"Sa 	c #AD6B6F",
"Ta 	c #BB737A",
"Ua 	c #C17677",
"Va 	c #AE6369",
"Wa 	c #B06067",
"Xa 	c #A75C63",
"Ya 	c #A45259",
"Za 	c #A15056",
"`a 	c #A3525A",
" b 	c #635C74",
".b 	c #746681",
"+b 	c #816D83",
"@b 	c #B78D8C",
"#b 	c #533937",
"$b 	c #9C5B61",
"%b 	c #9F565D",
"&b 	c #A95760",
"*b 	c #B55A65",
"=b 	c #B25761",
"-b 	c #AF555E",
";b 	c #B3555E",
">b 	c #AE5C64",
",b 	c #B95D64",
"'b 	c #B45D63",
")b 	c #B26466",
"!b 	c #B7666E",
"~b 	c #C96D77",
"{b 	c #C87679",
"]b 	c #D27B80",
"^b 	c #C6747B",
"/b 	c #D27C83",
"(b 	c #CD8284",
"_b 	c #DF898E",
":b 	c #D58889",
"<b 	c #EE9B98",
"[b 	c #D48184",
"}b 	c #DD8A90",
"|b 	c #DC8C8B",
"1b 	c #E49697",
"2b 	c #DD8A92",
"3b 	c #D8818A",
"4b 	c #E28D92",
"5b 	c #EA9290",
"6b 	c #D07983",
"7b 	c #D37F86",
"8b 	c #DB8C90",
"9b 	c #C97981",
"0b 	c #CC7F85",
"ab 	c #C47F81",
"bb 	c #D48A88",
"cb 	c #E19193",
"db 	c #E3928F",
"eb 	c #D48989",
"fb 	c #C3797E",
"gb 	c #D3868D",
"hb 	c #C57A7E",
"ib 	c #C77C81",
"jb 	c #BC7579",
"kb 	c #C4737C",
"lb 	c #BC7276",
"mb 	c #C4807D",
"nb 	c #B26C6C",
"ob 	c #B76A6F",
"pb 	c #B36E6D",
"qb 	c #A8565D",
"rb 	c #A45058",
"sb 	c #985358",
"tb 	c #4F4962",
"ub 	c #615B7B",
"vb 	c #736680",
"wb 	c #796B8A",
"xb 	c #987885",
"yb 	c #9D5C64",
"zb 	c #AB5D68",
"Ab 	c #AA5A63",
"Bb 	c #AE5863",
"Cb 	c #B15762",
"Db 	c #9F545A",
"Eb 	c #AE545C",
"Fb 	c #D08180",
"Gb 	c #AE575D",
"Hb 	c #BE6E6A",
"Ib 	c #AE6967",
"Jb 	c #C87C78",
"Kb 	c #C78484",
"Lb 	c #B87F87",
"Mb 	c #8A6577",
"Nb 	c #635871",
"Ob 	c #DC8E8C",
"Pb 	c #E29081",
"Qb 	c #D7878B",
"Rb 	c #DE8D8D",
"Sb 	c #F4A29B",
"Tb 	c #D07C7C",
"Ub 	c #6E5C71",
"Vb 	c #7F6277",
"Wb 	c #CE8184",
"Xb 	c #DC918E",
"Yb 	c #D58B8D",
"Zb 	c #A2707A",
"`b 	c #9C6C7B",
" c 	c #C47B7E",
".c 	c #C47882",
"+c 	c #BE7875",
"@c 	c #C47E7D",
"#c 	c #CB8182",
"$c 	c #E19191",
"%c 	c #7D5F74",
"&c 	c #BB737B",
"*c 	c #B67169",
"=c 	c #BC7678",
"-c 	c #B76B74",
";c 	c #B37072",
">c 	c #AE6E6F",
",c 	c #AF686D",
"'c 	c #AD666A",
")c 	c #DA868C",
"!c 	c #A35859",
"~c 	c #9D4F56",
"{c 	c #964E55",
"]c 	c #56506F",
"^c 	c #666289",
"/c 	c #786D8F",
"(c 	c #8B7285",
"_c 	c #9C7580",
":c 	c #9D5B62",
"<c 	c #A25A62",
"[c 	c #AA5862",
"}c 	c #AE5762",
"|c 	c #AF5660",
"1c 	c #9E5553",
"2c 	c #AE565F",
"3c 	c #B26365",
"4c 	c #AB6362",
"5c 	c #B36469",
"6c 	c #D38685",
"7c 	c #C67578",
"8c 	c #E48C8F",
"9c 	c #CF7980",
"0c 	c #CE7D83",
"ac 	c #D8898A",
"bc 	c #D8878B",
"cc 	c #E59495",
"dc 	c #F7A29F",
"ec 	c #E49593",
"fc 	c #ED9999",
"gc 	c #EC9B99",
"hc 	c #E7A098",
"ic 	c #DB918F",
"jc 	c #E18F8D",
"kc 	c #D27B85",
"lc 	c #D58286",
"mc 	c #D5878C",
"nc 	c #D27C85",
"oc 	c #CF7E85",
"pc 	c #CB7B84",
"qc 	c #CD8283",
"rc 	c #D4898A",
"sc 	c #D68D89",
"tc 	c #D88F8F",
"uc 	c #C3767A",
"vc 	c #CA8083",
"wc 	c #B66E72",
"xc 	c #C57E7C",
"yc 	c #B97373",
"zc 	c #C07475",
"Ac 	c #BA6E6F",
"Bc 	c #A15159",
"Cc 	c #995258",
"Dc 	c #3D3A4B",
"Ec 	c #535070",
"Fc 	c #5F5D82",
"Gc 	c #6F698C",
"Hc 	c #916F80",
"Ic 	c #A5606A",
"Jc 	c #A55B66",
"Kc 	c #AF5D68",
"Lc 	c #A4555F",
"Mc 	c #AD5760",
"Nc 	c #A2625C",
"Oc 	c #AC6969",
"Pc 	c #A95E60",
"Qc 	c #AB6162",
"Rc 	c #B1646C",
"Sc 	c #BE7472",
"Tc 	c #B36867",
"Uc 	c #CA837A",
"Vc 	c #A36D78",
"Wc 	c #B26D7A",
"Xc 	c #C37C7F",
"Yc 	c #C37376",
"Zc 	c #C87B80",
"`c 	c #D68989",
" d 	c #8D6876",
".d 	c #665A73",
"+d 	c #625972",
"@d 	c #DF9380",
"#d 	c #CA8685",
"$d 	c #D38389",
"%d 	c #DF8F94",
"&d 	c #BB7E82",
"*d 	c #675972",
"=d 	c #635872",
"-d 	c #D1818E",
";d 	c #C47D83",
">d 	c #C67A7F",
",d 	c #D48388",
"'d 	c #806174",
")d 	c #BE777B",
"!d 	c #BC7277",
"~d 	c #B86F77",
"{d 	c #B67173",
"]d 	c #B96F73",
"^d 	c #C27771",
"/d 	c #AD666C",
"(d 	c #AB6668",
"_d 	c #AB6768",
":d 	c #AC555E",
"<d 	c #B16162",
"[d 	c #9C5057",
"}d 	c #9B5258",
"|d 	c #685563",
"1d 	c #6C617A",
"2d 	c #706684",
"3d 	c #766987",
"4d 	c #8A6D80",
"5d 	c #9C5B63",
"6d 	c #A15862",
"7d 	c #A65E65",
"8d 	c #9E555C",
"9d 	c #9D585B",
"0d 	c #A76463",
"ad 	c #9A5A5C",
"bd 	c #A26462",
"cd 	c #A05C59",
"dd 	c #A05654",
"ed 	c #B46367",
"fd 	c #B46A69",
"gd 	c #A55F6A",
"hd 	c #A96466",
"id 	c #B77173",
"jd 	c #C17276",
"kd 	c #B6696D",
"ld 	c #CC8581",
"md 	c #D08383",
"nd 	c #DB8289",
"od 	c #DC8A8D",
"pd 	c #E09492",
"qd 	c #E38D93",
"rd 	c #F4A09F",
"sd 	c #DC8B8D",
"td 	c #F09B9B",
"ud 	c #D98688",
"vd 	c #DE8F90",
"wd 	c #E5948A",
"xd 	c #EC979B",
"yd 	c #D78A8E",
"zd 	c #EC9895",
"Ad 	c #D07F84",
"Bd 	c #D6888C",
"Cd 	c #CC8086",
"Dd 	c #CD7B83",
"Ed 	c #CF7C88",
"Fd 	c #D68B8D",
"Gd 	c #C3797A",
"Hd 	c #CE8684",
"Id 	c #DC8F91",
"Jd 	c #DB8D8B",
"Kd 	c #DD858F",
"Ld 	c #D28988",
"Md 	c #C3777B",
"Nd 	c #BF6E74",
"Od 	c #C9707A",
"Pd 	c #BB6F73",
"Qd 	c #C07870",
"Rd 	c #B86B70",
"Sd 	c #B56C6F",
"Td 	c #CB7D75",
"Ud 	c #AF6969",
"Vd 	c #9C4D55",
"Wd 	c #9E565C",
"Xd 	c #A69675",
"Yd 	c #564E3E",
"Zd 	c #3F3748",
"`d 	c #584F65",
" e 	c #4E485E",
".e 	c #C2B18A",
"+e 	c #9A5C65",
"@e 	c #A35C66",
"#e 	c #A45A64",
"$e 	c #AA5A64",
"%e 	c #B75D68",
"&e 	c #AB5B61",
"*e 	c #B25D62",
"=e 	c #B06268",
"-e 	c #AC5A5E",
";e 	c #B05860",
">e 	c #C2686D",
",e 	c #BB7070",
"'e 	c #C77371",
")e 	c #B56F71",
"!e 	c #B57680",
"~e 	c #CF7A7F",
"{e 	c #C57775",
"]e 	c #C57978",
"^e 	c #BD7474",
"/e 	c #C97D80",
"(e 	c #CB767C",
"_e 	c #D07F7D",
":e 	c #BB848A",
"<e 	c #BC8182",
"[e 	c #E19596",
"}e 	c #6D5D74",
"|e 	c #5F5872",
"1e 	c #D08483",
"2e 	c #E08E92",
"3e 	c #D08686",
"4e 	c #CD8784",
"5e 	c #CC7982",
"6e 	c #B6757C",
"7e 	c #946676",
"8e 	c #A66F7A",
"9e 	c #D17B85",
"0e 	c #BF767B",
"ae 	c #C87F7F",
"be 	c #C27478",
"ce 	c #5F5771",
"de 	c #796175",
"ee 	c #CB8485",
"fe 	c #B47271",
"ge 	c #BA7773",
"he 	c #B76A70",
"ie 	c #CB7C7C",
"je 	c #B4676E",
"ke 	c #B26E69",
"le 	c #BD7876",
"me 	c #B36E70",
"ne 	c #AA565D",
"oe 	c #A6595D",
"pe 	c #A66363",
"qe 	c #945356",
"re 	c #8E4E54",
"se 	c #36343B",
"te 	c #484561",
"ue 	c #5A5676",
"ve 	c #666283",
"we 	c #8B6C69",
"xe 	c #9C5E64",
"ye 	c #A65862",
"ze 	c #AD5A63",
"Ae 	c #AB555F",
"Be 	c #AE575F",
"Ce 	c #AB5B5D",
"De 	c #A9555B",
"Ee 	c #B06465",
"Fe 	c #B76467",
"Ge 	c #B7656C",
"He 	c #C07073",
"Ie 	c #B87070",
"Je 	c #D68384",
"Ke 	c #DC8E8E",
"Le 	c #EB9195",
"Me 	c #DB8C8B",
"Ne 	c #DA8F8B",
"Oe 	c #E89197",
"Pe 	c #F2979B",
"Qe 	c #DF8B8D",
"Re 	c #D68A8A",
"Se 	c #EC9D9A",
"Te 	c #EB9F9B",
"Ue 	c #DA888B",
"Ve 	c #E08A8F",
"We 	c #E79088",
"Xe 	c #D6818C",
"Ye 	c #D27B84",
"Ze 	c #D48087",
"`e 	c #CD777F",
" f 	c #D58486",
".f 	c #C6777E",
"+f 	c #CB7B80",
"@f 	c #D08A88",
"#f 	c #F09C9D",
"$f 	c #CB7D7F",
"%f 	c #C57579",
"&f 	c #CC7E84",
"*f 	c #C57275",
"=f 	c #BA666E",
"-f 	c #C3746F",
";f 	c #B46B6F",
">f 	c #AE5F62",
",f 	c #A2545C",
"'f 	c #D07974",
")f 	c #A8575D",
"!f 	c #9F5A60",
"~f 	c #9D866E",
"{f 	c #82735C",
"]f 	c #AD7077",
"^f 	c #B6767F",
"/f 	c #B77780",
"(f 	c #B27578",
"_f 	c #645846",
":f 	c #BAA183",
"<f 	c #A9626C",
"[f 	c #A75D66",
"}f 	c #A85B64",
"|f 	c #AA5F66",
"1f 	c #A86063",
"2f 	c #AD565F",
"3f 	c #AF5F64",
"4f 	c #B36B6F",
"5f 	c #BF7173",
"6f 	c #C56C71",
"7f 	c #BC6768",
"8f 	c #A26D76",
"9f 	c #786075",
"0f 	c #5D5771",
"af 	c #D27F74",
"bf 	c #BD7677",
"cf 	c #CF817F",
"df 	c #D38882",
"ef 	c #826478",
"ff 	c #5B5671",
"gf 	c #D98A8A",
"hf 	c #D58C88",
"if 	c #D38C8B",
"jf 	c #C97E81",
"kf 	c #AA6E7B",
"lf 	c #886176",
"mf 	c #C27A7C",
"nf 	c #CA7C82",
"of 	c #D47983",
"pf 	c #C87E7E",
"qf 	c #BA6C73",
"rf 	c #9F6F79",
"sf 	c #9A6872",
"tf 	c #CF8181",
"uf 	c #B36D6D",
"vf 	c #AC6060",
"wf 	c #B36B6C",
"xf 	c #A3595E",
"yf 	c #9C5059",
"zf 	c #964F56",
"Af 	c #B8A984",
"Bf 	c #393128",
"Cf 	c #37262A",
"Df 	c #3D303A",
"Ef 	c #7D5966",
"Ff 	c #AB9979",
"Gf 	c #9C6868",
"Hf 	c #A05C64",
"If 	c #A55B64",
"Jf 	c #B35F69",
"Kf 	c #A95861",
"Lf 	c #B45A64",
"Mf 	c #AC5E60",
"Nf 	c #B65862",
"Of 	c #B6565F",
"Pf 	c #B66D74",
"Qf 	c #B76569",
"Rf 	c #C9787A",
"Sf 	c #C77B7A",
"Tf 	c #B56A66",
"Uf 	c #D98686",
"Vf 	c #DC878D",
"Wf 	c #D2807F",
"Xf 	c #E89388",
"Yf 	c #F2A09B",
"Zf 	c #CF7883",
"`f 	c #EE959A",
" g 	c #DC898D",
".g 	c #D68587",
"+g 	c #F699A2",
"@g 	c #E89A94",
"#g 	c #EC9C8F",
"$g 	c #ED999A",
"%g 	c #CD797D",
"&g 	c #EF9596",
"*g 	c #CC7381",
"=g 	c #D17D84",
"-g 	c #D37A85",
";g 	c #CA797F",
">g 	c #CF757F",
",g 	c #D27E86",
"'g 	c #C8727C",
")g 	c #CB7880",
"!g 	c #C87C7E",
"~g 	c #C68681",
"{g 	c #D88E87",
"]g 	c #C37878",
"^g 	c #BC6971",
"/g 	c #C07175",
"(g 	c #BE666F",
"_g 	c #BA686F",
":g 	c #B35D65",
"<g 	c #B46567",
"[g 	c #B76A69",
"}g 	c #BB6C69",
"|g 	c #A35A5F",
"1g 	c #A38B70",
"2g 	c #7D7359",
"3g 	c #AE6F79",
"4g 	c #BE7D86",
"5g 	c #C08089",
"6g 	c #BC7F86",
"7g 	c #C0828B",
"8g 	c #BA7C85",
"9g 	c #8E8365",
"0g 	c #AD8276",
"ag 	c #A35D67",
"bg 	c #A85D66",
"cg 	c #AD6168",
"dg 	c #AB5D63",
"eg 	c #B56B6C",
"fg 	c #BF6E6F",
"gg 	c #CD7C7E",
"hg 	c #AC6162",
"ig 	c #AD5D61",
"jg 	c #BE6468",
"kg 	c #B66569",
"lg 	c #EA9790",
"mg 	c #C77575",
"ng 	c #BF6C72",
"og 	c #C8817A",
"pg 	c #B96E6F",
"qg 	c #D3887E",
"rg 	c #C17B75",
"sg 	c #DE8F88",
"tg 	c #E39182",
"ug 	c #F29993",
"vg 	c #F9B0A4",
"wg 	c #D6817F",
"xg 	c #D18081",
"yg 	c #DB8B8A",
"zg 	c #D48488",
"Ag 	c #D28085",
"Bg 	c #C9787E",
"Cg 	c #D67984",
"Dg 	c #D27D86",
"Eg 	c #C9797E",
"Fg 	c #CA757C",
"Gg 	c #C7797A",
"Hg 	c #C17076",
"Ig 	c #D38482",
"Jg 	c #C87E78",
"Kg 	c #C27A7B",
"Lg 	c #BF6F72",
"Mg 	c #BA6971",
"Ng 	c #B96B6A",
"Og 	c #C07276",
"Pg 	c #B76D6D",
"Qg 	c #B66B69",
"Rg 	c #AE6C6C",
"Sg 	c #9C565A",
"Tg 	c #975457",
"Ug 	c #B4A480",
"Vg 	c #423B2F",
"Wg 	c #B07379",
"Xg 	c #B77981",
"Yg 	c #BA7C84",
"Zg 	c #BF7F88",
"`g 	c #A16C70",
" h 	c #B6A680",
".h 	c #A2666A",
"+h 	c #A25C67",
"@h 	c #B3616B",
"#h 	c #A95B63",
"$h 	c #AD5B63",
"%h 	c #B55862",
"&h 	c #AF565E",
"*h 	c #B86366",
"=h 	c #C17370",
"-h 	c #C47478",
";h 	c #BF7571",
">h 	c #C5786E",
",h 	c #D58783",
"'h 	c #DC8B86",
")h 	c #DB8F8C",
"!h 	c #E09082",
"~h 	c #CF8082",
"{h 	c #D48489",
"]h 	c #EC9C95",
"^h 	c #ED9296",
"/h 	c #E79398",
"(h 	c #F4999B",
"_h 	c #E18F8F",
":h 	c #EB9795",
"<h 	c #DE938A",
"[h 	c #E18E8D",
"}h 	c #D77E86",
"|h 	c #D77D7C",
"1h 	c #D17780",
"2h 	c #D58687",
"3h 	c #C57279",
"4h 	c #D6888D",
"5h 	c #C67C7B",
"6h 	c #C07571",
"7h 	c #BD6C70",
"8h 	c #B66268",
"9h 	c #C57268",
"0h 	c #BB6971",
"ah 	c #B16F6C",
"bh 	c #BB7570",
"ch 	c #AF6D67",
"dh 	c #AA686A",
"eh 	c #A0886F",
"fh 	c #796D57",
"gh 	c #B97880",
"hh 	c #B97A82",
"ih 	c #C4858D",
"jh 	c #CB8C8D",
"kh 	c #C68A92",
"lh 	c #C3878F",
"mh 	c #B4A880",
"nh 	c #A56D6D",
"oh 	c #A75F68",
"ph 	c #AB5E68",
"qh 	c #AC6469",
"rh 	c #A65D63",
"sh 	c #B2686C",
"th 	c #BB7573",
"uh 	c #B76768",
"vh 	c #C97D75",
"wh 	c #C56D71",
"xh 	c #B9656A",
"yh 	c #CC847E",
"zh 	c #BF7376",
"Ah 	c #B77572",
"Bh 	c #CF8382",
"Ch 	c #C7766C",
"Dh 	c #E4918D",
"Eh 	c #F0A198",
"Fh 	c #F297A0",
"Gh 	c #E79292",
"Hh 	c #CF787F",
"Ih 	c #D98985",
"Jh 	c #D48382",
"Kh 	c #D98589",
"Lh 	c #D58184",
"Mh 	c #D37E82",
"Nh 	c #CF7880",
"Oh 	c #D58888",
"Ph 	c #D88188",
"Qh 	c #CF8183",
"Rh 	c #C37178",
"Sh 	c #C8747C",
"Th 	c #D17D80",
"Uh 	c #CB7D80",
"Vh 	c #C6767A",
"Wh 	c #CD7C81",
"Xh 	c #B8696E",
"Yh 	c #C6807C",
"Zh 	c #C67877",
"`h 	c #BF7274",
" i 	c #AD5F66",
".i 	c #C57C7B",
"+i 	c #B76F73",
"@i 	c #B76C70",
"#i 	c #A1595B",
"$i 	c #AA6669",
"%i 	c #9E5B58",
"&i 	c #965355",
"*i 	c #A78E73",
"=i 	c #514637",
"-i 	c #C8838C",
";i 	c #B5797F",
">i 	c #C88690",
",i 	c #D28F99",
"'i 	c #CB8B95",
")i 	c #C0848B",
"!i 	c #9D6C72",
"~i 	c #C0B289",
"{i 	c #AB5F68",
"]i 	c #AF5E68",
"^i 	c #AF5C66",
"/i 	c #AD5962",
"(i 	c #B45963",
"_i 	c #AC5C61",
":i 	c #B8666C",
"<i 	c #B56567",
"[i 	c #BB6F6E",
"}i 	c #AC6767",
"|i 	c #B36666",
"1i 	c #C27674",
"2i 	c #BB7172",
"3i 	c #CD7C7A",
"4i 	c #C76E72",
"5i 	c #CE7E7A",
"6i 	c #C97A76",
"7i 	c #ED9B99",
"8i 	c #F09A9F",
"9i 	c #D17C82",
"0i 	c #E68D93",
"ai 	c #F7A0A3",
"bi 	c #EC9690",
"ci 	c #CF787D",
"di 	c #D27B81",
"ei 	c #E18D8D",
"fi 	c #CA787C",
"gi 	c #E88F97",
"hi 	c #CC787E",
"ii 	c #CA737B",
"ji 	c #CA747C",
"ki 	c #CC757D",
"li 	c #CA727B",
"mi 	c #C87379",
"ni 	c #D07B82",
"oi 	c #CD747B",
"pi 	c #CF8384",
"qi 	c #D28683",
"ri 	c #BF7478",
"si 	c #C27878",
"ti 	c #BA686E",
"ui 	c #C2706E",
"vi 	c #C16F6D",
"wi 	c #B55F63",
"xi 	c #BC6867",
"yi 	c #A85258",
"zi 	c #C57F79",
"Ai 	c #9E545A",
"Bi 	c #AC8773",
"Ci 	c #A68271",
"Di 	c #AB7176",
"Ei 	c #B57980",
"Fi 	c #CA8891",
"Gi 	c #C1858C",
"Hi 	c #BF838A",
"Ii 	c #CB8E96",
"Ji 	c #D696A0",
"Ki 	c #CF929B",
"Li 	c #DB99A4",
"Mi 	c #8C6269",
"Ni 	c #CCBD91",
"Oi 	c #AE656F",
"Pi 	c #A75E66",
"Qi 	c #AB5964",
"Ri 	c #B16B6F",
"Si 	c #AF5E60",
"Ti 	c #BC6A70",
"Ui 	c #B05760",
"Vi 	c #BA5A62",
"Wi 	c #C77B75",
"Xi 	c #BB646B",
"Yi 	c #C2706F",
"Zi 	c #D1857F",
"`i 	c #D98284",
" j 	c #D37D76",
".j 	c #D9877F",
"+j 	c #DC8F88",
"@j 	c #E18D8C",
"#j 	c #D48783",
"$j 	c #E28D8F",
"%j 	c #CE787C",
"&j 	c #CF737B",
"*j 	c #D98282",
"=j 	c #D27D81",
"-j 	c #CE717C",
";j 	c #D67480",
">j 	c #D4747F",
",j 	c #CC777D",
"'j 	c #D17981",
")j 	c #CD7A7F",
"!j 	c #C07473",
"~j 	c #CA7177",
"{j 	c #C87677",
"]j 	c #D28480",
"^j 	c #C7797B",
"/j 	c #C76D75",
"(j 	c #C97775",
"_j 	c #BB686E",
":j 	c #BF7776",
"<j 	c #B9696A",
"[j 	c #B46267",
"}j 	c #B9696B",
"|j 	c #A95F61",
"1j 	c #B36B68",
"2j 	c #A25A5D",
"3j 	c #A56665",
"4j 	c #9C866C",
"5j 	c #655044",
"6j 	c #AD7378",
"7j 	c #B87B7F",
"8j 	c #CD8B95",
"9j 	c #D1909A",
"0j 	c #DC99A3",
"aj 	c #DC9AA4",
"bj 	c #C98C94",
"cj 	c #845D61",
"dj 	c #D3C396",
"ej 	c #AE636E",
"fj 	c #B3626D",
"gj 	c #AB5C66",
"hj 	c #AD5C62",
"ij 	c #B55963",
"jj 	c #BA616C",
"kj 	c #BC7071",
"lj 	c #B25A60",
"mj 	c #B25C5F",
"nj 	c #B45D61",
"oj 	c #B66E6C",
"pj 	c #C17E74",
"qj 	c #D17C7F",
"rj 	c #CD7377",
"sj 	c #C56E72",
"tj 	c #D48584",
"uj 	c #CF767F",
"vj 	c #BB696F",
"wj 	c #DC8487",
"xj 	c #ED9D97",
"yj 	c #ED8F93",
"zj 	c #DE868A",
"Aj 	c #E68D92",
"Bj 	c #E1898C",
"Cj 	c #D37C83",
"Dj 	c #DB8588",
"Ej 	c #CD7378",
"Fj 	c #C6717B",
"Gj 	c #CE777C",
"Hj 	c #C86E75",
"Ij 	c #C96E77",
"Jj 	c #C66E76",
"Kj 	c #CC717A",
"Lj 	c #D58086",
"Mj 	c #C67A7B",
"Nj 	c #D5948A",
"Oj 	c #C37174",
"Pj 	c #C17171",
"Qj 	c #C27173",
"Rj 	c #C2736F",
"Sj 	c #B56164",
"Tj 	c #BF6A6E",
"Uj 	c #AC565B",
"Vj 	c #CE817A",
"Wj 	c #BC6B74",
"Xj 	c #A07E6C",
"Yj 	c #937862",
"Zj 	c #B4797B",
"`j 	c #BF7E88",
" k 	c #C7868E",
".k 	c #C1838C",
"+k 	c #D6939C",
"@k 	c #CE8F97",
"#k 	c #D3929A",
"$k 	c #DB9BA4",
"%k 	c #553D40",
"&k 	c #D8C99B",
"*k 	c #A8606A",
"=k 	c #AA5E67",
"-k 	c #AC5C66",
";k 	c #B4666C",
">k 	c #AE6069",
",k 	c #B9646B",
"'k 	c #AE6965",
")k 	c #C98681",
"!k 	c #C77778",
"~k 	c #B66062",
"{k 	c #DD847E",
"]k 	c #C77070",
"^k 	c #CF7D78",
"/k 	c #D17C7D",
"(k 	c #DE8883",
"_k 	c #D68476",
":k 	c #E2908B",
"<k 	c #EAA097",
"[k 	c #D67E80",
"}k 	c #D17A7A",
"|k 	c #CC6A73",
"1k 	c #DC8587",
"2k 	c #CC7078",
"3k 	c #CB6D76",
"4k 	c #C67076",
"5k 	c #CA7779",
"6k 	c #C77278",
"7k 	c #CA6E78",
"8k 	c #C77578",
"9k 	c #CB7979",
"0k 	c #C96F77",
"ak 	c #C87276",
"bk 	c #D17F82",
"ck 	c #C26E74",
"dk 	c #D38683",
"ek 	c #BB7363",
"fk 	c #AD7166",
"gk 	c #BB6F6D",
"hk 	c #BE726D",
"ik 	c #C07C79",
"jk 	c #BF7473",
"kk 	c #B56569",
"lk 	c #B56469",
"mk 	c #A15A5D",
"nk 	c #A98975",
"ok 	c #775E47",
"pk 	c #AD7272",
"qk 	c #B47A7D",
"rk 	c #BC7F85",
"sk 	c #C98B94",
"tk 	c #E6A1AC",
"uk 	c #E6A2AD",
"vk 	c #E6A2AC",
"wk 	c #D597A0",
"xk 	c #D999A3",
"yk 	c #6C4D51",
"zk 	c #D7C89A",
"Ak 	c #AA616B",
"Bk 	c #B6646E",
"Ck 	c #B35F6A",
"Dk 	c #AA5B64",
"Ek 	c #B75B65",
"Fk 	c #B05D62",
"Gk 	c #B9696E",
"Hk 	c #BB6766",
"Ik 	c #BA6D6A",
"Jk 	c #B96564",
"Kk 	c #BC7376",
"Lk 	c #C3736C",
"Mk 	c #D98483",
"Nk 	c #D58585",
"Ok 	c #CD7478",
"Pk 	c #E28B8B",
"Qk 	c #E49392",
"Rk 	c #D78589",
"Sk 	c #DD888A",
"Tk 	c #DD878B",
"Uk 	c #E2858F",
"Vk 	c #F49C9F",
"Wk 	c #E79092",
"Xk 	c #D87B86",
"Yk 	c #D77D88",
"Zk 	c #CB767B",
"`k 	c #C96B75",
" l 	c #D5807D",
".l 	c #C56B72",
"+l 	c #D87F84",
"@l 	c #C97177",
"#l 	c #CE7A7E",
"$l 	c #C9797F",
"%l 	c #CE8081",
"&l 	c #CC8982",
"*l 	c #B9636E",
"=l 	c #B7686B",
"-l 	c #BC6A6B",
";l 	c #B26064",
">l 	c #AB5A5F",
",l 	c #B56A6E",
"'l 	c #B38278",
")l 	c #98806C",
"!l 	c #BA7881",
"~l 	c #BE7E85",
"{l 	c #C5868E",
"]l 	c #CD8C96",
"^l 	c #D4939C",
"/l 	c #D29499",
"(l 	c #D1929C",
"_l 	c #D4969D",
":l 	c #CA9094",
"<l 	c #DD9DA5",
"[l 	c #DC9BA4",
"}l 	c #453334",
"|l 	c #CBB990",
"1l 	c #A45D66",
"2l 	c #B3686D",
"3l 	c #BA6B6D",
"4l 	c #AF5C65",
"5l 	c #C77B7B",
"6l 	c #BF7072",
"7l 	c #BC686E",
"8l 	c #BA6569",
"9l 	c #BE6B6E",
"0l 	c #D17876",
"al 	c #CD7B7F",
"bl 	c #DA8884",
"cl 	c #EB9189",
"dl 	c #E49E92",
"el 	c #E3988F",
"fl 	c #C8827D",
"gl 	c #C87979",
"hl 	c #C86E72",
"il 	c #D97E7D",
"jl 	c #D47D7F",
"kl 	c #D47D81",
"ll 	c #D06C78",
"ml 	c #CB6E76",
"nl 	c #C97679",
"ol 	c #CB7078",
"pl 	c #C77378",
"ql 	c #C76D74",
"rl 	c #C27572",
"sl 	c #C86C76",
"tl 	c #C56B73",
"ul 	c #CE767E",
"vl 	c #CF7B7F",
"wl 	c #E38B8E",
"xl 	c #BA6C67",
"yl 	c #BA7973",
"zl 	c #BB6F71",
"Al 	c #AC6262",
"Bl 	c #BD7674",
"Cl 	c #B06969",
"Dl 	c #C27774",
"El 	c #9E7D6E",
"Fl 	c #7A6855",
"Gl 	c #B6797F",
"Hl 	c #BD7F85",
"Il 	c #C7878B",
"Jl 	c #D1929B",
"Kl 	c #EBA5B1",
"Ll 	c #E29FA8",
"Ml 	c #D4969E",
"Nl 	c #D898A0",
"Ol 	c #E5A2AB",
"Pl 	c #4E393B",
"Ql 	c #A55E67",
"Rl 	c #BC626E",
"Sl 	c #B15C66",
"Tl 	c #B45C65",
"Ul 	c #B15F66",
"Vl 	c #AF706A",
"Wl 	c #B9746C",
"Xl 	c #B36567",
"Yl 	c #BB6B6B",
"Zl 	c #B76367",
"`l 	c #C7766E",
" m 	c #BF6965",
".m 	c #CF7C77",
"+m 	c #DF868A",
"@m 	c #E98F91",
"#m 	c #DE8788",
"$m 	c #E29191",
"%m 	c #F49C95",
"&m 	c #E68E8B",
"*m 	c #CE7B7F",
"=m 	c #D57981",
"-m 	c #D0717C",
";m 	c #D2787D",
">m 	c #EC8C95",
",m 	c #CF777B",
"'m 	c #D56D78",
")m 	c #CD6A74",
"!m 	c #C16C73",
"~m 	c #C87478",
"{m 	c #C46870",
"]m 	c #F5A2A1",
"^m 	c #CE777F",
"/m 	c #DE8F8C",
"(m 	c #D07F82",
"_m 	c #C67375",
":m 	c #C87A79",
"<m 	c #B35A61",
"[m 	c #C37877",
"}m 	c #BB696A",
"|m 	c #BC6F6E",
"1m 	c #AA5B63",
"2m 	c #CF7D76",
"3m 	c #C07F75",
"4m 	c #9D8B6E",
"5m 	c #C07F7D",
"6m 	c #B97B80",
"7m 	c #C5858C",
"8m 	c #CE9098",
"9m 	c #CD9098",
"0m 	c #D8989F",
"am 	c #D09298",
"bm 	c #E29EA6",
"cm 	c #DD9CA5",
"dm 	c #1A1412",
"em 	c #D8C89A",
"fm 	c #A8646A",
"gm 	c #AB6069",
"hm 	c #A95C65",
"im 	c #AC6569",
"jm 	c #C16D78",
"km 	c #AD686A",
"lm 	c #D18483",
"mm 	c #CA817C",
"nm 	c #BE7375",
"om 	c #C77273",
"pm 	c #DD8381",
"qm 	c #DB8B81",
"rm 	c #E08D85",
"sm 	c #DD9289",
"tm 	c #D38180",
"um 	c #D27F79",
"vm 	c #C86D75",
"wm 	c #DB8382",
"xm 	c #CD727A",
"ym 	c #D27B7F",
"zm 	c #D67B82",
"Am 	c #DB8A86",
"Bm 	c #CC7379",
"Cm 	c #CC717B",
"Dm 	c #CD7979",
"Em 	c #BF686C",
"Fm 	c #C86C70",
"Gm 	c #C56872",
"Hm 	c #D37A7E",
"Im 	c #C56D75",
"Jm 	c #D08384",
"Km 	c #D68382",
"Lm 	c #B96868",
"Mm 	c #B16968",
"Nm 	c #B06569",
"Om 	c #B66969",
"Pm 	c #B97571",
"Qm 	c #AA6263",
"Rm 	c #B8706F",
"Sm 	c #BC7774",
"Tm 	c #9A7567",
"Um 	c #897660",
"Vm 	c #BB7882",
"Wm 	c #BD7D84",
"Xm 	c #C6868F",
"Ym 	c #BF8389",
"Zm 	c #D5939C",
"`m 	c #D996A0",
" n 	c #E8A3AC",
".n 	c #DF9EA6",
"+n 	c #D5979D",
"@n 	c #DE9BA3",
"#n 	c #EBA5AE",
"$n 	c #E8A4AE",
"%n 	c #302323",
"&n 	c #B5646F",
"*n 	c #B9636F",
"=n 	c #AD5C66",
"-n 	c #B75E68",
";n 	c #B6656B",
">n 	c #C27274",
",n 	c #B8676A",
"'n 	c #AA655E",
")n 	c #B56C6A",
"!n 	c #B65F62",
"~n 	c #BB675E",
"{n 	c #C1696E",
"]n 	c #BB6066",
"^n 	c #C1696F",
"/n 	c #E38584",
"(n 	c #DC8385",
"_n 	c #D38781",
":n 	c #E58A8D",
"<n 	c #D6817C",
"[n 	c #C86B73",
"}n 	c #CB7277",
"|n 	c #D0757B",
"1n 	c #CA6B77",
"2n 	c #EB8F92",
"3n 	c #DA8085",
"4n 	c #C2696F",
"5n 	c #D26B76",
"6n 	c #C96A73",
"7n 	c #BD676C",
"8n 	c #C3656F",
"9n 	c #EB9394",
"0n 	c #DF8488",
"an 	c #D8828A",
"bn 	c #CA7373",
"cn 	c #BE646C",
"dn 	c #CC7D7D",
"en 	c #B05A62",
"fn 	c #BA716D",
"gn 	c #A8575E",
"hn 	c #AA6A69",
"in 	c #B4967D",
"jn 	c #B37479",
"kn 	c #BF8280",
"ln 	c #C7828C",
"mn 	c #CC8991",
"nn 	c #C2828B",
"on 	c #C4868D",
"pn 	c #C2858B",
"qn 	c #D6979F",
"rn 	c #D9989E",
"sn 	c #E8A2AA",
"tn 	c #E59FA7",
"un 	c #D898A1",
"vn 	c #261E1A",
"wn 	c #CDB38E",
"xn 	c #B66771",
"yn 	c #B2626C",
"zn 	c #B06468",
"An 	c #BC7173",
"Bn 	c #B05F66",
"Cn 	c #BA6C70",
"Dn 	c #BD6A73",
"En 	c #C67678",
"Fn 	c #BA696E",
"Gn 	c #B8666B",
"Hn 	c #D0747E",
"In 	c #CC777B",
"Jn 	c #CC7E7C",
"Kn 	c #EA8E88",
"Ln 	c #D98486",
"Mn 	c #DA8982",
"Nn 	c #E7978E",
"On 	c #C1666D",
"Pn 	c #C76C6F",
"Qn 	c #CF7575",
"Rn 	c #CD7076",
"Sn 	c #D2747A",
"Tn 	c #D5787E",
"Un 	c #CB6C74",
"Vn 	c #C96F74",
"Wn 	c #DE8B89",
"Xn 	c #C77376",
"Yn 	c #CF787A",
"Zn 	c #CD7574",
"`n 	c #CB7073",
" o 	c #C7676E",
".o 	c #C77373",
"+o 	c #C26B72",
"@o 	c #D48682",
"#o 	c #BA695E",
"$o 	c #BB6C6B",
"%o 	c #C77372",
"&o 	c #BA6B6A",
"*o 	c #AC6764",
"=o 	c #AD6266",
"-o 	c #AC6766",
";o 	c #AB7C72",
">o 	c #927E66",
",o 	c #BB777F",
"'o 	c #C47F89",
")o 	c #C2838B",
"!o 	c #C98591",
"~o 	c #D7929C",
"{o 	c #CF8F96",
"]o 	c #D8969F",
"^o 	c #DF9C9F",
"/o 	c #F3ABB6",
"(o 	c #F4AAB4",
"_o 	c #DA999E",
":o 	c #DF9CA4",
"<o 	c #EAA4AF",
"[o 	c #191412",
"}o 	c #D6C699",
"|o 	c #B76570",
"1o 	c #B8616B",
"2o 	c #B45E67",
"3o 	c #CE807E",
"4o 	c #B66A6C",
"5o 	c #B76756",
"6o 	c #C27673",
"7o 	c #B86B69",
"8o 	c #B76967",
"9o 	c #BD6A6C",
"0o 	c #C4686D",
"ao 	c #BC6065",
"bo 	c #EC8D86",
"co 	c #F4A09A",
"do 	c #E38C88",
"eo 	c #E08B87",
"fo 	c #CD7479",
"go 	c #C96971",
"ho 	c #D67680",
"io 	c #C56E75",
"jo 	c #CC7377",
"ko 	c #D77D7F",
"lo 	c #C66870",
"mo 	c #C0686C",
"no 	c #C2626C",
"oo 	c #C0686E",
"po 	c #D98083",
"qo 	c #C57576",
"ro 	c #D28280",
"so 	c #C3686A",
"to 	c #C56E73",
"uo 	c #BB6468",
"vo 	c #BF7370",
"wo 	c #B5646A",
"xo 	c #BA6D69",
"yo 	c #A65E62",
"zo 	c #BDAD88",
"Ao 	c #7E5255",
"Bo 	c #BD787E",
"Co 	c #C48087",
"Do 	c #C18187",
"Eo 	c #C9878E",
"Fo 	c #C7868A",
"Go 	c #E19AA4",
"Ho 	c #D3919A",
"Io 	c #D4949B",
"Jo 	c #D09397",
"Ko 	c #E29EA9",
"Lo 	c #DE9CA5",
"Mo 	c #DA99A2",
"No 	c #F4ABB5",
"Oo 	c #E09CA4",
"Po 	c #DE9AA0",
"Qo 	c #D5969D",
"Ro 	c #271F1C",
"So 	c #CCBA91",
"To 	c #B46971",
"Uo 	c #B46C71",
"Vo 	c #B3606D",
"Wo 	c #BF7177",
"Xo 	c #CB7C82",
"Yo 	c #CA7077",
"Zo 	c #D37B80",
"`o 	c #D17B7A",
" p 	c #D17A7D",
".p 	c #DA847D",
"+p 	c #D98680",
"@p 	c #D47B78",
"#p 	c #C76E6B",
"$p 	c #C5706F",
"%p 	c #D4787B",
"&p 	c #C97275",
"*p 	c #CA656E",
"=p 	c #C86D72",
"-p 	c #D87D7E",
";p 	c #C5636C",
">p 	c #D1757B",
",p 	c #DE8386",
"'p 	c #D17A7C",
")p 	c #DC8884",
"!p 	c #C7706E",
"~p 	c #C45E67",
"{p 	c #C97276",
"]p 	c #D87D7C",
"^p 	c #C8696F",
"/p 	c #BF696F",
"(p 	c #C77775",
"_p 	c #C87568",
":p 	c #CC8077",
"<p 	c #BA6F69",
"[p 	c #AA5D62",
"}p 	c #A8575C",
"|p 	c #B16B6D",
"1p 	c #A5736C",
"2p 	c #96866B",
"3p 	c #BE7880",
"4p 	c #B4767C",
"5p 	c #D68C96",
"6p 	c #C58589",
"7p 	c #D5919C",
"8p 	c #D19197",
"9p 	c #D69499",
"0p 	c #DF9C9B",
"ap 	c #DB9AA2",
"bp 	c #D6969B",
"cp 	c #D9969C",
"dp 	c #EAA4AD",
"ep 	c #F0A9B1",
"fp 	c #1F1A16",
"gp 	c #B86671",
"hp 	c #B05F6B",
"ip 	c #B05F67",
"jp 	c #B65E69",
"kp 	c #B66868",
"lp 	c #B97466",
"mp 	c #AD6463",
"np 	c #B25C5E",
"op 	c #C26564",
"pp 	c #B96162",
"qp 	c #C6706D",
"rp 	c #DA807F",
"sp 	c #F6A19F",
"tp 	c #EC9A93",
"up 	c #D17C7A",
"vp 	c #C97176",
"wp 	c #C36E71",
"xp 	c #D07477",
"yp 	c #CA6873",
"zp 	c #D57880",
"Ap 	c #E68A8F",
"Bp 	c #CC7177",
"Cp 	c #C36870",
"Dp 	c #BB6167",
"Ep 	c #C2676C",
"Fp 	c #BF6369",
"Gp 	c #BE6068",
"Hp 	c #C4696B",
"Ip 	c #D17374",
"Jp 	c #E7918B",
"Kp 	c #C27874",
"Lp 	c #DE8487",
"Mp 	c #C46F74",
"Np 	c #C67875",
"Op 	c #AD585F",
"Pp 	c #AD6162",
"Qp 	c #A55D63",
"Rp 	c #B5A380",
"Sp 	c #523B38",
"Tp 	c #C17A82",
"Up 	c #C6828B",
"Vp 	c #C5868C",
"Wp 	c #CC8993",
"Xp 	c #BA8086",
"Yp 	c #DE98A3",
"Zp 	c #DA97A1",
"`p 	c #CF9297",
" q 	c #DA9999",
".q 	c #DE9AA2",
"+q 	c #D69497",
"@q 	c #E4A0A7",
"#q 	c #DF9CA5",
"$q 	c #D695A0",
"%q 	c #221D18",
"&q 	c #D5C598",
"*q 	c #AE636B",
"=q 	c #AD636A",
"-q 	c #B0616A",
";q 	c #C37175",
">q 	c #BA666D",
",q 	c #C9727B",
"'q 	c #C06A70",
")q 	c #C06E70",
"!q 	c #D88081",
"~q 	c #C96D72",
"{q 	c #EE9A96",
"]q 	c #D47F7E",
"^q 	c #E1857E",
"/q 	c #E98D87",
"(q 	c #C3726F",
"_q 	c #E08A7F",
":q 	c #D27673",
"<q 	c #C56C6E",
"[q 	c #C66970",
"}q 	c #C4686B",
"|q 	c #C45F6A",
"1q 	c #D1727C",
"2q 	c #DB7583",
"3q 	c #E48A90",
"4q 	c #C2646B",
"5q 	c #C96C71",
"6q 	c #C7666C",
"7q 	c #D06F74",
"8q 	c #C96F72",
"9q 	c #D9787D",
"0q 	c #D17279",
"aq 	c #E18D89",
"bq 	c #DB8B88",
"cq 	c #CD7F73",
"dq 	c #C56B70",
"eq 	c #B96669",
"fq 	c #B26167",
"gq 	c #A06864",
"hq 	c #A49474",
"iq 	c #AD6E72",
"jq 	c #BB777E",
"kq 	c #C27E86",
"lq 	c #BE7F84",
"mq 	c #D18C95",
"nq 	c #DF98A3",
"oq 	c #D8969D",
"pq 	c #D8969C",
"qq 	c #E19DA7",
"rq 	c #E4A1A9",
"sq 	c #DA979D",
"tq 	c #E29EA5",
"uq 	c #ECA6B2",
"vq 	c #231E18",
"wq 	c #D0C095",
"xq 	c #B3646E",
"yq 	c #BC6772",
"zq 	c #C06671",
"Aq 	c #AD5E65",
"Bq 	c #B46268",
"Cq 	c #BC6D70",
"Dq 	c #B9686E",
"Eq 	c #C2786D",
"Fq 	c #B76D6C",
"Gq 	c #B16F69",
"Hq 	c #C8737A",
"Iq 	c #C67472",
"Jq 	c #D57D7D",
"Kq 	c #E58F8D",
"Lq 	c #C37370",
"Mq 	c #DF8F86",
"Nq 	c #C06368",
"Oq 	c #CF7878",
"Pq 	c #CD767B",
"Qq 	c #CD7078",
"Rq 	c #D7797A",
"Sq 	c #C7696D",
"Tq 	c #C1616A",
"Uq 	c #C86D71",
"Vq 	c #C26A6D",
"Wq 	c #B85A62",
"Xq 	c #CA7475",
"Yq 	c #C7706C",
"Zq 	c #D0817C",
"`q 	c #D58179",
" r 	c #CA7F7B",
".r 	c #C07C71",
"+r 	c #B6676C",
"@r 	c #BA716E",
"#r 	c #B16668",
"$r 	c #B59E80",
"%r 	c #57443D",
"&r 	c #BA777E",
"*r 	c #C27E83",
"=r 	c #CC878F",
"-r 	c #C68589",
";r 	c #CB8791",
">r 	c #D48F99",
",r 	c #C98891",
"'r 	c #D9979F",
")r 	c #E49EA9",
"!r 	c #DC9BA5",
"~r 	c #DE9DA4",
"{r 	c #C58888",
"]r 	c #CE918F",
"^r 	c #D59195",
"/r 	c #E29DA5",
"(r 	c #E39EA8",
"_r 	c #E4A1AB",
":r 	c #2F2621",
"<r 	c #CFBE93",
"[r 	c #B2616D",
"}r 	c #B1606A",
"|r 	c #BB616C",
"1r 	c #B25D63",
"2r 	c #BA6A6E",
"3r 	c #BA5D66",
"4r 	c #CA7577",
"5r 	c #DB8985",
"6r 	c #CB7576",
"7r 	c #D17A79",
"8r 	c #BD626A",
"9r 	c #D37677",
"0r 	c #CB7265",
"ar 	c #D77F77",
"br 	c #BF5E64",
"cr 	c #C4696A",
"dr 	c #C15D65",
"er 	c #D67C7D",
"fr 	c #C16169",
"gr 	c #C8686F",
"hr 	c #D07178",
"ir 	c #C06168",
"jr 	c #C3656C",
"kr 	c #CB6D74",
"lr 	c #CA6B72",
"mr 	c #CA6B6B",
"nr 	c #D77681",
"or 	c #EC8E93",
"pr 	c #C8787A",
"qr 	c #C67575",
"rr 	c #AD5D64",
"sr 	c #A9585F",
"tr 	c #A46360",
"ur 	c #A49374",
"vr 	c #9E6267",
"wr 	c #C47C84",
"xr 	c #C17D85",
"yr 	c #CA848D",
"zr 	c #C58289",
"Ar 	c #CF8C94",
"Br 	c #D48F97",
"Cr 	c #DD98A1",
"Dr 	c #D69B99",
"Er 	c #D8979C",
"Fr 	c #D8979E",
"Gr 	c #EAA4A9",
"Hr 	c #E4A0A6",
"Ir 	c #DD9BA2",
"Jr 	c #ECA4B0",
"Kr 	c #24201A",
"Lr 	c #D1C094",
"Mr 	c #B3646F",
"Nr 	c #B1606B",
"Or 	c #B05F68",
"Pr 	c #AF6268",
"Qr 	c #BA6F72",
"Rr 	c #B9716D",
"Sr 	c #B05A5F",
"Tr 	c #B46B69",
"Ur 	c #C57E73",
"Vr 	c #CF7477",
"Wr 	c #C67174",
"Xr 	c #BD676B",
"Yr 	c #C26B6C",
"Zr 	c #C87575",
"`r 	c #BF656B",
" s 	c #CA6D72",
".s 	c #CA6971",
"+s 	c #D3757C",
"@s 	c #DD7C83",
"#s 	c #D7787C",
"$s 	c #C15F66",
"%s 	c #C76C6E",
"&s 	c #C2686E",
"*s 	c #D17477",
"=s 	c #C0676C",
"-s 	c #B26265",
";s 	c #CB7777",
">s 	c #CE7279",
",s 	c #CC7679",
"'s 	c #D6847B",
")s 	c #BE6A6D",
"!s 	c #C57B75",
"~s 	c #B66B6B",
"{s 	c #AE6564",
"]s 	c #A08D70",
"^s 	c #695C4A",
"/s 	c #BB727A",
"(s 	c #BB767D",
"_s 	c #C88088",
":s 	c #DF8D98",
"<s 	c #C9838B",
"[s 	c #C8858B",
"}s 	c #BD8282",
"|s 	c #C48483",
"1s 	c #B77F79",
"2s 	c #D29097",
"3s 	c #D59598",
"4s 	c #CA8B93",
"5s 	c #DC99A2",
"6s 	c #D7989C",
"7s 	c #E19C9E",
"8s 	c #DE9D9F",
"9s 	c #D5969B",
"0s 	c #E6A1AB",
"as 	c #DC979D",
"bs 	c #F5ACB6",
"cs 	c #D998A1",
"ds 	c #E29DA8",
"es 	c #231E1A",
"fs 	c #D2C196",
"gs 	c #B96874",
"hs 	c #C0747B",
"is 	c #B6676E",
"js 	c #B45F68",
"ks 	c #B45F69",
"ls 	c #B36068",
"ms 	c #C16A71",
"ns 	c #E38F88",
"os 	c #D1787D",
"ps 	c #C66B70",
"qs 	c #C56B6F",
"rs 	c #E68F89",
"ss 	c #E18880",
"ts 	c #BE5F62",
"us 	c #CD6F71",
"vs 	c #C05F66",
"ws 	c #BF5F66",
"xs 	c #C4646C",
"ys 	c #D07379",
"zs 	c #C7686E",
"As 	c #CC6E73",
"Bs 	c #BF6165",
"Cs 	c #C66A71",
"Ds 	c #CC7171",
"Es 	c #C76C71",
"Fs 	c #C1686C",
"Gs 	c #D27879",
"Hs 	c #DF8889",
"Is 	c #CB7E7B",
"Js 	c #C1706E",
"Ks 	c #C06E72",
"Ls 	c #B55F68",
"Ms 	c #AF6162",
"Ns 	c #B3A47F",
"Os 	c #8A5559",
"Ps 	c #C07980",
"Qs 	c #CD808A",
"Rs 	c #C78187",
"Ss 	c #C9838A",
"Ts 	c #CA858D",
"Us 	c #C7858B",
"Vs 	c #CA8890",
"Ws 	c #D18D95",
"Xs 	c #CC8C90",
"Ys 	c #DA999D",
"Zs 	c #E49DA7",
"`s 	c #E59FA5",
" t 	c #E5A0A6",
".t 	c #E09EA5",
"+t 	c #D8979D",
"@t 	c #D19397",
"#t 	c #DF9EA5",
"$t 	c #F6ACB7",
"%t 	c #EBA3AE",
"&t 	c #221E19",
"*t 	c #C7B68E",
"=t 	c #B2646F",
"-t 	c #C16772",
";t 	c #B36268",
">t 	c #B96D6C",
",t 	c #BC6E6E",
"'t 	c #E4868C",
")t 	c #E7978F",
"!t 	c #C16769",
"~t 	c #C46C6D",
"{t 	c #C7656D",
"]t 	c #EC9489",
"^t 	c #C3636B",
"/t 	c #CF7279",
"(t 	c #CC7676",
"_t 	c #C06469",
":t 	c #BF6068",
"<t 	c #C1646A",
"[t 	c #C2696B",
"}t 	c #B36767",
"|t 	c #C46B6F",
"1t 	c #D67982",
"2t 	c #AE5D62",
"3t 	c #B86463",
"4t 	c #AB5A63",
"5t 	c #9A7A66",
"6t 	c #8B8063",
"7t 	c #BC7478",
"8t 	c #C1767F",
"9t 	c #C97D87",
"0t 	c #C07B81",
"at 	c #D98B96",
"bt 	c #CF8D8F",
"ct 	c #BE7F7C",
"dt 	c #C58588",
"et 	c #BF7D81",
"ft 	c #CE8B92",
"gt 	c #CF908E",
"ht 	c #D29396",
"it 	c #DB9A9A",
"jt 	c #DB999F",
"kt 	c #F5ABB7",
"lt 	c #D89495",
"mt 	c #F8AEB9",
"nt 	c #F5ACB7",
"ot 	c #D7969F",
"pt 	c #E9A1AC",
"qt 	c #221B18",
"rt 	c #AD686F",
"st 	c #BF7378",
"tt 	c #B6616C",
"ut 	c #BA656D",
"vt 	c #B66165",
"wt 	c #BE6D70",
"xt 	c #BD666C",
"yt 	c #C87475",
"zt 	c #D47C7E",
"At 	c #D78381",
"Bt 	c #D47875",
"Ct 	c #BB6063",
"Dt 	c #BA6068",
"Et 	c #DF8389",
"Ft 	c #C26469",
"Gt 	c #C5646E",
"Ht 	c #D5797E",
"It 	c #C4676A",
"Jt 	c #D97F83",
"Kt 	c #BF5D68",
"Lt 	c #C05E69",
"Mt 	c #E18C8D",
"Nt 	c #EB8C8F",
"Ot 	c #DE8282",
"Pt 	c #E0868C",
"Qt 	c #C67670",
"Rt 	c #BF756C",
"St 	c #B8A482",
"Tt 	c #6F4548",
"Ut 	c #D5808B",
"Vt 	c #C67C85",
"Wt 	c #C78086",
"Xt 	c #D48893",
"Yt 	c #D18992",
"Zt 	c #D48C95",
"`t 	c #D08D93",
" u 	c #C9898F",
".u 	c #DA9497",
"+u 	c #DC999C",
"@u 	c #DF9A9E",
"#u 	c #ECA4A3",
"$u 	c #EAA6A7",
"%u 	c #E19DA0",
"&u 	c #E2A0A0",
"*u 	c #DE9CA0",
"=u 	c #DF9AA1",
"-u 	c #DC9AA2",
";u 	c #E6A2AA",
">u 	c #DB989E",
",u 	c #332D24",
"'u 	c #C3B28A",
")u 	c #B46470",
"!u 	c #B2646C",
"~u 	c #B86A6D",
"{u 	c #B35F66",
"]u 	c #BB646C",
"^u 	c #CE7B76",
"/u 	c #D7817C",
"(u 	c #D78584",
"_u 	c #D0807B",
":u 	c #C97073",
"<u 	c #EA938D",
"[u 	c #C2686F",
"}u 	c #BE5C65",
"|u 	c #E27D84",
"1u 	c #E28687",
"2u 	c #C4676C",
"3u 	c #CE7778",
"4u 	c #C3676D",
"5u 	c #DD8782",
"6u 	c #C87072",
"7u 	c #B65A63",
"8u 	c #E18786",
"9u 	c #EC9C96",
"0u 	c #BB6E6E",
"au 	c #C07170",
"bu 	c #C47777",
"cu 	c #CB7674",
"du 	c #BD6F6D",
"eu 	c #B16669",
"fu 	c #A66A65",
"gu 	c #A59775",
"hu 	c #B16870",
"iu 	c #BF777B",
"ju 	c #C1757D",
"ku 	c #C07C81",
"lu 	c #C07B7F",
"mu 	c #D28791",
"nu 	c #BB7B7C",
"ou 	c #CE8B91",
"pu 	c #D48D96",
"qu 	c #BF847F",
"ru 	c #C78C88",
"su 	c #CC918F",
"tu 	c #DE9D9C",
"uu 	c #DB979B",
"vu 	c #CF8F94",
"wu 	c #D29491",
"xu 	c #DF9EA3",
"yu 	c #DD9CA1",
"zu 	c #D49194",
"Au 	c #D19496",
"Bu 	c #DF9CA7",
"Cu 	c #E39EA9",
"Du 	c #EEA4AF",
"Eu 	c #DA97A2",
"Fu 	c #302522",
"Gu 	c #CCB491",
"Hu 	c #AE636D",
"Iu 	c #B26870",
"Ju 	c #B96A72",
"Ku 	c #B4606B",
"Lu 	c #BB6970",
"Mu 	c #BE6A6E",
"Nu 	c #CF7B7B",
"Ou 	c #C26E6D",
"Pu 	c #F19C97",
"Qu 	c #CD7777",
"Ru 	c #D6827E",
"Su 	c #BE5D68",
"Tu 	c #C56B71",
"Uu 	c #DD817E",
"Vu 	c #BD5E65",
"Wu 	c #DD8085",
"Xu 	c #D87B7C",
"Yu 	c #C1686B",
"Zu 	c #C3656D",
"`u 	c #CA7678",
" v 	c #D67C80",
".v 	c #DF8587",
"+v 	c #E48D88",
"@v 	c #D87F85",
"#v 	c #EB9794",
"$v 	c #B86768",
"%v 	c #C2B28B",
"&v 	c #654241",
"*v 	c #D47F8A",
"=v 	c #CB7B85",
"-v 	c #CE8089",
";v 	c #D1848D",
">v 	c #D0868F",
",v 	c #D68D96",
"'v 	c #DD959D",
")v 	c #E09A9E",
"!v 	c #DB9696",
"~v 	c #E89EA1",
"{v 	c #EBA5A5",
"]v 	c #E99E9A",
"^v 	c #ECA0A4",
"/v 	c #E19D9F",
"(v 	c #D69897",
"_v 	c #E4A2A8",
":v 	c #ECA5A7",
"<v 	c #D29797",
"[v 	c #FCB0BC",
"}v 	c #DF9BA5",
"|v 	c #D5939D",
"1v 	c #E099A5",
"2v 	c #3D372B",
"3v 	c #C5B48C",
"4v 	c #B46570",
"5v 	c #B1626C",
"6v 	c #B2616B",
"7v 	c #B4636A",
"8v 	c #B4656A",
"9v 	c #C76E6F",
"0v 	c #C77976",
"av 	c #D58280",
"bv 	c #D27D77",
"cv 	c #D98584",
"dv 	c #CC7574",
"ev 	c #C2696C",
"fv 	c #CB7373",
"gv 	c #EA8893",
"hv 	c #CE7677",
"iv 	c #CC7073",
"jv 	c #CE7473",
"kv 	c #BD606A",
"lv 	c #BD636B",
"mv 	c #B76369",
"nv 	c #D17B7F",
"ov 	c #DF8984",
"pv 	c #C06B70",
"qv 	c #B46266",
"rv 	c #BE7271",
"sv 	c #A85C62",
"tv 	c #C2AA85",
"uv 	c #76464A",
"vv 	c #CA7983",
"wv 	c #B37378",
"xv 	c #C0787E",
"yv 	c #BC7981",
"zv 	c #BA7772",
"Av 	c #D78D97",
"Bv 	c #C98A8A",
"Cv 	c #C68686",
"Dv 	c #D28B85",
"Ev 	c #DB9997",
"Fv 	c #D69995",
"Gv 	c #D99296",
"Hv 	c #DA949C",
"Iv 	c #CC908D",
"Jv 	c #D8989B",
"Kv 	c #D5969C",
"Lv 	c #D39497",
"Mv 	c #D5989A",
"Nv 	c #D29399",
"Ov 	c #EDA4B0",
"Pv 	c #F2A7B2",
"Qv 	c #E59EA9",
"Rv 	c #EBA2AD",
"Sv 	c #312422",
"Tv 	c #CDBB91",
"Uv 	c #B0666D",
"Vv 	c #C1737B",
"Wv 	c #DB8F8D",
"Xv 	c #B7666D",
"Yv 	c #CB7F80",
"Zv 	c #CB797B",
"`v 	c #D27B7E",
" w 	c #EB9A96",
".w 	c #C66D70",
"+w 	c #D47A79",
"@w 	c #CC727A",
"#w 	c #DE7E7E",
"$w 	c #C76E75",
"%w 	c #CB7577",
"&w 	c #CC7977",
"*w 	c #CB7177",
"=w 	c #D47C81",
"-w 	c #DC8682",
";w 	c #BD6269",
">w 	c #B85A63",
",w 	c #CC7176",
"'w 	c #E18085",
")w 	c #DA8783",
"!w 	c #DF8883",
"~w 	c #E4938C",
"{w 	c #EEA298",
"]w 	c #C8757B",
"^w 	c #BEAE86",
"/w 	c #48312E",
"(w 	c #BF7279",
"_w 	c #C1777F",
":w 	c #DC8590",
"<w 	c #D6838E",
"[w 	c #DD8A95",
"}w 	c #D48791",
"|w 	c #D38890",
"1w 	c #E695A1",
"2w 	c #D89098",
"3w 	c #E49A9F",
"4w 	c #D89896",
"5w 	c #D99096",
"6w 	c #D99398",
"7w 	c #DD989C",
"8w 	c #E29C9D",
"9w 	c #E09AA1",
"0w 	c #E3A19F",
"aw 	c #E4A4A1",
"bw 	c #DC9D9F",
"cw 	c #E29DA7",
"dw 	c #E59EA8",
"ew 	c #E89EA9",
"fw 	c #413B2E",
"gw 	c #C1B088",
"hw 	c #B3646B",
"iw 	c #BC6C6F",
"jw 	c #B96867",
"kw 	c #C88273",
"lw 	c #C17470",
"mw 	c #CA847F",
"nw 	c #CB7377",
"ow 	c #C16667",
"pw 	c #BD5E66",
"qw 	c #D87E81",
"rw 	c #CA6A76",
"sw 	c #CC7375",
"tw 	c #CD7373",
"uw 	c #B96469",
"vw 	c #D07B73",
"ww 	c #BB5C65",
"xw 	c #B9686A",
"yw 	c #B85D65",
"zw 	c #C07370",
"Aw 	c #BA7C73",
"Bw 	c #DC8786",
"Cw 	c #B86569",
"Dw 	c #C16D74",
"Ew 	c #BCA57E",
"Fw 	c #261D19",
"Gw 	c #CD747F",
"Hw 	c #CF7D87",
"Iw 	c #C47B82",
"Jw 	c #C07B71",
"Kw 	c #B57169",
"Lw 	c #B07372",
"Mw 	c #CF868D",
"Nw 	c #C07E7E",
"Ow 	c #D38E8B",
"Pw 	c #C18382",
"Qw 	c #D3978D",
"Rw 	c #CA8987",
"Sw 	c #C68983",
"Tw 	c #D39391",
"Uw 	c #D59192",
"Vw 	c #D49093",
"Ww 	c #D39297",
"Xw 	c #D29292",
"Yw 	c #D69692",
"Zw 	c #DC9A9A",
"`w 	c #D8959D",
" x 	c #D39499",
".x 	c #C38C8D",
"+x 	c #D3949A",
"@x 	c #DA98A1",
"#x 	c #DA96A1",
"$x 	c #D59199",
"%x 	c #3A2D29",
"&x 	c #CAB290",
"*x 	c #BD6975",
"=x 	c #B2666E",
"-x 	c #D18680",
";x 	c #DC8D8A",
">x 	c #C6787A",
",x 	c #DD8787",
"'x 	c #D68584",
")x 	c #E08289",
"!x 	c #D67D83",
"~x 	c #E8928E",
"{x 	c #C0696B",
"]x 	c #C57075",
"^x 	c #CD7776",
"/x 	c #BA5F67",
"(x 	c #C26B70",
"_x 	c #C0686F",
":x 	c #CD757B",
"<x 	c #EA979C",
"[x 	c #ED9A8E",
"}x 	c #AF606A",
"|x 	c #C1B089",
"1x 	c #533B37",
"2x 	c #BD6D75",
"3x 	c #C8767F",
"4x 	c #DE8691",
"5x 	c #C67983",
"6x 	c #D3848E",
"7x 	c #DA8A94",
"8x 	c #DC9095",
"9x 	c #CD8B8B",
"0x 	c #DB8F99",
"ax 	c #DA9199",
"bx 	c #D89395",
"cx 	c #EEA39F",
"dx 	c #D99298",
"ex 	c #F0A2A3",
"fx 	c #F6A8AB",
"gx 	c #E49F9E",
"hx 	c #DE999F",
"ix 	c #D39195",
"jx 	c #E49D9E",
"kx 	c #F1ABA4",
"lx 	c #D29096",
"mx 	c #D5929B",
"nx 	c #C2858C",
"ox 	c #E89FAA",
"px 	c #ECA2AD",
"qx 	c #DD95A0",
"rx 	c #40392D",
"sx 	c #BEAD87",
"tx 	c #B96B72",
"ux 	c #B96F70",
"vx 	c #B05C62",
"wx 	c #C57472",
"xx 	c #D1897D",
"yx 	c #D3887D",
"zx 	c #E4938D",
"Ax 	c #CB7478",
"Bx 	c #C0656C",
"Cx 	c #C16F72",
"Dx 	c #CD7B7D",
"Ex 	c #C06972",
"Fx 	c #C1646C",
"Gx 	c #B96164",
"Hx 	c #BB5B65",
"Ix 	c #B05C63",
"Jx 	c #B65B65",
"Kx 	c #AE5B60",
"Lx 	c #AB5C63",
"Mx 	c #C07376",
"Nx 	c #B99A7D",
"Ox 	c #54463A",
"Px 	c #BD6C75",
"Qx 	c #C4737D",
"Rx 	c #CC7B85",
"Sx 	c #CE7B85",
"Tx 	c #C37A80",
"Ux 	c #CF8679",
"Vx 	c #B9726D",
"Wx 	c #B77570",
"Xx 	c #CF8A8B",
"Yx 	c #D48D94",
"Zx 	c #DE9692",
"`x 	c #BF8178",
" y 	c #DF978E",
".y 	c #DA968F",
"+y 	c #DA9793",
"@y 	c #D89593",
"#y 	c #D69198",
"$y 	c #E79BA6",
"%y 	c #DA9992",
"&y 	c #EFA69B",
"*y 	c #EFA9A8",
"=y 	c #DD99A0",
"-y 	c #DA979E",
";y 	c #C7847A",
">y 	c #DB989C",
",y 	c #D19594",
"'y 	c #C3898A",
")y 	c #E09AA4",
"!y 	c #CA8A91",
"~y 	c #4D3636",
"{y 	c #D3B293",
"]y 	c #A9626B",
"^y 	c #AE656D",
"/y 	c #B0626B",
"(y 	c #BE7376",
"_y 	c #B6686E",
":y 	c #CE8587",
"<y 	c #BC6C72",
"[y 	c #E48891",
"}y 	c #D07282",
"|y 	c #B96369",
"1y 	c #C87070",
"2y 	c #D37F80",
"3y 	c #E88B93",
"4y 	c #C36F76",
"5y 	c #C05E6A",
"6y 	c #C46C77",
"7y 	c #E3867A",
"8y 	c #CD7C76",
"9y 	c #BA6C6F",
"0y 	c #AE6168",
"ay 	c #BEA684",
"by 	c #5B4339",
"cy 	c #B4666A",
"dy 	c #C06E77",
"ey 	c #CC7782",
"fy 	c #C87682",
"gy 	c #D07D88",
"hy 	c #DA848F",
"iy 	c #D7858F",
"jy 	c #CF818A",
"ky 	c #DB8B91",
"ly 	c #DA9093",
"my 	c #D78C93",
"ny 	c #D79494",
"oy 	c #E9A29D",
"py 	c #E09997",
"qy 	c #E19896",
"ry 	c #DA9193",
"sy 	c #DF9698",
"ty 	c #E29C9C",
"uy 	c #EB9DA3",
"vy 	c #ECA49F",
"wy 	c #D89398",
"xy 	c #DB949A",
"yy 	c #E69CA5",
"zy 	c #EAA1A0",
"Ay 	c #DB969B",
"By 	c #D6929A",
"Cy 	c #C88A8F",
"Dy 	c #CD8B91",
"Ey 	c #F1A4B0",
"Fy 	c #E69CA7",
"Gy 	c #E99DA8",
"Hy 	c #E499A4",
"Iy 	c #3B352B",
"Jy 	c #BEAC87",
"Ky 	c #B66470",
"Ly 	c #B7686C",
"My 	c #C77A79",
"Ny 	c #B96B6E",
"Oy 	c #B7786E",
"Py 	c #C06F6A",
"Qy 	c #AF5E5F",
"Ry 	c #B15D65",
"Sy 	c #C66E6F",
"Ty 	c #BF6B6E",
"Uy 	c #C26D71",
"Vy 	c #DE8A8A",
"Wy 	c #B9636B",
"Xy 	c #C0656A",
"Yy 	c #CC7D7E",
"Zy 	c #BD7071",
"`y 	c #E08C8C",
" z 	c #AE6566",
".z 	c #C47D7C",
"+z 	c #B56A6F",
"@z 	c #A28E72",
"#z 	c #675B46",
"$z 	c #BA6B72",
"%z 	c #BB6B74",
"&z 	c #CA737E",
"*z 	c #B86D72",
"=z 	c #C67F82",
"-z 	c #CD7F85",
";z 	c #C17D7D",
">z 	c #C9848A",
",z 	c #D58F94",
"'z 	c #DA9990",
")z 	c #CD8B7F",
"!z 	c #D18C8F",
"~z 	c #D08A90",
"{z 	c #D89196",
"]z 	c #E79AA5",
"^z 	c #E19C9A",
"/z 	c #D49092",
"(z 	c #D28E95",
"_z 	c #D59499",
":z 	c #CB8A89",
"<z 	c #CA898E",
"[z 	c #D19094",
"}z 	c #CF8E96",
"|z 	c #D09092",
"1z 	c #E39BA6",
"2z 	c #D8929B",
"3z 	c #D78F9A",
"4z 	c #261E1B",
"5z 	c #CAB78D",
"6z 	c #B57072",
"7z 	c #B16967",
"8z 	c #B0676D",
"9z 	c #B2636C",
"0z 	c #D08A87",
"az 	c #DD8F87",
"bz 	c #BD6E76",
"cz 	c #DC8784",
"dz 	c #DB848B",
"ez 	c #B9696F",
"fz 	c #D38284",
"gz 	c #BC686F",
"hz 	c #C26E73",
"iz 	c #D07F7C",
"jz 	c #D1827E",
"kz 	c #DF868B",
"lz 	c #B26168",
"mz 	c #D18084",
"nz 	c #CD827D",
"oz 	c #E89797",
"pz 	c #CA7774",
"qz 	c #B56B72",
"rz 	c #BEA885",
"sz 	c #523F36",
"tz 	c #B9666D",
"uz 	c #C16B75",
"vz 	c #C37078",
"wz 	c #CD7882",
"xz 	c #D8818C",
"yz 	c #CF7C87",
"zz 	c #D4818C",
"Az 	c #D78B8D",
"Bz 	c #D88D8E",
"Cz 	c #E1929A",
"Dz 	c #DA9495",
"Ez 	c #DB9196",
"Fz 	c #EFA6A3",
"Gz 	c #D68C94",
"Hz 	c #DC9393",
"Iz 	c #DF9694",
"Jz 	c #E99D9F",
"Kz 	c #DC9596",
"Lz 	c #E5A09B",
"Mz 	c #E9A39F",
"Nz 	c #D89297",
"Oz 	c #E39F9A",
"Pz 	c #E79FA1",
"Qz 	c #DE9A99",
"Rz 	c #D79398",
"Sz 	c #D18C94",
"Tz 	c #C9888F",
"Uz 	c #DB939D",
"Vz 	c #DF95A0",
"Wz 	c #DA919C",
"Xz 	c #D68D97",
"Yz 	c #3E372C",
"Zz 	c #C4B48B",
"`z 	c #B36772",
" A 	c #AF646E",
".A 	c #B76D6F",
"+A 	c #D88783",
"@A 	c #C87A6D",
"#A 	c #BD6B6F",
"$A 	c #B87370",
"%A 	c #B86869",
"&A 	c #CD7C7C",
"*A 	c #D17A7F",
"=A 	c #BD6A6D",
"-A 	c #C9777B",
";A 	c #C8797F",
">A 	c #C4797B",
",A 	c #C57A7F",
"'A 	c #CD817E",
")A 	c #B36769",
"!A 	c #CC7E7D",
"~A 	c #AC5D67",
"{A 	c #A6816E",
"]A 	c #84775E",
"^A 	c #B4656B",
"/A 	c #BA6A72",
"(A 	c #C37079",
"_A 	c #B46B72",
":A 	c #CD8285",
"<A 	c #CA7F7D",
"[A 	c #C27D78",
"}A 	c #C87C82",
"|A 	c #DC8A95",
"1A 	c #CB848B",
"2A 	c #CE8B8C",
"3A 	c #D2918C",
"4A 	c #CA8784",
"5A 	c #E09B97",
"6A 	c #D28D8C",
"7A 	c #D68E93",
"8A 	c #D28C95",
"9A 	c #F0A4A2",
"0A 	c #EFA4A4",
"aA 	c #D19090",
"bA 	c #D89499",
"cA 	c #D79499",
"dA 	c #CA8C91",
"eA 	c #D28F96",
"fA 	c #CF8D93",
"gA 	c #CE8C92",
"hA 	c #CE8D94",
"iA 	c #CF8C92",
"jA 	c #D5919A",
"kA 	c #E098A3",
"lA 	c #D28B95",
"mA 	c #493530",
"nA 	c #D6C698",
"oA 	c #AB666E",
"pA 	c #B26971",
"qA 	c #C88081",
"rA 	c #DB858D",
"sA 	c #D28685",
"tA 	c #BE6B73",
"uA 	c #D68486",
"vA 	c #BC6970",
"wA 	c #CC7B80",
"xA 	c #CB7578",
"yA 	c #EDA099",
"zA 	c #C7767A",
"AA 	c #D68785",
"BA 	c #BA6970",
"CA 	c #BF6F77",
"DA 	c #D68381",
"EA 	c #DD918B",
"FA 	c #D48C8A",
"GA 	c #DCAC92",
"HA 	c #664C43",
"IA 	c #BD6E6F",
"JA 	c #BF6C74",
"KA 	c #BB6D72",
"LA 	c #C47078",
"MA 	c #DC808B",
"NA 	c #E18691",
"OA 	c #CB7A83",
"PA 	c #CF7D88",
"QA 	c #E98F9B",
"RA 	c #D9908F",
"SA 	c #D4878D",
"TA 	c #EA9D9A",
"UA 	c #D88D92",
"VA 	c #D59490",
"WA 	c #F0A9A7",
"XA 	c #E29898",
"YA 	c #DF9A90",
"ZA 	c #CF898B",
"`A 	c #F09D9C",
" B 	c #E6A09D",
".B 	c #D79293",
"+B 	c #E29C9E",
"@B 	c #E09796",
"#B 	c #EFA69F",
"$B 	c #E1969F",
"%B 	c #DB9999",
"&B 	c #D39094",
"*B 	c #DA949B",
"=B 	c #DB949E",
"-B 	c #CE8A93",
";B 	c #BD7D85",
">B 	c #D68E99",
",B 	c #DB909B",
"'B 	c #D58B95",
")B 	c #3C362B",
"!B 	c #BBA683",
"~B 	c #B26F76",
"{B 	c #AE676D",
"]B 	c #AD656B",
"^B 	c #C7807B",
"/B 	c #B96E73",
"(B 	c #D87F83",
"_B 	c #D98B8B",
":B 	c #B46A6D",
"<B 	c #C17570",
"[B 	c #B96C6B",
"}B 	c #BE6E74",
"|B 	c #BF817E",
"1B 	c #AE5E69",
"2B 	c #AB5E64",
"3B 	c #B4696F",
"4B 	c #A9736C",
"5B 	c #B7957D",
"6B 	c #B26169",
"7B 	c #BB666E",
"8B 	c #BD6B74",
"9B 	c #C9737C",
"0B 	c #DA7F8A",
"aB 	c #B57071",
"bB 	c #DF8390",
"cB 	c #C27979",
"dB 	c #CC7F87",
"eB 	c #CD8388",
"fB 	c #D68892",
"gB 	c #CC838A",
"hB 	c #C88387",
"iB 	c #D38C8D",
"jB 	c #E39895",
"kB 	c #F6ABA4",
"lB 	c #D49388",
"mB 	c #D08C8A",
"nB 	c #C4867E",
"oB 	c #D58E93",
"pB 	c #ECA6A0",
"qB 	c #DE9998",
"rB 	c #E2989B",
"sB 	c #D68F95",
"tB 	c #DA919B",
"uB 	c #E89BA6",
"vB 	c #C68988",
"wB 	c #E095A0",
"xB 	c #C9878A",
"yB 	c #CA8B8C",
"zB 	c #D18B95",
"AB 	c #CA8C8E",
"BB 	c #CB878D",
"CB 	c #D69194",
"DB 	c #CC858D",
"EB 	c #322822",
"FB 	c #CDBB92",
"GB 	c #B26D70",
"HB 	c #B06871",
"IB 	c #C7817F",
"JB 	c #C88181",
"KB 	c #DF8692",
"LB 	c #D8878C",
"MB 	c #C26C7A",
"NB 	c #B76B6D",
"OB 	c #BE6C73",
"PB 	c #BC6B71",
"QB 	c #C9787D",
"RB 	c #C06D6F",
"SB 	c #C97C79",
"TB 	c #C67978",
"UB 	c #DB8A80",
"VB 	c #AC5E69",
"WB 	c #BB7276",
"XB 	c #BE797B",
"YB 	c #C1A888",
"ZB 	c #694C3E",
"`B 	c #BD646C",
" C 	c #BF6D75",
".C 	c #C67279",
"+C 	c #D47C86",
"@C 	c #D37D88",
"#C 	c #CF7D89",
"$C 	c #D2808B",
"%C 	c #D5898B",
"&C 	c #D88D8D",
"*C 	c #D4858E",
"=C 	c #D98A8F",
"-C 	c #D89192",
";C 	c #E49B98",
">C 	c #E8A39C",
",C 	c #E49C95",
"'C 	c #DB9191",
")C 	c #FCB0AB",
"!C 	c #E79B97",
"~C 	c #E09A9C",
"{C 	c #E89F9F",
"]C 	c #F2A49D",
"^C 	c #D89794",
"/C 	c #D19293",
"(C 	c #D18D92",
"_C 	c #D69596",
":C 	c #D38C95",
"<C 	c #C9888A",
"[C 	c #C8868E",
"}C 	c #C08187",
"|C 	c #C5848C",
"1C 	c #CB868F",
"2C 	c #D18A93",
"3C 	c #C58089",
"4C 	c #383128",
"5C 	c #C6B58E",
"6C 	c #A7666C",
"7C 	c #B37478",
"8C 	c #B57070",
"9C 	c #AA6266",
"0C 	c #AF6568",
"aC 	c #CA817E",
"bC 	c #C37475",
"cC 	c #DE9090",
"dC 	c #AC6065",
"eC 	c #C0737B",
"fC 	c #DC908D",
"gC 	c #B96C74",
"hC 	c #A95F65",
"iC 	c #AF686A",
"jC 	c #B9A081",
"kC 	c #AE5D65",
"lC 	c #B9646C",
"mC 	c #C06873",
"nC 	c #C16F78",
"oC 	c #CE747F",
"pC 	c #C07178",
"qC 	c #C07270",
"rC 	c #B77472",
"sC 	c #C87C7F",
"tC 	c #C57B76",
"uC 	c #C47980",
"vC 	c #CE8385",
"wC 	c #C98388",
"xC 	c #DE8D97",
"yC 	c #DB8B95",
"zC 	c #CA8983",
"AC 	c #CE8E84",
"BC 	c #DB928E",
"CC 	c #D08C88",
"DC 	c #C28180",
"EC 	c #D38D91",
"FC 	c #F5A496",
"GC 	c #DE919A",
"HC 	c #D48D95",
"IC 	c #CB8487",
"JC 	c #D08A93",
"KC 	c #D58E96",
"LC 	c #D49095",
"MC 	c #CA898F",
"NC 	c #DE9499",
"OC 	c #CF8B92",
"PC 	c #CB898F",
"QC 	c #D28D93",
"RC 	c #CE858A",
"SC 	c #2E261F",
"TC 	c #CABA90",
"UC 	c #B67277",
"VC 	c #BF787B",
"WC 	c #BF7878",
"XC 	c #DF8E92",
"YC 	c #DB8C8C",
"ZC 	c #B1626B",
"`C 	c #B6696F",
" D 	c #B7666A",
".D 	c #C5747A",
"+D 	c #C7776D",
"@D 	c #CE8282",
"#D 	c #D58A88",
"$D 	c #C47873",
"%D 	c #AB6269",
"&D 	c #D8888F",
"*D 	c #CAA489",
"=D 	c #765649",
"-D 	c #C97979",
";D 	c #C36973",
">D 	c #C0767A",
",D 	c #CE7681",
"'D 	c #C9767F",
")D 	c #D37E88",
"!D 	c #D07C87",
"~D 	c #E49490",
"{D 	c #D98D8B",
"]D 	c #DD8F95",
"^D 	c #D7888F",
"/D 	c #E4969B",
"(D 	c #E89F99",
"_D 	c #E1969B",
":D 	c #E59A9A",
"<D 	c #F59CA6",
"[D 	c #DE9394",
"}D 	c #D79091",
"|D 	c #DD9095",
"1D 	c #F7A6A0",
"2D 	c #E0929A",
"3D 	c #DD9398",
"4D 	c #E49798",
"5D 	c #DC939B",
"6D 	c #D89594",
"7D 	c #E1999B",
"8D 	c #CF8F90",
"9D 	c #EE9DA9",
"0D 	c #D89198",
"aD 	c #C7828B",
"bD 	c #CB8590",
"cD 	c #BF7E87",
"dD 	c #D08792",
"eD 	c #C7818A",
"fD 	c #C17A84",
"gD 	c #2B261E",
"hD 	c #C9B68F",
"iD 	c #AA6D70",
"jD 	c #AA686F",
"kD 	c #AF6A6E",
"lD 	c #AE676B",
"mD 	c #B76D70",
"nD 	c #D78D86",
"oD 	c #BE767A",
"pD 	c #CA7E7E",
"qD 	c #DE8D93",
"rD 	c #BB7475",
"sD 	c #B46C72",
"tD 	c #AB646B",
"uD 	c #A7606A",
"vD 	c #B7A37D",
"wD 	c #A4585E",
"xD 	c #B86360",
"yD 	c #C56A73",
"zD 	c #BB6C73",
"AD 	c #C26F79",
"BD 	c #BE6D75",
"CD 	c #CA787E",
"DD 	c #C3757D",
"ED 	c #C87A81",
"FD 	c #CD7C80",
"GD 	c #CB7C7F",
"HD 	c #D2818B",
"ID 	c #CF8589",
"JD 	c #D98E92",
"KD 	c #CE8387",
"LD 	c #CD8788",
"MD 	c #D29287",
"ND 	c #D38985",
"OD 	c #D18787",
"PD 	c #C98882",
"QD 	c #D0888C",
"RD 	c #D78E94",
"SD 	c #EC9FA0",
"TD 	c #DB9397",
"UD 	c #DC8F99",
"VD 	c #DC9195",
"WD 	c #D58B94",
"XD 	c #D58D92",
"YD 	c #E598A3",
"ZD 	c #D99199",
"`D 	c #C88988",
" E 	c #D59392",
".E 	c #D79096",
"+E 	c #C8878D",
"@E 	c #CA848C",
"#E 	c #CD878E",
"$E 	c #C17D82",
"%E 	c #CA808A",
"&E 	c #3B3029",
"*E 	c #CCB18C",
"=E 	c #B8757D",
"-E 	c #AF6973",
";E 	c #AF6870",
">E 	c #B06770",
",E 	c #BD7277",
"'E 	c #AE646C",
")E 	c #B1616C",
"!E 	c #B4686E",
"~E 	c #AE5F67",
"{E 	c #CC787B",
"]E 	c #B5666F",
"^E 	c #C47675",
"/E 	c #C67C75",
"(E 	c #E39594",
"_E 	c #BE7878",
":E 	c #B16E70",
"<E 	c #A8626B",
"[E 	c #BBA885",
"}E 	c #845C57",
"|E 	c #BB686C",
"1E 	c #C16C70",
"2E 	c #C26C75",
"3E 	c #D77782",
"4E 	c #CA747E",
"5E 	c #CD7C84",
"6E 	c #CE7A86",
"7E 	c #D5838C",
"8E 	c #D5858B",
"9E 	c #DA8B91",
"0E 	c #E29294",
"aE 	c #D88B85",
"bE 	c #D88992",
"cE 	c #E89C9A",
"dE 	c #E49995",
"eE 	c #F3A0A2",
"fE 	c #E4959C",
"gE 	c #DC9396",
"hE 	c #DE9397",
"iE 	c #DF9298",
"jE 	c #D98B94",
"kE 	c #E49496",
"lE 	c #F5A5A5",
"mE 	c #DF9695",
"nE 	c #DD9399",
"oE 	c #E29B9C",
"pE 	c #DA9197",
"qE 	c #D58F91",
"rE 	c #C6868C",
"sE 	c #C6818B",
"tE 	c #C8858D",
"uE 	c #BE7E83",
"vE 	c #CA838D",
"wE 	c #C47D87",
"xE 	c #302622",
"yE 	c #CEB892",
"zE 	c #AA6671",
"AE 	c #AB6C70",
"BE 	c #A76368",
"CE 	c #AE6A70",
"DE 	c #B97273",
"EE 	c #B26871",
"FE 	c #B26A6E",
"GE 	c #C1797A",
"HE 	c #DD918F",
"IE 	c #CC8484",
"JE 	c #C17A7C",
"KE 	c #AE646E",
"LE 	c #AE686E",
"ME 	c #CB7D82",
"NE 	c #A6656C",
"OE 	c #B5A07A",
"PE 	c #753E40",
"QE 	c #BE636D",
"RE 	c #BB666F",
"SE 	c #C06971",
"TE 	c #C5787A",
"UE 	c #C06F79",
"VE 	c #D77883",
"WE 	c #BE7178",
"XE 	c #C6767E",
"YE 	c #CA7D85",
"ZE 	c #BC717B",
"`E 	c #CC7F79",
" F 	c #CB7B7C",
".F 	c #D38489",
"+F 	c #D5868D",
"@F 	c #CF8289",
"#F 	c #DD9594",
"$F 	c #C6867F",
"%F 	c #E29292",
"&F 	c #CD8985",
"*F 	c #C37E83",
"=F 	c #DA9191",
"-F 	c #D4898C",
";F 	c #DA9295",
">F 	c #CA888A",
",F 	c #D68F8E",
"'F 	c #C38684",
")F 	c #CE8990",
"!F 	c #DF9C95",
"~F 	c #CA868A",
"{F 	c #D68C95",
"]F 	c #C37D85",
"^F 	c #D38590",
"/F 	c #BD777F",
"(F 	c #4D3E35",
"_F 	c #CFAF90",
":F 	c #AB6D74",
"<F 	c #C88183",
"[F 	c #AF6C70",
"}F 	c #AA676D",
"|F 	c #B66E77",
"1F 	c #A66068",
"2F 	c #CC8283",
"3F 	c #CA8184",
"4F 	c #A05D60",
"5F 	c #C07B75",
"6F 	c #CE8680",
"7F 	c #B67771",
"8F 	c #BA7573",
"9F 	c #C0A086",
"0F 	c #6A4741",
"aF 	c #B56566",
"bF 	c #B36066",
"cF 	c #BC646C",
"dF 	c #CD7C75",
"eF 	c #C06C75",
"fF 	c #C8717A",
"gF 	c #D77B87",
"hF 	c #D07A84",
"iF 	c #CD7983",
"jF 	c #CB7883",
"kF 	c #D07F87",
"lF 	c #E19090",
"mF 	c #D88991",
"nF 	c #E09495",
"oF 	c #D7858D",
"pF 	c #FAA1A9",
"qF 	c #E99B95",
"rF 	c #F2A5A5",
"sF 	c #DA918F",
"tF 	c #E19796",
"uF 	c #DC9692",
"vF 	c #DC9493",
"wF 	c #EF9AA1",
"xF 	c #F0A2A1",
"yF 	c #FBABAC",
"zF 	c #EB9C9F",
"AF 	c #D88F96",
"BF 	c #DC9495",
"CF 	c #D99194",
"DF 	c #DC9098",
"EF 	c #D28E90",
"FF 	c #CA8487",
"GF 	c #CE8689",
"HF 	c #C58288",
"IF 	c #CF848E",
"JF 	c #CD818C",
"KF 	c #CF828D",
"LF 	c #241E19",
"MF 	c #C8B08D",
"NF 	c #A4666E",
"OF 	c #AE6B6C",
"PF 	c #A6686B",
"QF 	c #AD6A70",
"RF 	c #CB8385",
"SF 	c #D28886",
"TF 	c #A5636A",
"UF 	c #BB787A",
"VF 	c #A9636C",
"WF 	c #A7636B",
"XF 	c #AB6B70",
"YF 	c #BEA886",
"ZF 	c #4F2B2B",
"`F 	c #AD565E",
" G 	c #BA7174",
".G 	c #BF7B73",
"+G 	c #B46E6F",
"@G 	c #B77A72",
"#G 	c #D8898B",
"$G 	c #CB7B81",
"%G 	c #C1747D",
"&G 	c #BC777B",
"*G 	c #CC8889",
"=G 	c #CC8089",
"-G 	c #D1838A",
";G 	c #E3938E",
">G 	c #CF8786",
",G 	c #D7908C",
"'G 	c #C28079",
")G 	c #BB7E79",
"!G 	c #CE898A",
"~G 	c #CE848E",
"{G 	c #E69A9E",
"]G 	c #D28990",
"^G 	c #DC8F96",
"/G 	c #C38486",
"(G 	c #C98787",
"_G 	c #CB828B",
":G 	c #C98589",
"<G 	c #CD8B8D",
"[G 	c #BE837F",
"}G 	c #B87E77",
"|G 	c #CA868B",
"1G 	c #D58E8E",
"2G 	c #BA7A7D",
"3G 	c #C47D85",
"4G 	c #C47B85",
"5G 	c #C47A83",
"6G 	c #B96F79",
"7G 	c #4E3C35",
"8G 	c #C8A78A",
"9G 	c #AD6D74",
"0G 	c #C57C81",
"aG 	c #A7646D",
"bG 	c #AE6772",
"cG 	c #AA636D",
"dG 	c #AE6D72",
"eG 	c #AE6D69",
"fG 	c #C27F77",
"gG 	c #9A5F61",
"hG 	c #A26266",
"iG 	c #AE6F71",
"jG 	c #A3666A",
"kG 	c #BDA883",
"lG 	c #5A3B38",
"mG 	c #AC585D",
"nG 	c #AD585E",
"oG 	c #B8676B",
"pG 	c #BA626A",
"qG 	c #C16D73",
"rG 	c #CB6E78",
"sG 	c #C17375",
"tG 	c #C97980",
"uG 	c #D4868A",
"vG 	c #D27E87",
"wG 	c #DE918F",
"xG 	c #D7888E",
"yG 	c #DB8C92",
"zG 	c #E08B8F",
"AG 	c #F2A3A3",
"BG 	c #E29798",
"CG 	c #D88F90",
"DG 	c #D48D8B",
"EG 	c #E99997",
"FG 	c #DD8D8D",
"GG 	c #F7A59E",
"HG 	c #E69899",
"IG 	c #E7979D",
"JG 	c #CF888B",
"KG 	c #D68F91",
"LG 	c #D79392",
"MG 	c #DA8D96",
"NG 	c #D58C92",
"OG 	c #D48C91",
"PG 	c #CB868A",
"QG 	c #CE848D",
"RG 	c #D98893",
"SG 	c #CD808C",
"TG 	c #CC8189",
"UG 	c #C77C85",
"VG 	c #C2767F",
"WG 	c #382C26",
"XG 	c #CBB390",
"YG 	c #A5666F",
"ZG 	c #A5656C",
"`G 	c #A7646C",
" H 	c #BA787B",
".H 	c #AE7172",
"+H 	c #D0858C",
"@H 	c #C78184",
"#H 	c #A7636C",
"$H 	c #A7676D",
"%H 	c #AA636E",
"&H 	c #A96C6F",
"*H 	c #C4AB88",
"=H 	c #50332F",
"-H 	c #AC535B",
";H 	c #B2565F",
">H 	c #B7676E",
",H 	c #BE7B78",
"'H 	c #C3827B",
")H 	c #C17374",
"!H 	c #C67D7D",
"~H 	c #C07071",
"{H 	c #CD8081",
"]H 	c #C1737F",
"^H 	c #C1747E",
"/H 	c #C47D81",
"(H 	c #CD7E89",
"_H 	c #D3848B",
":H 	c #C58081",
"<H 	c #E1918C",
"[H 	c #E6988E",
"}H 	c #C48385",
"|H 	c #C08281",
"1H 	c #C98884",
"2H 	c #D08681",
"3H 	c #D1878B",
"4H 	c #CE8388",
"5H 	c #C98485",
"6H 	c #C28482",
"7H 	c #C98189",
"8H 	c #C07E7A",
"9H 	c #C38283",
"0H 	c #BC7D81",
"aH 	c #AE7374",
"bH 	c #BF7F7B",
"cH 	c #B87C7C",
"dH 	c #CB848A",
"eH 	c #BD7D81",
"fH 	c #BE7981",
"gH 	c #BF7A82",
"hH 	c #CA7D87",
"iH 	c #B16E74",
"jH 	c #B77278",
"kH 	c #BF707A",
"lH 	c #332C24",
"mH 	c #C4AE87",
"nH 	c #A5676F",
"oH 	c #A8676E",
"pH 	c #A5656F",
"qH 	c #A86770",
"rH 	c #A9676B",
"sH 	c #B67675",
"tH 	c #A96671",
"uH 	c #A9686F",
"vH 	c #B07074",
"wH 	c #B27373",
"xH 	c #B57679",
"yH 	c #BC9F82",
"zH 	c #704042",
"AH 	c #A6555A",
"BH 	c #AB5259",
"CH 	c #A8525A",
"DH 	c #B36067",
"EH 	c #AD5E64",
"FH 	c #BA7271",
"GH 	c #BD6A70",
"HH 	c #C67A78",
"IH 	c #C57C7C",
"JH 	c #CA7B82",
"KH 	c #DE8C93",
"LH 	c #D27C87",
"MH 	c #E49398",
"NH 	c #E58E8E",
"OH 	c #DD8E8E",
"PH 	c #E18F8E",
"QH 	c #E79796",
"RH 	c #DE8D91",
"SH 	c #ECA19C",
"TH 	c #DD8E94",
"UH 	c #E19395",
"VH 	c #D8858E",
"WH 	c #D58C8C",
"XH 	c #D08589",
"YH 	c #DD9790",
"ZH 	c #FBAEA1",
"`H 	c #DD8B94",
" I 	c #D4888E",
".I 	c #D38B8D",
"+I 	c #D6888F",
"@I 	c #D18A8F",
"#I 	c #E5969C",
"$I 	c #D48A83",
"%I 	c #D18D8B",
"&I 	c #CA818A",
"*I 	c #CC7F89",
"=I 	c #DD8994",
"-I 	c #CF808B",
";I 	c #CD7D87",
">I 	c #CE7C87",
",I 	c #B66D75",
"'I 	c #211816",
")I 	c #CDB491",
"!I 	c #A3626E",
"~I 	c #A4666D",
"{I 	c #A2646D",
"]I 	c #A3636C",
"^I 	c #C88385",
"/I 	c #BB757A",
"(I 	c #B9777D",
"_I 	c #A76970",
":I 	c #A2636C",
"<I 	c #A0616B",
"[I 	c #AD7075",
"}I 	c #C0B089",
"|I 	c #AA525B",
"1I 	c #B7565F",
"2I 	c #BE7075",
"3I 	c #C2817D",
"4I 	c #BC7274",
"5I 	c #BD7B78",
"6I 	c #BE7672",
"7I 	c #C97C7A",
"8I 	c #B47175",
"9I 	c #D3868A",
"0I 	c #C5747D",
"aI 	c #C4757F",
"bI 	c #C38082",
"cI 	c #D58C8E",
"dI 	c #CB7E88",
"eI 	c #C17C7B",
"fI 	c #D68189",
"gI 	c #CF8284",
"hI 	c #C4827F",
"iI 	c #C5857E",
"jI 	c #D7838F",
"kI 	c #CB818A",
"lI 	c #BA797A",
"mI 	c #CA848B",
"nI 	c #CE8A8C",
"oI 	c #B77B79",
"pI 	c #C37F85",
"qI 	c #BF807D",
"rI 	c #C17E76",
"sI 	c #BC7F7D",
"tI 	c #D89292",
"uI 	c #BA7F7B",
"vI 	c #C97F87",
"wI 	c #D88690",
"xI 	c #B7747A",
"yI 	c #BF787E",
"zI 	c #CC7A85",
"AI 	c #C5757E",
"BI 	c #B46A74",
"CI 	c #B56D72",
"DI 	c #3F352C",
"EI 	c #C7B78F",
"FI 	c #A1636B",
"GI 	c #A2626A",
"HI 	c #A3636E",
"II 	c #AE6F70",
"JI 	c #BE7E7D",
"KI 	c #B17B70",
"LI 	c #D3A290",
"MI 	c #8E484F",
"NI 	c #A75963",
"OI 	c #AB555C",
"PI 	c #B6555F",
"QI 	c #B76668",
"RI 	c #B95C65",
"SI 	c #BA5F68",
"TI 	c #BE6F73",
"UI 	c #AD6761",
"VI 	c #C56B75",
"WI 	c #C16D75",
"XI 	c #C07379",
"YI 	c #C8777F",
"ZI 	c #C97E83",
"`I 	c #DB7F8A",
" J 	c #D68386",
".J 	c #CD7D83",
"+J 	c #D5848B",
"@J 	c #DB908F",
"#J 	c #E59193",
"$J 	c #D88C90",
"%J 	c #E79898",
"&J 	c #FAA4A5",
"*J 	c #D7878D",
"=J 	c #F1A39E",
"-J 	c #ED9D93",
";J 	c #ED9EA0",
">J 	c #E79699",
",J 	c #E39596",
"'J 	c #D4868D",
")J 	c #DD9195",
"!J 	c #DA8C96",
"~J 	c #DA8E95",
"{J 	c #D28A89",
"]J 	c #D78D88",
"^J 	c #EA9C93",
"/J 	c #D0888B",
"(J 	c #DE8995",
"_J 	c #C87D86",
":J 	c #C87781",
"<J 	c #BA7178",
"[J 	c #C3707B",
"}J 	c #150F0E",
"|J 	c #CDBC92",
"1J 	c #A2666D",
"2J 	c #A3646E",
"3J 	c #B27279",
"4J 	c #AC6C71",
"5J 	c #B57278",
"6J 	c #A1626C",
"7J 	c #A56A70",
"8J 	c #9E616A",
"9J 	c #BAA984",
"0J 	c #352925",
"aJ 	c #A8535C",
"bJ 	c #AB535B",
"cJ 	c #AC535A",
"dJ 	c #B85760",
"eJ 	c #B26065",
"fJ 	c #BB6A6F",
"gJ 	c #BA6D73",
"hJ 	c #C77B7D",
"iJ 	c #B97073",
"jJ 	c #B77272",
"kJ 	c #B77474",
"lJ 	c #BF7A7B",
"mJ 	c #C77A7F",
"nJ 	c #BB7077",
"oJ 	c #C57880",
"pJ 	c #C2797D",
"qJ 	c #C0717B",
"rJ 	c #C77883",
"sJ 	c #C28380",
"tJ 	c #CD8389",
"uJ 	c #CB7D81",
"vJ 	c #C67B7F",
"wJ 	c #C98284",
"xJ 	c #C2807B",
"yJ 	c #C27F80",
"zJ 	c #C77F83",
"AJ 	c #D88D91",
"BJ 	c #D88C91",
"CJ 	c #C68285",
"DJ 	c #D48C8F",
"EJ 	c #BA7A78",
"FJ 	c #C7837B",
"GJ 	c #BF7E80",
"HJ 	c #C68286",
"IJ 	c #BE7F7E",
"JJ 	c #C98783",
"KJ 	c #BC7879",
"LJ 	c #B87878",
"MJ 	c #D5838D",
"NJ 	c #B47177",
"OJ 	c #C0787D",
"PJ 	c #BD717B",
"QJ 	c #C47D7E",
"RJ 	c #3A2E28",
"SJ 	c #C9B78E",
"TJ 	c #9D5E68",
"UJ 	c #A7646F",
"VJ 	c #9F606A",
"WJ 	c #A2626C",
"XJ 	c #A1646C",
"YJ 	c #9E836E",
"ZJ 	c #927C5D",
"`J 	c #B76C67",
" K 	c #A85756",
".K 	c #A8565C",
"+K 	c #AC5960",
"@K 	c #9E5658",
"#K 	c #B15A60",
"$K 	c #AF5D62",
"%K 	c #B56065",
"&K 	c #BD6772",
"*K 	c #B1636A",
"=K 	c #C06D73",
"-K 	c #C3787D",
";K 	c #D6838A",
">K 	c #BA7576",
",K 	c #DD908F",
"'K 	c #D88683",
")K 	c #D58C89",
"!K 	c #EA9F9A",
"~K 	c #D3868C",
"{K 	c #D78988",
"]K 	c #EAA29F",
"^K 	c #DF8C8A",
"/K 	c #F09993",
"(K 	c #F09B9D",
"_K 	c #E99891",
":K 	c #D98B8D",
"<K 	c #F7A39E",
"[K 	c #EC9C9F",
"}K 	c #D6868D",
"|K 	c #D4878A",
"1K 	c #DC9192",
"2K 	c #D88F91",
"3K 	c #D5858E",
"4K 	c #E3999A",
"5K 	c #D88E91",
"6K 	c #E09291",
"7K 	c #EAA19F",
"8K 	c #D2858E",
"9K 	c #D2818C",
"0K 	c #C67882",
"aK 	c #B96F76",
"bK 	c #B0636C",
"cK 	c #261818",
"dK 	c #A4676D",
"eK 	c #A1656D",
"fK 	c #A0666C",
"gK 	c #9C606A",
"hK 	c #9B6268",
"iK 	c #985D66",
"jK 	c #CABC90",
"kK 	c #362E25",
"lK 	c #A3545C",
"mK 	c #B15761",
"nK 	c #B0545E",
"oK 	c #BA5861",
"pK 	c #B7555E",
"qK 	c #B15A61",
"rK 	c #B5686F",
"sK 	c #CA7C80",
"tK 	c #B77074",
"uK 	c #BC7878",
"vK 	c #C88581",
"wK 	c #C27279",
"xK 	c #B97879",
"yK 	c #CD8088",
"zK 	c #CE7F85",
"AK 	c #CA8383",
"BK 	c #D6948F",
"CK 	c #D48D8C",
"DK 	c #CE8183",
"EK 	c #CC8387",
"FK 	c #C88885",
"GK 	c #E09493",
"HK 	c #C58285",
"IK 	c #D1838B",
"JK 	c #DA8792",
"KK 	c #D4838E",
"LK 	c #C67E83",
"MK 	c #E19594",
"NK 	c #D68A86",
"OK 	c #C47E82",
"PK 	c #C48282",
"QK 	c #BA777B",
"RK 	c #C4837C",
"SK 	c #B47775",
"TK 	c #C2797E",
"UK 	c #BB6E76",
"VK 	c #BE6C76",
"WK 	c #B3676E",
"XK 	c #A5555C",
"YK 	c #3F2E28",
"ZK 	c #D4C496",
"`K 	c #9F5E68",
" L 	c #9C5C66",
".L 	c #965A62",
"+L 	c #A05F69",
"@L 	c #AB9A79",
"#L 	c #6A614C",
"$L 	c #A85E5F",
"%L 	c #C1776E",
"&L 	c #A9555A",
"*L 	c #B57C76",
"=L 	c #AF5A5F",
"-L 	c #B3555D",
";L 	c #AE555D",
">L 	c #BD5B65",
",L 	c #B95F67",
"'L 	c #BC666F",
")L 	c #B06567",
"!L 	c #C36B74",
"~L 	c #C87278",
"{L 	c #C57178",
"]L 	c #B9716C",
"^L 	c #C27A7D",
"/L 	c #C5807B",
"(L 	c #BE7C7A",
"_L 	c #AA6C70",
":L 	c #BB7B7A",
"<L 	c #BA7877",
"[L 	c #B87679",
"}L 	c #D68A8D",
"|L 	c #DF9291",
"1L 	c #DB9590",
"2L 	c #E89F97",
"3L 	c #DC8C8E",
"4L 	c #DF8E8D",
"5L 	c #EA988E",
"6L 	c #D88D90",
"7L 	c #C28083",
"8L 	c #DA8D90",
"9L 	c #DC8994",
"0L 	c #CC8488",
"aL 	c #CD8288",
"bL 	c #D2878E",
"cL 	c #DA9091",
"dL 	c #EB9E95",
"eL 	c #D4888D",
"fL 	c #CE8789",
"gL 	c #CD8387",
"hL 	c #C67880",
"iL 	c #D17A85",
"jL 	c #BC7177",
"kL 	c #B86A72",
"lL 	c #B2636D",
"mL 	c #AE636A",
"nL 	c #351F20",
"oL 	c #D3C497",
"pL 	c #9B6066",
"qL 	c #995E65",
"rL 	c #9B6169",
"sL 	c #935961",
"tL 	c #995B65",
"uL 	c #B5A280",
"vL 	c #393229",
"wL 	c #9D535B",
"xL 	c #AD5861",
"yL 	c #B35861",
"zL 	c #BA5862",
"AL 	c #B8555F",
"BL 	c #B05F61",
"CL 	c #B8656E",
"DL 	c #B66E75",
"EL 	c #C38481",
"FL 	c #BC6C73",
"GL 	c #BE6D77",
"HL 	c #BD7678",
"IL 	c #D28589",
"JL 	c #CC837D",
"KL 	c #BC7477",
"LL 	c #C67E7D",
"ML 	c #C88D86",
"NL 	c #CE8586",
"OL 	c #D69491",
"PL 	c #CB8686",
"QL 	c #DB898B",
"RL 	c #CF8084",
"SL 	c #CD7E85",
"TL 	c #C88383",
"UL 	c #D58C8B",
"VL 	c #CE8589",
"WL 	c #C07F7E",
"XL 	c #D5858C",
"YL 	c #D7838D",
"ZL 	c #CF8081",
"`L 	c #CD7F86",
" M 	c #EC8E9A",
".M 	c #C48283",
"+M 	c #D98B7D",
"@M 	c #CA8887",
"#M 	c #C37F7F",
"$M 	c #CD8281",
"%M 	c #BF7871",
"&M 	c #BE767D",
"*M 	c #C88481",
"=M 	c #C2787B",
"-M 	c #C77D77",
";M 	c #BA6972",
">M 	c #B86F72",
",M 	c #B16169",
"'M 	c #A5575C",
")M 	c #A24E57",
"!M 	c #191210",
"~M 	c #7B758F",
"{M 	c #7D6A81",
"]M 	c #886F83",
"^M 	c #AC8889",
"/M 	c #443930",
"(M 	c #9C5A60",
"_M 	c #9F565C",
":M 	c #AA5760",
"<M 	c #A45C5D",
"[M 	c #A96065",
"}M 	c #AB545B",
"|M 	c #A55359",
"1M 	c #A85359",
"2M 	c #B35862",
"3M 	c #B65D64",
"4M 	c #B96D6F",
"5M 	c #A66468",
"6M 	c #B36A6F",
"7M 	c #BC6A71",
"8M 	c #B8736A",
"9M 	c #B6726D",
"0M 	c #BF7976",
"aM 	c #A46C68",
"bM 	c #C07F70",
"cM 	c #BF7B7F",
"dM 	c #C98C87",
"eM 	c #B77878",
"fM 	c #B87D79",
"gM 	c #CD8C87",
"hM 	c #BA6A7E",
"iM 	c #E29998",
"jM 	c #E1908F",
"kM 	c #E08A93",
"lM 	c #D98489",
"mM 	c #CF8088",
"nM 	c #EA918B",
"oM 	c #E19792",
"pM 	c #E79C98",
"qM 	c #BA7D79",
"rM 	c #C07A7A",
"sM 	c #C88381",
"tM 	c #C58085",
"uM 	c #D3908B",
"vM 	c #DB9088",
"wM 	c #CD8188",
"xM 	c #CE8187",
"yM 	c #C87A82",
"zM 	c #CD7B85",
"AM 	c #C57A81",
"BM 	c #C1737D",
"CM 	c #BE7077",
"DM 	c #C6787B",
"EM 	c #B96771",
"FM 	c #B3626C",
"GM 	c #AD6167",
"HM 	c #AF5862",
"IM 	c #341C1D",
"JM 	c #C8B68E",
"KM 	c #955D63",
"LM 	c #965B63",
"MM 	c #887187",
"NM 	c #A38184",
"OM 	c #AE5962",
"PM 	c #AB555E",
"QM 	c #BB5963",
"RM 	c #BE5963",
"SM 	c #B5565F",
"TM 	c #B9646F",
"UM 	c #BD6C77",
"VM 	c #C07378",
"WM 	c #C8787B",
"XM 	c #C4727B",
"YM 	c #CC797F",
"ZM 	c #DB918D",
"`M 	c #D48186",
" N 	c #D7818D",
".N 	c #C98583",
"+N 	c #BF7E7D",
"@N 	c #D48F89",
"#N 	c #D08082",
"$N 	c #C97C81",
"%N 	c #CF8085",
"&N 	c #CF8A86",
"*N 	c #DD9190",
"=N 	c #D5868A",
"-N 	c #CD7D82",
";N 	c #CC7E85",
">N 	c #CF7D85",
",N 	c #CD7C86",
"'N 	c #D2878B",
")N 	c #CD8478",
"!N 	c #DA8E8C",
"~N 	c #BC7D7E",
"{N 	c #D48789",
"]N 	c #D4867B",
"^N 	c #C6797A",
"/N 	c #B87075",
"(N 	c #B16269",
"_N 	c #AE5F63",
":N 	c #AE525B",
"<N 	c #A8525B",
"[N 	c #573D4B",
"}N 	c #5D587A",
"|N 	c #6C6487",
"1N 	c #7D6F8F",
"2N 	c #876F85",
"3N 	c #A26C74",
"4N 	c #A15963",
"5N 	c #A65962",
"6N 	c #A9565E",
"7N 	c #A9545D",
"8N 	c #B06461",
"9N 	c #A9525A",
"0N 	c #C35A64",
"aN 	c #B3535D",
"bN 	c #A45A60",
"cN 	c #B1666A",
"dN 	c #AA6367",
"eN 	c #B67175",
"fN 	c #B86B6F",
"gN 	c #AC6B69",
"hN 	c #B57975",
"iN 	c #B0736F",
"jN 	c #AD736F",
"kN 	c #AA6D69",
"lN 	c #C17E80",
"mN 	c #AC7472",
"nN 	c #BF7D7C",
"oN 	c #C47C85",
"pN 	c #D5908A",
"qN 	c #D08988",
"rN 	c #D58A8A",
"sN 	c #C57C7E",
"tN 	c #C07975",
"uN 	c #B57A74",
"vN 	c #D28C83",
"wN 	c #DB8C8F",
"xN 	c #B87875",
"yN 	c #B6716B",
"zN 	c #D28E8B",
"AN 	c #DA938B",
"BN 	c #E69A99",
"CN 	c #D68983",
"DN 	c #CC7B84",
"EN 	c #D08886",
"FN 	c #C4777D",
"GN 	c #BE6F74",
"HN 	c #B5666E",
"IN 	c #B2636A",
"JN 	c #AC5C63",
"KN 	c #A95A60",
"LN 	c #A85059",
"MN 	c #321D1D",
"NN 	c #7F7887",
"ON 	c #786682",
"PN 	c #766884",
"QN 	c #877289",
"RN 	c #A6727D",
"SN 	c #9E5962",
"TN 	c #AF5A64",
"UN 	c #AE5761",
"VN 	c #A2575C",
"WN 	c #AC535C",
"XN 	c #B7636B",
"YN 	c #B25F68",
"ZN 	c #C3727B",
"`N 	c #C98084",
" O 	c #C2757A",
".O 	c #C5767D",
"+O 	c #C5817D",
"@O 	c #D38F88",
"#O 	c #C88683",
"$O 	c #D6918C",
"%O 	c #CC7C7E",
"&O 	c #E28A8C",
"*O 	c #CC8184",
"=O 	c #CF7F88",
"-O 	c #E0958F",
";O 	c #E89C97",
">O 	c #CA8486",
",O 	c #D8858B",
"'O 	c #CA7D83",
")O 	c #CB7F83",
"!O 	c #CD8084",
"~O 	c #E49795",
"{O 	c #DF9494",
"]O 	c #F09796",
"^O 	c #D08387",
"/O 	c #CF8187",
"(O 	c #CD8184",
"_O 	c #CF8884",
":O 	c #DB8E89",
"<O 	c #CE807B",
"[O 	c #C07274",
"}O 	c #BB6D73",
"|O 	c #B25D65",
"1O 	c #A9565A",
"2O 	c #AE545D",
"3O 	c #A0575C",
"4O 	c #3F2C36",
"5O 	c #524D6A",
"6O 	c #625F87",
"7O 	c #6B668A",
"8O 	c #896D7B",
"9O 	c #8E6575",
"0O 	c #A15B65",
"aO 	c #A25962",
"bO 	c #AA5962",
"cO 	c #9F555C",
"dO 	c #A0545A",
"eO 	c #A76666",
"fO 	c #A65F61",
"gO 	c #AD5E61",
"hO 	c #A95058",
"iO 	c #AE595E",
"jO 	c #BA6B6E",
"kO 	c #A76166",
"lO 	c #AD675B",
"mO 	c #AF6A69",
"nO 	c #BE7576",
"oO 	c #D78F8A",
"pO 	c #B07373",
"qO 	c #A9716E",
"rO 	c #B17473",
"sO 	c #B67276",
"tO 	c #B07374",
"uO 	c #B77D79",
"vO 	c #BA7B7C",
"wO 	c #C17F7F",
"xO 	c #BC7F79",
"yO 	c #DA928E",
"zO 	c #CC8480",
"AO 	c #CF8880",
"BO 	c #D08B85",
"CO 	c #C68483",
"DO 	c #C87B76",
"EO 	c #B57873",
"FO 	c #BD7974",
"GO 	c #B67A73",
"HO 	c #B77773",
"IO 	c #D38B81",
"JO 	c #B77772",
"KO 	c #CC8885",
"LO 	c #B47478",
"MO 	c #C17C7F",
"NO 	c #C98282",
"OO 	c #C98386",
"PO 	c #C97B80",
"QO 	c #C9757F",
"RO 	c #CF8585",
"SO 	c #BC6B73",
"TO 	c #B06267",
"UO 	c #A9515B",
"VO 	c #A8515B",
"WO 	c #824651",
"XO 	c #595476",
"YO 	c #6B6588",
"ZO 	c #6F6684",
"`O 	c #7F708F",
" P 	c #987487",
".P 	c #A55D67",
"+P 	c #AF5B65",
"@P 	c #AA545E",
"#P 	c #A3535C",
"$P 	c #B15F65",
"%P 	c #B46165",
"&P 	c #B2565E",
"*P 	c #C06C6D",
"=P 	c #C36A74",
"-P 	c #BD666D",
";P 	c #C47A7F",
">P 	c #CA7E80",
",P 	c #C57379",
"'P 	c #CA787B",
")P 	c #D27C7C",
"!P 	c #CE7D76",
"~P 	c #DC8B87",
"{P 	c #EE9F94",
"]P 	c #E0958D",
"^P 	c #E7998F",
"/P 	c #DE8F7F",
"(P 	c #CE8285",
"_P 	c #DC8B89",
":P 	c #D47F87",
"<P 	c #E29A93",
"[P 	c #D9918E",
"}P 	c #D78E8D",
"|P 	c #D07D84",
"1P 	c #D37B85",
"2P 	c #EA9599",
"3P 	c #C98381",
"4P 	c #DB918C",
"5P 	c #CF8482",
"6P 	c #D78980",
"7P 	c #D28681",
"8P 	c #BC706F",
"9P 	c #C16B6C",
"0P 	c #BD6F72",
"aP 	c #AA555C",
"bP 	c #B86364",
"cP 	c #AC545E",
"dP 	c #9C525A",
"eP 	c #A3856F",
"fP 	c #33323F",
"gP 	c #4E4B69",
"hP 	c #5B587C",
"iP 	c #6C6A86",
"jP 	c #A3676D",
"kP 	c #AB5F6A",
"lP 	c #A75A62",
"mP 	c #A4585F",
"nP 	c #9F585B",
"oP 	c #A2565C",
"pP 	c #A5565D",
"qP 	c #A65960",
"rP 	c #A55D62",
"sP 	c #AF6367",
"tP 	c #AD5F60",
"uP 	c #BC6E6F",
"vP 	c #BF716B",
"wP 	c #B47373",
"xP 	c #B77877",
"yP 	c #B4716B",
"zP 	c #B37376",
"AP 	c #B17073",
"BP 	c #A97470",
"CP 	c #B97979",
"DP 	c #C07C7D",
"EP 	c #B67677",
"FP 	c #C78785",
"GP 	c #C3857F",
"HP 	c #C07D7C",
"IP 	c #C3877C",
"JP 	c #BE7C7E",
"KP 	c #BE7B6B",
"LP 	c #CA8282",
"MP 	c #C78381",
"NP 	c #D68E85",
"OP 	c #BC7E7A",
"PP 	c #BA7B74",
"QP 	c #BE7A79",
"RP 	c #CB7F7D",
"SP 	c #D5908B",
"TP 	c #BD7570",
"UP 	c #C47B80",
"VP 	c #CF857E",
"WP 	c #B97278",
"XP 	c #B56D70",
"YP 	c #BB6B73",
"ZP 	c #B8646B",
"`P 	c #B36069",
" Q 	c #A9545C",
".Q 	c #A75059",
"+Q 	c #A24F59",
"@Q 	c #4D303B",
"#Q 	c #545171",
"$Q 	c #605D84",
"%Q 	c #615F86",
"&Q 	c #736D91",
"*Q 	c #9F616A",
"=Q 	c #A55F69",
"-Q 	c #AB5D67",
";Q 	c #AD5863",
">Q 	c #AB565F",
",Q 	c #A7555C",
"'Q 	c #B5646C",
")Q 	c #B7656A",
"!Q 	c #B55B63",
"~Q 	c #CA7B76",
"{Q 	c #BD6973",
"]Q 	c #BF6D72",
"^Q 	c #CB7A7D",
"/Q 	c #C26F71",
"(Q 	c #CD7A81",
"_Q 	c #C77479",
":Q 	c #DB8581",
"<Q 	c #D5847E",
"[Q 	c #EB978C",
"}Q 	c #F59F9C",
"|Q 	c #E08E82",
"1Q 	c #E7978D",
"2Q 	c #DB878D",
"3Q 	c #DA878B",
"4Q 	c #E18E95",
"5Q 	c #DF9592",
"6Q 	c #D08487",
"7Q 	c #C4777A",
"8Q 	c #BF6F78",
"9Q 	c #CF7A81",
"0Q 	c #EFA29A",
"aQ 	c #D27D7F",
"bQ 	c #DA888D",
"cQ 	c #D48188",
"dQ 	c #D38B84",
"eQ 	c #D07B7B",
"fQ 	c #D28684",
"gQ 	c #D08182",
"hQ 	c #C87674",
"iQ 	c #CD817B",
"jQ 	c #C77776",
"kQ 	c #AE565B",
"lQ 	c #B6665F",
"mQ 	c #A6575D",
"nQ 	c #A0525A",
"oQ 	c #B6A781",
"pQ 	c #685F4A",
"qQ 	c #B9767F",
"rQ 	c #B97780",
"sQ 	c #B37681",
"tQ 	c #A06971",
"uQ 	c #B0A37E",
"vQ 	c #A77071",
"wQ 	c #AE5D67",
"xQ 	c #A7635F",
"yQ 	c #AA555F",
"zQ 	c #B1555E",
"AQ 	c #B4565F",
"BQ 	c #AA6667",
"CQ 	c #B46769",
"DQ 	c #C97872",
"EQ 	c #C47474",
"FQ 	c #C9827E",
"GQ 	c #D9878A",
"HQ 	c #C8807A",
"IQ 	c #B57075",
"JQ 	c #BB7479",
"KQ 	c #D48D88",
"LQ 	c #B57977",
"MQ 	c #C1807E",
"NQ 	c #C98786",
"OQ 	c #D38E89",
"PQ 	c #CA877C",
"QQ 	c #CC8479",
"RQ 	c #DA8C8F",
"SQ 	c #DD908E",
"TQ 	c #B87271",
"UQ 	c #C17871",
"VQ 	c #C18080",
"WQ 	c #CE8784",
"XQ 	c #C17872",
"YQ 	c #B67571",
"ZQ 	c #C37D79",
"`Q 	c #E49E94",
" R 	c #CC8584",
".R 	c #CC8782",
"+R 	c #D98C8E",
"@R 	c #DA8A89",
"#R 	c #D78E8B",
"$R 	c #C77D7E",
"%R 	c #C97F7C",
"&R 	c #BC7377",
"*R 	c #C0626C",
"=R 	c #B35962",
"-R 	c #A6535C",
";R 	c #9F545D",
">R 	c #454258",
",R 	c #545275",
"'R 	c #463E53",
")R 	c #252025",
"!R 	c #A45F6A",
"~R 	c #AA5E68",
"{R 	c #A95B65",
"]R 	c #B35D67",
"^R 	c #A5595F",
"/R 	c #A5575F",
"(R 	c #AF6064",
"_R 	c #BA6772",
":R 	c #B46068",
"<R 	c #CD7C7D",
"[R 	c #C47376",
"}R 	c #BE6A70",
"|R 	c #C26970",
"1R 	c #C16970",
"2R 	c #EE9F99",
"3R 	c #DD8987",
"4R 	c #DD8D86",
"5R 	c #E39488",
"6R 	c #E28D94",
"7R 	c #E58F96",
"8R 	c #DB8E8D",
"9R 	c #E09396",
"0R 	c #D5858A",
"aR 	c #E09991",
"bR 	c #D28182",
"cR 	c #CE7E81",
"dR 	c #C6727A",
"eR 	c #DD878A",
"fR 	c #DB8D8D",
"gR 	c #C87A7C",
"hR 	c #DD8D8E",
"iR 	c #D98E87",
"jR 	c #CB7F7C",
"kR 	c #C97573",
"lR 	c #BF6D6F",
"mR 	c #C36F6D",
"nR 	c #B05E63",
"oR 	c #A8545B",
"pR 	c #C47874",
"qR 	c #A2545B",
"rR 	c #C1B289",
"sR 	c #494234",
"tR 	c #C8858E",
"uR 	c #C3838C",
"vR 	c #BE818A",
"wR 	c #887A60",
"xR 	c #A77E71",
"yR 	c #A45D65",
"zR 	c #A46265",
"AR 	c #B75B66",
"BR 	c #B65863",
"CR 	c #B65861",
"DR 	c #B1555F",
"ER 	c #B3696D",
"FR 	c #C17170",
"GR 	c #C9777A",
"HR 	c #BD7875",
"IR 	c #BA6E6C",
"JR 	c #B76A6D",
"KR 	c #B56D6F",
"LR 	c #BE7578",
"MR 	c #B97275",
"NR 	c #C4787C",
"OR 	c #CF9188",
"PR 	c #BA7C7A",
"QR 	c #CD8981",
"RR 	c #C37C80",
"SR 	c #DA8A8D",
"TR 	c #E19291",
"UR 	c #C3817E",
"VR 	c #C47B7C",
"WR 	c #C0786E",
"XR 	c #CD7F78",
"YR 	c #C97E80",
"ZR 	c #BE7573",
"`R 	c #BF7773",
" S 	c #C07A7C",
".S 	c #E89B96",
"+S 	c #CD8083",
"@S 	c #D88F8B",
"#S 	c #D38F8B",
"$S 	c #BE7579",
"%S 	c #C17778",
"&S 	c #C47574",
"*S 	c #C47D79",
"=S 	c #AE6066",
"-S 	c #BD5D66",
";S 	c #B1545D",
">S 	c #A5515A",
",S 	c #9B5059",
"'S 	c #CDBF92",
")S 	c #1B1513",
"!S 	c #362E3D",
"~S 	c #C28089",
"{S 	c #C18089",
"]S 	c #D5C699",
"^S 	c #A05B65",
"/S 	c #AE606A",
"(S 	c #B25E69",
"_S 	c #AE5B64",
":S 	c #A65B61",
"<S 	c #B05861",
"[S 	c #D0797C",
"}S 	c #B7616B",
"|S 	c #D27D83",
"1S 	c #B55A60",
"2S 	c #BE616B",
"3S 	c #C16B6D",
"4S 	c #C7636E",
"5S 	c #CE8182",
"6S 	c #D27E7E",
"7S 	c #C87879",
"8S 	c #DC8A88",
"9S 	c #E3928D",
"0S 	c #D78887",
"aS 	c #D58387",
"bS 	c #E19592",
"cS 	c #DD847A",
"dS 	c #DC8482",
"eS 	c #D9858B",
"fS 	c #DB8D8F",
"gS 	c #D08485",
"hS 	c #E09992",
"iS 	c #D78489",
"jS 	c #D18484",
"kS 	c #C7787E",
"lS 	c #C98382",
"mS 	c #C87A7E",
"nS 	c #D27C7D",
"oS 	c #CC777C",
"pS 	c #D38386",
"qS 	c #CD7E7E",
"rS 	c #F29F8E",
"sS 	c #E18F87",
"tS 	c #C87775",
"uS 	c #B15C60",
"vS 	c #CF7F78",
"wS 	c #AD5F65",
"xS 	c #C8B98F",
"yS 	c #383229",
"zS 	c #C07F88",
"AS 	c #D5919B",
"BS 	c #D8959F",
"CS 	c #D996A1",
"DS 	c #CD8E97",
"ES 	c #5D5743",
"FS 	c #A15E65",
"GS 	c #AD5F6A",
"HS 	c #A65861",
"IS 	c #B15A64",
"JS 	c #AD5B62",
"KS 	c #B65A64",
"LS 	c #B45E64",
"MS 	c #B26769",
"NS 	c #B16866",
"OS 	c #C3696D",
"PS 	c #BA6A6C",
"QS 	c #B77068",
"RS 	c #BA6969",
"SS 	c #C87E7F",
"TS 	c #C37A79",
"US 	c #C5807E",
"VS 	c #CF8980",
"WS 	c #D18784",
"XS 	c #C37B7C",
"YS 	c #DF9092",
"ZS 	c #D48D86",
"`S 	c #CF8987",
" T 	c #C57B7E",
".T 	c #C97B6D",
"+T 	c #CE7F80",
"@T 	c #C67979",
"#T 	c #BD7576",
"$T 	c #C1786D",
"%T 	c #C6817D",
"&T 	c #BC7974",
"*T 	c #BB7772",
"=T 	c #CE8982",
"-T 	c #C67676",
";T 	c #C9807E",
">T 	c #B66A70",
",T 	c #C16E75",
"'T 	c #B1535C",
")T 	c #A7535C",
"!T 	c #9E515A",
"~T 	c #CEBE92",
"{T 	c #4B3934",
"]T 	c #BD7B84",
"^T 	c #C07E88",
"/T 	c #CF8E98",
"(T 	c #CE8D97",
"_T 	c #CC8C96",
":T 	c #353026",
"<T 	c #CAB991",
"[T 	c #AC616C",
"}T 	c #AA6066",
"|T 	c #AD5E62",
"1T 	c #BB6E73",
"2T 	c #B35B62",
"3T 	c #C26C6F",
"4T 	c #C1696D",
"5T 	c #BC6168",
"6T 	c #BD636A",
"7T 	c #BD6169",
"8T 	c #BE6169",
"9T 	c #D37F7E",
"0T 	c #C86F78",
"aT 	c #E6998D",
"bT 	c #EF988C",
"cT 	c #E89097",
"dT 	c #EA9794",
"eT 	c #D98783",
"fT 	c #D58484",
"gT 	c #D68286",
"hT 	c #E78896",
"iT 	c #D38887",
"jT 	c #E89499",
"kT 	c #E59593",
"lT 	c #DF968F",
"mT 	c #E39695",
"nT 	c #C67278",
"oT 	c #D08580",
"pT 	c #C98081",
"qT 	c #B7676F",
"rT 	c #DA8C89",
"sT 	c #DD8B86",
"tT 	c #CE7B7B",
"uT 	c #D3807E",
"vT 	c #C06A6C",
"wT 	c #C47771",
"xT 	c #D48179",
"yT 	c #D38883",
"zT 	c #A96264",
"AT 	c #9F535A",
"BT 	c #C0AF89",
"CT 	c #3C302A",
"DT 	c #D18A95",
"ET 	c #DA949E",
"FT 	c #D7949E",
"GT 	c #D1919B",
"HT 	c #E2A0AA",
"IT 	c #352F26",
"JT 	c #CCBB92",
"KT 	c #B7626D",
"LT 	c #AC5B65",
"MT 	c #B05A64",
"NT 	c #BC6D6F",
"OT 	c #BB6867",
"PT 	c #BA7771",
"QT 	c #AA6162",
"RT 	c #B36865",
"ST 	c #AB5C5D",
"TT 	c #B26669",
"UT 	c #AF6166",
"VT 	c #B66B6E",
"WT 	c #C17271",
"XT 	c #C37377",
"YT 	c #B66C6A",
"ZT 	c #CE8080",
"`T 	c #BD7E7B",
" U 	c #C67C7C",
".U 	c #C47A7A",
"+U 	c #B87377",
"@U 	c #BF7579",
"#U 	c #CB797F",
"$U 	c #CF8182",
"%U 	c #D98A8B",
"&U 	c #C37278",
"*U 	c #C16F77",
"=U 	c #BE7275",
"-U 	c #C1757B",
";U 	c #CE8A82",
">U 	c #D68F86",
",U 	c #CA8981",
"'U 	c #BA756B",
")U 	c #AF6C65",
"!U 	c #B5746F",
"~U 	c #C27978",
"{U 	c #C27C75",
"]U 	c #B67070",
"^U 	c #A65A5E",
"/U 	c #AA545C",
"(U 	c #A2535B",
"_U 	c #C6B88D",
":U 	c #573F3E",
"<U 	c #C4838C",
"[U 	c #C78790",
"}U 	c #D4949E",
"|U 	c #CD8F99",
"1U 	c #413C2F",
"2U 	c #C2B089",
"3U 	c #AF616B",
"4U 	c #AC5D68",
"5U 	c #AB5A64",
"6U 	c #A75961",
"7U 	c #AF5A63",
"8U 	c #BA6F6F",
"9U 	c #BA696B",
"0U 	c #BD6F70",
"aU 	c #C6747A",
"bU 	c #B96E6C",
"cU 	c #C8616B",
"dU 	c #CB7876",
"eU 	c #E6908B",
"fU 	c #D3787A",
"gU 	c #C87075",
"hU 	c #D47E83",
"iU 	c #D38188",
"jU 	c #D38182",
"kU 	c #D0737C",
"lU 	c #C8777E",
"mU 	c #CE7A81",
"nU 	c #E99797",
"oU 	c #D68783",
"pU 	c #CF8584",
"qU 	c #C17174",
"rU 	c #BA7171",
"sU 	c #C06D72",
"tU 	c #C06D6E",
"uU 	c #BF6870",
"vU 	c #C06D71",
"wU 	c #C37A74",
"xU 	c #C06B6C",
"yU 	c #D07C74",
"zU 	c #C8776F",
"AU 	c #B56B6A",
"BU 	c #A5525A",
"CU 	c #B26B6A",
"DU 	c #9F575C",
"EU 	c #B69F7D",
"FU 	c #40312D",
"GU 	c #D08B96",
"HU 	c #DE96A1",
"IU 	c #D796A0",
"JU 	c #D999A1",
"KU 	c #E6A3AC",
"LU 	c #1D1815",
"MU 	c #DBCB9C",
"NU 	c #B8636E",
"OU 	c #B45B66",
"PU 	c #BB706F",
"QU 	c #C47F75",
"RU 	c #B36467",
"SU 	c #AE6162",
"TU 	c #AC5C5E",
"UU 	c #BE7570",
"VU 	c #BD6D68",
"WU 	c #CF767B",
"XU 	c #D4837E",
"YU 	c #DE8A89",
"ZU 	c #BF7979",
"`U 	c #C07979",
" V 	c #BD7579",
".V 	c #C37D7C",
"+V 	c #C77F82",
"@V 	c #CD7878",
"#V 	c #CA737A",
"$V 	c #D37D81",
"%V 	c #D07981",
"&V 	c #CF7B82",
"*V 	c #C06E78",
"=V 	c #C17877",
"-V 	c #C17A7A",
";V 	c #C07377",
">V 	c #DA8B88",
",V 	c #C4857D",
"'V 	c #BC7776",
")V 	c #C77C78",
"!V 	c #BA6E70",
"~V 	c #B86F6F",
"{V 	c #C17D77",
"]V 	c #C37C79",
"^V 	c #B86162",
"/V 	c #A1535A",
"(V 	c #A1585D",
"_V 	c #6A474B",
":V 	c #C88990",
"<V 	c #D995A0",
"[V 	c #D999A2",
"}V 	c #595240",
"|V 	c #BBAA85",
"1V 	c #AC5C64",
"2V 	c #B3646A",
"3V 	c #C87B7E",
"4V 	c #C47076",
"5V 	c #BC7170",
"6V 	c #BB676B",
"7V 	c #BB5660",
"8V 	c #BE5962",
"9V 	c #C35E67",
"0V 	c #D1807B",
"aV 	c #D6837F",
"bV 	c #CC787D",
"cV 	c #ED9E95",
"dV 	c #C47879",
"eV 	c #BB696C",
"fV 	c #C77B7C",
"gV 	c #D68087",
"hV 	c #E08B8A",
"iV 	c #C56E78",
"jV 	c #E59292",
"kV 	c #DD858C",
"lV 	c #D48285",
"mV 	c #CC7F7C",
"nV 	c #E2908F",
"oV 	c #C2666F",
"pV 	c #BF6C6F",
"qV 	c #BA6A6D",
"rV 	c #BC7172",
"sV 	c #B87573",
"tV 	c #AC5F64",
"uV 	c #C07778",
"vV 	c #C46D6E",
"wV 	c #C27A75",
"xV 	c #B5746E",
"yV 	c #C27D76",
"zV 	c #A5565E",
"AV 	c #A65C5B",
"BV 	c #B7A480",
"CV 	c #493931",
"DV 	c #C8868F",
"EV 	c #DB959F",
"FV 	c #DD9CA4",
"GV 	c #F0A8B1",
"HV 	c #E5A0A9",
"IV 	c #DE9CA2",
"JV 	c #DF9DA6",
"KV 	c #402D30",
"LV 	c #E2D2A2",
"MV 	c #A86069",
"NV 	c #B9656F",
"OV 	c #B05C68",
"PV 	c #AF5D66",
"QV 	c #C17873",
"RV 	c #AE6563",
"SV 	c #B56564",
"TV 	c #B67271",
"UV 	c #B06666",
"VV 	c #B95762",
"WV 	c #B56162",
"XV 	c #BE7169",
"YV 	c #BE656B",
"ZV 	c #C0646D",
"`V 	c #E5928F",
" W 	c #C07A73",
".W 	c #C17575",
"+W 	c #C57674",
"@W 	c #D08181",
"#W 	c #C37478",
"$W 	c #CC7479",
"%W 	c #C37075",
"&W 	c #DE888F",
"*W 	c #C77C7D",
"=W 	c #CA7D7E",
"-W 	c #C07278",
";W 	c #CB787B",
">W 	c #BC7475",
",W 	c #C2787A",
"'W 	c #C0777B",
")W 	c #C6827A",
"!W 	c #B9726F",
"~W 	c #B36667",
"{W 	c #B9776F",
"]W 	c #BA7270",
"^W 	c #C87472",
"/W 	c #B56669",
"(W 	c #BB716E",
"_W 	c #B16A67",
":W 	c #9B6360",
"<W 	c #B3A781",
"[W 	c #96636A",
"}W 	c #D08E97",
"|W 	c #CB8B93",
"1W 	c #CF8D95",
"2W 	c #D8979F",
"3W 	c #6E654E",
"4W 	c #B79F80",
"5W 	c #B4636E",
"6W 	c #BE6F75",
"7W 	c #C47B7A",
"8W 	c #AD5961",
"9W 	c #C46F75",
"0W 	c #C4817B",
"aW 	c #BB6568",
"bW 	c #B45B62",
"cW 	c #BF6B6B",
"dW 	c #C45C67",
"eW 	c #CD7775",
"fW 	c #CA7576",
"gW 	c #B9706D",
"hW 	c #C07375",
"iW 	c #D57E80",
"jW 	c #B76769",
"kW 	c #CC8180",
"lW 	c #C7747C",
"mW 	c #C56E74",
"nW 	c #EA9195",
"oW 	c #C97678",
"pW 	c #CE817F",
"qW 	c #C37172",
"rW 	c #BA6A6B",
"sW 	c #B15E64",
"tW 	c #B36862",
"uW 	c #BD6E6C",
"vW 	c #A75B5F",
"wW 	c #BF7874",
"xW 	c #A86763",
"yW 	c #AE6968",
"zW 	c #AE6466",
"AW 	c #B89F80",
"BW 	c #473B32",
"CW 	c #BF7D84",
"DW 	c #CD8992",
"EW 	c #D6919B",
"FW 	c #E199A4",
"GW 	c #DD98A2",
"HW 	c #DF9BA4",
"IW 	c #DE9A9D",
"JW 	c #F3A9B2",
"KW 	c #D59397",
"LW 	c #F0A7B0",
"MW 	c #EEA7B0",
"NW 	c #AC7981",
"OW 	c #D0C194",
"PW 	c #B56671",
"QW 	c #B4626E",
"RW 	c #B8626D",
"SW 	c #B0656A",
"TW 	c #B15C64",
"UW 	c #AC5D5F",
"VW 	c #B66967",
"WW 	c #B06166",
"XW 	c #A95D61",
"YW 	c #BB6E6B",
"ZW 	c #B05B5E",
"`W 	c #BA6F6C",
" X 	c #BC6D6B",
".X 	c #B16A66",
"+X 	c #C37E75",
"@X 	c #C47475",
"#X 	c #B9656D",
"$X 	c #C27777",
"%X 	c #C07479",
"&X 	c #C0696E",
"*X 	c #B7686A",
"=X 	c #C1686F",
"-X 	c #C16C72",
";X 	c #BF6E73",
">X 	c #C07273",
",X 	c #B16F6E",
"'X 	c #B77470",
")X 	c #C17F79",
"!X 	c #AE6567",
"~X 	c #BC7877",
"{X 	c #BC7070",
"]X 	c #B7706F",
"^X 	c #A86267",
"/X 	c #B36566",
"(X 	c #A65B5F",
"_X 	c #987263",
":X 	c #9C8E6E",
"<X 	c #CC8891",
"[X 	c #CD8D96",
"}X 	c #D29197",
"|X 	c #D998A2",
"1X 	c #D7969E",
"2X 	c #ECA5AE",
"3X 	c #D998A0",
"4X 	c #E7A3AD",
"5X 	c #E4A1AA",
"6X 	c #766D54",
"7X 	c #AE8D77",
"8X 	c #B1676C",
"9X 	c #BB6B70",
"0X 	c #B66368",
"aX 	c #B36061",
"bX 	c #BB6465",
"cX 	c #CF7671",
"dX 	c #CA7474",
"eX 	c #C3706E",
"fX 	c #BE685A",
"gX 	c #B86E60",
"hX 	c #C06D70",
"iX 	c #C47572",
"jX 	c #CD7879",
"kX 	c #CA7074",
"lX 	c #D07A7B",
"mX 	c #BD5E69",
"nX 	c #CD737A",
"oX 	c #CA7B78",
"pX 	c #D3897D",
"qX 	c #CA7B79",
"rX 	c #C16F73",
"sX 	c #B96368",
"tX 	c #AD5B5F",
"uX 	c #B96568",
"vX 	c #AC5E61",
"wX 	c #B05A61",
"xX 	c #C3716F",
"yX 	c #B96468",
"zX 	c #A66A63",
"AX 	c #AA6763",
"BX 	c #A86361",
"CX 	c #AB9173",
"DX 	c #765950",
"EX 	c #B2757A",
"FX 	c #C8848C",
"GX 	c #CC8992",
"HX 	c #C6878E",
"IX 	c #CC8B92",
"JX 	c #E89FAB",
"KX 	c #DB98A3",
"LX 	c #E2A0A2",
"MX 	c #DF9CA2",
"NX 	c #F5ABB3",
"OX 	c #EAA4AC",
"PX 	c #F1A9B2",
"QX 	c #E8A4AF",
"RX 	c #B3A780",
"SX 	c #B56973",
"TX 	c #BA6671",
"UX 	c #BE6671",
"VX 	c #B05E67",
"WX 	c #AB5C61",
"XX 	c #AF6465",
"YX 	c #AE5B62",
"ZX 	c #AD595E",
"`X 	c #B25D66",
" Y 	c #B9636A",
".Y 	c #BD6D6C",
"+Y 	c #BE716C",
"@Y 	c #C37372",
"#Y 	c #B56F6C",
"$Y 	c #AF746E",
"%Y 	c #B9696D",
"&Y 	c #C17074",
"*Y 	c #BF6A6B",
"=Y 	c #C0636A",
"-Y 	c #BB6C6E",
";Y 	c #BE6366",
">Y 	c #CA7C78",
",Y 	c #C17473",
"'Y 	c #BC726E",
")Y 	c #B96566",
"!Y 	c #BC6C6B",
"~Y 	c #D17D81",
"{Y 	c #BF7273",
"]Y 	c #C67C76",
"^Y 	c #B76C6C",
"/Y 	c #B0636A",
"(Y 	c #B8766C",
"_Y 	c #B86E6A",
":Y 	c #AF6360",
"<Y 	c #AB6064",
"[Y 	c #A18A6F",
"}Y 	c #83735C",
"|Y 	c #BB7E84",
"1Y 	c #B98083",
"2Y 	c #D08D94",
"3Y 	c #D5939B",
"4Y 	c #D49199",
"5Y 	c #DA9A9F",
"6Y 	c #DB9AA0",
"7Y 	c #DD9AA0",
"8Y 	c #E19EA7",
"9Y 	c #DA969E",
"0Y 	c #DC9AA0",
"aY 	c #E5A1A9",
"bY 	c #E3A0A9",
"cY 	c #E9A5AF",
"dY 	c #7E745A",
"eY 	c #A68D74",
"fY 	c #AC606A",
"gY 	c #B66A6E",
"hY 	c #AE5D64",
"iY 	c #C57B7B",
"jY 	c #B56169",
"kY 	c #BD7073",
"lY 	c #BB6366",
"mY 	c #C86C6D",
"nY 	c #BB6F6A",
"oY 	c #BF6A69",
"pY 	c #BC6469",
"qY 	c #C47072",
"rY 	c #BE6167",
"sY 	c #C06269",
"tY 	c #D27A7C",
"uY 	c #DB8A89",
"vY 	c #B26564",
"wY 	c #B16466",
"xY 	c #BB7271",
"yY 	c #B8565F",
"zY 	c #AD5C5E",
"AY 	c #BF7673",
"BY 	c #B86F6A",
"CY 	c #CA7C77",
"DY 	c #BF7474",
"EY 	c #A58E72",
"FY 	c #715F4D",
"GY 	c #B8757B",
"HY 	c #CA8089",
"IY 	c #BE7A82",
"JY 	c #C5838C",
"KY 	c #CB8991",
"LY 	c #DC9B9C",
"MY 	c #E6A3A4",
"NY 	c #E29CA5",
"OY 	c #D6989C",
"PY 	c #FAAFB9",
"QY 	c #F8AEB8",
"RY 	c #DD9AA2",
"SY 	c #DA99A1",
"TY 	c #F3AAB4",
"UY 	c #F0A8B3",
"VY 	c #E29FAA",
"WY 	c #887F62",
"XY 	c #AB7872",
"YY 	c #BB6773",
"ZY 	c #AE666B",
"`Y 	c #BC606C",
" Z 	c #B1696A",
".Z 	c #B15C65",
"+Z 	c #AE6061",
"@Z 	c #BF706E",
"#Z 	c #BD6562",
"$Z 	c #B06766",
"%Z 	c #AE6A69",
"&Z 	c #C27675",
"*Z 	c #B66166",
"=Z 	c #BA6065",
"-Z 	c #C5646B",
";Z 	c #B66565",
">Z 	c #C7757E",
",Z 	c #C87173",
"'Z 	c #CD7876",
")Z 	c #BB6564",
"!Z 	c #B16469",
"~Z 	c #C27076",
"{Z 	c #CE8380",
"]Z 	c #B96D6A",
"^Z 	c #B86E73",
"/Z 	c #C6837B",
"(Z 	c #BC7C79",
"_Z 	c #B06061",
":Z 	c #A6585E",
"<Z 	c #AE9D7B",
"[Z 	c #635545",
"}Z 	c #BC7A82",
"|Z 	c #C27F88",
"1Z 	c #C3848A",
"2Z 	c #C68B8E",
"3Z 	c #D29098",
"4Z 	c #D9949F",
"5Z 	c #E7A2AC",
"6Z 	c #E19DA3",
"7Z 	c #DC979E",
"8Z 	c #E8A1A9",
"9Z 	c #DD9BA4",
"0Z 	c #DD9BA6",
"aZ 	c #80775B",
"bZ 	c #B8937E",
"cZ 	c #AE676C",
"dZ 	c #AD6067",
"eZ 	c #B06168",
"fZ 	c #B16069",
"gZ 	c #B8636D",
"hZ 	c #B05D65",
"iZ 	c #B86B6C",
"jZ 	c #B46363",
"kZ 	c #BE7171",
"lZ 	c #B96A6B",
"mZ 	c #BC5D65",
"nZ 	c #C36468",
"oZ 	c #B87A74",
"pZ 	c #D58084",
"qZ 	c #B85D61",
"rZ 	c #CB7878",
"sZ 	c #D98585",
"tZ 	c #C0676A",
"uZ 	c #D4857F",
"vZ 	c #C97B6E",
"wZ 	c #BE6069",
"xZ 	c #AD6161",
"yZ 	c #BA6F6D",
"zZ 	c #B56768",
"AZ 	c #AD6063",
"BZ 	c #B26465",
"CZ 	c #B66C6C",
"DZ 	c #B25C62",
"EZ 	c #AB6364",
"FZ 	c #A88571",
"GZ 	c #7E6C57",
"HZ 	c #B97578",
"IZ 	c #CB7F89",
"JZ 	c #BF7B83",
"KZ 	c #C18083",
"LZ 	c #E799A4",
"MZ 	c #DC9399",
"NZ 	c #DB979F",
"OZ 	c #E5A0A2",
"PZ 	c #DB96A1",
"QZ 	c #DB9CA1",
"RZ 	c #E09EA6",
"SZ 	c #E09DA4",
"TZ 	c #F2AAB4",
"UZ 	c #E9A2AE",
"VZ 	c #5D5643",
"WZ 	c #AC8B77",
"XZ 	c #AF686E",
"YZ 	c #B8636F",
"ZZ 	c #AA5B62",
"`Z 	c #B35A64",
" ` 	c #B5676A",
".` 	c #C06A72",
"+` 	c #CC777A",
"@` 	c #C57876",
"#` 	c #BB666A",
"$` 	c #C0666F",
"%` 	c #B36765",
"&` 	c #BD666A",
"*` 	c #C37074",
"=` 	c #C46C69",
"-` 	c #C66F71",
";` 	c #BB6F6C",
">` 	c #BD706D",
",` 	c #B96066",
"'` 	c #B15E5E",
")` 	c #C47872",
"!` 	c #BD6F6F",
"~` 	c #B15E66",
"{` 	c #AB6167",
"]` 	c #AC676A",
"^` 	c #AB6368",
"/` 	c #B4957C",
"(` 	c #4C3E35",
"_` 	c #B7757D",
":` 	c #C47F86",
"<` 	c #D88E99",
"[` 	c #CB898E",
"}` 	c #DF9898",
"|` 	c #D89B94",
"1` 	c #E59FA3",
"2` 	c #E09DA0",
"3` 	c #EBA4AE",
"4` 	c #DB989F",
"5` 	c #F4ACB5",
"6` 	c #E5A1AB",
"7` 	c #D897A1",
"8` 	c #7B6F57",
"9` 	c #A98E75",
"0` 	c #B1616D",
"a` 	c #AD616A",
"b` 	c #B0636B",
"c` 	c #AE5D66",
"d` 	c #B05F65",
"e` 	c #B05D64",
"f` 	c #AC6466",
"g` 	c #B15C5F",
"h` 	c #CD7E7D",
"i` 	c #B96064",
"j` 	c #B75C65",
"k` 	c #E3958A",
"l` 	c #C57070",
"m` 	c #B56161",
"n` 	c #C06A6E",
"o` 	c #C47670",
"p` 	c #CB7472",
"q` 	c #CA7C70",
"r` 	c #BF6669",
"s` 	c #C66F73",
"t` 	c #C06F6E",
"u` 	c #BC6166",
"v` 	c #BC6E6B",
"w` 	c #B75B61",
"x` 	c #B76C66",
"y` 	c #B36D67",
"z` 	c #B05D60",
"A` 	c #BC6E6D",
"B` 	c #B16962",
"C` 	c #AA5F60",
"D` 	c #A65C60",
"E` 	c #9E746A",
"F` 	c #967C6A",
"G` 	c #B97078",
"H` 	c #C77982",
"I` 	c #D3838E",
"J` 	c #D98B95",
"K` 	c #D88E97",
"L` 	c #E595A0",
"M` 	c #D79697",
"N` 	c #DE999C",
"O` 	c #E29BA1",
"P` 	c #DF99A2",
"Q` 	c #E79FA6",
"R` 	c #EEA5AA",
"S` 	c #E39EA6",
"T` 	c #FEB2BD",
"U` 	c #EBA4AD",
"V` 	c #DA989F",
"W` 	c #F6ACB9",
"X` 	c #342F25",
"Y` 	c #B59F7F",
"Z` 	c #BB6873",
"`` 	c #B4616D",
"  .	c #BA626E",
". .	c #B26069",
"+ .	c #B25F67",
"@ .	c #B15A63",
"# .	c #B26568",
"$ .	c #B56B69",
"% .	c #BD6A6E",
"& .	c #B76F6D",
"* .	c #B06566",
"= .	c #BA6069",
"- .	c #C07070",
"; .	c #B9616A",
"> .	c #BB656C",
", .	c #B57370",
"' .	c #B46B6D",
") .	c #B4726F",
"! .	c #B66559",
"~ .	c #C77873",
"{ .	c #C87877",
"] .	c #B36A6A",
"^ .	c #B76665",
"/ .	c #AE5E64",
"( .	c #B26A6C",
"_ .	c #AB6369",
": .	c #B49D7E",
"< .	c #593D3B",
"[ .	c #B47179",
"} .	c #B5747C",
"| .	c #C78188",
"1 .	c #CB878F",
"2 .	c #D28D96",
"3 .	c #E19F9C",
"4 .	c #D49797",
"5 .	c #DE9BA2",
"6 .	c #E9A2AC",
"7 .	c #E8A2AC",
"8 .	c #E59EAA",
"9 .	c #E69EA6",
"0 .	c #F7ADB8",
"a .	c #D19398",
"b .	c #DD9DA4",
"c .	c #D5959D",
"d .	c #6F654E",
"e .	c #B19B7C",
"f .	c #B15F67",
"g .	c #B16265",
"h .	c #C67068",
"i .	c #B55F65",
"j .	c #C57673",
"k .	c #C06E6B",
"l .	c #B9605D",
"m .	c #B36B6D",
"n .	c #CB7C7D",
"o .	c #CE7877",
"p .	c #C0706F",
"q .	c #CE7C73",
"r .	c #BE706C",
"s .	c #C7716E",
"t .	c #B76F69",
"u .	c #BA6668",
"v .	c #BA5761",
"w .	c #B76365",
"x .	c #B76867",
"y .	c #C57572",
"z .	c #AF6063",
"A .	c #B1686A",
"B .	c #A85A60",
"C .	c #AA6466",
"D .	c #C47876",
"E .	c #AB5A62",
"F .	c #B06869",
"G .	c #9F6F69",
"H .	c #9A8D6E",
"I .	c #AB6770",
"J .	c #BA7379",
"K .	c #C2767E",
"L .	c #C47F87",
"M .	c #E0909A",
"N .	c #D78D96",
"O .	c #DB929B",
"P .	c #EFA0A4",
"Q .	c #E19B9C",
"R .	c #DD9699",
"S .	c #FDB0BA",
"T .	c #E49FA4",
"U .	c #E29CA3",
"V .	c #E09C9F",
"W .	c #DC9BA1",
"X .	c #EDA6B0",
"Y .	c #EAA4AE",
"Z .	c #E09DA5",
"` .	c #DE9AA5",
" ..	c #D09097",
"...	c #211D17",
"+..	c #C4B38B",
"@..	c #BF6874",
"#..	c #B46D6D",
"$..	c #B2606A",
"%..	c #C06B74",
"&..	c #C36F74",
"*..	c #B46C69",
"=..	c #BB5F67",
"-..	c #BD5C66",
";..	c #C16B72",
">..	c #B56666",
",..	c #B4646A",
"'..	c #BB5760",
")..	c #BB6269",
"!..	c #C5777A",
"~..	c #BE6868",
"{..	c #C26467",
"]..	c #C6716D",
"^..	c #C16D6D",
"/..	c #B26262",
"(..	c #AC6266",
"_..	c #B56568",
":..	c #BB7272",
"<..	c #BC7F76",
"[..	c #D08781",
"}..	c #AC5E5F",
"|..	c #9E6C65",
"1..	c #A79075",
"2..	c #A1656B",
"3..	c #BA767B",
"4..	c #D2858F",
"5..	c #C8818A",
"6..	c #CB858D",
"7..	c #CD8990",
"8..	c #DD9798",
"9..	c #DE979D",
"0..	c #E19EA4",
"a..	c #EAA3AE",
"b..	c #E9A0A9",
"c..	c #EA9CA7",
"d..	c #E09BA3",
"e..	c #D7979C",
"f..	c #DC9C9F",
"g..	c #D8999D",
"h..	c #F4ABB6",
"i..	c #EFA8B3",
"j..	c #574F3E",
"k..	c #B69E7F",
"l..	c #AB626A",
"m..	c #B56B6F",
"n..	c #B15F68",
"o..	c #B45E68",
"p..	c #C87672",
"q..	c #B76969",
"r..	c #BB656B",
"s..	c #C46B71",
"t..	c #C0696D",
"u..	c #CD777D",
"v..	c #DD7E88",
"w..	c #D98078",
"x..	c #DC8787",
"y..	c #C97474",
"z..	c #BE6364",
"A..	c #D1847B",
"B..	c #B3635F",
"C..	c #C0746F",
"D..	c #BE7571",
"E..	c #B76566",
"F..	c #B06263",
"G..	c #AF665F",
"H..	c #AB5D62",
"I..	c #AA5F64",
"J..	c #A16863",
"K..	c #A19072",
"L..	c #95585F",
"M..	c #C0737C",
"N..	c #C97984",
"O..	c #C2787F",
"P..	c #D6858F",
"Q..	c #D58793",
"R..	c #D68A94",
"S..	c #EA9E9F",
"T..	c #F1A2A6",
"U..	c #EFA5A6",
"V..	c #DB9599",
"W..	c #E39A9E",
"X..	c #E198A0",
"Y..	c #DB949D",
"Z..	c #DE989F",
"`..	c #F5A9B4",
" +.	c #E39DA6",
".+.	c #E9A0AC",
"++.	c #E49EA6",
"@+.	c #FDB0BC",
"#+.	c #EFA5B1",
"$+.	c #DA97A0",
"%+.	c #251D1A",
"&+.	c #C6B48C",
"*+.	c #BE6774",
"=+.	c #AE6366",
"-+.	c #BC6F74",
";+.	c #C07076",
">+.	c #B25F66",
",+.	c #CF7981",
"'+.	c #C37379",
")+.	c #BB5E66",
"!+.	c #BC5C65",
"~+.	c #C0676D",
"{+.	c #AF5E63",
"]+.	c #D57F79",
"^+.	c #BC6665",
"/+.	c #B6686D",
"(+.	c #AF6B6B",
"_+.	c #BD7774",
":+.	c #BE7471",
"<+.	c #A96460",
"[+.	c #C57977",
"}+.	c #B26867",
"|+.	c #A55960",
"1+.	c #9D846C",
"2+.	c #917860",
"3+.	c #BE797D",
"4+.	c #BE767F",
"5+.	c #C77C86",
"6+.	c #CE858E",
"7+.	c #CC868C",
"8+.	c #DB9695",
"9+.	c #DF9B9C",
"0+.	c #DB9A98",
"a+.	c #DB9B9B",
"b+.	c #E29FA2",
"c+.	c #EDA5B0",
"d+.	c #E49EA7",
"e+.	c #E5A1A6",
"f+.	c #E39FA9",
"g+.	c #DA98A0",
"h+.	c #E9A3A8",
"i+.	c #56453C",
"j+.	c #C7B78E",
"k+.	c #B6636E",
"l+.	c #B3606B",
"m+.	c #B05D68",
"n+.	c #B3666B",
"o+.	c #BF7272",
"p+.	c #CA7F74",
"q+.	c #C47373",
"r+.	c #B2726B",
"s+.	c #BD6C6A",
"t+.	c #CA7B7D",
"u+.	c #D88988",
"v+.	c #CD8883",
"w+.	c #D58885",
"x+.	c #C07572",
"y+.	c #BD7372",
"z+.	c #CB7977",
"A+.	c #AF6264",
"B+.	c #B0605B",
"C+.	c #B56368",
"D+.	c #B45862",
"E+.	c #B46362",
"F+.	c #B36966",
"G+.	c #AA5F65",
"H+.	c #A85F62",
"I+.	c #A85E64",
"J+.	c #A56B67",
"K+.	c #AD9E7B",
"L+.	c #7C494C",
"M+.	c #B56A73",
"N+.	c #BD747B",
"O+.	c #BB737C",
"P+.	c #CF7F89",
"Q+.	c #D3858F",
"R+.	c #D1858F",
"S+.	c #DD9497",
"T+.	c #D78F95",
"U+.	c #D18B92",
"V+.	c #DA909A",
"W+.	c #E39C9D",
"X+.	c #F0A1A5",
"Y+.	c #DE939C",
"Z+.	c #E79AA6",
"`+.	c #DA929A",
" @.	c #DF999E",
".@.	c #E299A2",
"+@.	c #DE98A0",
"@@.	c #E69DA7",
"#@.	c #F3A7B3",
"$@.	c #D59299",
"%@.	c #E99FA9",
"&@.	c #E39CA5",
"*@.	c #DC97A2",
"=@.	c #312423",
"-@.	c #B66570",
";@.	c #AC6069",
">@.	c #B16C70",
",@.	c #B4616A",
"'@.	c #BE7274",
")@.	c #B66563",
"!@.	c #C07C7B",
"~@.	c #CE807C",
"{@.	c #B65C66",
"]@.	c #B55D68",
"^@.	c #C06B63",
"/@.	c #BC726D",
"(@.	c #BD7573",
"_@.	c #BB7373",
":@.	c #BD7C74",
"<@.	c #B2706B",
"[@.	c #A75C61",
"}@.	c #AD6867",
"|@.	c #B1A07E",
"1@.	c #615744",
"2@.	c #BB7079",
"3@.	c #C37980",
"4@.	c #C17A81",
"5@.	c #D68691",
"6@.	c #D58995",
"7@.	c #D58D93",
"8@.	c #D48D90",
"9@.	c #EAA1A1",
"0@.	c #E19F99",
"a@.	c #ECA6A2",
"b@.	c #EFA9A7",
"c@.	c #E9A1AB",
"d@.	c #E69CA2",
"e@.	c #EB9FA9",
"f@.	c #E3989F",
"g@.	c #DC9B9E",
"h@.	c #DD9CA0",
"i@.	c #EDA4AF",
"j@.	c #DA979F",
"k@.	c #E59CA8",
"l@.	c #382F28",
"m@.	c #D0C094",
"n@.	c #AF6269",
"o@.	c #B2666B",
"p@.	c #CE7D75",
"q@.	c #D27A68",
"r@.	c #B3796F",
"s@.	c #E79B94",
"t@.	c #C47577",
"u@.	c #E4968F",
"v@.	c #DC8E85",
"w@.	c #D07F73",
"x@.	c #BF6B64",
"y@.	c #B56066",
"z@.	c #B36465",
"A@.	c #C8606B",
"B@.	c #B96A73",
"C@.	c #B15D64",
"D@.	c #BE7775",
"E@.	c #AF6466",
"F@.	c #AD6A6A",
"G@.	c #B06C66",
"H@.	c #A5575E",
"I@.	c #A35B62",
"J@.	c #A76366",
"K@.	c #B09376",
"L@.	c #663D3D",
"M@.	c #B26970",
"N@.	c #BA6D75",
"O@.	c #D07B85",
"P@.	c #C67982",
"Q@.	c #C2777F",
"R@.	c #CC818A",
"S@.	c #D58B90",
"T@.	c #CA878A",
"U@.	c #D98C95",
"V@.	c #EA9FA0",
"W@.	c #DE949D",
"X@.	c #F7AAAB",
"Y@.	c #E296A0",
"Z@.	c #D69298",
"`@.	c #DE969E",
" #.	c #E599A2",
".#.	c #DC959B",
"+#.	c #F0A1AC",
"@#.	c #DC949D",
"##.	c #F8A7B2",
"$#.	c #D38D95",
"%#.	c #E097A1",
"&#.	c #E199A3",
"*#.	c #F4A6B2",
"=#.	c #D7929B",
"-#.	c #CE8C93",
";#.	c #D38D96",
">#.	c #402C2D",
",#.	c #E0CFA0",
"'#.	c #B36873",
")#.	c #B1656F",
"!#.	c #B1656E",
"~#.	c #AD626A",
"{#.	c #C1767A",
"]#.	c #BE736E",
"^#.	c #C26F72",
"/#.	c #DB918E",
"(#.	c #C37F79",
"_#.	c #B35A63",
":#.	c #C46F6F",
"<#.	c #B76066",
"[#.	c #B65E64",
"}#.	c #BB6662",
"|#.	c #CC7A72",
"1#.	c #AC6565",
"2#.	c #AF6469",
"3#.	c #BA6B6B",
"4#.	c #C5716F",
"5#.	c #B06366",
"6#.	c #B86D6D",
"7#.	c #A75B63",
"8#.	c #BEA286",
"9#.	c #504035",
"0#.	c #C1737C",
"a#.	c #D78995",
"b#.	c #B66B45",
"c#.	c #D28F8D",
"d#.	c #E59E9E",
"e#.	c #FAB2AA",
"f#.	c #FAA8A5",
"g#.	c #FCB1B1",
"h#.	c #E49EA4",
"i#.	c #EDA1AC",
"j#.	c #E69DA4",
"k#.	c #E29CA7",
"l#.	c #E29CA6",
"m#.	c #E59CA1",
"n#.	c #D79597",
"o#.	c #CF8B94",
"p#.	c #CF8D96",
"q#.	c #EAA0AA",
"r#.	c #D08D90",
"s#.	c #3E2C25",
"t#.	c #C9B88F",
"u#.	c #A8626C",
"v#.	c #B1696F",
"w#.	c #AF6368",
"x#.	c #BE6E6B",
"y#.	c #B26863",
"z#.	c #AE6C66",
"A#.	c #E1928D",
"B#.	c #E4988E",
"C#.	c #BF7170",
"D#.	c #C27E7A",
"E#.	c #C0736F",
"F#.	c #B76366",
"G#.	c #B35B66",
"H#.	c #AD6D6D",
"I#.	c #AC5E66",
"J#.	c #AF5D67",
"K#.	c #AA5C64",
"L#.	c #B05D69",
"M#.	c #A05F62",
"N#.	c #9D6062",
"O#.	c #BBAC85",
"P#.	c #603B3B",
"Q#.	c #AE6368",
"R#.	c #C27079",
"S#.	c #B56F75",
"T#.	c #C67A81",
"U#.	c #BF797C",
"V#.	c #D0828A",
"W#.	c #DA8D92",
"X#.	c #F59EA2",
"Y#.	c #E29799",
"Z#.	c #DF929C",
"`#.	c #DE8F9C",
" $.	c #DD9697",
".$.	c #DA8F95",
"+$.	c #E0949B",
"@$.	c #DE959B",
"#$.	c #DF949E",
"$$.	c #E79996",
"%$.	c #E19698",
"&$.	c #DA929C",
"*$.	c #DB9596",
"=$.	c #DB939A",
"-$.	c #DB959C",
";$.	c #D38F97",
">$.	c #DF96A1",
",$.	c #D9929C",
"'$.	c #E196A1",
")$.	c #3D292B",
"!$.	c #B06A73",
"~$.	c #AD646E",
"{$.	c #B1626E",
"]$.	c #BC7077",
"^$.	c #BB7874",
"/$.	c #C2776B",
"($.	c #AD6769",
"_$.	c #C77E7C",
":$.	c #B35B64",
"<$.	c #B77172",
"[$.	c #BF7277",
"}$.	c #B7646F",
"|$.	c #B45D65",
"1$.	c #AF676D",
"2$.	c #CA7770",
"3$.	c #C17879",
"4$.	c #AC686A",
"5$.	c #AE6C68",
"6$.	c #AA6168",
"7$.	c #BBA080",
"8$.	c #684643",
"9$.	c #D27F89",
"0$.	c #CB7E86",
"a$.	c #DA8690",
"b$.	c #D18791",
"c$.	c #D28774",
"d$.	c #CF8681",
"e$.	c #E89C9D",
"f$.	c #E7A1A0",
"g$.	c #E19D9D",
"h$.	c #FCB0A6",
"i$.	c #F3ABA5",
"j$.	c #F5A5A3",
"k$.	c #EBA4A5",
"l$.	c #E598A4",
"m$.	c #DA9493",
"n$.	c #E699A4",
"o$.	c #E0989F",
"p$.	c #E295A2",
"q$.	c #DE94A0",
"r$.	c #E69CA0",
"s$.	c #EA9AA5",
"t$.	c #D7949B",
"u$.	c #C9848F",
"v$.	c #E79DA8",
"w$.	c #EDA0AC",
"x$.	c #E197A2",
"y$.	c #E298A3",
"z$.	c #593A3D",
"A$.	c #C2A780",
"B$.	c #B2716B",
"C$.	c #B97674",
"D$.	c #B87272",
"E$.	c #B97173",
"F$.	c #B76B68",
"G$.	c #CB7B77",
"H$.	c #D38684",
"I$.	c #D3827C",
"J$.	c #DB908D",
"K$.	c #CD7F7E",
"L$.	c #C57D7F",
"M$.	c #B9666B",
"N$.	c #B76568",
"O$.	c #B26567",
"P$.	c #B2656F",
"Q$.	c #B0676C",
"R$.	c #A76468",
"S$.	c #A75D64",
"T$.	c #AD5D69",
"U$.	c #A86367",
"V$.	c #B6A681",
"W$.	c #603D3B",
"X$.	c #B7646C",
"Y$.	c #B16A6F",
"Z$.	c #B86F71",
"`$.	c #C07578",
" %.	c #C17C7E",
".%.	c #C98182",
"+%.	c #E9979B",
"@%.	c #E6989B",
"#%.	c #DE8D98",
"$%.	c #E89696",
"%%.	c #DD9294",
"&%.	c #E6999F",
"*%.	c #D0868E",
"=%.	c #DA8D94",
"-%.	c #DE9598",
";%.	c #DD9199",
">%.	c #E798A4",
",%.	c #DD8F93",
"'%.	c #DF969A",
")%.	c #E8A0A1",
"!%.	c #EBA1A2",
"~%.	c #DA9094",
"{%.	c #D18C90",
"]%.	c #D79195",
"^%.	c #D68F97",
"/%.	c #D78F98",
"(%.	c #DD939D",
"_%.	c #E596A1",
":%.	c #DE8F9B",
"<%.	c #332123",
"[%.	c #B86D79",
"}%.	c #AF6671",
"|%.	c #AC666D",
"1%.	c #BD787A",
"2%.	c #AC686F",
"3%.	c #B87376",
"4%.	c #B26E6E",
"5%.	c #B96D70",
"6%.	c #C77F7F",
"7%.	c #BA6E72",
"8%.	c #C17679",
"9%.	c #BE6C72",
"0%.	c #C37275",
"a%.	c #A96568",
"b%.	c #AE6B6D",
"c%.	c #C37B78",
"d%.	c #BA7676",
"e%.	c #B87D75",
"f%.	c #AE8A73",
"g%.	c #A46662",
"h%.	c #BA7176",
"i%.	c #CB7C86",
"j%.	c #CC7D86",
"k%.	c #D78591",
"l%.	c #D78C84",
"m%.	c #E29694",
"n%.	c #DB9195",
"o%.	c #DA9596",
"p%.	c #F2A8A5",
"q%.	c #ECA09B",
"r%.	c #EFA4A3",
"s%.	c #F2AAA2",
"t%.	c #E49C9D",
"u%.	c #E49CA3",
"v%.	c #E8979B",
"w%.	c #EA989E",
"x%.	c #E196A0",
"y%.	c #E0969E",
"z%.	c #E49AA2",
"A%.	c #EA9CA1",
"B%.	c #D19093",
"C%.	c #CA868D",
"D%.	c #CE8D92",
"E%.	c #E098A2",
"F%.	c #EA9DA8",
"G%.	c #D18B93",
"H%.	c #D18A94",
"I%.	c #966368",
"J%.	c #A89276",
"K%.	c #AB7D74",
"L%.	c #B16E71",
"M%.	c #AE6769",
"N%.	c #B16B6E",
"O%.	c #D3918A",
"P%.	c #C87F7A",
"Q%.	c #CC8481",
"R%.	c #CC8082",
"S%.	c #C2746F",
"T%.	c #BC6F6F",
"U%.	c #D78A8C",
"V%.	c #BD7275",
"W%.	c #AA5F68",
"X%.	c #B16B70",
"Y%.	c #A66163",
"Z%.	c #A26668",
"`%.	c #B5A581",
" &.	c #482A2B",
".&.	c #BF6670",
"+&.	c #BC7174",
"@&.	c #BF757A",
"#&.	c #BE757D",
"$&.	c #D28688",
"%&.	c #D2828C",
"&&.	c #D48D8E",
"*&.	c #D68D8F",
"=&.	c #DB8E93",
"-&.	c #E59596",
";&.	c #DB8F95",
">&.	c #E2949B",
",&.	c #E2959A",
"'&.	c #DF929A",
")&.	c #DF989A",
"!&.	c #D38A92",
"~&.	c #D38B93",
"{&.	c #DD8E99",
"]&.	c #E3949C",
"^&.	c #D48C94",
"/&.	c #D2898B",
"(&.	c #CE8792",
"_&.	c #D59193",
":&.	c #D79099",
"<&.	c #E396A1",
"[&.	c #D28892",
"}&.	c #27181B",
"|&.	c #CEB993",
"1&.	c #A8646F",
"2&.	c #B16F73",
"3&.	c #B26A74",
"4&.	c #B36B71",
"5&.	c #C07878",
"6&.	c #D08488",
"7&.	c #B16468",
"8&.	c #B7696D",
"9&.	c #C17576",
"0&.	c #C47A78",
"a&.	c #B2676F",
"b&.	c #C88783",
"c&.	c #B47074",
"d&.	c #AF6970",
"e&.	c #B97474",
"f&.	c #A58571",
"g&.	c #8F7E64",
"h&.	c #B87072",
"i&.	c #BC6A74",
"j&.	c #C2767D",
"k&.	c #D07D87",
"l&.	c #C67B83",
"m&.	c #CC7F71",
"n&.	c #D1858D",
"o&.	c #CD868B",
"p&.	c #F6ADA9",
"q&.	c #F1A99F",
"r&.	c #E59A99",
"s&.	c #F2A6A6",
"t&.	c #FCAAB3",
"u&.	c #E3969F",
"v&.	c #F19B9C",
"w&.	c #DB9299",
"x&.	c #F9A7A0",
"y&.	c #E0959F",
"z&.	c #EC9D9E",
"A&.	c #E2949F",
"B&.	c #DF949D",
"C&.	c #D88B96",
"D&.	c #CC8A8F",
"E&.	c #C9878D",
"F&.	c #D58E97",
"G&.	c #D78C95",
"H&.	c #D48B94",
"I&.	c #CE8690",
"J&.	c #C07F84",
"K&.	c #8A745E",
"L&.	c #B3927C",
"M&.	c #B56E75",
"N&.	c #AC666E",
"O&.	c #AA6164",
"P&.	c #CA8884",
"Q&.	c #C47E77",
"R&.	c #BD7672",
"S&.	c #CE8886",
"T&.	c #F0A8A1",
"U&.	c #C87D77",
"V&.	c #C87A76",
"W&.	c #B9616C",
"X&.	c #C88380",
"Y&.	c #B26F70",
"Z&.	c #A35E64",
"`&.	c #A46569",
" *.	c #9E6166",
".*.	c #B3A27F",
"+*.	c #462A2A",
"@*.	c #AC5B64",
"#*.	c #B9666E",
"$*.	c #BA6771",
"%*.	c #C77079",
"&*.	c #C3777D",
"**.	c #C3777C",
"=*.	c #C5777F",
"-*.	c #D6858C",
";*.	c #D08289",
">*.	c #F29BA3",
",*.	c #DC8F93",
"'*.	c #E9989B",
")*.	c #D98C91",
"!*.	c #F5A2A3",
"~*.	c #D38A8E",
"{*.	c #DD8B95",
"]*.	c #D88B91",
"^*.	c #D88A95",
"/*.	c #DD8E98",
"(*.	c #DB8E94",
"_*.	c #E19493",
":*.	c #E0919B",
"<*.	c #DC9296",
"[*.	c #D88D95",
"}*.	c #DF919C",
"|*.	c #D48D92",
"1*.	c #D28D90",
"2*.	c #D38B95",
"3*.	c #E4949F",
"4*.	c #D08790",
"5*.	c #241719",
"6*.	c #CEBD93",
"7*.	c #AA6A71",
"8*.	c #AC686E",
"9*.	c #B46E76",
"0*.	c #B56C74",
"a*.	c #CB8B85",
"b*.	c #BB7779",
"c*.	c #B0636E",
"d*.	c #B86C6E",
"e*.	c #AF646A",
"f*.	c #B36B6E",
"g*.	c #C87E7C",
"h*.	c #D8898C",
"i*.	c #A96069",
"j*.	c #A26066",
"k*.	c #B08E7B",
"l*.	c #8A6D5E",
"m*.	c #C3747D",
"n*.	c #C87A83",
"o*.	c #D17D87",
"p*.	c #CC7E86",
"q*.	c #DB8F92",
"r*.	c #C98488",
"s*.	c #DE9298",
"t*.	c #DF9796",
"u*.	c #E4979A",
"v*.	c #EFA8A0",
"w*.	c #EFA3A3",
"x*.	c #E18F9C",
"y*.	c #EF9FA1",
"z*.	c #EC9799",
"A*.	c #E39797",
"B*.	c #E997A1",
"C*.	c #E8949E",
"D*.	c #D98F97",
"E*.	c #E19595",
"F*.	c #DC9699",
"G*.	c #D68D94",
"H*.	c #C9858A",
"I*.	c #C27E89",
"J*.	c #E0939E",
"K*.	c #D18B94",
"L*.	c #C98288",
"M*.	c #775849",
"N*.	c #C5B28C",
"O*.	c #AB6972",
"P*.	c #BC7A7A",
"Q*.	c #BD7979",
"R*.	c #CB7D83",
"S*.	c #D18786",
"T*.	c #C47774",
"U*.	c #B1616B",
"V*.	c #B66A71",
"W*.	c #BF787C",
"X*.	c #A7626A",
"Y*.	c #9F6769",
"Z*.	c #B9AC84",
"`*.	c #452627",
" =.	c #AA5A62",
".=.	c #BB646E",
"+=.	c #C1797B",
"@=.	c #C77A81",
"#=.	c #D07C88",
"$=.	c #EF999D",
"%=.	c #E7969A",
"&=.	c #E09698",
"*=.	c #F4A2A2",
"==.	c #F7A0A2",
"-=.	c #D78592",
";=.	c #F99FA9",
">=.	c #D58A91",
",=.	c #D4888F",
"'=.	c #DA8B95",
")=.	c #D98C8F",
"!=.	c #EA9D9B",
"~=.	c #EF9EA1",
"{=.	c #DB9493",
"]=.	c #D68D92",
"^=.	c #D78D91",
"/=.	c #D79094",
"(=.	c #D88D96",
"_=.	c #CF8B90",
":=.	c #CC868E",
"<=.	c #D78A95",
"[=.	c #D28590",
"}=.	c #191212",
"|=.	c #C1AC88",
"1=.	c #A4646E",
"2=.	c #B77378",
"3=.	c #C1767E",
"4=.	c #D39289",
"5=.	c #AB666C",
"6=.	c #C98281",
"7=.	c #B76D71",
"8=.	c #AA606A",
"9=.	c #B1686D",
"0=.	c #B16D72",
"a=.	c #A7646A",
"b=.	c #AB6A6D",
"c=.	c #B2907E",
"d=.	c #846A5A",
"e=.	c #A85B63",
"f=.	c #BD7377",
"g=.	c #B96871",
"h=.	c #C7767D",
"i=.	c #C2747D",
"j=.	c #D68C8F",
"k=.	c #D98A91",
"l=.	c #C98188",
"m=.	c #EA9B9E",
"n=.	c #C88282",
"o=.	c #F3A7A4",
"p=.	c #EFA2A1",
"q=.	c #E4949C",
"r=.	c #DF9199",
"s=.	c #E18E96",
"t=.	c #E3999B",
"u=.	c #E3929B",
"v=.	c #E8979D",
"w=.	c #F39DA7",
"x=.	c #DD8F97",
"y=.	c #DD9499",
"z=.	c #E19496",
"A=.	c #D48E94",
"B=.	c #D08A92",
"C=.	c #C9838C",
"D=.	c #C9838D",
"E=.	c #CE8790",
"F=.	c #CF888E",
"G=.	c #BE787C",
"H=.	c #362B23",
"I=.	c #C8B58D",
"J=.	c #AE7074",
"K=.	c #AC6B6E",
"L=.	c #DA928B",
"M=.	c #D18781",
"N=.	c #D78C89",
"O=.	c #AC646B",
"P=.	c #B76F72",
"Q=.	c #AD666F",
"R=.	c #B36E73",
"S=.	c #B97175",
"T=.	c #D58B8E",
"U=.	c #B27075",
"V=.	c #A56169",
"W=.	c #A1696A",
"X=.	c #AF9F7D",
"Y=.	c #5C3435",
"Z=.	c #A4575D",
"`=.	c #AF5C64",
" -.	c #B36169",
".-.	c #C06871",
"+-.	c #C07074",
"@-.	c #C06F76",
"#-.	c #CA7880",
"$-.	c #D27D87",
"%-.	c #CF7E87",
"&-.	c #D98D90",
"*-.	c #F8AFAA",
"=-.	c #C57F81",
"--.	c #F3A599",
";-.	c #EDA39C",
">-.	c #CF8287",
",-.	c #CB8087",
"'-.	c #D4848C",
")-.	c #D98891",
"!-.	c #DC8A92",
"~-.	c #DB8B92",
"{-.	c #D98C92",
"]-.	c #DA8E93",
"^-.	c #D88A90",
"/-.	c #DA8B96",
"(-.	c #DB8A93",
"_-.	c #D78A8B",
":-.	c #DD8F99",
"<-.	c #D68D90",
"[-.	c #CD848B",
"}-.	c #D1848F",
"|-.	c #D4858F",
"1-.	c #CE808B",
"2-.	c #C27A83",
"3-.	c #1F1B16",
"4-.	c #BDAA85",
"5-.	c #A96A70",
"6-.	c #B6727B",
"7-.	c #D18C8B",
"8-.	c #B56E74",
"9-.	c #BB7576",
"0-.	c #B0676F",
"a-.	c #B46E71",
"b-.	c #AE616B",
"c-.	c #B97777",
"d-.	c #BA7173",
"e-.	c #A36168",
"f-.	c #A4636A",
"g-.	c #BBA383",
"h-.	c #54443A",
"i-.	c #AA5C65",
"j-.	c #BC646F",
"k-.	c #C06F77",
"l-.	c #C27379",
"m-.	c #C8757F",
"n-.	c #C17378",
"o-.	c #C97881",
"p-.	c #CC7D85",
"q-.	c #D6868A",
"r-.	c #D3848A",
"s-.	c #D88B8E",
"t-.	c #DB9092",
"u-.	c #DD9690",
"v-.	c #D6908F",
"w-.	c #FAABA7",
"x-.	c #D78E90",
"y-.	c #E39692",
"z-.	c #F7A7A1",
"A-.	c #DF9198",
"B-.	c #EB989E",
"C-.	c #E8989B",
"D-.	c #E9979C",
"E-.	c #FAA3A9",
"F-.	c #E8989F",
"G-.	c #DF8E9A",
"H-.	c #E39A9B",
"I-.	c #E29A9D",
"J-.	c #DB8D98",
"K-.	c #CD868E",
"L-.	c #CD858C",
"M-.	c #CB868C",
"N-.	c #CD848F",
"O-.	c #C57F89",
"P-.	c #CC8388",
"Q-.	c #432E2C",
"R-.	c #CAB990",
"S-.	c #AF7173",
"T-.	c #B97B7C",
"U-.	c #D88E85",
"V-.	c #AD6B71",
"W-.	c #BB7374",
"X-.	c #B27175",
"Y-.	c #BF7879",
"Z-.	c #AA666F",
"`-.	c #BA7479",
" ;.	c #C98484",
".;.	c #C88587",
"+;.	c #C77F85",
"@;.	c #9F6B6B",
"#;.	c #BAAD85",
"$;.	c #5E3034",
"%;.	c #AD525B",
"&;.	c #A9555C",
"*;.	c #B75E67",
"=;.	c #C36873",
"-;.	c #C56E77",
";;.	c #C7717C",
">;.	c #CB7C81",
",;.	c #CF7C84",
"';.	c #D27F8A",
");.	c #D07986",
"!;.	c #E08B94",
"~;.	c #EB9A99",
"{;.	c #CD7D84",
"];.	c #E59597",
"^;.	c #E69399",
"/;.	c #E5968F",
"(;.	c #C78183",
"_;.	c #D0888A",
":;.	c #E69C98",
"<;.	c #CD8089",
"[;.	c #ED979D",
"};.	c #D68B8E",
"|;.	c #DB8A91",
"1;.	c #EC9E98",
"2;.	c #E59698",
"3;.	c #E99B9E",
"4;.	c #EEA59E",
"5;.	c #DD8E96",
"6;.	c #D88D93",
"7;.	c #D68891",
"8;.	c #D8908F",
"9;.	c #CE848B",
"0;.	c #C37D86",
"a;.	c #D18A89",
"b;.	c #D58791",
"c;.	c #D3818C",
"d;.	c #BD737B",
"e;.	c #302A22",
"f;.	c #A86972",
"g;.	c #BD7C7E",
"h;.	c #AA6670",
"i;.	c #BA7476",
"j;.	c #B87576",
"k;.	c #B97574",
"l;.	c #AC626E",
"m;.	c #A56369",
"n;.	c #B57272",
"o;.	c #A26069",
"p;.	c #B9A784",
"q;.	c #44332D",
"r;.	c #A5535C",
"s;.	c #B25F6A",
"t;.	c #BE6973",
"u;.	c #D07D83",
"v;.	c #C7777E",
"w;.	c #CB7781",
"x;.	c #D37F88",
"y;.	c #D58B81",
"z;.	c #D18788",
"A;.	c #D98B92",
"B;.	c #E89D9E",
"C;.	c #E19894",
"D;.	c #D58D8D",
"E;.	c #D5898E",
"F;.	c #EA97A0",
"G;.	c #F09BA1",
"H;.	c #DE9596",
"I;.	c #D58A7F",
"J;.	c #D9878F",
"K;.	c #FBA3A7",
"L;.	c #EA9592",
"M;.	c #EE9894",
"N;.	c #F69EA6",
"O;.	c #F499A4",
"P;.	c #D78693",
"Q;.	c #DA8A92",
"R;.	c #D68B92",
"S;.	c #E09999",
"T;.	c #DA8B94",
"U;.	c #CD838C",
"V;.	c #DB8C96",
"W;.	c #D78A94",
"X;.	c #CE858D",
"Y;.	c #C77F81",
"Z;.	c #C77E7E",
"`;.	c #BD767C",
" >.	c #6D4447",
".>.	c #A3756F",
"+>.	c #B67679",
"@>.	c #D2898A",
"#>.	c #A6696D",
"$>.	c #B26D75",
"%>.	c #CA8482",
"&>.	c #B87B7C",
"*>.	c #9D6E6B",
"=>.	c #A99878",
"->.	c #6F393D",
";>.	c #B4535D",
">>.	c #A9575D",
",>.	c #C6636E",
"'>.	c #BC616A",
")>.	c #BE636C",
"!>.	c #C66B77",
"~>.	c #C47178",
"{>.	c #C16D76",
"]>.	c #CE8588",
"^>.	c #CF7E88",
"/>.	c #D6848D",
"(>.	c #CF8486",
"_>.	c #F5A99E",
":>.	c #D18E8B",
"<>.	c #D58F8E",
"[>.	c #E19294",
"}>.	c #D7878C",
"|>.	c #D2808C",
"1>.	c #D8908D",
"2>.	c #EA9F9C",
"3>.	c #F59DA5",
"4>.	c #D7858C",
"5>.	c #D3848C",
"6>.	c #EA969E",
"7>.	c #E29498",
"8>.	c #DE8F91",
"9>.	c #EE999F",
"0>.	c #DC9291",
"a>.	c #D1868B",
"b>.	c #D78E93",
"c>.	c #D38A8A",
"d>.	c #D98E8D",
"e>.	c #D89191",
"f>.	c #C37C85",
"g>.	c #CF818B",
"h>.	c #C37982",
"i>.	c #C27781",
"j>.	c #BB727B",
"k>.	c #BC7079",
"l>.	c #7E6457",
"m>.	c #A78975",
"n>.	c #AE6F74",
"o>.	c #C48381",
"p>.	c #AB6D73",
"q>.	c #C07D7F",
"r>.	c #DC938C",
"s>.	c #AB6A73",
"t>.	c #BC767C",
"u>.	c #A8646D",
"v>.	c #A9666D",
"w>.	c #BF7F7D",
"x>.	c #C0B088",
"y>.	c #321F1E",
"z>.	c #B9646E",
"A>.	c #BC6870",
"B>.	c #C9737D",
"C>.	c #CA757E",
"D>.	c #C8757E",
"E>.	c #C9747D",
"F>.	c #D67F86",
"G>.	c #D28184",
"H>.	c #D9878D",
"I>.	c #F29FA1",
"J>.	c #E1948F",
"K>.	c #DA9294",
"L>.	c #ECA39C",
"M>.	c #CC8187",
"N>.	c #F3A3A1",
"O>.	c #D78D84",
"P>.	c #F097A3",
"Q>.	c #F89FA4",
"R>.	c #EB959F",
"S>.	c #E98F9C",
"T>.	c #E9969C",
"U>.	c #E49295",
"V>.	c #E08F99",
"W>.	c #DC8E92",
"X>.	c #D2888D",
"Y>.	c #D38791",
"Z>.	c #D78993",
"`>.	c #D18790",
" ,.	c #CD848C",
".,.	c #CA818B",
"+,.	c #CD858A",
"@,.	c #C77D87",
"#,.	c #C37B83",
"$,.	c #CE7F89",
"%,.	c #C0767E",
"&,.	c #A46466",
"*,.	c #A98D73",
"=,.	c #A98A75",
"-,.	c #AE6971",
";,.	c #A6676F",
">,.	c #A86970",
",,.	c #A5666E",
"',.	c #A4656D",
"),.	c #CC8787",
"!,.	c #AD6D71",
"~,.	c #C0807D",
"{,.	c #A67973",
"],.	c #A99B78",
"^,.	c #804248",
"/,.	c #BB5761",
"(,.	c #C6616C",
"_,.	c #C2616C",
":,.	c #BE626C",
"<,.	c #C76671",
"[,.	c #C66A75",
"},.	c #C36B73",
"|,.	c #C5757C",
"1,.	c #D57F8A",
"2,.	c #E69999",
"3,.	c #E39194",
"4,.	c #EC999A",
"5,.	c #EB9B97",
"6,.	c #DB8991",
"7,.	c #D9908E",
"8,.	c #C57C82",
"9,.	c #CD8183",
"0,.	c #E79E98",
"a,.	c #DC8F8F",
"b,.	c #D98A8E",
"c,.	c #F5A29C",
"d,.	c #D7898E",
"e,.	c #ED9C9C",
"f,.	c #ECA49D",
"g,.	c #EC9F9A",
"h,.	c #F5A8A2",
"i,.	c #E29399",
"j,.	c #D98E93",
"k,.	c #E4979C",
"l,.	c #CC868B",
"m,.	c #C38083",
"n,.	c #CC8285",
"o,.	c #C57981",
"p,.	c #C2737D",
"q,.	c #C6737C",
"r,.	c #B56A72",
"s,.	c #716650",
"t,.	c #9F726C",
"u,.	c #B57577",
"v,.	c #A3646D",
"w,.	c #AB6B73",
"x,.	c #A4656F",
"y,.	c #AF6D75",
"z,.	c #A2646A",
"A,.	c #B26F71",
"B,.	c #BAA381",
"C,.	c #5B3336",
"D,.	c #AE535D",
"E,.	c #B35660",
"F,.	c #BD5E68",
"G,.	c #BB5F69",
"H,.	c #B8626C",
"I,.	c #BB656E",
"J,.	c #BF6C70",
"K,.	c #C67079",
"L,.	c #C6717A",
"M,.	c #C8787E",
"N,.	c #CF7E84",
"O,.	c #D58789",
"P,.	c #D08085",
"Q,.	c #E19296",
"R,.	c #E49D99",
"S,.	c #D28B8B",
"T,.	c #D3858A",
"U,.	c #E9979A",
"V,.	c #EB9695",
"W,.	c #ED959C",
"X,.	c #EE9999",
"Y,.	c #F8A1A5",
"Z,.	c #D68690",
"`,.	c #F199A4",
" '.	c #E99C9A",
".'.	c #CF868B",
"+'.	c #E5989B",
"@'.	c #D78A93",
"#'.	c #CD888D",
"$'.	c #D3888F",
"%'.	c #D0848C",
"&'.	c #D4898D",
"*'.	c #CA7F88",
"='.	c #C67D86",
"-'.	c #CA7B85",
";'.	c #B87079",
">'.	c #B66C71",
",'.	c #706350",
"''.	c #BC9B83",
")'.	c #D79090",
"!'.	c #AF7373",
"~'.	c #A06269",
"{'.	c #AF6C6E",
"]'.	c #A4676B",
"^'.	c #B48D7C",
"/'.	c #AD9378",
"('.	c #914F55",
"_'.	c #A6525B",
":'.	c #B55761",
"<'.	c #B6545E",
"['.	c #C15A65",
"}'.	c #C6606B",
"|'.	c #C06870",
"1'.	c #C2636E",
"2'.	c #D46F7A",
"3'.	c #C36C74",
"4'.	c #CB7780",
"5'.	c #DE8B91",
"6'.	c #DD8F90",
"7'.	c #E29797",
"8'.	c #CD8185",
"9'.	c #EAA199",
"0'.	c #EC9A9E",
"a'.	c #D58E8C",
"b'.	c #E08E8C",
"c'.	c #D38686",
"d'.	c #D88D8B",
"e'.	c #DF8F93",
"f'.	c #DA8B8E",
"g'.	c #F1A1A2",
"h'.	c #FAB1B0",
"i'.	c #E39595",
"j'.	c #D1868A",
"k'.	c #F7A3A4",
"l'.	c #D68A8F",
"m'.	c #E29692",
"n'.	c #DF9296",
"o'.	c #DC8E90",
"p'.	c #E9999B",
"q'.	c #D08789",
"r'.	c #CB8184",
"s'.	c #C17B7F",
"t'.	c #B47077",
"u'.	c #C57580",
"v'.	c #B76C74",
"w'.	c #B46671",
"x'.	c #98896D",
"y'.	c #A76F6E",
"z'.	c #995E66",
"A'.	c #9C5F69",
"B'.	c #AD6E74",
"C'.	c #AC6E70",
"D'.	c #A5686D",
"E'.	c #996968",
"F'.	c #B19C7D",
"G'.	c #81484A",
"H'.	c #A7525A",
"I'.	c #B65760",
"J'.	c #C6656F",
"K'.	c #BE666E",
"L'.	c #C66974",
"M'.	c #D27E84",
"N'.	c #C9747E",
"O'.	c #D6878D",
"P'.	c #CB7F81",
"Q'.	c #CA7A81",
"R'.	c #D08087",
"S'.	c #D38288",
"T'.	c #E29999",
"U'.	c #EE969F",
"V'.	c #E69798",
"W'.	c #E8968F",
"X'.	c #D48289",
"Y'.	c #E99197",
"Z'.	c #D18085",
"`'.	c #F9A1B1",
" ).	c #F295A2",
".).	c #E6909B",
"+).	c #E28F94",
"@).	c #D7878F",
"#).	c #D98B8C",
"$).	c #F5A6A1",
"%).	c #D1828A",
"&).	c #CE8188",
"*).	c #D0818C",
"=).	c #CC8088",
"-).	c #CA7F85",
";).	c #C17780",
">).	c #CD7C87",
",).	c #C88180",
"').	c #C98283",
")).	c #A45A5D",
"!).	c #57463E",
"~).	c #CCAA8A",
"{).	c #985C64",
"]).	c #9A5C66",
"^).	c #A1646B",
"/).	c #9B5F66",
"().	c #AA6B6D",
"_).	c #A78573",
":).	c #98886C",
"<).	c #A1565E",
"[).	c #AB545E",
"}).	c #AF545E",
"|).	c #C9636E",
"1).	c #C0616B",
"2).	c #CD747E",
"3).	c #CA767C",
"4).	c #C9767B",
"5).	c #D5828B",
"6).	c #C67C80",
"7).	c #CD7F82",
"8).	c #D8868F",
"9).	c #CF8785",
"0).	c #CE8386",
"a).	c #D88488",
"b).	c #DC9090",
"c).	c #D9848E",
"d).	c #CA7D84",
"e).	c #F9B0AE",
"f).	c #E59894",
"g).	c #E09192",
"h).	c #DC8D8B",
"i).	c #CF8588",
"j).	c #E39A98",
"k).	c #C57B80",
"l).	c #C1747B",
"m).	c #BA6F76",
"n).	c #BE6C75",
"o).	c #AE6167",
"p).	c #A25359",
"q).	c #BF9E83",
"r).	c #995D65",
"s).	c #985C65",
"t).	c #9A5D66",
"u).	c #AA6E70",
"v).	c #B2726F",
"w).	c #AE7D76",
"x).	c #A89978",
"y).	c #AD6667",
"z).	c #A6565D",
"A).	c #A9555D",
"B).	c #B2545D",
"C).	c #C15964",
"D).	c #C8626D",
"E).	c #BB6068",
"F).	c #BB636B",
"G).	c #C26C74",
"H).	c #CA6F7A",
"I).	c #C9777C",
"J).	c #CE7A80",
"K).	c #CE7780",
"L).	c #C9767D",
"M).	c #C8757D",
"N).	c #CF8186",
"O).	c #DC888E",
"P).	c #D48A8A",
"Q).	c #D17F87",
"R).	c #D88E90",
"S).	c #CE8186",
"T).	c #DE8F8F",
"U).	c #ED9686",
"V).	c #DD8C85",
"W).	c #E2918C",
"X).	c #F89EA9",
"Y).	c #E08D93",
"Z).	c #ED969E",
"`).	c #DA8890",
" !.	c #E39096",
".!.	c #D2808A",
"+!.	c #D1858C",
"@!.	c #E39398",
"#!.	c #D6878E",
"$!.	c #CF838B",
"%!.	c #D2878C",
"&!.	c #CE7E88",
"*!.	c #CD7E84",
"=!.	c #C47880",
"-!.	c #C37B81",
";!.	c #B26F77",
">!.	c #BC717A",
",!.	c #BB7078",
"'!.	c #B46B70",
")!.	c #A6545E",
"!!.	c #A2555B",
"~!.	c #201A15",
"{!.	c #CFBF93",
"]!.	c #905F69",
"^!.	c #926E7E",
"/!.	c #A0747C",
"(!.	c #AC8D75",
"_!.	c #927F65",
":!.	c #9B575F",
"<!.	c #A25B62",
"[!.	c #AD545E",
"}!.	c #BE5A65",
"|!.	c #BB5B66",
"1!.	c #BE5E68",
"2!.	c #BD656C",
"3!.	c #C66C75",
"4!.	c #CC6974",
"5!.	c #C97175",
"6!.	c #CA7079",
"7!.	c #CC777F",
"8!.	c #C8767D",
"9!.	c #ED8F9D",
"0!.	c #E69693",
"a!.	c #C3797C",
"b!.	c #CE8788",
"c!.	c #C88486",
"d!.	c #CA7F80",
"e!.	c #E08B8D",
"f!.	c #E2928F",
"g!.	c #DC8A8F",
"h!.	c #D6848B",
"i!.	c #DB8B90",
"j!.	c #F9A29F",
"k!.	c #DC918F",
"l!.	c #DD9391",
"m!.	c #E59A96",
"n!.	c #F19999",
"o!.	c #E69294",
"p!.	c #F0A3A1",
"q!.	c #CB7E85",
"r!.	c #C87C80",
"s!.	c #BA6A74",
"t!.	c #D38C85",
"u!.	c #9C5256",
"v!.	c #7C4144",
"w!.	c #C7B48D",
"x!.	c #925760",
"y!.	c #946875",
"z!.	c #A3676A",
"A!.	c #B08272",
"B!.	c #905055",
"C!.	c #A3565E",
"D!.	c #A8565E",
"E!.	c #AD545D",
"F!.	c #B1535D",
"G!.	c #B4565E",
"H!.	c #BF5C66",
"I!.	c #BF5D67",
"J!.	c #BA646B",
"K!.	c #C56873",
"L!.	c #C46C74",
"M!.	c #D78187",
"N!.	c #CD7D7F",
"O!.	c #F0959F",
"P!.	c #D2848B",
"Q!.	c #D27983",
"R!.	c #D38582",
"S!.	c #DE8C91",
"T!.	c #E58C87",
"U!.	c #E88C98",
"V!.	c #E58A94",
"W!.	c #EB979D",
"X!.	c #CD7F81",
"Y!.	c #E18994",
"Z!.	c #D98D8F",
"`!.	c #CB7F85",
" ~.	c #D6898E",
".~.	c #CE7F88",
"+~.	c #D28485",
"@~.	c #C37A7D",
"#~.	c #C97883",
"$~.	c #BE7479",
"%~.	c #B4686F",
"&~.	c #BD7075",
"*~.	c #AA5861",
"=~.	c #A6555B",
"-~.	c #9D4D55",
";~.	c #A65A5F",
">~.	c #52414D",
",~.	c #736780",
"'~.	c #776883",
")~.	c #8A7283",
"!~.	c #987982",
"~~.	c #985A62",
"{~.	c #9A575F",
"]~.	c #A25860",
"^~.	c #AF5A65",
"/~.	c #B35964",
"(~.	c #B75A64",
"_~.	c #B05660",
":~.	c #B75660",
"<~.	c #B75B62",
"[~.	c #BA5A64",
"}~.	c #BA5C68",
"|~.	c #BD5F68",
"1~.	c #C1626C",
"2~.	c #C76972",
"3~.	c #C96C76",
"4~.	c #CD7D7E",
"5~.	c #D37C81",
"6~.	c #E28A92",
"7~.	c #CA797E",
"8~.	c #CA7D81",
"9~.	c #D68889",
"0~.	c #E0918D",
"a~.	c #DB948A",
"b~.	c #D9888B",
"c~.	c #D18287",
"d~.	c #CF7B85",
"e~.	c #E29395",
"f~.	c #EC9795",
"g~.	c #E99A96",
"h~.	c #E79490",
"i~.	c #E18F8A",
"j~.	c #CF7D86",
"k~.	c #D98E91",
"l~.	c #D68A88",
"m~.	c #CB7C83",
"n~.	c #CA807C",
"o~.	c #C27D7F",
"p~.	c #CA8684",
"q~.	c #B66E73",
"r~.	c #AF676C",
"s~.	c #B05C65",
"t~.	c #A35359",
"u~.	c #A1545B",
"v~.	c #2B1F26",
"w~.	c #6F6889",
"x~.	c #7B6B88",
"y~.	c #8D7485",
"z~.	c #9B8272",
"A~.	c #8F525A",
"B~.	c #A25E63",
"C~.	c #A2565F",
"D~.	c #AB5660",
"E~.	c #AF565F",
"F~.	c #B1545E",
"G~.	c #BE5A64",
"H~.	c #C85F69",
"I~.	c #BB5F68",
"J~.	c #C2636D",
"K~.	c #D07A7E",
"L~.	c #D18083",
"M~.	c #C9747A",
"N~.	c #D37D84",
"O~.	c #CF7982",
"P~.	c #DD868C",
"Q~.	c #E48E93",
"R~.	c #D8878A",
"S~.	c #E99499",
"T~.	c #EEA19D",
"U~.	c #DA8D8A",
"V~.	c #F6A3A1",
"W~.	c #F79B95",
"X~.	c #DE918D",
"Y~.	c #F8A4A3",
"Z~.	c #D7848C",
"`~.	c #E69596",
" {.	c #CA7B83",
".{.	c #D08188",
"+{.	c #E59394",
"@{.	c #D18086",
"#{.	c #C87881",
"${.	c #C0787C",
"%{.	c #B46F72",
"&{.	c #BD7676",
"*{.	c #B26369",
"={.	c #B06167",
"-{.	c #AA5860",
";{.	c #B9686C",
">{.	c #9E4F57",
",{.	c #504863",
"'{.	c #836E7F",
"){.	c #7D6A84",
"!{.	c #7A6F8F",
"~{.	c #87728A",
"{{.	c #9B6A74",
"]{.	c #9C5A62",
"^{.	c #AA5D67",
"/{.	c #AC585F",
"({.	c #B65660",
"_{.	c #BA5660",
":{.	c #C26C73",
"<{.	c #C1676D",
"[{.	c #C96B76",
"}{.	c #C36A70",
"|{.	c #C46E75",
"1{.	c #CC6C76",
"2{.	c #CC6D78",
"3{.	c #C76C76",
"4{.	c #CB747C",
"5{.	c #D48A89",
"6{.	c #C4757B",
"7{.	c #D07C7F",
"8{.	c #D78A87",
"9{.	c #C98384",
"0{.	c #CF7B80",
"a{.	c #D18485",
"b{.	c #E69488",
"c{.	c #E09091",
"d{.	c #DD9290",
"e{.	c #EC9C9C",
"f{.	c #DB898F",
"g{.	c #C87D83",
"h{.	c #D18289",
"i{.	c #CC7981",
"j{.	c #CE7E82",
"k{.	c #C47B7B",
"l{.	c #CD8584",
"m{.	c #B0666C",
"n{.	c #BA7473",
"o{.	c #B06266",
"p{.	c #B3555F",
"q{.	c #9F4F57",
"r{.	c #524459",
"s{.	c #5E5C81",
"t{.	c #6E6484",
"u{.	c #7F6D84",
"v{.	c #967384",
"w{.	c #9B5A64",
"x{.	c #9F5861",
"y{.	c #A35B61",
"z{.	c #A3525C",
"A{.	c #A2515A",
"B{.	c #AB525C",
"C{.	c #AF565D",
"D{.	c #BF5863",
"E{.	c #BF6E70",
"F{.	c #D37E84",
"G{.	c #D07C80",
"H{.	c #DD8C88",
"I{.	c #D38081",
"J{.	c #C97E7F",
"K{.	c #E08892",
"L{.	c #D77F8C",
"M{.	c #CE7C84",
"N{.	c #E19A90",
"O{.	c #DA8E8B",
"P{.	c #ED9A94",
"Q{.	c #EC9497",
"R{.	c #E3908E",
"S{.	c #DF8791",
"T{.	c #D57F89",
"U{.	c #D38088",
"V{.	c #E19093",
"W{.	c #C97683",
"X{.	c #E49A97",
"Y{.	c #CE8087",
"Z{.	c #E9979D",
"`{.	c #E28D90",
" ].	c #D28288",
".].	c #DF8D8B",
"+].	c #CB7B7F",
"@].	c #C6787D",
"#].	c #B67073",
"$].	c #AF6468",
"%].	c #AB6066",
"&].	c #AA585F",
"*].	c #AB585C",
"=].	c #9E4E54",
"-].	c #A15458",
";].	c #9C545B",
">].	c #3D3345",
",].	c #52506E",
"'].	c #69607D",
")].	c #696286",
"!].	c #776B8A",
"~].	c #916873",
"{].	c #A65F69",
"]].	c #9F5B63",
"^].	c #A2555D",
"/].	c #B45B63",
"(].	c #BD616A",
"_].	c #C1656D",
":].	c #C86873",
"<].	c #C86C73",
"[].	c #D68B89",
"}].	c #D38487",
"|].	c #C8767C",
"1].	c #E49191",
"2].	c #CD797E",
"3].	c #CF7E82",
"4].	c #DE8E89",
"5].	c #D8868A",
"6].	c #D9848A",
"7].	c #E79495",
"8].	c #D27681",
"9].	c #E28C91",
"0].	c #F6A09E",
"a].	c #E89B98",
"b].	c #CD7981",
"c].	c #D58282",
"d].	c #E09490",
"e].	c #DC8B83",
"f].	c #CC7F82",
"g].	c #C47678",
"h].	c #C36D75",
"i].	c #C26F74",
"j].	c #B77273",
"k].	c #AD6C6D",
"l].	c #A65C5F",
"m].	c #A5575B",
"n].	c #9F5259",
"o].	c #443643",
"p].	c #535170",
"q].	c #645E84",
"r].	c #71698B",
"s].	c #88738F",
"t].	c #A1616A",
"u].	c #A15A64",
"v].	c #A45962",
"w].	c #AB5963",
"x].	c #B35E65",
"y].	c #A3565A",
"z].	c #AD555C",
"A].	c #A75F60",
"B].	c #BA656A",
"C].	c #C37073",
"D].	c #CF7C80",
"E].	c #C5797D",
"F].	c #D8818B",
"G].	c #E49395",
"H].	c #D68688",
"I].	c #EFA19C",
"J].	c #E09791",
"K].	c #DA9387",
"L].	c #E1948A",
"M].	c #EB938A",
"N].	c #F59DA4",
"O].	c #E79094",
"P].	c #E28A96",
"Q].	c #E69296",
"R].	c #E99295",
"S].	c #D98888",
"T].	c #CB8685",
"U].	c #D38289",
"V].	c #E19092",
"W].	c #EA9399",
"X].	c #D4858A",
"Y].	c #D48484",
"Z].	c #DF8A83",
"`].	c #C5737B",
" ^.	c #BD6F76",
".^.	c #B56C73",
"+^.	c #A45C5E",
"@^.	c #B26766",
"#^.	c #A45158",
"$^.	c #9D5057",
"%^.	c #985257",
"&^.	c #887D61",
"*^.	c #3F3948",
"=^.	c #4E4A64",
"-^.	c #5A5472",
";^.	c #625E74",
">^.	c #9C746C",
",^.	c #A45D67",
"'^.	c #A15962",
")^.	c #9B565B",
"!^.	c #A6545D",
"~^.	c #9D5458",
"{^.	c #9F5257",
"]^.	c #A4565B",
"^^.	c #A9535A",
"/^.	c #B45F64",
"(^.	c #B8686A",
"_^.	c #B86568",
":^.	c #CF7B81",
"<^.	c #D9858A",
"[^.	c #D8888D",
"}^.	c #E89491",
"|^.	c #E79799",
"1^.	c #D77F7B",
"2^.	c #DD898A",
"3^.	c #D27D82",
"4^.	c #E89493",
"5^.	c #E48D91",
"6^.	c #DA8589",
"7^.	c #D38786",
"8^.	c #C47B7D",
"9^.	c #D68E8E",
"0^.	c #D58989",
"a^.	c #DE8792",
"b^.	c #CD7C82",
"c^.	c #CC807D",
"d^.	c #C7727A",
"e^.	c #C16D72",
"f^.	c #D59087",
"g^.	c #C27D7B",
"h^.	c #AB5F61",
"i^.	c #AF6D6B",
"j^.	c #A5555B",
"k^.	c #A05057",
"l^.	c #985159",
"m^.	c #84775D",
"n^.	c #403E55",
"o^.	c #575577",
"p^.	c #646389",
"q^.	c #756B86",
"r^.	c #9F5D65",
"s^.	c #AD5E69",
"t^.	c #A75962",
"u^.	c #A85861",
"v^.	c #A7555A",
"w^.	c #A4535A",
"x^.	c #A25659",
"y^.	c #A25C5A",
"z^.	c #B87371",
"A^.	c #AE6768",
"B^.	c #C47676",
"C^.	c #D26E78",
"D^.	c #B56F6E",
"E^.	c #DC8991",
"F^.	c #C3767B",
"G^.	c #D6888A",
"H^.	c #D07E87",
"I^.	c #DA8C8B",
"J^.	c #E99392",
"K^.	c #E89997",
"L^.	c #E59B8E",
"M^.	c #D38B87",
"N^.	c #D18588",
"O^.	c #E88E98",
"P^.	c #CC7880",
"Q^.	c #D98B8E",
"R^.	c #D38689",
"S^.	c #C87980",
"T^.	c #D68C88",
"U^.	c #E1918F",
"V^.	c #DB8986",
"W^.	c #E29391",
"X^.	c #D7848A",
"Y^.	c #D27F7D",
"Z^.	c #D28381",
"`^.	c #D07E7F",
" /.	c #C87A7B",
"./.	c #B66B70",
"+/.	c #B96D73",
"@/.	c #C87B7C",
"#/.	c #B46F6E",
"$/.	c #B16268",
"%/.	c #AB5B5E",
"&/.	c #AA5F61",
"*/.	c #A1565D",
"=/.	c #B9AA83",
"-/.	c #584F3F",
";/.	c #B27579",
">/.	c #7D5256",
",/.	c #956771",
"'/.	c #926165",
")/.	c #A38D74",
"!/.	c #A0796D",
"~/.	c #A35E68",
"{/.	c #9D5A61",
"]/.	c #A35A63",
"^/.	c #9E595F",
"//.	c #A95962",
"(/.	c #A8555C",
"_/.	c #B56F6A",
":/.	c #AD6165",
"</.	c #B16362",
"[/.	c #B8696B",
"}/.	c #CD7178",
"|/.	c #C17173",
"1/.	c #B76A6B",
"2/.	c #C97A78",
"3/.	c #BF6F6D",
"4/.	c #C5767B",
"5/.	c #D1817E",
"6/.	c #C97A7B",
"7/.	c #DC8D8E",
"8/.	c #C4787A",
"9/.	c #D58586",
"0/.	c #D88484",
"a/.	c #D28081",
"b/.	c #DE8B8A",
"c/.	c #E2918F",
"d/.	c #D38484",
"e/.	c #E59190",
"f/.	c #D88E89",
"g/.	c #E59891",
"h/.	c #C57D7E",
"i/.	c #DF9794",
"j/.	c #E59496",
"k/.	c #C07573",
"l/.	c #BF696E",
"m/.	c #B97170",
"n/.	c #B46A6A",
"o/.	c #A1555B",
"p/.	c #A1545D",
"q/.	c #9D5159",
"r/.	c #AA9A78",
"s/.	c #784C52",
"t/.	c #362C39",
"u/.	c #4D3A3F",
"v/.	c #7C7159",
"w/.	c #A17A6F",
"x/.	c #9D5D66",
"y/.	c #A25C65",
"z/.	c #B15E69",
"A/.	c #A95660",
"B/.	c #A2585B",
"C/.	c #A6565B",
"D/.	c #A85A5C",
"E/.	c #A45556",
"F/.	c #A35B55",
"G/.	c #CD7A7B",
"H/.	c #A7615E",
"I/.	c #BE7E79",
"J/.	c #B97473",
"K/.	c #D88B88",
"L/.	c #C1747A",
"M/.	c #C77478",
"N/.	c #CD767D",
"O/.	c #CE747D",
"P/.	c #E99598",
"Q/.	c #EA9998",
"R/.	c #F7A595",
"S/.	c #ED9A93",
"T/.	c #ECA296",
"U/.	c #DF918C",
"V/.	c #DE8C90",
"W/.	c #DD8B8F",
"X/.	c #D18587",
"Y/.	c #DA858B",
"Z/.	c #CD7F83",
"`/.	c #CD7F7D",
" (.	c #EA9295",
".(.	c #D88886",
"+(.	c #D18284",
"@(.	c #C06F75",
"#(.	c #A85356",
"$(.	c #AA5C61",
"%(.	c #9A4F56",
"&(.	c #9F5159",
"*(.	c #B1A07D",
"=(.	c #55483A",
"-(.	c #B5767E",
";(.	c #B0757C",
">(.	c #C18189",
",(.	c #BD8087",
"'(.	c #BA7F84",
")(.	c #AC757C",
"!(.	c #928668",
"~(.	c #B18D79",
"{(.	c #9F5F65",
"](.	c #A45B65",
"^(.	c #A46266",
"/(.	c #A35C62",
"((.	c #A55A62",
"_(.	c #AB565E",
":(.	c #AF6965",
"<(.	c #B15F63",
"[(.	c #B06667",
"}(.	c #DB8B87",
"|(.	c #C97C77",
"1(.	c #B05C60",
"2(.	c #BF706F",
"3(.	c #C37A78",
"4(.	c #CE8681",
"5(.	c #DE9087",
"6(.	c #D07B79",
"7(.	c #D8847E",
"8(.	c #DF8589",
"9(.	c #CD737C",
"0(.	c #E69791",
"a(.	c #E09390",
"b(.	c #D98587",
"c(.	c #DC8182",
"d(.	c #C9787B",
"e(.	c #CE807F",
"f(.	c #C8777C",
"g(.	c #CF8685",
"h(.	c #DC8F8A",
"i(.	c #BF7075",
"j(.	c #DE908C",
"k(.	c #C2737A",
"l(.	c #C37579",
"m(.	c #D48480",
"n(.	c #BE6F6E",
"o(.	c #BA5D67",
"p(.	c #BC7270",
"q(.	c #B56F6F",
"r(.	c #B06C69",
"s(.	c #A7585C",
"t(.	c #9E5257",
"u(.	c #9F5C5E",
"v(.	c #7A7057",
"w(.	c #BD7983",
"x(.	c #C17F88",
"y(.	c #BC7E87",
"z(.	c #BA7D85",
"A(.	c #9E9272",
"B(.	c #A16D6C",
"C(.	c #A25E66",
"D(.	c #B0616B",
"E(.	c #A75A63",
"F(.	c #AD5862",
"G(.	c #A7585D",
"H(.	c #BB746C",
"I(.	c #DD848B",
"J(.	c #CF847E",
"K(.	c #B7776E",
"L(.	c #D38480",
"M(.	c #C57875",
"N(.	c #BB6B6E",
"O(.	c #D7817D",
"P(.	c #DC8285",
"Q(.	c #D88381",
"R(.	c #E59792",
"S(.	c #E2928C",
"T(.	c #E28C90",
"U(.	c #E99489",
"V(.	c #DA8E89",
"W(.	c #D98386",
"X(.	c #DA888C",
"Y(.	c #EC9898",
"Z(.	c #D47F84",
"`(.	c #D3837E",
" _.	c #F2A09A",
"._.	c #E2898C",
"+_.	c #DC8685",
"@_.	c #DB928D",
"#_.	c #D38586",
"$_.	c #BE716F",
"%_.	c #DE878C",
"&_.	c #AC706C",
"*_.	c #B46666",
"=_.	c #BA686C",
"-_.	c #B06262",
";_.	c #A5585E",
">_.	c #A0555D",
",_.	c #A89474",
"'_.	c #4C4236",
")_.	c #B37A7E",
"!_.	c #BD7F88",
"~_.	c #C88792",
"{_.	c #C4878F",
"]_.	c #C1868C",
"^_.	c #CE9099",
"/_.	c #CE8F99",
"(_.	c #847A5F",
"__.	c #B6977E",
":_.	c #A45C65",
"<_.	c #A55C63",
"[_.	c #AD6068",
"}_.	c #AD5C5F",
"|_.	c #C47A76",
"1_.	c #B56366",
"2_.	c #B86A6C",
"3_.	c #C37171",
"4_.	c #B86266",
"5_.	c #BF6F70",
"6_.	c #C97E79",
"7_.	c #B06665",
"8_.	c #D68984",
"9_.	c #C7817D",
"0_.	c #D08684",
"a_.	c #CD7675",
"b_.	c #D58782",
"c_.	c #D67F83",
"d_.	c #CC767E",
"e_.	c #D27C7F",
"f_.	c #C57779",
"g_.	c #C17075",
"h_.	c #DD938E",
"i_.	c #E9928E",
"j_.	c #DA8A8B",
"k_.	c #DA908D",
"l_.	c #CC7F80",
"m_.	c #BB666B",
"n_.	c #CE7975",
"o_.	c #B0565E",
"p_.	c #AF6161",
"q_.	c #C4776F",
"r_.	c #AB6265",
"s_.	c #B3706B",
"t_.	c #A05C61",
"u_.	c #9B856A",
"v_.	c #726750",
"w_.	c #AF727A",
"x_.	c #BE7E87",
"y_.	c #C58690",
"z_.	c #C1828C",
"A_.	c #C58790",
"B_.	c #C5868F",
"C_.	c #B1A27E",
"D_.	c #A56A6C",
"E_.	c #A85962",
"F_.	c #B45B65",
"G_.	c #A95A61",
"H_.	c #B05A63",
"I_.	c #AD6062",
"J_.	c #B36964",
"K_.	c #AC6D65",
"L_.	c #D08381",
"M_.	c #E4928F",
"N_.	c #B96866",
"O_.	c #C87F79",
"P_.	c #B76F6E",
"Q_.	c #C0676F",
"R_.	c #C1777B",
"S_.	c #D48182",
"T_.	c #BF6F74",
"U_.	c #C36F77",
"V_.	c #DA8C8A",
"W_.	c #D5857C",
"X_.	c #F3A294",
"Y_.	c #EB9791",
"Z_.	c #D27A80",
"`_.	c #D98488",
" :.	c #D6828A",
".:.	c #C67A7D",
"+:.	c #D28F87",
"@:.	c #D78389",
"#:.	c #DA8D84",
"$:.	c #DA828B",
"%:.	c #D2817F",
"&:.	c #B97168",
"*:.	c #CA7479",
"=:.	c #C97178",
"-:.	c #AE6263",
";:.	c #A86263",
">:.	c #9E5358",
",:.	c #4F4237",
"':.	c #B4777E",
"):.	c #B47980",
"!:.	c #CC8B94",
"~:.	c #C4898E",
"{:.	c #C3888F",
"]:.	c #DF9EA8",
"^:.	c #C88D94",
"/:.	c #786F55",
"(:.	c #9E5C63",
"_:.	c #AC666A",
"::.	c #A96267",
"<:.	c #A95960",
"[:.	c #AF5861",
"}:.	c #B36869",
"|:.	c #C77078",
"1:.	c #C57573",
"2:.	c #CE7A79",
"3:.	c #B76266",
"4:.	c #B6676B",
"5:.	c #BE6E69",
"6:.	c #DD878D",
"7:.	c #C06C6A",
"8:.	c #CA807F",
"9:.	c #CA797C",
"0:.	c #CE847C",
"a:.	c #CE747E",
"b:.	c #E48E8E",
"c:.	c #D78385",
"d:.	c #DC868C",
"e:.	c #CF7C81",
"f:.	c #D98482",
"g:.	c #CF757D",
"h:.	c #CE7B7D",
"i:.	c #D48B8B",
"j:.	c #D18984",
"k:.	c #D98786",
"l:.	c #C7787C",
"m:.	c #CB7778",
"n:.	c #D07A6E",
"o:.	c #B86C6B",
"p:.	c #CF807C",
"q:.	c #B67362",
"r:.	c #B1726F",
"s:.	c #AC6666",
"t:.	c #997567",
"u:.	c #AD7479",
"v:.	c #B2767B",
"w:.	c #B77C82",
"x:.	c #C3858D",
"y:.	c #C88A93",
"z:.	c #C98C92",
"A:.	c #D697A1",
"B:.	c #8E636A",
"C:.	c #BEAF86",
"D:.	c #B1636C",
"E:.	c #A45860",
"F:.	c #AB5862",
"G:.	c #AC5760",
"H:.	c #BF6C69",
"I:.	c #C8847D",
"J:.	c #BA706E",
"K:.	c #C27875",
"L:.	c #BC736D",
"M:.	c #C06B72",
"N:.	c #C36A73",
"O:.	c #C57676",
"P:.	c #C47174",
"Q:.	c #D27E7F",
"R:.	c #DE8A8B",
"S:.	c #F8A2A0",
"T:.	c #DD8E8A",
"U:.	c #F2959B",
"V:.	c #CA7379",
"W:.	c #D68B8A",
"X:.	c #CE7C81",
"Y:.	c #CC7E82",
"Z:.	c #D17980",
"`:.	c #C17579",
" <.	c #DE8F8D",
".<.	c #D88F8C",
"+<.	c #C7857D",
"@<.	c #CF827E",
"#<.	c #DD8B84",
"$<.	c #BA7672",
"%<.	c #CA7B7A",
"&<.	c #AD6066",
"*<.	c #AF6569",
"=<.	c #B26B6B",
"-<.	c #B49E7E",
";<.	c #524539",
"><.	c #B3757D",
",<.	c #CA8791",
"'<.	c #B97D83",
")<.	c #C88992",
"!<.	c #D1949D",
"~<.	c #DA9AA3",
"{<.	c #E3A1AB",
"]<.	c #D596A1",
"^<.	c #68604B",
"/<.	c #AC957A",
"(<.	c #AE6669",
"_<.	c #A76064",
":<.	c #B7676D",
"<<.	c #BC5F67",
"[<.	c #B85C63",
"}<.	c #C77972",
"|<.	c #BF7074",
"1<.	c #BE7772",
"2<.	c #C2706C",
"3<.	c #CE797A",
"4<.	c #BD7B77",
"5<.	c #CF7D79",
"6<.	c #DF878E",
"7<.	c #C9737B",
"8<.	c #E59090",
"9<.	c #CB737D",
"0<.	c #E29091",
"a<.	c #D27881",
"b<.	c #C87174",
"c<.	c #DD8C8A",
"d<.	c #C87D7B",
"e<.	c #DD8B8B",
"f<.	c #D08A82",
"g<.	c #E29593",
"h<.	c #DA898A",
"i<.	c #D07D82",
"j<.	c #C67173",
"k<.	c #B66D6C",
"l<.	c #C0726C",
"m<.	c #BE746A",
"n<.	c #AA6564",
"o<.	c #A2866F",
"p<.	c #846A5C",
"q<.	c #AF767B",
"r<.	c #B5787F",
"s<.	c #C7868F",
"t<.	c #C0838A",
"u<.	c #CF919A",
"v<.	c #DF9CA6",
"w<.	c #D4959F",
"x<.	c #684A4E",
"y<.	c #AE626D",
"z<.	c #AF5F69",
"A<.	c #AC5D66",
"B<.	c #A65961",
"C<.	c #AE6067",
"D<.	c #BA6E73",
"E<.	c #B7706A",
"F<.	c #C57975",
"G<.	c #CE7F81",
"H<.	c #B76669",
"I<.	c #C27271",
"J<.	c #BA6669",
"K<.	c #BE6769",
"L<.	c #D07A7C",
"M<.	c #C07777",
"N<.	c #E59994",
"O<.	c #E38E8C",
"P<.	c #E0948C",
"Q<.	c #C26A71",
"R<.	c #C36B71",
"S<.	c #C26A70",
"T<.	c #C87177",
"U<.	c #D18A88",
"V<.	c #E28F90",
"W<.	c #CB7077",
"X<.	c #BF745E",
"Y<.	c #C07D79",
"Z<.	c #C7616C",
"`<.	c #C27472",
" [.	c #C26E72",
".[.	c #BC6C6E",
"+[.	c #A7555E",
"@[.	c #BFA484",
"#[.	c #5C4B3F",
"$[.	c #B6787D",
"%[.	c #C3848C",
"&[.	c #C78891",
"*[.	c #CC8D92",
"=[.	c #DC9AA3",
"-[.	c #D2959E",
";[.	c #605744",
">[.	c #B2A07E",
",[.	c #B4636F",
"'[.	c #B16067",
")[.	c #B55C64",
"![.	c #B46166",
"~[.	c #CF7B7D",
"{[.	c #C56A6D",
"][.	c #BA6E6E",
"^[.	c #C57776",
"/[.	c #CA7F7F",
"([.	c #CC7D7A",
"_[.	c #CA7E7C",
":[.	c #C67879",
"<[.	c #E28A8B",
"[[.	c #DB8489",
"}[.	c #E78F88",
"|[.	c #D78283",
"1[.	c #CA717B",
"2[.	c #D58182",
"3[.	c #C56971",
"4[.	c #D88684",
"5[.	c #CA7C7A",
"6[.	c #CA807D",
"7[.	c #C8817C",
"8[.	c #D78886",
"9[.	c #B36466",
"0[.	c #B06265",
"a[.	c #AD6564",
"b[.	c #BE776D",
"c[.	c #B58F7A",
"d[.	c #786754",
"e[.	c #B67D7D",
"f[.	c #B4797E",
"g[.	c #B87C84",
"h[.	c #C1838B",
"i[.	c #D0919A",
"j[.	c #D1939C",
"k[.	c #D697A0",
"l[.	c #CD8F95",
"m[.	c #5A4044",
"n[.	c #CEC094",
"o[.	c #AC5F68",
"p[.	c #A96167",
"q[.	c #B15B66",
"r[.	c #AB5B62",
"s[.	c #B26768",
"t[.	c #BC716D",
"u[.	c #BA706B",
"v[.	c #C9817B",
"w[.	c #C38178",
"x[.	c #CA807E",
"y[.	c #C06B6E",
"z[.	c #C9717C",
"A[.	c #B85C66",
"B[.	c #CD7C79",
"C[.	c #C47570",
"D[.	c #E99487",
"E[.	c #C37F7D",
"F[.	c #D28573",
"G[.	c #DC8788",
"H[.	c #D58587",
"I[.	c #D0797B",
"J[.	c #C2696E",
"K[.	c #CF7977",
"L[.	c #BE656D",
"M[.	c #CA767A",
"N[.	c #C97D7E",
"O[.	c #D18281",
"P[.	c #CE7D81",
"Q[.	c #C77F7D",
"R[.	c #C47273",
"S[.	c #BD7171",
"T[.	c #B25F64",
"U[.	c #AE5C61",
"V[.	c #BC7275",
"W[.	c #B9A582",
"X[.	c #635045",
"Y[.	c #BD7B83",
"Z[.	c #C88790",
"`[.	c #C4848E",
" }.	c #CD8D95",
".}.	c #CC8D95",
"+}.	c #C98D93",
"@}.	c #E6A1AD",
"#}.	c #EFA8B2",
"$}.	c #E5A0A7",
"%}.	c #5B5541",
"&}.	c #B39E7E",
"*}.	c #A65E66",
"=}.	c #AB646A",
"-}.	c #B86C72",
";}.	c #B6626D",
">}.	c #BF676F",
",}.	c #CC6E78",
"'}.	c #BB6768",
")}.	c #B45A60",
"!}.	c #CA7375",
"~}.	c #BB6A6C",
"{}.	c #CB7E80",
"]}.	c #BB7175",
"^}.	c #C07C76",
"/}.	c #BF7A76",
"(}.	c #C16E70",
"_}.	c #D57D7F",
":}.	c #E38990",
"<}.	c #CE797C",
"[}.	c #CF767D",
"}}.	c #DD8886",
"|}.	c #C86D74",
"1}.	c #D28481",
"2}.	c #C77077",
"3}.	c #BE6B71",
"4}.	c #DD8A88",
"5}.	c #DC8C87",
"6}.	c #DD948D",
"7}.	c #CC827D",
"8}.	c #D38E86",
"9}.	c #A55E60",
"0}.	c #BD9377",
"a}.	c #886D5B",
"b}.	c #C08282",
"c}.	c #BA7C7C",
"d}.	c #C3868E",
"e}.	c #CF8E95",
"f}.	c #D7979F",
"g}.	c #D1929A",
"h}.	c #D8989E",
"i}.	c #E9A4AD",
"j}.	c #503B3C",
"k}.	c #C8B88F",
"l}.	c #A45E67",
"m}.	c #A55E66",
"n}.	c #B65E68",
"o}.	c #CA847E",
"p}.	c #B8706C",
"q}.	c #DF958C",
"r}.	c #C27C79",
"s}.	c #C77271",
"t}.	c #C77877",
"u}.	c #BF6970",
"v}.	c #BB6A75",
"w}.	c #CF7F81",
"x}.	c #C37C76",
"y}.	c #C47C77",
"z}.	c #D27A7B",
"A}.	c #C57575",
"B}.	c #C67275",
"C}.	c #CC7F7D",
"D}.	c #D58B84",
"E}.	c #CB8180",
"F}.	c #D4857E",
"G}.	c #BF7672",
"H}.	c #BD6665",
"I}.	c #C57675",
"J}.	c #B1595C",
"K}.	c #B36065",
"L}.	c #CE7D80",
"M}.	c #B49F7D",
"N}.	c #493F34",
"O}.	c #C37B7E",
"P}.	c #C7818C",
"Q}.	c #C4838B",
"R}.	c #D28E98",
"S}.	c #C88A90",
"T}.	c #D19099",
"U}.	c #D3939D",
"V}.	c #D2949B",
"W}.	c #DE9DA5",
"X}.	c #F2A9B1",
"Y}.	c #F0A7AF",
"Z}.	c #524A3B",
"`}.	c #AC626A",
" |.	c #AB6067",
".|.	c #AD6369",
"+|.	c #B4656D",
"@|.	c #C97279",
"#|.	c #C36B70",
"$|.	c #BB6A6D",
"%|.	c #AE6468",
"&|.	c #BC6A72",
"*|.	c #D48383",
"=|.	c #CB8181",
"-|.	c #C06E73",
";|.	c #C67277",
">|.	c #D0777B",
",|.	c #CD7075",
"'|.	c #D57E81",
")|.	c #C16D71",
"!|.	c #CA7979",
"~|.	c #CB7476",
"{|.	c #C26C72",
"]|.	c #BF7070",
"^|.	c #DB8C82",
"/|.	c #DF8C84",
"(|.	c #DA8A84",
"_|.	c #D57C7D",
":|.	c #C47175",
"<|.	c #AB5A60",
"[|.	c #A7585F",
"}|.	c #A68E74",
"||.	c #8E7360",
"1|.	c #BF8180",
"2|.	c #B87C81",
"3|.	c #BC7D83",
"4|.	c #BD8285",
"5|.	c #C7878E",
"6|.	c #E5A1AA",
"7|.	c #EDA6AE",
"8|.	c #E6A3AD",
"9|.	c #3D2D2D",
"0|.	c #B3626B",
"a|.	c #C97F7D",
"b|.	c #C97E7A",
"c|.	c #B87774",
"d|.	c #C07672",
"e|.	c #C66D76",
"f|.	c #C37875",
"g|.	c #B65C64",
"h|.	c #C16B71",
"i|.	c #B96166",
"j|.	c #B86C71",
"k|.	c #BC6D73",
"l|.	c #E7948F",
"m|.	c #C07E7B",
"n|.	c #D38788",
"o|.	c #D08385",
"p|.	c #D37D7F",
"q|.	c #BC676B",
"r|.	c #C76C73",
"s|.	c #BD656B",
"t|.	c #CC7B7B",
"u|.	c #D18584",
"v|.	c #C77C77",
"w|.	c #D37B7F",
"x|.	c #CA7879",
"y|.	c #B5686C",
"z|.	c #B2626A",
"A|.	c #BBA183",
"B|.	c #6F594D",
"C|.	c #BF7981",
"D|.	c #CA818C",
"E|.	c #C9848D",
"F|.	c #D08C97",
"G|.	c #C98D92",
"H|.	c #D3929B",
"I|.	c #E19DA8",
"J|.	c #E09CA6",
"K|.	c #F6ACB6",
"L|.	c #F4AAB3",
"M|.	c #F4A9B1",
"N|.	c #E7A1AB",
"O|.	c #514839",
"P|.	c #AE6568",
"Q|.	c #AE5E65",
"R|.	c #BA5965",
"S|.	c #B45861",
"T|.	c #B86066",
"U|.	c #B46467",
"V|.	c #B6686A",
"W|.	c #CA8480",
"X|.	c #DF9086",
"Y|.	c #BF7977",
"Z|.	c #C86F76",
"`|.	c #C77274",
" 1.	c #C87477",
".1.	c #C3676E",
"+1.	c #CD7A7A",
"@1.	c #D57E7E",
"#1.	c #D87F7A",
"$1.	c #C1676F",
"%1.	c #CE7876",
"&1.	c #E18F82",
"*1.	c #D2827F",
"=1.	c #C87576",
"-1.	c #B16167",
";1.	c #AF6163",
">1.	c #AB5E61",
",1.	c #AA8F74",
"'1.	c #846B59",
")1.	c #B27478",
"!1.	c #C47E80",
"~1.	c #C9858D",
"{1.	c #C7888C",
"]1.	c #D4939A",
"^1.	c #E09BA5",
"/1.	c #E4A0A9",
"(1.	c #E8A3AE",
"_1.	c #271D1C",
":1.	c #AE626C",
"<1.	c #BE7673",
"[1.	c #B5716E",
"}1.	c #B86C69",
"|1.	c #BC6F71",
"11.	c #C7807C",
"21.	c #BC6A73",
"31.	c #B66466",
"41.	c #CF7A7B",
"51.	c #E1948E",
"61.	c #C07977",
"71.	c #D07979",
"81.	c #C0666E",
"91.	c #C2666C",
"01.	c #BD5F66",
"a1.	c #BE696E",
"b1.	c #C9797B",
"c1.	c #B95D63",
"d1.	c #C38079",
"e1.	c #CD837B",
"f1.	c #C26F6D",
"g1.	c #C57173",
"h1.	c #B36063",
"i1.	c #B36468",
"j1.	c #BB9A84",
"k1.	c #685344",
"l1.	c #D38993",
"m1.	c #D68F99",
"n1.	c #C78A8E",
"o1.	c #D08E98",
"p1.	c #D6959E",
"q1.	c #D29299",
"r1.	c #CC8F95",
"s1.	c #F0A9B4",
"t1.	c #D3949C",
"u1.	c #F6ACB5",
"v1.	c #F4ABB4",
"w1.	c #474032",
"x1.	c #B7A282",
"y1.	c #AA636A",
"z1.	c #A96168",
"A1.	c #AE646A",
"B1.	c #B86F70",
"C1.	c #B05B64",
"D1.	c #B05862",
"E1.	c #BC5B66",
"F1.	c #C45B67",
"G1.	c #BC6A6C",
"H1.	c #C57277",
"I1.	c #CD7975",
"J1.	c #C9807F",
"K1.	c #BD7371",
"L1.	c #BB6B6F",
"M1.	c #B96569",
"N1.	c #CF7D7C",
"O1.	c #DC8889",
"P1.	c #C56A71",
"Q1.	c #EA8B80",
"R1.	c #CD7C7F",
"S1.	c #BE6469",
"T1.	c #F0948F",
"U1.	c #D87F7C",
"V1.	c #E08671",
"W1.	c #E99091",
"X1.	c #BF6D6B",
"Y1.	c #C87873",
"Z1.	c #C06F73",
"`1.	c #AA5B60",
" 2.	c #A49274",
".2.	c #756451",
"+2.	c #B87477",
"@2.	c #C4848A",
"#2.	c #D6929B",
"$2.	c #CA8D92",
"%2.	c #D09195",
"&2.	c #E19DA1",
"*2.	c #D4969A",
"=2.	c #F3A8B0",
"-2.	c #CF9294",
";2.	c #261A1B",
">2.	c #D3C297",
",2.	c #B66770",
"'2.	c #AE5F6A",
")2.	c #C07477",
"!2.	c #C47D78",
"~2.	c #B26367",
"{2.	c #B56C6B",
"]2.	c #BB686F",
"^2.	c #B9756D",
"/2.	c #BC5962",
"(2.	c #B0575E",
"_2.	c #C36E72",
":2.	c #DE7E7C",
"<2.	c #D37E80",
"[2.	c #DB8885",
"}2.	c #EA9391",
"|2.	c #D07D74",
"12.	c #BB6669",
"22.	c #C56D72",
"32.	c #C05861",
"42.	c #DF8888",
"52.	c #C5666F",
"62.	c #BA6167",
"72.	c #C37D76",
"82.	c #D07B77",
"92.	c #AE5960",
"02.	c #BBA184",
"a2.	c #675448",
"b2.	c #BE747D",
"c2.	c #C57E85",
"d2.	c #DC8F9A",
"e2.	c #D9919C",
"f2.	c #C5888C",
"g2.	c #CE9097",
"h2.	c #CE8E94",
"i2.	c #D4929C",
"j2.	c #ECA5AD",
"k2.	c #5A4940",
"l2.	c #B79F81",
"m2.	c #AA656A",
"n2.	c #B0646A",
"o2.	c #C97D81",
"p2.	c #B45C64",
"q2.	c #B85F66",
"r2.	c #B45E65",
"s2.	c #B56769",
"t2.	c #C77771",
"u2.	c #E0857F",
"v2.	c #CA7069",
"w2.	c #B86A68",
"x2.	c #C06B6A",
"y2.	c #C66B73",
"z2.	c #DE838A",
"A2.	c #C36065",
"B2.	c #C56A6E",
"C2.	c #CF7A7A",
"D2.	c #CF7F7C",
"E2.	c #DD8683",
"F2.	c #ED948C",
"G2.	c #C96F6F",
"H2.	c #D37B81",
"I2.	c #B56467",
"J2.	c #E08A8C",
"K2.	c #BC6C6C",
"L2.	c #BA6A70",
"M2.	c #B0947B",
"N2.	c #685E4A",
"O2.	c #C07A82",
"P2.	c #B9797F",
"Q2.	c #C28484",
"R2.	c #D29099",
"S2.	c #C5878C",
"T2.	c #F9AEBA",
"U2.	c #D9999F",
"V2.	c #DB99A1",
"W2.	c #F7ACB5",
"X2.	c #D9989B",
"Y2.	c #D29498",
"Z2.	c #E39FAB",
"`2.	c #291D1D",
" 3.	c #C9B490",
".3.	c #AA6469",
"+3.	c #AF6169",
"@3.	c #C17B79",
"#3.	c #BF7475",
"$3.	c #C7727D",
"%3.	c #C67074",
"&3.	c #C16861",
"*3.	c #CC7870",
"=3.	c #C16470",
"-3.	c #CD7778",
";3.	c #D78787",
">3.	c #C86E70",
",3.	c #CC7877",
"'3.	c #BC5A63",
")3.	c #C56C70",
"!3.	c #B2575D",
"~3.	c #BB696B",
"{3.	c #CD7980",
"]3.	c #C27270",
"^3.	c #CA7B7B",
"/3.	c #B95F6A",
"(3.	c #B6977F",
"_3.	c #504739",
":3.	c #C27880",
"<3.	c #C77F87",
"[3.	c #CF878D",
"}3.	c #E4939D",
"|3.	c #D58B96",
"13.	c #C2858A",
"23.	c #C48C8A",
"33.	c #CA8A94",
"43.	c #C88B92",
"53.	c #F1A8B4",
"63.	c #D6949C",
"73.	c #F8AFB9",
"83.	c #3E372D",
"93.	c #A76066",
"03.	c #A95A64",
"a3.	c #B16267",
"b3.	c #B8626A",
"c3.	c #B16164",
"d3.	c #BA5B65",
"e3.	c #C3746E",
"f3.	c #CD8180",
"g3.	c #BD6267",
"h3.	c #BB6A71",
"i3.	c #BD6569",
"j3.	c #B26061",
"k3.	c #CE7375",
"l3.	c #BE676B",
"m3.	c #E28A8A",
"n3.	c #CB7172",
"o3.	c #D07B7C",
"p3.	c #C56F70",
"q3.	c #D88280",
"r3.	c #D88183",
"s3.	c #C77272",
"t3.	c #BD6D6E",
"u3.	c #BD7272",
"v3.	c #D48687",
"w3.	c #BAA983",
"x3.	c #6C644D",
"y3.	c #B9757A",
"z3.	c #C27981",
"A3.	c #C27C83",
"B3.	c #CD858B",
"C3.	c #CC848C",
"D3.	c #CC888D",
"E3.	c #D69099",
"F3.	c #CC8C93",
"G3.	c #D49195",
"H3.	c #DB9190",
"I3.	c #D99D97",
"J3.	c #E3A1A5",
"K3.	c #E09DA7",
"L3.	c #EBA4AF",
"M3.	c #362728",
"N3.	c #CCB288",
"O3.	c #AA676C",
"P3.	c #B1676E",
"Q3.	c #BB7076",
"R3.	c #CC817E",
"S3.	c #B26267",
"T3.	c #CD797C",
"U3.	c #B35C62",
"V3.	c #C66D6C",
"W3.	c #CD7E79",
"X3.	c #CE7179",
"Y3.	c #D07F77",
"Z3.	c #E7948C",
"`3.	c #D68684",
" 4.	c #C06E6D",
".4.	c #C36B6D",
"+4.	c #B45D62",
"@4.	c #B65960",
"#4.	c #AB6E6E",
"$4.	c #C17678",
"%4.	c #E48F7B",
"&4.	c #BA6661",
"*4.	c #AC5F65",
"=4.	c #B1A17D",
"-4.	c #594D3D",
";4.	c #BC7279",
">4.	c #CB7D87",
",4.	c #D58590",
"'4.	c #D18890",
")4.	c #CE878F",
"!4.	c #CA868F",
"~4.	c #C4848B",
"{4.	c #CA888F",
"]4.	c #C18287",
"^4.	c #D69799",
"/4.	c #B97F85",
"(4.	c #C78C91",
"_4.	c #DB98A0",
":4.	c #FAAFBB",
"<4.	c #F1A6B2",
"[4.	c #D6929D",
"}4.	c #473C32",
"|4.	c #C1A086",
"14.	c #AD636B",
"24.	c #BE6E73",
"34.	c #C07373",
"44.	c #B9636D",
"54.	c #B15861",
"64.	c #B8676E",
"74.	c #D2777A",
"84.	c #B96560",
"94.	c #C87175",
"04.	c #E78D83",
"a4.	c #EF9C90",
"b4.	c #BF696B",
"c4.	c #D3777F",
"d4.	c #C1686E",
"e4.	c #C06C70",
"f4.	c #C46C6E",
"g4.	c #C97174",
"h4.	c #A95F68",
"i4.	c #AE997A",
"j4.	c #766854",
"k4.	c #C1787F",
"l4.	c #D18690",
"m4.	c #CA8588",
"n4.	c #CB868E",
"o4.	c #CF8C95",
"p4.	c #DD96A0",
"q4.	c #D39092",
"r4.	c #DE929A",
"s4.	c #DC9494",
"t4.	c #F2A6AC",
"u4.	c #D9999D",
"v4.	c #DC999F",
"w4.	c #DF9DA4",
"x4.	c #DC9BA3",
"y4.	c #E19CA7",
"z4.	c #543B3D",
"A4.	c #A9666A",
"B4.	c #AE626A",
"C4.	c #BE7677",
"D4.	c #CF7C83",
"E4.	c #BC696B",
"F4.	c #C77D7B",
"G4.	c #D28782",
"H4.	c #D88682",
"I4.	c #CD767C",
"J4.	c #DD8E8B",
"K4.	c #BB636A",
"L4.	c #C46A6E",
"M4.	c #B15D62",
"N4.	c #B86567",
"O4.	c #B95E67",
"P4.	c #B37D76",
"Q4.	c #B45E63",
"R4.	c #CB7978",
"S4.	c #C47374",
"T4.	c #CE7D7B",
"U4.	c #AC5E65",
"V4.	c #B09D7B",
"W4.	c #564E3D",
"X4.	c #BA6E76",
"Y4.	c #C87C84",
"Z4.	c #CE7E89",
"`4.	c #CF838A",
" 5.	c #C68388",
".5.	c #C48389",
"+5.	c #C6868B",
"@5.	c #C38988",
"#5.	c #CB8D90",
"$5.	c #BC7E86",
"%5.	c #CB888A",
"&5.	c #D08E94",
"*5.	c #DD99A3",
"=5.	c #E19CA6",
"-5.	c #DD9AA3",
";5.	c #FAAFBA",
">5.	c #F7ABB7",
",5.	c #D9929F",
"'5.	c #CC8F94",
")5.	c #393329",
"!5.	c #C3AC89",
"~5.	c #B57172",
"{5.	c #B0626C",
"]5.	c #B3636A",
"^5.	c #B46469",
"/5.	c #BA666B",
"(5.	c #B86261",
"_5.	c #D28082",
":5.	c #CC7276",
"<5.	c #D18280",
"[5.	c #C97577",
"}5.	c #EC9691",
"|5.	c #E08988",
"15.	c #D78480",
"25.	c #D38280",
"35.	c #EEA59B",
"45.	c #D07C7E",
"55.	c #C17070",
"65.	c #CB7D79",
"75.	c #D98986",
"85.	c #B26770",
"95.	c #A98977",
"05.	c #826C5B",
"a5.	c #B76E76",
"b5.	c #C57781",
"c5.	c #BC7A7C",
"d5.	c #BE777E",
"e5.	c #CC828B",
"f5.	c #CF8790",
"g5.	c #EB9AA5",
"h5.	c #DE949E",
"i5.	c #D28E94",
"j5.	c #D8939C",
"k5.	c #D99195",
"l5.	c #DF999B",
"m5.	c #D79498",
"n5.	c #EFABAE",
"o5.	c #D89A9F",
"p5.	c #DD9AA1",
"q5.	c #745351",
"r5.	c #C1B08A",
"s5.	c #B3696F",
"t5.	c #D17E80",
"u5.	c #C77377",
"v5.	c #DF8982",
"w5.	c #C67170",
"x5.	c #D1777A",
"y5.	c #C9757A",
"z5.	c #C99A80",
"A5.	c #635546",
"B5.	c #BD7078",
"C5.	c #CE7B86",
"D5.	c #CC848A",
"E5.	c #C37D82",
"F5.	c #C48586",
"G5.	c #C8888A",
"H5.	c #C18687",
"I5.	c #C48689",
"J5.	c #C68789",
"K5.	c #CE8B93",
"L5.	c #D8919B",
"M5.	c #CE8D8E",
"N5.	c #C48688",
"O5.	c #CC8B91",
"P5.	c #CA8988",
"Q5.	c #DB9A9E",
"R5.	c #D29298",
"S5.	c #DD97A1",
"T5.	c #EEA4B0",
"U5.	c #352D25",
"V5.	c #C2A689",
"W5.	c #B26570",
"X5.	c #AF666D",
"Y5.	c #BD7478",
"Z5.	c #B4616B",
"`5.	c #B56069",
" 6.	c #C97779",
".6.	c #CB837F",
"+6.	c #D0787E",
"@6.	c #D0807E",
"#6.	c #E3888A",
"$6.	c #D27D7D",
"%6.	c #D28687",
"&6.	c #CC7871",
"*6.	c #B8696A",
"=6.	c #CA7C7F",
"-6.	c #A59273",
";6.	c #7C7259",
">6.	c #B86E76",
",6.	c #D07E88",
"'6.	c #DB8691",
")6.	c #D7848F",
"!6.	c #D48690",
"~6.	c #D98D96",
"{6.	c #D79197",
"]6.	c #D69299",
"^6.	c #F9B1AB",
"/6.	c #EAA1A3",
"(6.	c #E19AA1",
"_6.	c #EBA0AB",
":6.	c #E59EA7",
"<6.	c #DD999B",
"[6.	c #DB999E",
"}6.	c #DB97A2",
"|6.	c #D5939A",
"16.	c #7E5859",
"26.	c #BCAD86",
"36.	c #A96D6D",
"46.	c #B97276",
"56.	c #B96E72",
"66.	c #B86D70",
"76.	c #BB6D6B",
"86.	c #CB807D",
"96.	c #E1908A",
"06.	c #D4817D",
"a6.	c #C87778",
"b6.	c #B66066",
"c6.	c #C77476",
"d6.	c #BC6B70",
"e6.	c #C4747B",
"f6.	c #D98988",
"g6.	c #AC6168",
"h6.	c #B4987B",
"i6.	c #956E61",
"j6.	c #C27179",
"k6.	c #CF808A",
"l6.	c #D7828C",
"m6.	c #BF7A80",
"n6.	c #C57F86",
"o6.	c #E0909B",
"p6.	c #D18893",
"q6.	c #C8868B",
"r6.	c #CE8B8F",
"s6.	c #C8858C",
"t6.	c #D18F8C",
"u6.	c #BF817D",
"v6.	c #C58B89",
"w6.	c #F0A4AF",
"x6.	c #EFA3AE",
"y6.	c #D7939B",
"z6.	c #D48E9A",
"A6.	c #F2A6B1",
"B6.	c #DC95A1",
"C6.	c #D09096",
"D6.	c #C98790",
"E6.	c #393028",
"F6.	c #C5B08D",
"G6.	c #B36671",
"H6.	c #B46A6F",
"I6.	c #AF6668",
"J6.	c #CD8179",
"K6.	c #CC7C72",
"L6.	c #CB7A77",
"M6.	c #BA6265",
"N6.	c #C67D78",
"O6.	c #C17476",
"P6.	c #CA7878",
"Q6.	c #E4928D",
"R6.	c #C97876",
"S6.	c #E58F9A",
"T6.	c #A78F75",
"U6.	c #87765E",
"V6.	c #C1707A",
"W6.	c #DD8792",
"X6.	c #CB828A",
"Y6.	c #D18E92",
"Z6.	c #E698A3",
"`6.	c #D99193",
" 7.	c #E79FA2",
".7.	c #EEA7A1",
"+7.	c #E1999C",
"@7.	c #E198A3",
"#7.	c #E097A0",
"$7.	c #D59395",
"%7.	c #DB999C",
"&7.	c #DD9A9D",
"*7.	c #DE9B9E",
"=7.	c #CB908F",
"-7.	c #E8A0AB",
";7.	c #CE8E93",
">7.	c #D79598",
",7.	c #D9939E",
"'7.	c #D39099",
")7.	c #7A5359",
"!7.	c #B4A681",
"~7.	c #A87570",
"{7.	c #AE626E",
"]7.	c #B76A73",
"^7.	c #B2656C",
"/7.	c #B4636C",
"(7.	c #EEA498",
"_7.	c #E48F90",
":7.	c #DE938B",
"<7.	c #CF7C7C",
"[7.	c #B5686B",
"}7.	c #DA8988",
"|7.	c #B86368",
"17.	c #B45E66",
"27.	c #C27176",
"37.	c #D98C8B",
"47.	c #AE656A",
"57.	c #A69374",
"67.	c #6A5A4A",
"77.	c #BC6B72",
"87.	c #BB6C74",
"97.	c #D67C87",
"07.	c #DC838E",
"a7.	c #CE7E87",
"b7.	c #C58286",
"c7.	c #E18C98",
"d7.	c #D1868E",
"e7.	c #CF8C8F",
"f7.	c #D18B91",
"g7.	c #CA878C",
"h7.	c #D48E93",
"i7.	c #C48384",
"j7.	c #C58386",
"k7.	c #D2898E",
"l7.	c #D28C8C",
"m7.	c #D38E95",
"n7.	c #D48F93",
"o7.	c #C8878B",
"p7.	c #CC8A90",
"q7.	c #CD8B94",
"r7.	c #CE9093",
"s7.	c #D7939D",
"t7.	c #E39BA7",
"u7.	c #C8878F",
"v7.	c #D7919D",
"w7.	c #D08A94",
"x7.	c #4A3D34",
"y7.	c #BCA886",
"z7.	c #A8656B",
"A7.	c #B46972",
"B7.	c #B46B71",
"C7.	c #AC6367",
"D7.	c #BB7971",
"E7.	c #B4646B",
"F7.	c #D68980",
"G7.	c #B66A6B",
"H7.	c #C77C7B",
"I7.	c #C87277",
"J7.	c #CB7B79",
"K7.	c #D68C8A",
"L7.	c #BD6B70",
"M7.	c #CE837E",
"N7.	c #E89991",
"O7.	c #DC8C8C",
"P7.	c #D68282",
"Q7.	c #9B856C",
"R7.	c #A98A76",
"S7.	c #B96972",
"T7.	c #B86C73",
"U7.	c #CA757F",
"V7.	c #D6828D",
"W7.	c #D6838D",
"X7.	c #CB7E87",
"Y7.	c #C88189",
"Z7.	c #D98C96",
"`7.	c #D88E94",
" 8.	c #D28B92",
".8.	c #DA9795",
"+8.	c #D38B86",
"@8.	c #DA9398",
"#8.	c #E49C9E",
"$8.	c #E2999B",
"%8.	c #E29A9F",
"&8.	c #DF97A0",
"*8.	c #E09BA0",
"=8.	c #D79497",
"-8.	c #D09191",
";8.	c #DD9B9A",
">8.	c #D69293",
",8.	c #E09BA4",
"'8.	c #D09297",
")8.	c #CB8E8F",
"!8.	c #D9969D",
"~8.	c #D39399",
"{8.	c #DF97A2",
"]8.	c #895B62",
"^8.	c #A99477",
"/8.	c #B07C76",
"(8.	c #AF636D",
"_8.	c #B0656B",
":8.	c #CD8782",
"<8.	c #AB6D63",
"[8.	c #D78680",
"}8.	c #C37E7B",
"|8.	c #B76E70",
"18.	c #B86268",
"28.	c #B45C66",
"38.	c #B15B65",
"48.	c #C3717A",
"58.	c #BD6D74",
"68.	c #B19578",
"78.	c #615444",
"88.	c #BC6871",
"98.	c #C7737E",
"08.	c #DD828E",
"a8.	c #E18894",
"b8.	c #C2757D",
"c8.	c #C87E84",
"d8.	c #C67A84",
"e8.	c #C97E88",
"f8.	c #C78288",
"g8.	c #C48187",
"h8.	c #C68886",
"i8.	c #B9817D",
"j8.	c #C58388",
"k8.	c #CC8887",
"l8.	c #BE8381",
"m8.	c #CD8780",
"n8.	c #CF8E8E",
"o8.	c #BF857B",
"p8.	c #BA7D84",
"q8.	c #CA898B",
"r8.	c #BE8186",
"s8.	c #C28488",
"t8.	c #D08C96",
"u8.	c #C6858E",
"v8.	c #D88F9A",
"w8.	c #CB858E",
"x8.	c #4E4237",
"y8.	c #B5A080",
"z8.	c #AB666F",
"A8.	c #A9626A",
"B8.	c #AF696E",
"C8.	c #BC6C6D",
"D8.	c #BA7272",
"E8.	c #C07776",
"F8.	c #AB5C60",
"G8.	c #DA838A",
"H8.	c #B87171",
"I8.	c #D07F7E",
"J8.	c #B66971",
"K8.	c #BC8D7D",
"L8.	c #A0836F",
"M8.	c #BD6A74",
"N8.	c #CF747F",
"O8.	c #DE8692",
"P8.	c #D1808A",
"Q8.	c #DE8A95",
"R8.	c #D98A95",
"S8.	c #D28C90",
"T8.	c #D6898C",
"U8.	c #D68E92",
"V8.	c #E69E9C",
"W8.	c #E6989F",
"X8.	c #F5A4A8",
"Y8.	c #E39AA1",
"Z8.	c #DB9197",
"`8.	c #E09A9F",
" 9.	c #DD999E",
".9.	c #E6A0A2",
"+9.	c #DF9B9E",
"@9.	c #E2A0A3",
"#9.	c #D19191",
"$9.	c #E79F99",
"%9.	c #E0979B",
"&9.	c #DA989C",
"*9.	c #E29AA4",
"=9.	c #D69399",
"-9.	c #EEA2AD",
";9.	c #D58E98",
">9.	c #9A656E",
",9.	c #A29674",
"'9.	c #A58171",
")9.	c #AD686C",
"!9.	c #BA7B75",
"~9.	c #B7756D",
"{9.	c #C9807A",
"]9.	c #D2867E",
"^9.	c #B16666",
"/9.	c #B6696E",
"(9.	c #B96C69",
"_9.	c #B86871",
":9.	c #E0908F",
"<9.	c #AA5F67",
"[9.	c #A79677",
"}9.	c #685844",
"|9.	c #B1626A",
"19.	c #AC656A",
"29.	c #CB717C",
"39.	c #D17883",
"49.	c #DE828D",
"59.	c #D7818C",
"69.	c #C87C81",
"79.	c #C97F85",
"89.	c #D1818B",
"99.	c #C87E85",
"09.	c #C27E80",
"a9.	c #C98688",
"b9.	c #C08081",
"c9.	c #CA848A",
"d9.	c #D28A90",
"e9.	c #CF878B",
"f9.	c #CC888A",
"g9.	c #C88985",
"h9.	c #C58885",
"i9.	c #C8898C",
"j9.	c #E497A2",
"k9.	c #CE8A92",
"l9.	c #C78B8B",
"m9.	c #C7868C",
"n9.	c #C4848D",
"o9.	c #EB9DA9",
"p9.	c #CF8891",
"q9.	c #C6818A",
"r9.	c #4F4838",
"s9.	c #B7A081",
"t9.	c #B7716A",
"u9.	c #B86B71",
"v9.	c #AA6264",
"w9.	c #C77A7E",
"x9.	c #D18582",
"y9.	c #D5918D",
"z9.	c #C87F81",
"A9.	c #C67B79",
"B9.	c #AD5F68",
"C9.	c #BA7575",
"D9.	c #BD7878",
"E9.	c #A98273",
"F9.	c #9D8A6F",
"G9.	c #A55A61",
"H9.	c #C46F77",
"I9.	c #D17F89",
"J9.	c #E28994",
"K9.	c #E58C98",
"L9.	c #CF868E",
"M9.	c #DB9597",
"N9.	c #D78F96",
"O9.	c #DD929A",
"P9.	c #E79B9A",
"Q9.	c #DF999C",
"R9.	c #DA939B",
"S9.	c #DC9694",
"T9.	c #EEA3A1",
"U9.	c #E89E9C",
"V9.	c #DB958F",
"W9.	c #DA9699",
"X9.	c #A56B73",
"Y9.	c #958A6A",
"Z9.	c #A78874",
"`9.	c #AD636E",
" 0.	c #AC636C",
".0.	c #B1636D",
"+0.	c #AD686B",
"@0.	c #BA766E",
"#0.	c #B2626E",
"$0.	c #B47673",
"%0.	c #B4736D",
"&0.	c #B8696D",
"*0.	c #B26E73",
"=0.	c #C09B87",
"-0.	c #625343",
";0.	c #C26973",
">0.	c #BC6B6D",
",0.	c #BE6B74",
"'0.	c #CA737D",
")0.	c #C2727C",
"!0.	c #CD7A83",
"~0.	c #CE7A83",
"{0.	c #C37B82",
"]0.	c #CA7E85",
"^0.	c #D1838C",
"/0.	c #D3878A",
"(0.	c #D59088",
"_0.	c #D79292",
":0.	c #CA828A",
"<0.	c #C8848A",
"[0.	c #CA8989",
"}0.	c #C98784",
"|0.	c #E39B97",
"10.	c #D18D90",
"20.	c #CE8B8E",
"30.	c #CD8A91",
"40.	c #C6878B",
"50.	c #CC8892",
"60.	c #CD8A92",
"70.	c #DE959F",
"80.	c #E69AA5",
"90.	c #CE8890",
"00.	c #C7818B",
"a0.	c #CE8A8E",
"b0.	c #D58994",
"c0.	c #645C47",
"d0.	c #BB9E83",
"e0.	c #A5646B",
"f0.	c #B16D6D",
"g0.	c #BC7578",
"h0.	c #A56467",
"i0.	c #BB7571",
"j0.	c #B3686C",
"k0.	c #C57D76",
"l0.	c #C5797E",
"m0.	c #B4706B",
"n0.	c #CD7F75",
"o0.	c #A65C65",
"p0.	c #C6807B",
"q0.	c #A37D6D",
"r0.	c #A18E72",
"s0.	c #BA706D",
"t0.	c #BA7074",
"u0.	c #CB7680",
"v0.	c #D47D88",
"w0.	c #CB7C85",
"x0.	c #CD828A",
"y0.	c #D88A8E",
"z0.	c #D48C8B",
"A0.	c #CD858D",
"B0.	c #E5989E",
"C0.	c #E09A98",
"D0.	c #DD939A",
"E0.	c #DE9693",
"F0.	c #D79192",
"G0.	c #DB939C",
"H0.	c #DD9599",
"I0.	c #E9A39C",
"J0.	c #DB9E94",
"K0.	c #DD979C",
"L0.	c #D99394",
"M0.	c #D89498",
"N0.	c #D39095",
"O0.	c #C4858C",
"P0.	c #CB8A90",
"Q0.	c #C18388",
"R0.	c #CA8B8F",
"S0.	c #E395A1",
"T0.	c #C68289",
"U0.	c #A86B75",
"V0.	c #897C5F",
"W0.	c #B49C7F",
"X0.	c #A8646B",
"Y0.	c #B97676",
"Z0.	c #AD6A6E",
"`0.	c #B47573",
" a.	c #B0706F",
".a.	c #BD7779",
"+a.	c #C58477",
"@a.	c #CC8681",
"#a.	c #B3686F",
"$a.	c #AD6767",
"%a.	c #BA7177",
"&a.	c #B97678",
"*a.	c #C07B78",
"=a.	c #B46D6F",
"-a.	c #B57472",
";a.	c #B36971",
">a.	c #AC9A79",
",a.	c #86665D",
"'a.	c #C2777A",
")a.	c #B87677",
"!a.	c #CC7980",
"~a.	c #C9777F",
"{a.	c #D07B87",
"]a.	c #DA8590",
"^a.	c #C87A85",
"/a.	c #C78085",
"(a.	c #D99192",
"_a.	c #CD868A",
":a.	c #BC817E",
"<a.	c #C58886",
"[a.	c #D58F90",
"}a.	c #CF908A",
"|a.	c #D08B8B",
"1a.	c #D2908A",
"2a.	c #DA9390",
"3a.	c #CD8C88",
"4a.	c #CC8B8C",
"5a.	c #C58687",
"6a.	c #C38587",
"7a.	c #CC8C8B",
"8a.	c #CB8A8D",
"9a.	c #CE8991",
"0a.	c #C7848B",
"aa.	c #C9828A",
"ba.	c #BD767F",
"ca.	c #83785D",
"da.	c #A67B71",
"ea.	c #B57376",
"fa.	c #B66E6E",
"ga.	c #BE7977",
"ha.	c #B36A6E",
"ia.	c #B57373",
"ja.	c #B97570",
"ka.	c #AA6267",
"la.	c #B48479",
"ma.	c #BA937F",
"na.	c #BB686D",
"oa.	c #C06C76",
"pa.	c #CC727C",
"qa.	c #D37A84",
"ra.	c #E38894",
"sa.	c #E48995",
"ta.	c #D2878F",
"ua.	c #D08B8D",
"va.	c #DE8F8E",
"wa.	c #D78E92",
"xa.	c #DC9297",
"ya.	c #D58A8C",
"za.	c #D89194",
"Aa.	c #DB8F94",
"Ba.	c #E3979A",
"Ca.	c #E59A9B",
"Da.	c #DD999A",
"Ea.	c #EE9FA0",
"Fa.	c #EA9AA2",
"Ga.	c #F9ACA3",
"Ha.	c #F4A7A7",
"Ia.	c #E4A1A0",
"Ja.	c #DA969B",
"Ka.	c #E9A3A4",
"La.	c #D38C92",
"Ma.	c #CC878B",
"Na.	c #C28287",
"Oa.	c #736A52",
"Pa.	c #C2A188",
"Qa.	c #AA646E",
"Ra.	c #A7626B",
"Sa.	c #B06570",
"Ta.	c #B87176",
"Ua.	c #BE7561",
"Va.	c #AF6658",
"Wa.	c #B37272",
"Xa.	c #B67172",
"Ya.	c #BF7A75",
"Za.	c #C97F83",
"`a.	c #A65F68",
" b.	c #A56264",
".b.	c #AB6C6F",
"+b.	c #C19983",
"@b.	c #5D4F40",
"#b.	c #AB5F62",
"$b.	c #BB6871",
"%b.	c #B07173",
"&b.	c #C17F7E",
"*b.	c #B66D71",
"=b.	c #AF7074",
"-b.	c #CD8888",
";b.	c #BF787D",
">b.	c #C57A80",
",b.	c #C57D83",
"'b.	c #CE8988",
")b.	c #CB8B88",
"!b.	c #C78485",
"~b.	c #D4948D",
"{b.	c #D59391",
"]b.	c #D78B92",
"^b.	c #D68C91",
"/b.	c #C78284",
"(b.	c #D18691",
"_b.	c #D28D8D",
":b.	c #CA888C",
"<b.	c #C28085",
"[b.	c #C48487",
"}b.	c #DA8E98",
"|b.	c #C88388",
"1b.	c #DE8C97",
"2b.	c #B56E78",
"3b.	c #A08971",
"4b.	c #A56E70",
"5b.	c #AE6D71",
"6b.	c #C77A83",
"7b.	c #D08685",
"8b.	c #C88483",
"9b.	c #D9958D",
"0b.	c #CC8984",
"ab.	c #BF7B79",
"bb.	c #C37C81",
"cb.	c #B47475",
"db.	c #B79978",
"eb.	c #995257",
"fb.	c #D67D88",
"gb.	c #DB838E",
"hb.	c #CD8386",
"ib.	c #D18D8E",
"jb.	c #D79394",
"kb.	c #E18F9A",
"lb.	c #E9999F",
"mb.	c #D18F8E",
"nb.	c #E9A09C",
"ob.	c #EDA1A1",
"pb.	c #F09FA7",
"qb.	c #E7999B",
"rb.	c #F4A5A4",
"sb.	c #E79B99",
"tb.	c #E59B9D",
"ub.	c #D89497",
"vb.	c #E29991",
"wb.	c #DB9396",
"xb.	c #D78B91",
"yb.	c #CA888B",
"zb.	c #DB919B",
"Ab.	c #CE888E",
"Bb.	c #C57D86",
"Cb.	c #675847",
"Db.	c #AF7271",
"Eb.	c #A8656E",
"Fb.	c #B46F76",
"Gb.	c #C57E7F",
"Hb.	c #B26D6E",
"Ib.	c #B87174",
"Jb.	c #B37076",
"Kb.	c #B56E79",
"Lb.	c #AE6B74",
"Mb.	c #A7686D",
"Nb.	c #BEA184",
"Ob.	c #635144",
"Pb.	c #AD555E",
"Qb.	c #B36A6D",
"Rb.	c #D3747F",
"Sb.	c #BB7E75",
"Tb.	c #C77D82",
"Ub.	c #D6818B",
"Vb.	c #D08E8C",
"Wb.	c #B97878",
"Xb.	c #C0817F",
"Yb.	c #C68385",
"Zb.	c #D89291",
"`b.	c #D1898A",
" c.	c #C67F87",
".c.	c #CE8488",
"+c.	c #D38990",
"@c.	c #DF8D99",
"#c.	c #C88186",
"$c.	c #C68585",
"%c.	c #BB7C7D",
"&c.	c #BC7B82",
"*c.	c #D28B91",
"=c.	c #CD838D",
"-c.	c #C58485",
";c.	c #DB8A95",
">c.	c #C47781",
",c.	c #8E575D",
"'c.	c #C5B68D",
")c.	c #A6656D",
"!c.	c #AC6B71",
"~c.	c #B6716F",
"{c.	c #BD7B79",
"]c.	c #DD9191",
"^c.	c #D28580",
"/c.	c #C78680",
"(c.	c #AA686C",
"_c.	c #B06F75",
":c.	c #BA7B7D",
"<c.	c #A4786E",
"[c.	c #A99073",
"}c.	c #8F4C4E",
"|c.	c #BF6B73",
"1c.	c #C7707A",
"2c.	c #C5727B",
"3c.	c #C5767E",
"4c.	c #CE8283",
"5c.	c #D0858A",
"6c.	c #D3858E",
"7c.	c #D78D94",
"8c.	c #E29597",
"9c.	c #D78B90",
"0c.	c #D18B8E",
"ac.	c #DD9390",
"bc.	c #DC908F",
"cc.	c #DB9691",
"dc.	c #F7A6A5",
"ec.	c #FDAEA8",
"fc.	c #FCB0B0",
"gc.	c #EFA89E",
"hc.	c #D88D94",
"ic.	c #E19B99",
"jc.	c #DC939A",
"kc.	c #E69B9B",
"lc.	c #D98E97",
"mc.	c #C58189",
"nc.	c #D79095",
"oc.	c #CD8790",
"pc.	c #C68283",
"qc.	c #CE828D",
"rc.	c #564430",
"sc.	c #D2C296",
"tc.	c #AA6772",
"uc.	c #A5676E",
"vc.	c #B8747A",
"wc.	c #B26E6D",
"xc.	c #C17E7E",
"yc.	c #B36D6C",
"zc.	c #B8736F",
"Ac.	c #A96B70",
"Bc.	c #B57379",
"Cc.	c #A6686E",
"Dc.	c #5E4C3F",
"Ec.	c #A3545A",
"Fc.	c #AC555D",
"Gc.	c #C96771",
"Hc.	c #B96D6E",
"Ic.	c #C27A7E",
"Jc.	c #C27579",
"Kc.	c #CE8582",
"Lc.	c #DD9393",
"Mc.	c #BB7F7F",
"Nc.	c #B9787C",
"Oc.	c #D48B8E",
"Pc.	c #CF858D",
"Qc.	c #CF828A",
"Rc.	c #CE848A",
"Sc.	c #C68588",
"Tc.	c #D4908D",
"Uc.	c #D18C8C",
"Vc.	c #CF8A90",
"Wc.	c #C27E84",
"Xc.	c #D88893",
"Yc.	c #D78691",
"Zc.	c #B66F77",
"`c.	c #BB6F79",
" d.	c #4B2D30",
".d.	c #C5B28D",
"+d.	c #AB6B68",
"@d.	c #B37379",
"#d.	c #BB7275",
"$d.	c #C88785",
"%d.	c #C78285",
"&d.	c #B27375",
"*d.	c #D28F86",
"=d.	c #B57477",
"-d.	c #BD8981",
";d.	c #B8977F",
">d.	c #854749",
",d.	c #AE6160",
"'d.	c #B25E64",
")d.	c #BE6871",
"!d.	c #C16C75",
"~d.	c #BA7775",
"{d.	c #D08189",
"]d.	c #CE868B",
"^d.	c #D2838D",
"/d.	c #D38C8F",
"(d.	c #E89995",
"_d.	c #E59598",
":d.	c #F4A7A0",
"<d.	c #FBA7A2",
"[d.	c #EB9A97",
"}d.	c #F9A7AA",
"|d.	c #DB9692",
"1d.	c #E6969E",
"2d.	c #E49A99",
"3d.	c #D58C91",
"4d.	c #E59C9B",
"5d.	c #DC909A",
"6d.	c #CF8A8F",
"7d.	c #D78B8F",
"8d.	c #C27E81",
"9d.	c #2C271F",
"0d.	c #CEBC93",
"ad.	c #A86971",
"bd.	c #A86B6C",
"cd.	c #A3656C",
"dd.	c #B4707A",
"ed.	c #B4767A",
"fd.	c #C78384",
"gd.	c #B47172",
"hd.	c #B17172",
"id.	c #A06569",
"jd.	c #B8A883",
"kd.	c #433A2E",
"ld.	c #A5545B",
"md.	c #AF535D",
"nd.	c #BF5A64",
"od.	c #C96671",
"pd.	c #BF6872",
"qd.	c #C17D7B",
"rd.	c #C47279",
"sd.	c #CF8484",
"td.	c #D28787",
"ud.	c #D18389",
"vd.	c #C98682",
"wd.	c #C68182",
"xd.	c #CA8A89",
"yd.	c #CE878A",
"zd.	c #CB7B87",
"Ad.	c #D68E91",
"Bd.	c #CC8386",
"Cd.	c #CC8389",
"Dd.	c #D08A8B",
"Ed.	c #D79294",
"Fd.	c #D08A8E",
"Gd.	c #CD888C",
"Hd.	c #D2848E",
"Id.	c #C47C82",
"Jd.	c #BE787E",
"Kd.	c #AC6F6F",
"Ld.	c #BC767B",
"Md.	c #352824",
"Nd.	c #C0AD88",
"Od.	c #9D6167",
"Pd.	c #B47278",
"Qd.	c #B8766D",
"Rd.	c #B27776",
"Sd.	c #CE8D82",
"Td.	c #CE8377",
"Ud.	c #B7777C",
"Vd.	c #AB6C74",
"Wd.	c #A87A71",
"Xd.	c #A48F70",
"Yd.	c #AE6E6D",
"Zd.	c #B36866",
"`d.	c #BF656F",
" e.	c #C86B75",
".e.	c #C26E76",
"+e.	c #C3747A",
"@e.	c #BE787D",
"#e.	c #C67A80",
"$e.	c #C57D7D",
"%e.	c #D08688",
"&e.	c #DB8690",
"*e.	c #E8919C",
"=e.	c #D78A8F",
"-e.	c #F8A5A5",
";e.	c #D08D8A",
">e.	c #DC968E",
",e.	c #FBA89D",
"'e.	c #E49691",
")e.	c #F8A5A0",
"!e.	c #EA989B",
"~e.	c #EA9197",
"{e.	c #EEA19F",
"]e.	c #E29A9A",
"^e.	c #D48B93",
"/e.	c #D0838D",
"(e.	c #CC8588",
"_e.	c #C48085",
":e.	c #C57A83",
"<e.	c #C2717B",
"[e.	c #281F1C",
"}e.	c #CDB691",
"|e.	c #AC6F74",
"1e.	c #A66971",
"2e.	c #A86B72",
"3e.	c #B47379",
"4e.	c #A96666",
"5e.	c #9D6262",
"6e.	c #A0626C",
"7e.	c #3C3229",
"8e.	c #A9565F",
"9e.	c #AC555C",
"0e.	c #B35760",
"ae.	c #B75C64",
"be.	c #B97074",
"ce.	c #D36E79",
"de.	c #BD7174",
"ee.	c #D58385",
"fe.	c #C17478",
"ge.	c #D88A88",
"he.	c #C5747C",
"ie.	c #CF8688",
"je.	c #C88784",
"ke.	c #CC8B87",
"le.	c #C88184",
"me.	c #C57F82",
"ne.	c #D0868A",
"oe.	c #C07F82",
"pe.	c #CA8587",
"qe.	c #D1898B",
"re.	c #CA8687",
"se.	c #C88384",
"te.	c #B37273",
"ue.	c #B07274",
"ve.	c #AF6F70",
"we.	c #BB6E78",
"xe.	c #AE676E",
"ye.	c #B76771",
"ze.	c #A58573",
"Ae.	c #9A6067",
"Be.	c #A96C71",
"Ce.	c #B07477",
"De.	c #B07478",
"Ee.	c #C28786",
"Fe.	c #977068",
"Ge.	c #A18F72",
"He.	c #8B5154",
"Ie.	c #A15357",
"Je.	c #B75761",
"Ke.	c #BB5A64",
"Le.	c #C7636D",
"Me.	c #B76069",
"Ne.	c #B86D6F",
"Oe.	c #B36C74",
"Pe.	c #C17578",
"Qe.	c #B77776",
"Re.	c #B26C6F",
"Se.	c #C47C80",
"Te.	c #BD777B",
"Ue.	c #DE8F95",
"Ve.	c #D18089",
"We.	c #D5868F",
"Xe.	c #E09697",
"Ye.	c #E89F96",
"Ze.	c #FBA9A7",
"`e.	c #EA9EA1",
" f.	c #E7959C",
".f.	c #D38B90",
"+f.	c #E49592",
"@f.	c #E49A9D",
"#f.	c #DD8F96",
"$f.	c #DE9097",
"%f.	c #E49B9B",
"&f.	c #D78E8F",
"*f.	c #D58A8F",
"=f.	c #D2848F",
"-f.	c #C67C84",
";f.	c #BA7378",
">f.	c #382725",
",f.	c #CDB08E",
"'f.	c #9E676A",
")f.	c #9D6069",
"!f.	c #A76870",
"~f.	c #B06F6B",
"{f.	c #9F6167",
"]f.	c #9A5D63",
"^f.	c #2F2620",
"/f.	c #A5545E",
"(f.	c #9D5358",
"_f.	c #B0565F",
":f.	c #B5555D",
"<f.	c #C65F6A",
"[f.	c #C4666F",
"}f.	c #CC7E7E",
"|f.	c #CC6E79",
"1f.	c #D78685",
"2f.	c #CA7C7E",
"3f.	c #C5817C",
"4f.	c #CC7D82",
"5f.	c #C47C7D",
"6f.	c #D08484",
"7f.	c #D8918F",
"8f.	c #C98186",
"9f.	c #D18888",
"0f.	c #C68482",
"af.	c #D6888E",
"bf.	c #DD9392",
"cf.	c #D2848A",
"df.	c #C57D82",
"ef.	c #C48284",
"ff.	c #CC898B",
"gf.	c #D08B89",
"hf.	c #C87B84",
"if.	c #B57077",
"jf.	c #AE6A6D",
"kf.	c #AD676A",
"lf.	c #9F545B",
"mf.	c #958769",
"nf.	c #996565",
"of.	c #A2656B",
"pf.	c #A1656A",
"qf.	c #9F646A",
"rf.	c #AA6A72",
"sf.	c #946F66",
"tf.	c #BF9686",
"uf.	c #804A4D",
"vf.	c #A5525C",
"wf.	c #AE555E",
"xf.	c #A6565C",
"yf.	c #B55760",
"zf.	c #B76D72",
"Af.	c #BA7478",
"Bf.	c #BB7678",
"Cf.	c #C57C7F",
"Df.	c #C27C7F",
"Ef.	c #CE8085",
"Ff.	c #DC8B8E",
"Gf.	c #D78B88",
"Hf.	c #DC8A8A",
"If.	c #D99188",
"Jf.	c #F1A398",
"Kf.	c #E49698",
"Lf.	c #E1938C",
"Mf.	c #D48E87",
"Nf.	c #E19194",
"Of.	c #CC868A",
"Pf.	c #DD8B93",
"Qf.	c #D68D93",
"Rf.	c #E49499",
"Sf.	c #E09298",
"Tf.	c #D58C8F",
"Uf.	c #DB9394",
"Vf.	c #D1878C",
"Wf.	c #C77C83",
"Xf.	c #C98285",
"Yf.	c #B77075",
"Zf.	c #B87074",
"`f.	c #B6656F",
" g.	c #45292A",
".g.	c #B2A27E",
"+g.	c #9C7169",
"@g.	c #9D5E69",
"#g.	c #A76C6D",
"$g.	c #97636B",
"%g.	c #C2A38A",
"&g.	c #3B2A28",
"*g.	c #9D555E",
"=g.	c #AC5862",
"-g.	c #A45358",
";g.	c #B0565D",
">g.	c #B55D64",
",g.	c #B46169",
"'g.	c #B7646B",
")g.	c #C47677",
"!g.	c #CB777E",
"~g.	c #C57B79",
"{g.	c #C27177",
"]g.	c #B96D77",
"^g.	c #BF757B",
"/g.	c #B77874",
"(g.	c #D38C87",
"_g.	c #CB8483",
":g.	c #CF8B87",
"<g.	c #CA8C86",
"[g.	c #BB717E",
"}g.	c #CA7F87",
"|g.	c #C77D81",
"1g.	c #CC8986",
"2g.	c #C37A7F",
"3g.	c #C87D84",
"4g.	c #BE777F",
"5g.	c #BD767B",
"6g.	c #B97075",
"7g.	c #AF6D70",
"8g.	c #B35E67",
"9g.	c #804146",
"0g.	c #935861",
"ag.	c #93626D",
"bg.	c #B07475",
"cg.	c #9D756C",
"dg.	c #AF907C",
"eg.	c #945A5D",
"fg.	c #A0535B",
"gg.	c #B2555F",
"hg.	c #B6555E",
"ig.	c #C15A63",
"jg.	c #B4585E",
"kg.	c #C15E68",
"lg.	c #C07775",
"mg.	c #BC6C70",
"ng.	c #BF7B76",
"og.	c #B56B74",
"pg.	c #B66877",
"qg.	c #CE8483",
"rg.	c #CC7F84",
"sg.	c #C77B81",
"tg.	c #D4868B",
"ug.	c #DF948F",
"vg.	c #D5868C",
"wg.	c #EB9B9D",
"xg.	c #D9888C",
"yg.	c #DC8C91",
"zg.	c #D38787",
"Ag.	c #F0A39E",
"Bg.	c #DC8D90",
"Cg.	c #DF8C87",
"Dg.	c #D98D8D",
"Eg.	c #D3858B",
"Fg.	c #DA8991",
"Gg.	c #C28283",
"Hg.	c #E09294",
"Ig.	c #E39B99",
"Jg.	c #DE8F94",
"Kg.	c #CB8085",
"Lg.	c #CC8485",
"Mg.	c #CC8987",
"Ng.	c #BB6E74",
"Og.	c #B76770",
"Pg.	c #A85B62",
"Qg.	c #713C3F",
"Rg.	c #9E8F71",
"Sg.	c #A58272",
"Tg.	c #866575",
"Ug.	c #916D7C",
"Vg.	c #8B6F80",
"Wg.	c #8B666D",
"Xg.	c #97575F",
"Yg.	c #9A545D",
"Zg.	c #A1585F",
"`g.	c #A25760",
" h.	c #A75B60",
".h.	c #AD545B",
"+h.	c #B76262",
"@h.	c #AB545A",
"#h.	c #B17168",
"$h.	c #CA777A",
"%h.	c #C96F79",
"&h.	c #CB7981",
"*h.	c #C47F7D",
"=h.	c #C1797E",
"-h.	c #C1787B",
";h.	c #D88B87",
">h.	c #CA7D86",
",h.	c #C17581",
"'h.	c #B3797A",
")h.	c #C58481",
"!h.	c #B96B5D",
"~h.	c #BD837E",
"{h.	c #C1827F",
"]h.	c #CF8E89",
"^h.	c #BD7C7B",
"/h.	c #BB7378",
"(h.	c #B47377",
"_h.	c #C88A84",
":h.	c #C17B7A",
"<h.	c #BD7B7B",
"[h.	c #B77D75",
"}h.	c #BB7579",
"|h.	c #BA727A",
"1h.	c #B47071",
"2h.	c #BA6871",
"3h.	c #A9535C",
"4h.	c #9D4F57",
"5h.	c #271617",
"6h.	c #716683",
"7h.	c #8B6F7B",
"8h.	c #A78186",
"9h.	c #A38D73",
"0h.	c #9A5F64",
"ah.	c #BF777A",
"bh.	c #A6565F",
"ch.	c #AB555D",
"dh.	c #B25660",
"eh.	c #C05D67",
"fh.	c #B4595E",
"gh.	c #B0686A",
"hh.	c #BC666E",
"ih.	c #B46B6E",
"jh.	c #B7746E",
"kh.	c #B17071",
"lh.	c #C57B7F",
"mh.	c #C47A7E",
"nh.	c #C1797C",
"oh.	c #CD8383",
"ph.	c #D08285",
"qh.	c #D28986",
"rh.	c #EB9F98",
"sh.	c #D88881",
"th.	c #EA9D96",
"uh.	c #EDA097",
"vh.	c #F49C9A",
"wh.	c #D6878F",
"xh.	c #D98892",
"yh.	c #D3898A",
"zh.	c #D48884",
"Ah.	c #CB8488",
"Bh.	c #C17D7C",
"Ch.	c #BF7777",
"Dh.	c #BC6C76",
"Eh.	c #C46D77",
"Fh.	c #A95B62",
"Gh.	c #A8545D",
"Hh.	c #9E5359",
"Ih.	c #8E4C51",
"Jh.	c #635A75",
"Kh.	c #75667F",
"Lh.	c #7A6984",
"Mh.	c #846B7F",
"Nh.	c #8E7185",
"Oh.	c #9A5A61",
"Ph.	c #9C565D",
"Qh.	c #AE585D",
"Rh.	c #B65B62",
"Sh.	c #BB6D6E",
"Th.	c #B36561",
"Uh.	c #BE6C71",
"Vh.	c #BC686C",
"Wh.	c #C36E74",
"Xh.	c #C57677",
"Yh.	c #B3686E",
"Zh.	c #C47277",
"`h.	c #BF7076",
" i.	c #BD7476",
".i.	c #B97374",
"+i.	c #BF747B",
"@i.	c #C57980",
"#i.	c #D3888B",
"$i.	c #BF7F7C",
"%i.	c #C4777B",
"&i.	c #BC7876",
"*i.	c #B57778",
"=i.	c #C28182",
"-i.	c #BE7D7C",
";i.	c #B37474",
">i.	c #BC7A78",
",i.	c #B67479",
"'i.	c #B97076",
")i.	c #BC7278",
"!i.	c #B87076",
"~i.	c #B77275",
"{i.	c #BC7374",
"]i.	c #B3626A",
"^i.	c #A65C61",
"/i.	c #9D4E57",
"(i.	c #514258",
"_i.	c #695D7A",
":i.	c #6F6685",
"<i.	c #806B80",
"[i.	c #9C7680",
"}i.	c #975960",
"|i.	c #A35F64",
"1i.	c #A45B62",
"2i.	c #AB575F",
"3i.	c #A15459",
"4i.	c #A35459",
"5i.	c #AB595D",
"6i.	c #A4595B",
"7i.	c #A9545A",
"8i.	c #BA5962",
"9i.	c #B35D63",
"0i.	c #B56A6C",
"ai.	c #B66D6F",
"bi.	c #B97472",
"ci.	c #B16676",
"di.	c #D08780",
"ei.	c #B67476",
"fi.	c #C07B79",
"gi.	c #BC767A",
"hi.	c #CA8384",
"ii.	c #CE8989",
"ji.	c #BF7B7C",
"ki.	c #E79095",
"li.	c #C37F80",
"mi.	c #C58484",
"ni.	c #CB8284",
"oi.	c #C88886",
"pi.	c #E0928E",
"qi.	c #D89087",
"ri.	c #E59793",
"si.	c #DE9093",
"ti.	c #D3858C",
"ui.	c #D68F8B",
"vi.	c #D7898B",
"wi.	c #DB9490",
"xi.	c #C17978",
"yi.	c #B3656D",
"zi.	c #AC5D65",
"Ai.	c #A5555D",
"Bi.	c #9E5157",
"Ci.	c #6E3F4A",
"Di.	c #575270",
"Ei.	c #69607F",
"Fi.	c #6D6484",
"Gi.	c #816A81",
"Hi.	c #7E6983",
"Ii.	c #A25F69",
"Ji.	c #A25963",
"Ki.	c #A05661",
"Li.	c #A3565F",
"Mi.	c #A55861",
"Ni.	c #AB585F",
"Oi.	c #AD5B5E",
"Pi.	c #B96968",
"Qi.	c #B35C63",
"Ri.	c #BF7772",
"Si.	c #C56771",
"Ti.	c #C87376",
"Ui.	c #CF7B78",
"Vi.	c #BC6B6E",
"Wi.	c #C6717C",
"Xi.	c #BC6D72",
"Yi.	c #CD8483",
"Zi.	c #CB7782",
"`i.	c #C1767B",
" j.	c #BD7374",
".j.	c #C67D7B",
"+j.	c #C4787B",
"@j.	c #C67C82",
"#j.	c #C67E82",
"$j.	c #BE7B7E",
"%j.	c #BD777A",
"&j.	c #BB767A",
"*j.	c #CA7D80",
"=j.	c #D27F84",
"-j.	c #BE7877",
";j.	c #BA7975",
">j.	c #C17B81",
",j.	c #B17575",
"'j.	c #B07275",
")j.	c #BA7976",
"!j.	c #BE7476",
"~j.	c #B97778",
"{j.	c #BB7A75",
"]j.	c #B1656A",
"^j.	c #AB6266",
"/j.	c #B45D66",
"(j.	c #A15059",
"_j.	c #413545",
":j.	c #575372",
"<j.	c #656188",
"[j.	c #7A6A82",
"}j.	c #896F81",
"|j.	c #A06368",
"1j.	c #A05761",
"2j.	c #9F555D",
"3j.	c #A1595C",
"4j.	c #A95E5C",
"5j.	c #A95C5B",
"6j.	c #A75A5C",
"7j.	c #B66A69",
"8j.	c #B7665E",
"9j.	c #B86269",
"0j.	c #B46368",
"aj.	c #BB7377",
"bj.	c #BA7276",
"cj.	c #C3747B",
"dj.	c #C7787F",
"ej.	c #C78081",
"fj.	c #C68583",
"gj.	c #C97F86",
"hj.	c #DC898B",
"ij.	c #D88088",
"jj.	c #CC7D83",
"kj.	c #CC8486",
"lj.	c #C87F84",
"mj.	c #C97D79",
"nj.	c #E29693",
"oj.	c #DB8C89",
"pj.	c #E29497",
"qj.	c #DA8F8F",
"rj.	c #CD8385",
"sj.	c #C07779",
"tj.	c #B6616A",
"uj.	c #994F54",
"vj.	c #603538",
"wj.	c #4B455F",
"xj.	c #585474",
"yj.	c #625E83",
"   .  +  @  #  $  %  &  *  =  -  ;  >  ,  '  )  !  ~  {  ]  ^  /  (  _  :  <  [  }  |  1  2  3  4  5  6  7  8  9  0  a  b  c  d  e  f  g  h  i  j  k  l  m  n  o  p  q  r  s  t  u  v  w  x  y  z  A  B  C  D  E  F  G  H  I  J  K  L  M  N  O  P  Q  R  S  T  U  V  W  X  Y  Z  `   . .. +. @. #. $. %. &. *. =. -. ;. >. ,. '. ). !. ~. {. ]. ^. /. (. _. :. <. [. }. |. 1. 2. 3. 4. 5. 6. 7. ",
"8. 9. 0. a. b. c. d. e. f. g. h. i. j. k. l. m. n. o. p. q. r. s. t. u. v. w. x. y. z. A. B. C. D. E. F. G. H. I. (  J. K. L. M. N. O. P. Q. R. S. T. U. V. W. X. Y. Z. `.  + .+ ++ @+ #+ $+ %+ &+ *+ =+ -+ ;+ >+ ,+ '+ )+ !+ ~+ {+ ]+ ^+ /+ (+ _+ :+ <+ [+ }+ |+ 1+ 2+ 3+ 4+ 5+ 6+ 7+ 8+ 9+ 0+ a+ b+ c+ d+ e+ f+ g+ h+ i+ j+ k+ l+ m+ n+ o+ p+ q+ r+ s+ t+ u+ v+ w+ x+ y+ z+ A+ B+ C+ D+ E+ F+ ",
"G+ H+ I+ J+ K+ L+ M+ N+ O+ P+ Q+ R+ S+ T+ U+ V+ W+ X+ Y+ Z+ `+  @ .@ +@ @@ #@ $@ %@ &@ *@ =@ -@ ;@ >@ ,@ '@ )@ !@ ~@ {@ ]@ ^@ /@ (@ _@ :@ <@ [@ 4+ }@ |@ 1@ 2@ h. 3@ 4@ 5@ 6@ 7@ 8@ 9@ 0@ a@ b@ c@ d@ e@ f@ g@ h@ i@ j@ k@ l@ m@ n@ o@ p@ q@ r@ s@ t@ u@ v@ w@ x@ y@ z@ &. A@ B@ C@ D@ E@ F@ G@ H@ I@ J@ K@ L@ M@ N@ O@ P@ Q@ R@ S@ T@ U@ V@ W@ X@ Y@ Z@ `@ /@  # .# +# @# ## $# %# &# *# =# -# ",
";# ># ,# '# )# !# ~# {# ]# ^# /# (# _# :# <# [# }# |# 1# 2# 3# 4# 5# 6# 7# 8# 9# =@ 0# a# b# c# d# e# f# g# h# i# j# k# l# m# n# o# p# q# r# s# t# u# v# w# x# y# z# A# B# C# D# E# b@ F# G# H# I# J# K# L# M# N# O# P# Q# R# S# T# U# V# W# X# p@ Y# Z# `#  $ .$ +$ @$ #$ $$ %$ &$ *$ =$ -$ ;$ >$ ,$ '$ )$ !$ ~$ {$ ]$ ^$ /$ ($ _$ :$ <$ [$ }$ |$ 1$ 2$ 3$ 4$ 5$ 6$ 7$ 8$ 9$ 0$ a$ b$ c$ d$ e$ ",
"f$ g$ h$ i$ j$ k$ l$ m$ n$ o$ p$ q$ r$ s$ t$ u$ v$ /+ w$ x$ y$ z$ A$ B$ C$ D$ E$ F$ G$ H$ I$ J$ K$ L$ g# M$ N$ O$ P$ Q$ R$ S$ T$ b# U$ V$ W$ X$ Y$ Z$ v. r@ `$  % .% +% @% #% $% %% &% *% =% -% ;% >% ,% '% )% !% ~% {% ]% ^% /% (% _% :% <% [% }% |% 1% 2% 3% 4% 5% 6% 7% 8% 9% 0% a% b% c% d% e% f% g% h% i% j% k% l% 9% m% n% o% p% q% r% s% t% u% v% w% x% y% z% {@ A% B% C% D% E% F% G% H% ",
"I% J% K% L% M% N% O% P% Q% R% S% T% U% V% W% X% Y% Z% `%  & .& +& @& #& $& %& && *& =& -& ;& >& H$ U  ,& '& )& !& ~& {& ]& ^& /& (& _& :& Z# <& [& }& |& 1& 2& 3& 4& 5& 6& 7& 8& 9& 0& a& b& c& d& e& f& g& h& i& j& k& l& m& n& o& p& q& r& s& t& u& v& w& x& y& z& A& B& C& D& E& F& G& H& I& J& K& L& 3% M& N& =& O& P& Q& R& S& T& U& V& W& X& Y& Z& `&  * .* +* @* #* $* b$ %* &* ** =* -* ",
";* >* ,* '* )* !* ~* {* ]* ^* /* (* _* :* <* [* }* |* 1* 2* 3* 4* 5* 6* 7* 8* 9* 0* K@ a* b* c# c* d* e* f* i# g* h* i* j* (% k* l* m* n* o* p* q* r* s* t* u* v* w* x* y* z* A* B* C* D* E* F* G* H* I* J* K* L* M* N* O* P* Q* R* S* T* U* V* W* X* Y* Z* `*  = .= += @= #= $= %= &= *= == -= ;= >= ,= h# '= )= != ~= {= ]= ^= /= (= _= b# := <= [= }= |= 1= 2= 3= 4= 5= 6= 7= 8= 9= 0= a= G% ",
"b= c= d= e= f= g= h= i= j= k= l= m= n= o= p= q= r= s= t= u= v= w= x= y= r+ z= A= B= c% C= D= E= F= G= H= I= J= K= L= M= N= O= P= Q= R= #= S= V& T= U= V= W= X= Y= Z= `=  - .- +- @- #- $- $- %- &- *- =- -- ;- >- ,- '- )- !- ~- {- ]- ^- /- (- _- :- <- [- }- |- 1- 2- 3- 4- 5- 6- 7- 8- 9- 0- a- b- ^= i# c- d- e- f- g- h- i- j- k- l- m- n- o- p- q- r- s- t- u- v- z* w- x- y- z- A- B- ,* ",
"C- D- E- F- G- H- I- J- K- L- M- N- O- r* P- Q- R- S- T- U- V- W- X- Y- Z- `-  ; .; +; @; #; $; %; &; *; =; -; ;; >; ,; '; ); !; ~; {; ]; ^; /; (; _; :; <; [; }; |; 1; 2; 3; 4; 5; D* 6; 7; 8; 9; 0; a; b; c; =* d; e; f; g; h; t= i; j; k; l; m; n; o; p; q; r; s; t; u; v; <  w; x; y; z; A; B; C; D; E; F; G; H; I; J; K; L; M; N; O; P; Q; R; m. S; T; U; V; W; X; Y; Z; `;  > .> +> ;* @> ",
"#> $> %> &> *> => -> ;> >> ,> '> )> !> ~> {> ]> ^> /> (> _> :> <> [> }> |> 1> 2> v. 3> 2> 4> 5> 6> 7> 8> 9> 0> a> b> c> d> e> f> g> h> i> j> k> -  l> m> n> o> p> q> r> s> t> u> v> w> x> y> z> A> B> C> D> E> F> G> H> I> J> K> L> M> N> 1% O> P> Q> R> S> T> U> V> W> X> Y> Z> `>  , ., +, @, #, $, %, &, *, =, -, ;, >, ,, ', ), !, -; ~, {, ], ^, /, (, _, :, <, [, }, |, 1, 2, 3, 4, 5, 6, ",
"7, 8, 9, 0, a, f= b, c, 7; d, e, f, g, w# h, i, j, k, l, m, n, o, p, q, r, z# s, t, u, v, E$ w, x, y, z, A, B, C, D, E, F, G, H, I, J, K, L, M, N, O, P, Q, R, S, T, U, V, W, X, Y, Z, `,  ' .' +' @' #' $' %' &' ;* >* *' =' -' ;' >' ,' }& '' )' !' d> ~' {' ]' U> ^' /' (' _' :' <' [' }' |' 1' 2' 3' 4' 5' 6' 7' 8' 9' 0' a' b' c' d' e' f' g' h' i' j' k' l' m' n' o' p' q' r' s' t' u' v' ",
"w' x' y' z' A' I- B' C' D- D' E' -* F' G' H' I' J' K' L' P- M' N' O' P' Q' R' S' T' U' V' W' X' Y' Z' `'  ) .) +) @) #) r, `% $) %) &) *) =) -) ;) >) ,) ') )) !) ~) {) ]) ^) /) () _) :) <) [) }) |) 1) 2) 3) 4) 5) 0; I% 6) 7) 8) 9) 0) a) b) c) d) e) f) g) h) i) j) k) l) m) n) o) p) q) r) s) t) u) v) w) x) y) z) A) B) C) D) E) F) G) H) I) J) K) L) M) N) O) P) Q) R) S) T) U) V) W) z' ",
"X) Y) Z) `)  ! D- D- G> .! $- K- +! @! #! $! %! d) &! *! =! -! s@ ;! >! ,! '! )! !! ~! K; {! ]! ^! /! (! _! :! <! [! }! |! 1! 2! 3! 4! 5! 6! 7! 8! 9! 0! a! b! c! d! e! f! g! h! i! j! k! l! #- m! n! o! p! q! r! s! t! s' u! v! w! x! y! z! A! B! C! D! E! _- F! w% G! [% H! I! J! K! L! M! N! e) O! P! Q! R! S! T! U! V! W! X! Y! Z! `!  ~ .~ +~ @~ #~ $~ %~ &~ *~ =~ -~ ;~ >~ ,~ '~ )~ !~ ~~ ",
"{~ ]~ ^~ /~ (~ _~ :~ <~ [~ Y) }~ |~ 1~ 2~ 3~ 4~ 5~ 6~ 7~ 8~ 9~ 0~ a~ b~ c~ d~ e~ f~ g~ h~ i~ j~ k~ l~ m~ g> n~ o~ p~ q~ r~ s~ t~ u~ v~ w~ x~ :; y~ z~ A~ B~ C~ D~ E~ F~ G~ H~ I~ J~ K~ L~ M~ N~ O~ P~ Q~ R~ S~ b; T~ U~ V~ W~ X~ Y~ Z~ `~  { .{ +{ @{ #{ ${ %{ &{ *{ ={ -{ F! ;{ >{ w~ ,{ S' '{ ){ !{ ~{ {{ ]{ ^{ /{ ({ _{ :{ <{ [{ }{ |{ .~ 1{ 2{ 3{ 4{ 5{ 6{ 7{ E~ 8{ 9{ 0{ a{ b{ c{ d{ e{ W) ",
"f{ g{ h{ i{ j{ k{ l{ m{ n{ <~ o{ e{ p{ q{ y- r{ s{ t{ u{ v{ w{ x{ y{ z{ A{ B{ C{ D{ E{ F{ G{ H{ I{ J{ K{ L{ 4* u& M{ N{ O{ P{ Q{ R{ S{ M. T{ U{ V{ W{ X{ Y{ Z{ `{  ] .] +] @] #] $] %] &] *] =] -] ;] >] ,] '] )] !] ~] {] )* ]] ^] /] (] _] :] <] [] }] /- |] 1] 2] 3] 4] 5] 6] 7] 8] 9] 0] a] b] c] x) d] e] f] g] h] i] j] k] l] m] n] -= o] p] q] r] s] t] u] v] w] x] y] z] A] B] C] d{ D] ",
"E] F] G] H] I] J] K] L] M] N] O] P] Q] R] S] T] U] V] W] X] Y] Z] `]  ^ .^ +^ @^ u) #^ $^ %^ &^ O! *^ =^ -^ ;^ >^ ,^ '^ )^ !^ ~^ {^ ]^ ^^ /^ (^ _^ :^ <^ [^ }^ |^ 1^ 2^ 3^ 4^ 5^ 6^ 7^ 8^ 9^ 0^ a^ b^ c^ d^ e^ f^ g^ h^ i^ a; j^ k^ ^] l^ m^ n^ o^ p^ q^ K{ r^ s^ t^ u^ v^ w^ x^ y^ z^ 9# A^ B^ C^ D^ E^ F^ G^ H^  # I^ J^ K^ L^ M^ N^ O^ P^ Q^ R^ S^ T^ U^ V^ W^ X^ Y^ Z^ `^  / ./ +/ @/ #/ $/ ",
"%/ &/ */ =/ -/ ;/ >/ ,/ '/ )/ !/ >* ~/ {/ ]/ ^/ // (/ _/ :/ </ [/ }/ |/ 1/ 2/ 3/ 4/ 5/ b# 6/ 7/ 8/ 9/ 0/ a/ b/ c/ d/ e/ f/ g/ h/ i/ j/ k/ l/ m/ n/ o/ p/ q/ r/ s/ t/ u/ v/ w/ x/ y/ z/ A/ B/ C/ D/ E/ F/ '] G/ H/ I/ J/ K/ L/ M/ N/ O/ P/ 0& Q/ R/ S/ T/ U/ V/ W/ X/ Y/ m- Z/ `/  ( .( +( @( #( $( %( &( @) *( =( -( ;( >( ,( <= '( )( !( ~( {( ]( ^( /( (( _( :( <( [( }( |( 1( 2( 3( 4( 5( 6( ",
"7( 8( 9( 0( a( b( c( d( e( f( g( h( i( j( k( l( R) m( n( o( p( q( r( s( t( b- u( c+ v( w( x( y( z( A( B( C( D( E( U= F( G( H( I( J( K( L( M( w( N( O( P( Q( R( S( T( U( V( W( X( Y( Z( `(  _ ._ +_ @_ #_ $_ %_ &_ *_ =_ -_ ;_ >_ ,_ '_ P/ )_ !_ ~_ {_ ]_ ^_ /_ (_ __ V  :_ <_ [_ }_ |_ 1_ _! 2_ 3_ 4_ 5_ 6_ 7_ 8_ 9_ 0_ a_ b_ c_ d_ e_ f_ g_ h_ i_ j_ k_ l_ m_ n_ o_ p_ q_ r_ s_ t_ u_ v_ w_ x_ ",
"X( y_ z_ A_ B_ C_ D_ @] E_ F_ G_ H_ I_ J_ K_ L_ M_ N_ O_ P_ Q_ R_ S_ T_ U_ V_ W_ X_ Y_ Z_ c* `_  : .: +: @: #: U= /; $: %: &: *: =: -: ;: >: ,: ': ): !: ~: {: ]: ^: d  /: (: _: :: <: [: }: |: 1: 2: `^ 3: 4: 5: 6: 7: 8: 9: 0: a: b: c: d: e: f: g: h: i: j: k: l: m: n: o: p: q: r: X% s: t: u: v: w: x:  : y: [= z: p  A, A: B: C: D: E: F: G: H: I: J: K: L: M: N: O: P: Q: R: S: T: U: V: ",
"W: X: Y: Z: `:  < .< +< @< #< $< %< &< *< =< -< ;< >< ,< '< )< !< ~< {< ]< ^< /< (< _< :< << [< }< R^ |< `# 1< 2< 3< 4< 5< 6< 7< 8< 9< 0< a< b< c< d< e< f< g< h< i< j< k< l< m< n< o< p< q< r< s< G& D_ t< u< v< w< x< y< z< A< B< C< D< E< F< G< H< I< J< K< L< M< N< O< P< Q< R< S< T< U< V< W< X< Y< Z< `<  [ }+ .[ +[ @[ #[ $[ %[ &[ *[ =[ -[ ;[ >[ ,[ '[ )[ ![ ~[ W^ {[ ][ ^[ /[ ([ _[ :[ ",
"<[ [[ }[ |[ W: 1[ 2[ 3[ 4[ 5[ 6[ |, 7[ 2^ 8[ 9[ 0[ a[ b[ c[ d[ e[ f[ g[ h[ i[ j[ k[ l[ @* A! m[ n[ o[ p[ q[ r[ s[ t[ u[ v[ w[ x[ y[ z[ A[ B[ C[ D[ E[ F[ G[ e+ H[ I[ J[ K[ L[ M[ N[ O[ P[ Q[ R[ S[ T[ U[ V[ W[ X[ Y[ Z[ `[  } .} +} @} #} $} %} &} *} =} -} ;} >} ,} '} )} c_ !} ~} {} ]} R+ ^} /} (} _} :} <} [} }} n= |} 1} 2} 3} 4} 5} ^} 6} 7} 8} 9} 0} a} b} c} d} e} f} g} h} i} j} k} l} ",
"m} n} o} p} q} r} s} t} u} v} w} x} y} z} A} B} C} D} E} F} G} H} I} J} K} L} M} N} O} w( P} Q} R} S} !% T} U} V} W} X} Y} Z} 6< `}  | .| +| @| #| $| %| &| *| =| -| ;| >| ,| '| )| !| ~| {| ]| ^| /| (| _| :| <| [| }| || 1| 2| E~ 3| *_ 4| ,< 5| M@ 6| 7| 8| 9| 0| a| b| c| d| e| f| g| h| i| j| k| l| m| n| o| p| q| r| s| t| u| v| w| x| y| z| O( A| B| C| [^ D| E| F| G| H| I| J| K| L| M| ",
"N| O| P| Q| R| S| T| U| V| W| X| Y| Z| 7{ `|  1 .1 V^ +1 @1 #1 $1 %1 &1 *1 =1 -1 ;1 >1 ,1 '1 )1 W] !1 ~1 {1 ]1 7[ ^1 /1 (1 _1 :1 <1 R- [1 }1 |1 11 21 31 41 51 61 71 81 91 01 a1 D& b1 c1 :: d1 e1 f1 g1 h1 i1 j1 k1 l1 m1 n1 o1 p1 q1 r1 s1 t1 u1 v1 w1 x1 y1 z1 A1 B1 C1 D1 E1 F1 G1 H1 I1 J1 _1 K1 L1 M1 N1 [; O1 P1 Q1 R1 S1 T1 .{ U1 V1 W1 m% X1 Y1 Z1 `1  2 .2 +2 @2 #2 $2 %2 &2 *2 =2 -2 ",
";2 >2 ,2 '2 )2 !2 ~2 {2 ]2 ^2 /2 (2 _2 :2 <2 [2 }2 |2 12 l_ 22 32 42 52 62 72 82 92 02 a2 b2 c2 d2 e2 f2 g2 h2 i2 j2 k2 <} l2 m2 n2 o2 p2 q2 r2 s2 t2 u2 v2 w2 x2 y2 z2 A2 B2 C2 D2 E2 F2 G2 H2 I2 J2 K2 L2 M2 N2 O2 P2 Q2 R2 S2 T2 U2 V2 W2 X2 Y2 Z2 M) `2  3 .3 +3 @3 #3 $3 %3 &3 *3 =3 -3 ;3 >3 R< ,3 '3 )3 !3 ~3 {3 ]3 ^3 /3 (3 _3 :3 <3 [3 }3 |3 13 23 33 43 53 63 73 83 93 03 a3 b3 c3 d3 ",
"e3 f3 g3 h3 i3 j3 k3 l3 m3 n3 o3 p3 q3 r3 s3 l' t3 u3 v3 t# w3 x3 y3 z3 A3 B3 C3 D3 E3 F3 G3 H3 I3 J3 K3 L3 M3 N3 O3 P3 Q3 R3 /# q= S3 T3 7# U3 V3 ]@ W3 X3 Y3 Z3 `3  4 .4 +4 @4 #4 $4 %4 &4 *4 =4 -4 ;4 >4 ,4 '4 )4 !4 ~4 {4 ]4 R] ^4 k< /4 (4 _4 :4 <4 w3 [4 }4 |4 14 24 34 44 54 64 74 84 94 04 a4 b4 c4 d4 e4 f4 g4 h4 i4 j4 k4 l4 m4 n4 o4 p4 q4 r4 s4 t4 u4 v4 w4 x4 y4 z4 A4 B4 A. C4 D4 ",
"E4 F4 G4 H4 I4 J4 K4 L4 M4 N4 O4 P4 %. Q4 R4 S4 T4 U4 V4 W4 X4 Y4 Z4 `4  5 .5 +5 @5 #5 $5 g+ %5 &5 *5 =5 -5 ;5 >5 P# ,5 '5 )5 !5 << ~5 {5 ]5 ^5 /5 (5 _5 :5 <5 [5 $4 }5 |5 15 25 35 45 55 65 75 85 95 05 a5 b5 c5 d5 e5 f5 g5 W^ h5 i5 j5 k5 l5 m5 n5 o5 p5 q5 r5 s5 3} t5 u5 v5 w5 x5 y5 z5 A5 B5 C5 54 D5 E5 F5 G5 H5 I5 J5 K5 [} L5 C[ %; M5 N5 O5 P5 Q5 R5 S5 T5 U5 V5 W5 X5 Y5 k} Z5 `5  6 ",
".6 +6 @6 #6 $6 %6 &6 *6 R& =6 d} -6 ;6 >6 ,6 '6 )6 !6 ~6 {6 ]6 ^6 /6 y3 (6 _6 :6 <6 [6 }6 |6 16 26 36 46 56 66 76 86 96 06 a6 b6 c6 d6 e6 f6 L$ g6 h6 i6 j6 k6 l6 &@ m6 n6 o6 /= p6 q6 r6 s6 t6 u6 v6 w6 x6 y6 z6 A6 B6 C6 D6 E6 F6 G6 H6 I6 J6 K6 :2 L6 M6 N6 O6 P6 Q6 R6 S6 T6 U6 V6 W6 X6 Y6 Z6 `6  7 .7 +7 @7 #7 $7 %7 S! &7 *7 =7 -7 ;7 >7 ,7 '7 F: )7 !7 O& ~7 {7 ]7 ^7 /7 (7 _7 :7 <7 [7 ",
"}7 |7 17 27 37 47 57 67 77 87 97 07 a7 b7 c7 d7 e7 f7 g7 h7 i7 j7 k7 l7 m7 n7 o7 p7 q7 r7 s7 t7 u7 v7 w7 x7 y7 z7 A7 B7 C7 D7 E7 F7 _+ G7 h~ H7 I7 J7 K7 L7 M7 N7 O7 P7 Q7 R7 S7 T7 J4 U7 V7 W7 X7 Y7 Z7 `7  8 .8 +8 @8 #8 $8 %8 &8 *8 =8 -8 q5 ;8 >8 ,8 V} '8 )8 I' !8 ~8 {8 ]8 ^8 /8 (8 _8 :8 <8 [8 }8 |8 18 28 38 48 58 68 G{ 78 88 98 08 B[ a8 b8 c8 d8 e8 f8 g8 h8 i8 j8 k8 l8 92 m8 ;= n8 ",
"o8 p8 q8 r8 s8 t8 u8 ^2 v8 w8 x8 y8 z8 A8 B8 C2 C8 D8 E8 F8 G8 1< H8 I8 &: J8 K8 L8 M8 N8 O8 P8 Q8 R8 S8 T8 U8 V8 W8 X8 Y8 Z8 `8  9 .9 +9 @9 #9 $9 %9 &9 v@ *9 0* =9 -9 ;9 >9 ,9 '9 r= )9 !9 ~9 {9 ]9 ^9 /9 (9 _9 :9 <9 [9 }9 |9 19 29 39 49 59 69 79 89 99 09 a9 b9 c9 d9 e9 f9 g9 h9 i9 j9 k9 l9 m9 n9 o9 p9 q9 r9 s9 t9 u9 &7 v9 w9 x9 y9 z9 A9 B9 C9 D9 E9 F9 G9 H9 I9 J9 K9 L9 M9 N9 O9 P9 ",
"Q9 R9 S9 T9 U9 V9 W9 c7 X9 Y9 h6 Z9 `9  0 .0 +0 @0 r% #0 $0 %0 n[ &0 *0 =0 -0 ]% ;0 >0 ,0 '0 )0 !0 ~0 {0 ]0 ^0 /0 (0 _0 :0 N  <0 [0 }0 |0 10 20 30 5/ 40 50 60 70 80 90 00 a0 b0 c0 d0 e0 f0 g0 d} h0 i0 j0 k0 l0 m0 n0 o0 p0 q0 r0 s0 39 t0 u0 v0 w0 x0 y0 z0 A0 B0 C0 D0 E0 F0 G0 H0 I0 J0 K0 L0 M0 N0 O0 P0 Q0 R0 S0 T0 U0 V0 W0 X0 Y0 Z0 `0  a k, .a V! )7 +a @a #a $a %a &a =, *a =a -a ;a ",
">a ,a 'a )a !a ~a {a ]a ^a O& /a (a _a :a <a [a }a |a 1a 2a 3a 4a 5a 6a 7a 8a 9a 0a aa ba ca da ea fa ga ha ia ja j@ ka la ma na i4 oa pa qa ra sa ta ua va wa xa ya za Aa Ba 39 39 Ca Da Ea m3 Fa Ga Ha Ia 49 Ja 39 39 5{ Ka La Ma Na 39 39 39 Oa Pa Qa Ra Sa Ta Ua Va Wa Xa Ya Za `a  b .b +b @b #b $b %b &b *b =b -b ;b >b ,b 1# 'b )b U/ !b ~b {b ]b ^b /b <_ (b _b :b <b [b }b <_ |b 1b 2b ",
"3b 4b 5b 6b 7b 8b 9b 0b ab `! bb cb db eb fb gb hb ib jb kb lb mb nb ob pb 2= qb rb sb tb ub vb wb xb yb zb Ab Bb Cb Db Eb .% Fb Gb Hb Ib Jb Kb 39 Lb m0 Mb Nb y8 Ob Pb Qb Rb Sb Tb [^ Ub Vb Wb F| Xb Yb Zb 39 `b  c .c )$ +c @c #c $c 39 %c &c *c =c -c ;c >c 2> ,c E: 'c )c !c ~c {c ]c ^c /c (c _c :c <c [c }c |c #7 1c 8! X= 2c 3c 4c 5c Z$ 6c 7c 8c 9c 0c ac bc <b cc dc ec fc gc hc ic jc ",
"0c w2 kc lc mc nc oc pc qc R@ Z7 rc sc tc uc vc uc l[ =c wc xc y^ yc zc Ac S1 H5 Bc Cc Dc Ec Fc Gc Hc Ic Jc Kc Lc Mc Nc Oc Pc Qc Rc Sc Tc Uc Vc 39 39 39 39 39 Wc Xc Yc Zc `c  d .d 39 39 +d @d #d $d %d &d *d 39 39 =d -d ;d >d ,d i+ 39 'd )d !d ~d 3} {d ]d ^d /d (d _d :d <d [d }d |d 1d 2d 3d 4d 5d 6d 7d 8d 9d 0d ad bd cd dd ed fd gd hd id jd kd ld md nd od pd qd rd sd td ud S5 vd wd ",
"xd yd zd Ad Bd Cd Dd Ed Fd Gd Hd Id Jd Kd Ld Md Nd Od Pd Qd Rd [} Sd Td '( Ud Vd Wd Xd Yd Zd `d  e .e +e @e #e $e %e &e *e =e -e ;e >e ,e 'e )e 39 !e ~e {e ]e ^e /e (e _e :e 39 <e [e }e |e 1e 2e 3e 4e 5e w2 6e 7e 39 8e 9e 0e ae be ce de ee fe ge he ie je ke le me ne oe pe qe re se te ue ve we xe c4 ye ze Ae Be Ce De 4_ 7_ Ee e. Fe Ge He nb Ie Je Ke Le Me Ne Oe Pe <b Qe Re Se Te Ue ",
"Ve We Xe Ye s4 Ze `e  f .f +f @f r% #f $f %f &f *f =f =f -f ;f M< >f ,f 'f )f !f ~f {f ]f ^f /f (f _f :f <f [f }f |f 1f =e 2f 3f 4f 5f 6f 7f /+ 8f 9f 0f 39 39 af bf ;{ cf df ef ff 39 39 Ja gf hf if jf kf 39 39 Nb lf mf nf of pf qf rf Ca 39 sf r& tf g) S  uf e/ vf wf xf yf zf Af Bf Cf Df Ef Ff Gf Hf If Jf Kf Lf Mf C7 Nf Of W= Pf Qf Rf Sf o, Tf Uf Vf Wf Xf Yf Zf `f  g .g +g @g #g $g ",
"%g &g *g =g -g ;g >g ,g 'g )g !g ~g {g z. ]g ^g /g (g 5% _g :g <g [g }g Va |g 1g 2g 3g 4g 5g 6g 7g 8g 9g 0g ag bg cg ze dg eg fg gg hg ig jg kg lg mg ng og pg qg rg sg tg ug vg wg xg yg zg zg f% Ag Bg Cg Dg Eg }3 >g Fg h% Gg qc Hg s# W1 Ig Jg Kg Lg Mg Ng Og Pg Qg Rg Sg Tg Ug Vg Wg Xg Yg Zg `g  h .h +h @h #h $h  : %h &h T0 *h =h S' -h ;h y9 >h ,h 'h )h !h ~h {h ]h ^h /h (h _h :h <h ",
"[h }h |h 1h L$ 2h 3h !& +$ _< ). }& 4h 5h 6h Z# 7h 8h 8h 9h 0h ah bh ch dh eh fh gh hh ih c$ jh ,# kh lh mh nh oh ph qh rh sh th 0< 8/ uh y9 }0 vh wh xh yh zh Ah Bh Ch Dh Eh Fh Gh Hh Ih Jh Kh Lh Mh Nh Oh Ph Qh c8 Rh Sh Th Uh Vh Ua Wh Xh Yh Zh `h  i .i +i @i #i $i %i &i *i =i -i ;i >i ,i 'i )i !i ~i p( {i ]i ^i /i (i :g _i :i <i [i }i |i 1i 2i 3i 4i 5i 6i 7i 8i 9i 0i ai bi ci di ei ",
"fi gi hi ii ji ki li mi ni oi 2' pi qi ri si ti ui vi wi xi yi zi <} Ai Bi Ci Di Ei Fi Gi Hi Ii Ji Ki Li Mi Ni Oi o^ Pi Qi ~5 Ri Si Ti Ui c6 Vi Wi Xi Yi Zi `i  j `' .j +j @j #j $j %j &j *j =j -j ;j >j ,j 'j )j !j ~j {j ], ]j ^j h| /j (j _j s) :j <j [j }j |j 1j 2j 3j 4j 5j 6j 7j 8j 9j 0j ,# aj bj cj dj ej fj gj %: hj ij jj kj lj ,, mj nj oj pj qj rj sj tj uj vj Je wj xj yj zj Aa Aj ",
"Bj Cj Dj Ej Fj Gj Hj Ij Jj Kj Lj H$ Mj Nj Oj Pj Qj Rj Sj Tj Uj Vj Wj Xj Yj Zj `j  k .k +k @k #k aj i$ $k H% %k &k *k =k -k ;k 1a >k ,k 'k Ua w+ )k !k ~k {k ]k ^k /k (k _k :k <k [k }k |k 1k 2k 3k 4k 5k 6k 7k 8k 9k 0k ak e% bk ck dk ek fk gk hk ik jk kk R$ lk u; mk nk ok pk qk rk )i sk tk uk vk wk xk yk zk Ak Bk Ck Dk /i Ek Fk Gk Hk =; Ik Jk Kk Lk `* ]e Mk Nk Ok Pk Qk Rk Sk Tk Uk Vk ",
"Wk Xk Yk Zk `k  l .l h> +l @l #l $l %l &l *l =l -l n@ ;l m) >l ,l 'l )l !l ~l 5g {l ]l ^l /l (l I/ _l :l <l [l }l |l 1l j4 2l pa 3l 4l 5l 6l f~ %, 7l 8l 9l 0l al bl cl dl el fl gl hl il jl kl ll ml nl ol Hh pl ql rl sl tl ul vl wl xl V* yl zl 'k Al Bl Cl Dl qh El Fl 3g Gl Hl lh Il Jl Kl Ll Ml Nl -- Ol Pl 7) Ql x( Rl Sl Tl Ul ;: Vl Wl Xl Yl Zl `l  m *f .m +m @m #m $m %m &m *m =m -m ",
";m >m ,m 'm )m !m ~m {m ]m ^m /m (m _m :m <m [m }m |m >f 1m 2m 3m 4m 5m 6m $} V, 7m &* 8m 9m u! `) H* 0m am bm cm dm em fm gm hm im jm km h) lm mm nm om p2 %, pm qm l- rm sm tm um vm wm xm ym zm `0 Am Bm Cm Dm Em Fm Gm Hm Im Jm Km <j Lm Mm Nm Om Pm Qm Rm Sm Tm Um Vm Wm Xm Ym Zm `m X~ }~  n .n +n @n #n $n %n em &n *n =n -n ;n >n ,n Ib 'n )n !n ~n O! {n ]n ^n /n (n _n :n <n [n }n |n ",
"1n 2n 3n 4n 5n 6n 7n 8n 9n 0n wl an bn cn Zl dn en fn Z- gn hn in jn kn ln mn nn on pn ;# Nl H% qn rn sn @n tn o{ un vn wn xn yn zn An Bn Cn Dn En Fn Gn Hn In Jn Kn Ln Mn E; Nn On Pn Qn Rn Sn Tn Un Vn Wn Xn Yn Zn `n  o .o +o P$ @o #o $o %o &o R0 *o =o -o ;o >o ,o 'o )o !o ~o {o ]o ]] ^o /o (o _o j^ C- :o <o [o }o |o ^> 1o 2o 3o 4o s$ 5o 6o N> 7o 8o 9o 0o ao Q' bo co do eo fo go ho ",
"io jo ko =7 lo mo no oo po qo 8c ro so to uo vo wo xo yo )( zo Ao Bo Co Do Eo Fo Go Ho Io Jo Ko Lo Mo No Oo Po E/ s' Qo Ro So x! To Uo Vo p^ Wo Xo 0h 9l Yo Zo `o  p .p +p @p #p $p %p &p *p =p -p ;p >p ,p 'p )p !p ~p {p ]p ^p /p (p _p :p <p ]^ [p }p |p 1p 2p 3p 4p 5p 6p ih 7p 8p 9p +! 0p ap D- n{ bp cp dp ep >> fp I> gp hp ip jp zn kp s^ lp E( mp np op pp qp rp sp tp up vp wp xp yp ",
"zp Ap Bp Cp Dp Ep Fp Gp Hp Ip Jp Kp Lp Mp gl Np Op Pp Qp Rp Sp Tp k  -i Up Vp Wp Xp Yp Oo q! Zp `p  q A> .q +q @q #q B- $q %q &q i[ *q =q -q ;q >q ,q 'q )q !q ~q {q ]q ^q /q (q _q :q <q [q }q |q 1q 2q 3q 4q 5q 6q 7q 8q 9q 0q aq bq cq dq eq fq &e O, gq hq iq jq kq lq mq 9& nq oq pq qq Ll w' rq u' sq tq :o #n 7, uq vq wq xq yq zq Aq Bq Cq Dq Eq Fq Gq Hq Iq Jq Ap Kq Lq Mq ;{ Nq Oq Pq ",
"Qq Rq Sq Tq Uq Vq Wq Xq F, Yq Zq `q  r .r +r @r #r g] $r %r L6 &r *r z} =r -r ;r >r ,r 'r )r qq !r ~r {r ]r ^r /r 3, (r A- _r :r <r M* [r }r |r m% 1r 2r 3r 4r 5r 6r 7r 8r 9r 0r ar br cr dr er fr gr hr =6 ({ ir jr kr lr mr nr or pr 1i qr y% rr sr tr ur vr wr V^ xr yr zr Ar Br Cr Dr Er Fr ~r Gr Hr O] Ir t' Ll >* w' Jr Kr Lr Mr Nr Or Pr Ul Qr Rr Sr Tr Ur s& Vr Wr Xr Yr Zr `r  s .s +s ",
"@s #s $s %s &s *s =s -s ;s >s ,s 's )s !s Sl ~s {s ]s ^s /s (s _s :s <s [s }s |s 1s h! 2s 3s 4s 5s 3, 6s 7s 8s 9s 0s as bs cs ds es fs gs hs is js ks ls :i ms ns os ps qs rs ss ts us vs ws xs ys zs As Ln Bs Cs Ds Es Fs Gs !q Hs Is Js Ks Ls Ms w* Ns Os Ps Qs Rs Ss Ts Us Vs Ws Xs Ys Zs `s  t Ir .t +t @t #t )* ;* $t 6; %t &t *t =t y! -t Or ;t >t ,t >^ Ng n~ 't )t g0 !t M7 ~t {t ]t ^t ",
"/t (t _t :t <t [t 3- }t |t !{ 1t 2t O$ 3t S* 4t 5t 6t 7t 8t 9t 0t at r> bt ct dt et ft gt ht it jt kt J] ~r lt :o qq jt mt nt ot pt qt wq rt &n st tt ut vt wt xt |# yt zt ;; At Bt Ct Dt =p Et Ft Gt Ht It Jt Kt Lt Mt Nt Ot J$ Pt :5 Qt 7h Rt >b St Tt Ut Vt Wt Xt Yt Zt `t  u .u +u @u '~ #u $u %u &u %u *u =u -u ;u 7, >u Y) pt ,u 'u )u U/ !u ~u (' |% {u ]u ^u /u (u _u :u <u `' [u }u |u ",
"1u 2u 3u 4u 5u 6u 7u 8u 9u 0u au bu cu du eu fu gu hu iu ju ku lu 22 mu nu ou pu qu ru su tu uu vu +k wu xu yu zu )* Au ~r Bu Cu Du Eu Fu Gu Hu Iu Ju Ku 5f Lu :b Mu Nu Ou Pu Qu Ru {n Su `n Tu Uu Vu Wu Xu Yu Zu `u  v .v +v @v #v #@ $v l& ]d %v &v *v =v -v ;v >v F~ ,v 9{ 'v )v !v ~v {v ]v ^v /v (v Oo _v :v <v xu [v 0= }v |v 1v 2v 3v 4v 5v 6v 7v R+ 8v Tj 9v 0v av bv cv dv  & ev fv gv ",
"hv iv rj jv kv lv mv nv ov pv ,( ]{ qv rv sv tv uv Uo vv L9 wv xv yv zv Av Y( Bv Cv Dv Ev Fv Gv Hv p! Iv Jv j! Kv _~ Lv Mv Nv Ov Pv Qv Rv Sv Tv %3 Uv Vv Wv Xv Yv Zv V$ `v  w .w +w @w #w $w %w &w *w =w -w ;w >w ,w 'w )w !w ~w {w ]w W1 Y< ^w /w (w _w :w <w [w }w |w 1w 2w 3w 4w 5w 6w 7w 8w T) 9w 0w #> v' *u aw bw cw #' Qv 8; dw ew fw gw 4v /< E0 hw /} iw jw U5 kw lw mw nw ow pw qw rw ",
"sw tw uw vw ww xw yw zw Aw Bw Cw Dw eg -( Ew Fw Gw :^ Hw `1 Iw Jw Kw Lw Mw Nw Ow Pw Qw Rw Sw Tw Uw Vw Ww Xw Yw Zw `w  x .x +x @x ]o #x D* $x %x &x Oi *x =x !u 5l R} -x ;x >x ,x 'x )x @w !x ~x {x ]x oo ^x /x (x _x :x <x [x ], Gg zc }x |x 1x 2x 3x |4 4x 5x 6x 7x 8x 9x 0x ax bx &/ cx dx ex fx gx hx ix c{ jx kx E/ lx mx nx ^] ox px qx rx sx Mr &: tx ux vx wx xl xx yx zx Ax Bx 3u Cx Dx ",
"Ex Wq Fx Gx Hx Ix Jx Kx Lx Mx l# b) /; Nx Ox Px q4 Qx Rx Sx Tx Ux Vx Wx Xx Yx Zx `x  y .y +y @y #y $y %y &y *y =y -y ;y >y ,y 0&  > 'y )y l( !y ~y {y ]y ^y /y (y _y :y O& He <y [y }y |y Pq Q; 1y L= e- 2y 3y 4y 5y 6y ]x 7y 8y 9y 0y ay by cy dy ey fy gy hy iy jy ky ly my ny oy py qy ry sy ty uy vy wy xy yy zy Ay By k( Cy Dy Ey Fy Gy Hy Iy Jy L< Ky l  Ly My Ny Oy Py Qy Ry Sy Ty Uy Vy ",
"Wy Xy Yy Ek Zy +9 [3 `y Rh  z .z +z @z #z $z %z &z *z O. =z -z 5! [  ;z c5 >z ,z 'z Xx )z !z ~z {z ]z 0p ^z /z (z _z :z <z [z '_ }z |z By 1z 2z 3z 4z 5z 6z 7z 8z 9z 0z az bz cz dz ez fz gz hz iz s. jz Y0 kz wo lz mz nz oz pz qz rz sz tz uz vz wz xz yz zz U4 Az Bz Cz Dz Ez Fz Gz Hz Iz Jz Kz zy Lz Mz Nz Oz Pz Qz Rz Br Sz G< Tz Uz Vz Wz Xz Yz Zz `z  A .A +A @A Xv #A $A %A &A *A =A h# ",
"W+ ip -A ;A >A ,A 2+ 'A )A !A ~A {A ]A ^A /A (A 'g _A vv :A <A [A }A K: |A r3 1A 2A 3A 4A 5A 6A 7A 8A 9A 0A aA bA cA i! dA eA fA gA hA iA jA kA (z lA mA nA oA pA 8z qA Q4 [/ rA sA tA uA vA wA +r xA yA zA AA Is BA CA DA EA FA GA HA IA JA KA LA MA NA OA PA QA RA SA TA UA VA WA j5 XA YA ZA `A  B .B +B @B #B $B %B &B *B =B -B D% ;B >B Ws ,B 'B )B !B ~B {B ]B ^B /B 0< @* (B !b $^ 7c _B ",
":B <B [B }B |B >( 1B 2B @i 3B 4B 5B 6B 7B 8B jd 9B 0B aB bB cB >A dB eB fB gB hB iB jB kB lB mB nB oB pB qB rB 8w iA sB tB uB vB wB xB yB zB AB BB CB DB EB FB GB HB IB JB KB LB MB NB 5a OB PB QB RB SB TB UB _& I( VB WB XB YB ZB c0 `B  C Im .C +C @C Y{ #C $C %C &C *C =C -C ;C A] s} >C ,C 'C )C !C ~C {C ]C ^C /C (C _C :C <C G< [C }C |C 1C 2C 3C 4C 5C 6C 7C 8C 9C eg 0C aC !5 bC cC hw ",
"=! dC [} eC fC %, gC J' hC iC jC kC lC mC *0 nC oC pC qC rC sC tC uC vC wC xC yC =| zC AC BC ;1 CC DC  < EC FC GC HC IC Y( JC KC LC MC NC OC PC QC RC u] x1 SC TC UC VC WC 8b XC YC }r ZC he `C  D .D +D @D #D $D {B %D &D *D =D Is -D ;D >D 6> ,D 'D )D !D ;[ zz ~D {D ]D ^D /D (D _D :D <D [D }D |D 1D 2D 3D 4D 5D 6D 7D 8D 9D 0D aD bD 2C cD dD 1; eD fD gD hD iD jD kD lD mD m= WB nD 9b v* ",
"oD pD qD rD !d sD *[ tD uD vD wD xD u| yD zD AD BD CD DD ED FD GD c0 HD ID O4 JD KD LD MD ND OD PD QD [D RD SD TD UD VD WD XD YD ZD `D  E .E +E @E #E $E w1 %E &E *E =E -E ;E >E ,E 'E )E !E ~E {E ]E ^E /E (E _E :E <E [E }E ~u |E v% 1E 2E 3E 4E Yk 5E 6E 7E gy 8E 9E 0E aE bE cE r3 dE eE fE gE hE iE jE kE lE mE nE oE pE G~ 4^ qE rE sE tE uE vE T, wE #1 xE yE zE AE BE CE DE EE FE 42 GE ",
"HE IE 9} JE KE LE ME NE OE PE 8_ QE RE SE TE UE VE WE XE YE ZE `E  F .F m3 +F +F @F K4 #F $F %F &F *F =F -F VD ;F >F r/ v1 ,F 1A 'F )F !F ~F {F *} l5 ]F ^F *F /F (F _F :F <F [F }F |F 1F 2F 3F 4F 5F 6F 7F 8F rD '8 9F 0F aF rr bF cF dF Jj eF fF gF hF iF P6 jF $m kF lF mF nF oF pF qF rF sF tF uF vF wF xF yF zF AF BF CF AF DF EF FF ,< GF HF *~ IF JF KF $~ LF MF NF OF 54 PF QF R4 RF 4A ",
"SF g5 TF UF VF WF XF YF ZF `F {u Ge nm  G .G +G @G AD #G $G L. 0e %G A| &G *G =G -G ;G >G bb ,G ., 'G )G !G ~G {G ]G ^G /G (G _G :G <G [G }G |G 1G 2G 3G 4G 32 5G 6G 7G 8G 9G 0G aG bG cG dG eG #3 fG gG hG iG jG kG lG mG nG ed oG pG qG rG U1 n4 sG f5 tG uG vG wG Z1 xG d} yG (a g8 zG AG BG CG DG EG FG GG HG IG JG KG LG MG 7A b1 NG JG OG PG QG RG SG TG UG VG WG XG YG jD ZG `G  H .H +H ",
"@H #H $H %H &H :8 *H =H -H ;H kv >H h) ez ,H ;f 'H )H !H ~H {H ]H o0 ^H /H (H _H :H <H [H }H |H 1H 2H 3H F} 4H :( 5H 6H 7H 8H 9H 0H aH bH cH dH eH A} fH gH hH iH jH kH lH mH nH oH pH qH rH sH tH uH vH wH xH yH zH AH BH CH }. DH EH FH X> GH sG HH IH JH KH LH MH NH OH PH QH RH SH TH UH VH WH XH YH ]2 ZH `H i3  I .I j} XD ;F +I @I #I $I %I &I *I =I -I ;I >I ,I 'I )I !I ~I {I ]I ^I /I ",
"(I _I :I <I [I }I Fw |I B^ 1I E7 -@ 2I b) 3I 4I 5I 6I 7I 8I 9I 0I aI bI &. :H cI dI eI fI gI K@ Y2 hI iI iy jI kI 7( lI mI nI oI pI qI rI sI tI uI vI wI xI yI zI AI BI CI DI EI 46 FI GI M3 FI HI II JI KI LI MI NI OI PI QI RI SI cn TI UI VI WI m% XI YI ZI `I .g  J .J +J @J #J $J %J &J *J 15 =J !4 ~9 -J ;J >J ,J 'J mF )J !J ~J {J ]J ^J _2 /J hH (J _J |4 :J <J [J }J |J 1J 2J 3J 4J 5J ",
"6J 7J 8J M3 9J 0J aJ bJ cJ dJ eJ fJ gJ hJ b! iJ jJ kJ lJ mJ nJ oJ pJ qJ e7 rJ =z sJ tJ uJ vJ wJ xJ yJ zJ 0b .2 AJ BJ l+ CJ DJ Q  EJ FJ GJ HJ IJ JJ KJ LJ MJ NJ OJ CI PJ QJ /y RJ SJ TJ UJ v5 VJ WJ XJ YJ ZJ `J  K .K +K @K #K #( $K %K &K eu *K [1 =K -K ;K >K cI ,K 'K r/ )K !K ~K {K ]K ^K /K (K _K :K sd <K [K }K (H |K 1K 2K 3K O} 4K 5K 6K 7K 8K 9K ;I $C 0K ~: aK e2 bK cK _F dK eK fK gK ",
"hK iK v7 jK kK lK mK nK oK pK qK Bn rK sK  - tK uK $z vK wK 4E _  u3 xK yK zK AK BK ^$ CK DK EK q# 07 FK GK HK IK JK .2 KK ct LK @2 MK NK OK PK QK RK SK TK h[ Kk UK VK WK v* XK YK ZK `K  L .L +L @L #L $L %L &L aJ *L =L -L ;L >L ,L 'L )L {m !L ~L {L ]L ^L /L (L _L :L <L [L }L |L 1L 2L b* 3L =9 4L 5L 6L 7L 8L 9L 6L 0L s< aL bL Y7 cL dL eL fL gL hL p/ c  iL jL kL lL mL nL oL pL qL rL ",
"sL tL uL vL wL xL yL u$ zL AL BL Ix <  CL DL EL *z FL GL HL E& IL JL KL =z LL ML NL OL PL QL RL SL TL UL VL WL XL YL ZL `L  M .M 83 c7 +M @M #M $M %M &M *M =M -M ;M >M ,M _i 'M )M !M ~M {M ]M ^M /M (M _M :M Mc <M [M }M |M 1M 2M 3M 4M (3 5M 6M 7M 8M 9M 0M aM bM cM dM eM fM gM hM iM jM kM lM mM ME nM i' oM pM I@ qM rM sM tM p5 @J uM vM wM xM yM zM AM BM CM DM EM FM GM HM IM JM KM LM ",
"MM NM 2v #e [c OM %) PM QM RM SM TM (. Y] UM 3F VM WM GD XM YM ZM `M  N eI .N +N @N UL #N $N o% %N &N *N %I VH =N -N ;N >N ;. ,N 9} 'N )N !N ~N A0 -@ A; {N ]N ^N /N (N _N De :N <N [N }N |N 1N 2N 3N 4N 5N u* 6N 7N 8N 9N 0N aN -H bN '^ cN dN eN fN gN hN iN jN aM kN lN mN GF UF C5 nN oN e  pN qN rN A| TL sN tN uN vN wN xN yN zN =| AN BN CN DN EN FN z. m# AD GN HN IN JN KN LN MN NN ON ",
"PN QN RN SN 4t TN UN VN WN :0 XN J5 YN +| ZN `N >D Pd 8% jf  O #m .O G. +O @O #O F8 $O %O &O *O =O -O ;O >O ,O 'O #: .J )O `1 !O ~O {O ]O ^O /O (O >@ _O :O <O [O }O |O Be 1O 2O 3O 4O 5O 6O 7O 8O 9O 0O aO bO cO 3. dO eO fO gO hO iO jO vj kO Cl lO mO nO 82 oO pO qO rO sO tO uO vO wO xO yO zO AO BO CO DO xJ EO FO GO HO IO JO cM KO LO MO NO OO PO QO RO 3' SO O^ IN TO +K UO VO WO XO YO ",
"ZO `O  P .P V8 +P xL @P #P $P %P &P *P =P -P ;P >P ,P pD 'P C$ )P GD !P ~P {P ]P ^P /P (P _P ^O :P <P [P }P |P 3F 3x dn %C %l 1P 2P =9 pD 3P 6+ 4P 5P 6P 7P 8P 9P 0P aP bP -H cP dP eP fP gP hP iP jP e@ kP lP mP nP oP pP .K qP S0 &P rP sP tP uP vP :E wP xP yP zP AP BP CP DP EP FP GP HP IP JP KP {O LP 3b MP NP OP PP QP qc RP SP R@ $I TP UP VP WP 7t OP XP YP ZP `P j;  Q .Q +Q @Q #Q $Q ",
"%Q &Q *Q =Q -Q 5N ;Q >Q ,Q 'Q )Q !Q ~Q {p ^b {Q ]Q  C ^Q /Q (Q ^E _Q :Q <Q [Q }Q |Q 1Q 4% 2Q 3Q kF 4Q 5Q 6Q rN z4 a0 7Q 8Q i% 9Q 0Q aQ O& bQ cQ dQ eQ fQ gQ hQ iQ jQ kQ lQ mQ nQ oQ pQ qQ rQ sQ tQ uQ vQ L# J> wQ xQ _0 yQ yL zQ S# AQ &o Sc BQ CQ DQ EQ !; FQ GQ HQ qz IQ JQ KQ LQ MQ NQ OQ Fa PQ QQ RQ SQ TQ UQ VQ WQ XQ YQ ZQ `Q  R .R +R @R #R ~9 $R r[ %R &R Gg BA *R =R LN WN -R ;R >R ,R ",
"'R )R I> !R ~R {R ]R ^R /R (R _R :R R> PI <R h# [R }R |R 1R G! %l C$ 0~ 2R Z@ 3R >9 4R 5R 6R 7R 8R 9R o+ 0R aR bR cR >( (@ Og dR eR fR hJ gR hR iR jR 13 kR lR mR nR oR pR qR rR sR 'o tR Wp uR vR H+ wR xR yR zR $e VN AR UN BR CR DR ~+ O{ ER FR GR uh HR IR JR KR LR MR NR OR HP PR QR RR SR TR UR 9- VR WR XR YR ZR +f +c `R $M  S NR .S +S @S #S $S %S &S *S o$ =S -S 58 ;S >S ,S 'S )S !S ",
"~S {S gD ]S ^S /S (S _S :S <S W= An [S }S |S 1S ]n 2S 3S 4S 5S 6S 7S 8S 9S B= 0S aS bS cS dS 2' eS {D fS gS hS iS jS kS lS mS }1 nS oS pS I; qS ;h ld rS sS tS *h uS vS wS xS yS zS zB AS BS CS Jl Jl DS ES V] FS GS }< HS IS JS KS LS t^ MS NS k| OS PS !s QS RS SS 6l TS US =. VS WS XS YS ZS (m `S 47  T .T +T fR  S @T #T 8- $T Yh %T &T *T =T R& (  Z_ -T ;T >T ,T 'T 9N )T !T ~T {T ]T ^T ",
"/T (T _T :T <T [T Nr k& }T qP |T 1T (p 2T [< 3T 4T 5T 6T 7T 8T 9T Q= 0T aT bT cT 4k dT eT fT gT hT iT jT kT lT mT nT oT N$ pT s@ qT O; rT sT tT uT vT wT xT yT zT AT M{ BT CT DT E% ET FT GT +> i= _r HT I% IT JT M* KT LT ;+ MT NT OT PT QT RT ST TT UT VT WT 9_ XT YT ZT `T  U M! .U +U @U #U Eg $U %U &U 1+ *U %S =U -U 4' %G Yy ;U >U ,U 'U )U !U ~U rv {U Og ]U ^U /U A+ (U _U :U z* <U [U ",
"}U Li Mo |U 1U 2U 3U 4U 5U 6U 7U 8U H^ 9U 0U aU bU [- Dp }u cU dU eU fU gU hU iU d~ jU kU l% lU mU t^ nU oU %l pU J. qU rU sU tU uU Xn vU wU <. xU yU zU AU BU CU DU EU FU 5| GU HU C* }v IU Li >> <o JU KU xk LU MU )u NU %: +: OU Ek PU QU Y0 RU SU TU }- UU VU WU ~u XU YU ZU `U  V .V +V @V #V $V hi %V $l &V *V p4 Oj =V -V ;V >V ,V 'V )V !V ~V {V ]V ^V oa ne t  /V (V +7 _V nn Xm :V <V ",
"_r _r >> [V !r }V |V M* z! 1V V. #{ 2V 3V 4V @T 5V 6V 7V 8V 9V 0V aV bV cV dV At eV fV gR gV hV iV jV kV lV mV nV oV pV qV rV sV tV uV (# vV FO wV M} xV yV zV AV BV CV 3^ DV ET EV pt ]o X~ FV  n GV HV IV Ll JV KV LV MV NV OV PV B! QV RV SV TV O{ UV VV WV XV vT YV ZV `V  W .W +W @W oJ J. #W n4 $W %W gU &W *W =W -W ;W >W ,W 'W )W Jg !W ~W {W ]W ^W /W (W _W 3. :W <W [W F# }W |W 1W qq ",
"2W h= Mo [V _r J* 3W 4W 5W )- 6W KA b/ 7W 8W 9W 0W aW bW cW Vu dW eW fW gW hW iW jW [= kW lW mW 7# gT nW  J oW pW qW rW  D eq sW _N tW Si uW vW )L wW xW yW zW AW BW Z2 CW DW EW FW GW HW +> IW 0m No JW KW LW MW #n NW OW PW QW RW e9 SW TW UW VW 2B WW XW =R YW ZW `W  X .X +X @X %A ]' 6V #X $X %X &X *X =X -X ;X Ge >X ,X v# 'X PT )X !X uK ~X {X ]X ^X /X (X mk _X :X /f <X k( [X }X |X G* ",
"0m #q 1X 2X 3X 4X 5X 6X 7X Uo 8X Ee $h 9X 96 Z> 0X +@ aX  & bX cX dX eX fX gX hX iX jX kX lX mX nX oX pX @R qX Me rX sX tX uX aF vX wX l> xX )b yX zX AX BX CX DX 2G EX FX GX HX IX JX KX LX !] tk FV MW MX NX OX PX Ol QX RX SX TX UX 0) VX WX kC XX YX ZX `X  Y .Y +Y c) @Y #Y $Y %Y &Y A& t) *Y =Y d6 -Y ;Y >Y ,Y 'Y )Y !Y ~Y {Y ]Y ]Y ^Y /Y (Y *  _Y ~' :Y <Y [Y }Y xr |Y 1Y 2Y 3Y 4Y 5Y 6Y ",
"7Y 8Y 9Y 0Y aY bY cY K- dY eY fY gY hY PV iY jY r^ kY .% <m :- lY %o tU mY nY ,^ oY ;& pY qY rY sY tY uY En 2r *m CQ B; vY wY xY yY zY ka Pg AY BY CY DY EY FY GY HY IY 3^ JY KY 2Y z< LY MY NY <) OY PY b= QY RY SY TY UY VY WY XY YY ZY VX `Y  Z .Z +Z eJ ;( ;! @Z lk #Z $Z Z> %Z &Z *Z =Z -Z ;Z >Z  | ,Z 'Z )Z @Z {{ !Z 9_ ~Z {Z ]Z jO Zl U= ^Z /Z (Z _Z :Z <Z [Z }Z |Z 1Z 2Z 3Z 4Z a; SY D' ",
"5Z >* 6Z 7Z 8Z a; 9Z J- 0Z aZ bZ cZ dZ eZ D0 fZ gZ hZ iZ jZ kZ lZ =Y qr mZ nZ oZ pZ qZ rZ sZ tZ uZ jX |t vZ wZ |y xZ 3$ yZ zZ Tc AZ BZ CZ *( ]Z DZ EZ FZ GZ HZ IZ JZ KZ LZ g! /) MZ NZ OZ PZ A/ QZ o{ RZ #n b= GV SZ z' nt TZ UZ VZ WZ XZ YZ VX ZZ `Z Ix K,  ` v+ .` +` @` #` $` rW %` !^ &` RS *7 *` -n =` -` ;` >` }* ,` (' '` -x )` !` H{ ~` kD {` ]` ^` /` (` _` :` <` [` }` |` 1` %u 2` RZ ",
"3` 5Z NY n{ 4` 5` RZ Lo 6` 7` 8` 9` 0` a` b` c` d` IN e` f` g` h` i` On j` k` l` m` n` o` Dm p` q` r` s` t` u` }% v` w` x` y` z` Al A` B` C` TQ D` E` F` G` H` I` J` v] K` L` M` N` O` P` Q` R` S` vk rq I- T` [~ U` TZ V` W` g= IU X` Y` Z` ``   .8_ . .+ .@ .# .$ .zw % .V* *^ & .* .hZ }. F^ = .- .; .> .j* , .' .) .hZ ! .~ .{ .Wr ] .84 ^ ./ .( ._ .: .< .[ .} .| .1 .2 .KW 3 .4 .5 .X) 6 .",
"7 .8 .9 .HW bm 5) 0 .a .b .0s c .d .e .'- N* >' |] f .4/ g .<% h .[0 i .j .k .l .m .n .o .p .q .r .s .AU t .u .v .w .x .y .z .A .B .C .D .E .F .G .H .I .J .K .T4 L .M .N .O .P .Q .ZD R .S .T .U .V .W .b= _~ X .Y .[~ Z .j^ ` .FT  .....+..~1 @...{ c` #..$..%..R{ *b &..*..=..-..t: ;..>..3M ,..'..)..!..~..{..]..^..#../..(.._..:..<..[..O{ }..|..1..2..3..4..5..6..7..&B 8..9..$' 5) 0..a..",
" n 8Z b..c..d..e..f..g..%- h..i..a& j..k..l..m..hY n..o..W_ p..q..r..s..t..G; u..v..w..x..y..z..A..B..C..q..D..n; *e E..F..G..;t H..I..}i U= J..K..L..M..N..O..P..%~ Q..R..S..T..U..V..W..X..b( Y..Z..Go `.. +..+. > ++.@+.6Z 3, S] #+.$+.%+.&+.L1 *+.=+.-+.T1 ;+.>+.,+.'+.r  `< )+.!+.~+..* Fq  : ;e {+.]+.^+.0_ /+.(+._+.:+.U$ <+.8U [+.}+.|+.1+.2+.3+.4+.5+.~G 6+.7+.q_ 8+.9+.0+.cx a+.b+.c+.",
"d+.e+.f+.dw /r g+.5 .h+.;* %- Y) 0j ^] i+.j+.xq k+.l+.m+.n+.o+.p+.q+.r+.s+.t+.u+.v+.w+.x+.y+.z+.G^ A+.A+.B+.C+.+K D+.>f E+.F+.Pc G+.H+.I+.J+.K+.L+.M+.%G N+.O+.P+.Q+.R+.S+.T+.U+.V+.W+.X+.Y+.Z+.`+. @..@.+@.@@.#@.$@.%@.&@.7w @< q{ '_ *@.~o =@.nA `z -@.;@.>@.,@.'@.;+.X! )@.[! Dl t% !@.~@.{@.:< dv ]@.7M ^@./@.y[ (@._@.:@.<@.H1 [@.!X }@.|@.1@.2@.3@.4@.5@.IF 6@.7@.8@.9..py 9@.0@.a@.b@.c@.",
"&@.d@.1z e@.f@.~C g@.h@.0j mt i@..> j@.k@.l@.m@.L1 gm n@.o@.p@.q@.CU r@.A@ s@.$. t@.u@.v@.w@.x@.y@.z@.7u A@. # B@.C@.D@.E@.F@.G@.H@.I@.J@.K@.L@.M@.N@.O@.P@.Q@.Q( R@.S@.T@.S+.U@.W..V@.W@.X@.Y@.Z@.`@. #..#.+#.`@.@#.##.$#.%#.&#.*#.=#.ET -#.;#.>#.,#.'#.)#.!#.~#.{#.)' f~ ]#.Tf ^#./#.nm (#._#.2@ :#.<#.[#.}#.|#.1#.2#.3#.[O 4#.5#.6#.7#.8#.9#.0#.C. Z{ Qs 7| a#.b#.+; Z( c#.d#.e#.f#.g#.+< h#.",
"i#.T) u' j#.k#.l#.m#.n#.o#.p#.9s l#.)y q#.r#.s#.t#.u#.v#.w#.x#.n- y#.z#.)h A#.B#.$R f% C#.D#.E#.F#./W `} G#.H#.>M ~- I#.J#.K#.L#.M#.N#.O#.P#.Q#.sh R#.S#.F. T#.U#.V#.k_ T4 G2 W#.M| X#.Y#.Z#.`#. $..$.+$.@$.#$.$$.%$.&$.%#.*$..E =$.-$.;$.>$.,$.'$.)$.t#.!$.~$.{$.]$.GB ^$./$.($.WC _$.V& D$ :$.<$.[$.}$.|$..Y 1$.2$.r; 3$.#r 4$.5$.6$.7$.8$.w& jF 9$.0$.a$.|A b$.c$.d$.e$.f$.g$.h$.i$.j$.k$.l$.",
"m$.n$.o$.p$.q$.r$.s$.,] t$.u$.GX z< v$.w$.x$.y$.z$.A$.B$.C$.D$.E$.F$.G$.H$.yO I$.J$.X0 K$.L$.M$.N$.O$.g; a) P$.G+.Q$.R$.bg S$.T$.U$.V$.W$.X$.Y$.Z$.x| `$. %.Iw .%.&. +%.6L @%.#%.$%.%%.&%.*%.=%.-%.;%.;%.>%.,%.'%.)%.!%.~%.$B {%.]%.^%./%.(%.wB _%.:%.<%.}o [%.}%.|%.1%.2%.3%.4%.5%.6%.7%.,M 5} e9 8%.9%.0%.m- u{ a%.hu b%.c%.d%.e%.f%.g%._E h%.]( ,N i%.j%.k%.7H l%.m%.n%.o%.p%.q%.r%.s%.t%.u%.",
"v%.@$.w%.x%.y%.c{ z%.A%.(z B%.C%.D%.E%.L_ F%.G%.H%.I%.J%.K%.L%.M%.V  &f N%.O%.P%.Q%.R%.l%.S%.T%.>' }# J{ w; U%.V%.W%.rH X%.Y%.Z%.`%. &..&.Pr ;: c9 +&.@&.#&.oc $&.%&.&&.[K *&.=&.-&.;&.>&.,&.'&.)&.!&.~&.{&.U@.NG ]&.z] UD ^&.N ./&.(&._&.:&.<&.wB [&.7{ }&.|&.1&.2&.3&.4&.c7 5&.6&.lJ Fj 7&.8&.I( ZC WK 9&.0&.a&.b&.c&.d&.e&.f&.g&.h&. 4 i&.9# j&.k&.l&.hH SL m&.n&.R2 o&.p&.q&.r&.s&.t&.^~ u&.",
"v&.w&.x&.y&.z&.A&.B&.C&.Z[ wB D&.E&. u F&.Wz G&.H&.I&.J&.K&.L&.M&.N&.O&.P&.Q&.R&.S&.C= T&.U&.V&.W&.8v a! 4} X&.Y&.!1 Z&.`&. *..*.+*.@*.A! #*.$*.%*.&*.**.=*.9b -*.;*.>*.,*.v4 '*.)*.!*.~*.{*.Z: j} ]*.^*./*.(*._*.:*.<*.[*.k1 }*.|*.1*.|, Eo YD 2*.3*.4*._s 5*.6*.7*.oH 8*.9*.0*.a*.b*.c*.Rc d*.DM e*.f*.g*.h*.p| :E i*.j*.k*.l*.mL /3 4M 3l u& m*.n*.o*.p*.V#.q*.!J r*.s*.b$.t*.u*.v*.w*.x*.y*.",
"z*.pM A*.B*.GC C*.D*.E*.F*.G*.H*.2*.I*.+] 7..J*.K*.L*.b$.*r M*.N*.O*.P*.L%.yT Q*.R*.S*.9] T*.KL l+.U*.4+ V*.W*.>| WF X*.Y*.Z*.`*. =.-n z[ .=.b< vz +=.)O h7 @=.W9 #=.$=.%=.&=.*=.==.-=.;=..2 'N >=.mF ,=.'=.)=.!=.~=.{=.]=.9R ^=./=.H&.(=._=.:=.xr UD <=.[=.(( }=.|=.1=.2=.l= 3=.4=.C5 5=.6=.Cn 7=.N+ 8=.9=.Q< 0=.a=.b=.c=.d=.e=.. .wo f=.g=.(w eC YI h=.i=.j=.k=.l=.m=.Az n=.o=.p=.p_ W[ q=.r=.",
"s=.OH t=.u=.v=.w=.>=.x=.y=.z=.A=.B=.C=.D=.2; E=.F=.IF CK LK G=.H=.I=.J=.K=.@5 L=.M=.N=.O=.b- P=.8=.Q=.R=.S=.T=.U=.V=.W=.X=.Y=.Z=.`=. -. | .-.+-.@-.#-.$-.%-.-G Sx &-.*-.=-.--.;-.>-.yG ,-.'-.)-.!-.~-.{-.]-.,&.^-./-.65 (-._-./2 :-.<-.K` F2 7H }2 [-.}-.|-.1-.2-.3-.4-.5-.6-.}^ 7-.:E 8-.y3 9-.0-.a-.b-.c-.d-.e-.f-.g-.h-.i-.:g j& j-.Xh k-.l-.m-.n-.o-.p-.q-.r-.s-.t-.u-.F@ v-.w-.x-.y-.z-.A-.",
"B-.C-.D-.&=.E-.F-.G-.{2 H-.I-.J-.K-.L-.M-.N-.O-.| .M) P-.y6 Tx x0 Q-.R-.S-.T-.U-.V-.K< n  W-.X-.Y-.Z-.`-. ;..;.+;.@;.#;.$;.%;.&;.*;.*R P; =;.-;.;;.f% >;.,;.';.);.!;.~;.3e {;.];.^;./;.(;._;.:;.<;.x8 [;.};.|;.1;.2;.wG 3;.4;.5;.]D 6;.7;.8;.9;.0;.a;.~) b;.(( c;.d;.e;.M- f;.O*.g;.S#.h;.i;.j;.)3 k;.l;.m;.n;.o;.p;.q;.r;.[} s;.4_  | t;.B[ u;.v;.w;.JH x;.y;.z;.A;.B;.C;.D;.E;.F;.G;.H;.I;.J;.",
"K;.L;.M;.N;.O;.P;.Q;.R;.^G S;.T;.K6 U;.V;.W;.X;.dH :2  8 Y;.Z;.U#.`;. >.Z*..>.+>.@>.#>.O} X-.Q  vH $>.%>.&>.9G *>.=>.->.s  ;>.>>.,>.'>.)>.`0 !>.~>.{>.<5 #U ]>.^>./>.(>._>.:>.<>.[>.}>.|>.1>.2>.3>.4>.5>.6>.7>.8>.9>.0>.+/ ]v bS a>.b>.=%.c>.d>.:y e>.f>.g>.h>.i>.j>.k>.l>.m>.n>.o>.p>.q>.v5 r>.s>.t>.u>.v>.w>.x>.y>. =.yQ .Z Z* z>.]u A>.,7 B>.C>.D>.E>.F>.G>.H>.I>.J>.K>.L>.~2 ];.M>.N>.O>.;2 ",
"P>.Q>.R>.S>.T>.U>.A;.V>.W>.X>.Y>.s3 Z>.`>. ,..,.y} +,.@,.#,.$,.%,.d;.Ra &,.*,.=,.-,.;,.>,.,,.',.),.!,.~,.:$ {,.],.^,.## H5 /,.s9 (,._,.:,.<,.[,.},.wK |,.1,.2,.:b 3,.4,.#G 5,.6,.7,.8,.S*.9,.0,.C4 a,.,O b,.c,.d,.e,.f,.g,.h,.JD i,.j,.,*.k,.l,.m,.n,.oN ;I o,.=v p,.q,.r,.s,.t,.u,.v,.2J w,.v,.x,.y,.z,.A,.B,.C,.D,.28 E,.F,.G,.H,.I,.J,.K,.L,.M,.+S S- N,.O,.P,.Q,._h $6 R,.S,.+J T,.U,.rT ^2 ",
"V,.W,.q} X,.Y,.Z,.=G `,. '..'.+'.@'.#'.$'.%'.&'.!N dB *'.='.-'.;'.jb aK >'.mL ,'.''.)'.!'.~'.*Q n_ {'.]'.^'./'.('._'.:'.;b <'.['.}'.F,.|'.1'.2'.3'.0T 4'.5'.e8 6'.7'.D;.8'.9'.0'.|9 a'.b'.c'.d'.e'.f'.k+ g'.h'.i'.a5 j'.k'.l'.m'.d} n'.o'.p'.,[ q'.r'.s'.t'.0#.u'.wz v'.w'.3B x'.y'.z'.A'.B'.C'.D'.%1 E'.F'.G'.`a H'.:N I'.J5 Jx J'.K'.L'.M'.Hq N'.O'.CD P'.Q'.R'.S'.T'.U'.(b V'.3P W'.`c X'.Y'.",
"Z'.`'.)O  )..).+).@).#).$)./: +< QD l'.%).&).*).=).-).;).>).,).K .').v{ VM e*.)).!).~).{).]).^)./).()._).:).XZ <).[).}).s9 F, ['.Hx |).1).;..2).Jj 3).4).*@ 5).|;.bR 6).4H 7).8).9).0).a).b).c).d).@. xM />.e).NL z2 {K f)./| g).r-.h).-*.i).j).m0 k).oJ  c l).m).n).y^ T/ o).p).q).r).s).t).u).v).w).x).y).(U z).A).B).C).}'.D).E).F).G).H).I).J).K).]w L).M).N).O).P).Q).R).S).T).U).V). T W).",
"X).Y).Z).`). !.c1 .!.v4 +!.@!.#!.$!.%!.G| X9 &!.*!.=!.-!.4  ;!.>!.,!.|< '!.`P )!.!!.~!.{!.]!.^!./!.(!._!.:!.<!.P0 2f [!.-b }).'..}!.|!.1!.2!.3!.4!.5!.6!.7!.8!.9!.0!.VM a!.b!.h6 c!. c d!.e!.f!.30 g!.h!.i!.j!.k!._B l!.rN m!.n!.o!.o'.p!.q'.q!.r!.j) /> 3a Sf v, s!.n@.t!.=e u!.v!.w!.x!.y!.z!.A!.L&.B!.C!.qP D!.E!.F!.G!.H!.I!.z) J!.|'.K!.L!.M!.>;.YM N!.O!.P!.Q!.oF R!.J4 $&.e# U| v6 S!.T!.",
"U!.V!.W!.%6 X!.Y!.!N Z!.`!. ~.l'..~.]9 zK P@.+~.vJ Q@.@~.#~.$~.CI %~.&~.b) *~.=~.-~.;~.>~.,~.'~.)~.!~.~~.{~.]~.^~./~.(~._~.:~.7V <~.[~.}~.|~.1~..@ 2~.3~.4~.5~.6~.$f I).7~.8~.5>.9~.NK 0~.a~.b~.c~.d~.e~.f~.g~.h~.6,.$N !9 i~.6+ 8'.j~.k~.l~.m~.n~.o~.p~.i, q~.r~.Xv << s~.Lx t~.u~.v~.w~.x~.y~.z~.A~.B~.C~.D~.E~.E,.F~.K  G~.H~.I~.J~.;..K~.L~.>( M~.N~.O~.P~.Q~.`e Q7 R~.S~.*a T~.U~.V~.n+ %U ",
"W~.X~.Y~.Z~.f!.Y).V9 `~. {.h+ &f !4 .{.+{.@{.m~.4$ #{.${.M. !8 %{.&{.*{.={.-{.;{.'M >{.,{.'{.){.!{.~{.{{.]{.^{.^i /i t~ 6N /{.({.Of _{.:{.<{.[{.}{.|{.1{.2{.3{.4{.5{.6{.7{.v~ {= 8{.9{.PO )p 0{.O& a{.b{.S'.0# :: c{.&. d{.e{.f{.%J g{.h{.i{.90 j{.k{.=. l{.m{.n{.o).o{. =.p{..Q q{.r{.s{.t{.u{.v{.w{.x{.y{.u* z{.A{.B{.48 C{.D{.u= pV E{.E= F{.G{.H{.l~.I{.s( J{.K{.vG L{./a M{.~| N{.O{.P{.Q{.",
"kE R{.S{.T{.U{.V{.W{.g6 Dd X{.mB Y{.Z{.`{. ]..].+].t2 @].#].8%.76 $].%].&].*].=].-].;].>].,].'].)].!].~].{].]].Kc ]R ^].2f 'M u9 ,  /].(].&( _].[n mW O! :].<].i* ], [].}].|].21 1].2].3].4].5].6].7].8].9].0].a].b].c].sN d].e].h*.f].c~ Qh g].h].i].M( j].k].M{ (X l].m].0a n].r;.o].p].q].r].s].t].u].v].w].E  ;0 A+ x].Eb y].z].A].qG wp B].C].Ru c* D].E].vC F].Lj G].,%.H].I].J].K].L].M].",
"N].O].P].Q].wA R].8} S].T].U].{N V].W].L{.X].Y].Z].`]. ^.st .^.A= 4_ +^.@^.I  #^.$^.%^.&^.*^.=^.-^.;^.>^..h ,^.'^.)^.Wd !^.~^.{^.]^.y# ^^./^.Hg t= (^._^.u: 5#.oT :^.<^.mz [^.}^.|^.1^.cv 2^.3^.4^.r2 5^.an 6^.X3 Fg 7^.8^.9^.0^.1e a^.b^.c^.d^.90 e^.aV f^.g^.] .h^.i^.j^.k^.>0 l^.m^.n^.o^.p^.q^.+e r^.s^.t^.u^.v^.w^.x^._0 y^.:1 z^.A^.B^.G! Ks C^.D^.)g A^ E^.F^.G^.H^.I^.J^.K^.L^.r< #9 M^.",
"b1 N^.O^.P^.Q^.R^.S^.'9 T^.U^.V^.S5 W^.>;.X^.Y^.Z^.`^. /../.+/.@/.#/.$/.%/.'M &/.*/.=/.-/.;/.>/.,/.'/.)/.!/.~/.{/.]/.^/.//.wD (/.$L _/.h^.:/.</.[/.}/.|/.1/.#Y 2/.3/.4/.5/.6/.7/.8/.9/.0/.a/.b/.q6 c/.d/.S+ e/.f/.4$ g/.h/.:b i/.ib j/.{K E@ -N 6% k/.l/.6#.m/.n/.%Z M, o/.p/.q/.r/.aZ s/.t/.u/.v/.w/.x/.y/.z/.;+ A/.B/.C/.D/.E/.F/.G/.H/.I/.# .J/.K/.L/.<3 jU g_ M/.N/.O/.P/.Q/.R/.S/.T/.U/.A*.",
"V/.W/.X/.mJ ,9 Y/.Z/.], `/.Jd  (.pS gv .(.+(.@(.[R @6 xg V  5a Q! #(.)n $(.%(.&(.*(.=(.-(.;(.>(.,(.'(.)(.!(.~(.{(.](.^(./(.((.Jx _(.:(.<(.2I kk [(.3T }(.|(.1(.2(.r; 3(.4(.5(.Rk Aa 6(.7(.0%.8(.9(.0(.a(.Hn b(.c(.d(.e(.f(.g(.h(.i(..J l% j(.k(.l(.m(.n(.o(.p(.q(.r(.s(.t(.u(.66 v(.w(.x(.D% y(.z(.A(.B(.C(.D(.K#.E(.F(.G(.;0 q* xw H(.I(.<R J(.K(.L(.M(.N(.O(.i, {E e% P(.Q(.R(.S(.T(.U(.V(.7~.",
"4% W(.}h X(..R Y(.Z(.`(.{E  _.._.+_.@_.*m #_.ak $_.%_.lZ &_.t= *_.=_.-_.;_.>_.,_.'_.)_.!_.~_.{_.]_.^_./_.bj (_.__.{(.:_.<_.[_.@& =R nG }_.|_.1_.2_.3_.4_.&X 5_.6_.7_.a/.8_.C>.9_.0_.a_.b_.c_.N& 8' GQ ]b d_.jU e_.4$ f_.g_.g^.#$ h_.i_.j_.k_.G).l_.m_.n_.o_.p_.q_.r_.s_.t_.u_.v_.w_.x_.Wp y_.z_.A_.B_.C_.D_.)% )- p| E_.F_.G_.H_.I_.J_.K_.L_.M_.N_.O_.4' P_.Q_.R_.S_.%| T_.U_.x^ V_.W_.X_.Y_.sK ",
"M/.Z_.`_.-,  :.>N +F .:.PO +:.@:.#:.$:.jU %:.An &:.*:.+c =! =! =:.-:.;:.>:.6& ,:.':.):.!:.~:.{:.|U ]:.M% i$ ^:./:.I} (:.,3 _:.::.<:.[:.}:.+z |:.Qj %A 1:.2:.3:.4:.5:.6:.7:.y. +j 8:.9:.0:.c* a:.b:.c:.d:.e:.f:.g:.hi h:.L& 4] -8 i:.j:.k:.a5 l:.m:.n:.ed o:.p:.q:.r:.s:.eh t:.u:.v:.w:.x:.BS y:.z:.A:.B:.C:.2%.D:.]i E:.F:.G:.F(.SU Qd H:.I:.J:.~e K:.L:.hz A>.M:.N:.O:.P:.o* Q:.0* R:.S:.T:.U:.",
"], vm V:.W:..C X:.Y:. ^ Z:.`:. <..<.+<.XE Pk @<.#<.$<.%<.RB s$ &<.*<.=<.-<.;<.><.,<.'<.)<.]_.aj 9m !<.~<.{<.c& ]<.^<./<.oh i-.(<._<.`=.(R wo :<.z, 68 <<.:5 [<.}<.|<.1<.>n 2<.3<.gS 4<.5<.6<.7<.8<.9<.0<.a<.V^.nv Zv b<.2& c<.d<.e<.f<.g<.h<.i<.j<.@Z k<.l<.3c m<.n<.o<.p<.q<.r<.s<.t<.sk u<.v<.[V ]:.w<.x<.0. y<.M* z<.A<.B<.C<.D<.E<.F<.G<.H<.t, I<.J<.(<.R- K<.;7 w, 7Q L<.M<.C5 N<.O<.P<.55 ",
"Q<.R<.S<.T<.GH U<.z^.V<./e W<.X<.Y<.~h *!.S& Z<.`<.qC  [..[.$X O_.+[.@[.#[.$[.nn %[.&[.}z *[.ot (l Nl =[.Mo 4X i= -[.;[.>[.,[.!% @*.Sl '[.sU V& )[.![.1* ~[.)[.{[.][.eV 3# ^[..z /[.([._[.:[.l_.M~.qj <[.[[.}[.|[.1[.2[.3[.4[.5[.6[.7[.e% cR 8[.&{ !V 9[.0[.a[.b[.c[.d[.e[.f[.g[.h[.7g i[.j[.k[.l[.[l ~<.H% m[.n[. A o[.p[.q[.r[.j; s[.t[.u[.v[.A` w[.O! x[.y[.z[.Y0 A[.B[.C[.mz D[.E[.F[.G[.H[.",
"I[.J[.~  K[.V> P:.L[.M[.N[.O[.0&.DA P[.0M Q[.R[.I<.S[.V& T[.U[.V[.W[.X[.Y[.x(.Z[.`[. }..}.+}.@}.qn #}.:o 4) $}.Ll A- _r %}.&}.*}.=}.I#.-! -}.{u ;}.Fn >}.,}.'}.)}.!}.QI ~}.0X {}.]}.^}./}.(}._}.:}.<}.[}.}}.|}.1}.2}.3}.^#.4}.5}.6}.7}.8}.%l 8{.@X m- C! 2_.9}.0}.a}.b}.c}.Hl {l d}.e}.<o f}.g}.h}.h= i}.Qo [l j}.k}.l}.m}.wQ n}.S1 @| =+.o}.p}.=V q}.r}.s}.t}.u}.;q |O v}.jv {j w}.x}.y}.z}.A}.",
"sl B}.-; C}.cn 6k T9 D}.E}.t@.F}.!@ G}.=( H}.I}.J}.K}.L}.>( $(.M}.N}.O}.P}.Q}.R}.S}.T}.`m U}.V}.Z .W}.Y) X}.d= Y}.f= h= 4X Z}.(] '- `}. |..|.+|.0h R! @|.Lg #|.ig $|.%|.&|.s[.*|.w}.L~.=|.%Y -|.;|.>|.,|.'|.}n )|.!|.~|.{|.]|.^|./|.(|._|.j- :|.q) * .<|.[|.}|.||.]} 1|.2|.3|.4|.5|.h$ v<.ot j@.;u 6|.7|.bm Z .8|.9|.I> Mr hp Ck 0|./X a|.b|.c|.d|.e|.f|.g|.); h|.i|.j|.k|.=W l|.$M m|.n|.o|.p|.",
"q|.r|.5T 1E 7T s|.Ax i% t|.u|.0_.v|.w|.x|.y|.|* 2% d<.z|.W_ A|.B|.C|.D|.E|.GX F|.AS G|.H|.I|.J|.h= $t K|.0s L|.M|.N|.s! >> ~<.O|.|x oD _:.%D d< P|.Q|.Jx R|.S|.S! T|.U|.;{.V|.LL W|.X|.Y|.0u vz &V Z|.`|. 1.1y .1.+1.@1.#1.$1.%1.&1.*1.=1.~  -1.;1.>1.C!.,1.'1.)1.!1.C6 ~1.B_.%* {1.]1.rn @n ^1.Y .bm tq Ir ,* /1.(1._1.zk :1.)E Q#.hZ <1.[1.76 }1.|1.11.3l `< i# 'b 21.31.41.L[ 51.61.sU 71.81.",
"O! 91.01.a1.F7 !  Mu b1.c1.0M d1.e1.f1.g1.t& h1.i1.31.6v j1.k1.Tp I6 l1.2; m1.k( n1.Z; o1.p1.q1.r1.s1.t1.C- $}.<~ u1.v1. n 6` F* w1.x1.y1.z1.m{.A1.B1.C1.D1.E1.KS F1.5_.G1.H1.I1.J1.K1.L1.M1.N1.O1.P1.Tq Q1.Ep R1.h:.S1.T1.U1.V1.W1.X1.Y1.Z1.ZC la `1. 2..2.+2.bI ),.aD @2.#2.$2.%2.{o &2.*2.qq 6|.0; #n =2.-2.;> ;u G> ;2.>2.,2.'2.v| )2.!2.L> ~2.i. {2.n{.]2.^2./2.(2._2.:2.<2.[2.}2.|2.^N ps ",
"s: ['.(! 12.22.32.&^ G{.42.52.62.72.82.g> 2T W& 92.[% 02.a2.b2.c2.~[ 6| d2.e2.EW f2.!y T}.g2.h2.i2.[v UZ ]o S` T~ j2.f= Y) '* vk `m k2.l2.m2.n2.o2.G+.V< p2.r^ Tl q2.r2.s2.ww t2.u2.= .v2.w2.x2.y2.z2._].A2.B2.C2.D2.E2.F2.G2.H2.I2.J2.K2.L2.i% {> M2.N2.VG O2.P2.[, Q2.DW R2.S2.By )'.uF D' T2.$- U2.V2.W2.X2.Y2.o{ 5Z Z2.`2. 3.,3 .3.+3.@3.#3.+z $3.2r kd Z1.X1.%3.&3.*3.=3.-3._@ oX ;3.jX >3.",
",3.'3.)3.!3.l> VV M~..@ Vq ~3.{3.]3.N(.%h Bq ^3./3.(3._3.y0 :3.<3.[3.}3.|3.8A E% 13.23.EV a .nx 33.43.53.;* 63.Qo TZ T~ 73.0 ./o k{ i2.83.St :1.93.D$ 03.a3.b3.c3.q* d3.r..e3.f3.g3.h3.i3.j3.k3.l3.m3.|n n3.o3.3u p3.q3.o .r3.s3.1E TW t3.u3.v3.w3.x3.y3.z3.A3.B3.C3.D3.E3.F3.G3.H3.wy I3.J3.K3.=[.TY b; PX S` Ir 'r L3.$n f}.M3.N3.O3.P3.4} @* Q3.R3.S3.!@ <> T3.&) U3.V3.W3.X3.Y3.Z3.`3.#)  4.",
".4.F).+4.@4.,e a1.F) #4.QM l/.$4.%4.&4.p3.y|.*4.=4.-4.;4.H` >4.,4.'4.)4.J*.!4.~4.D&.{4.]4.^4.R2./4.8..,<.(4.Zm _4.Zm JV T~ :4.$t <4.[4.M/ }4.|4.Ak 14.b`  i 24.34.44.Q{ 54. r 64.3> 7n 74.84.As 94.Kt 04.a4.b4.c4.d4.e4.f4.Zq g4.-h f- h4.gC i4.j4.c  k4.'[ L*.l4.m4.n4.o4.p4.q4.r4.s4.t4.u4.v4.k#.w4.D' >* TY g@.HW x4.=[.D* y4.z4.*t A4.B4.j, C4.J& M^ D4.Bq E4.lj F4.G4.H4.2h I4.J4.~x K4.L4.",
"RI M4.N4.#A O4.'b V. P4.Q4.R4.S4.T4.NT && U4.V4.W4.X4.F. Y4.Z4.`4.mI  5..] .5.+5.@5.#5.$} G< $5.8= %5.&5.*5.=5.-5.c; #q V2.;5.>5.^] ,5.`m '5.)5.!5.~5.{5.z! Q3.k(.]5.^5.a_ 8] [R /5.(5._5.:5.<5.[5.z) }5.|5.15.25.G{ 35.45.55.o& 65.75.85.95.05.a5.b5.c5.d5.e5.:2 f5.g5.h5.i5.j5.k5.l5.$x HU m5.8p J- n5.IW c, cs o5.y' p5.3` 2W $+.q5.r5.e4 TX s5.b< &~.%O `h S* b] t5.7^.u5.|{ v5.rZ w5.x5.x) ",
"oS }=  : 3o 3_ d/ x% d-.y5.Y/ yT J. K:.|f z5.A5.B5.QO C5.^>.0$.c! D5.E5.F5.G5.E&.H5.I5.J5.K5.~S L5.M5.N5.O5.P5.Q5.R5.N] #k S5.T5.`...+.a&  > jA U5.V5.W5.Iu X5.Y5.C0 Z5.`5.7* A}.7{.~}.c6  6..6.+6. | @6.hU #6.$6.`] %6.&6.*6.oT =6.8> -6.;6.2@.>6.,6.'6.)6.!6.Y>.~6.}, {6.]6.AF ,$.^6./6.(6._6.B> :6.<6.~C -y [6.v' l#.qq }6.y4.|6.}6.16.26.36.46.56.p^ X> !g 66.[  76.Jn 86.xa 96.06.4T {e pz ",
"a6.hz b6.c6. ~ S|.d6.Ny Tk e6.f6.VM g6.h6.i6.]> j6.3x `1 k6.l6.m6.n6.J@ o6.p6.Z[ q6.r6.2^ s6.FX 2*.t6.u6.JJ &5.v6.2s w6.9Y )v x6.y6.z6.A6.B6.C6.D6.E6.F6.G6.l7 ^` H6.%A I6.2= J6.gR K6.u; L6.`/ C].Is M6.N6.O6.P6.Q6.R6.]> S6.VT H( T6.U6.H6.V6.;4.B| W6.(( X6.Y>.c[ Y6.Z6.`6.tc  7..7.+7.@7.#7.$7.%7.Y6.&7.>u *7.=7.-7.;7.>7.*5.2, ,7.'7.)7.!7.~7.{7.]7.^7.H( -k /7.H( (7._7.86.:7.<7.L  [7.}7.",
"y9 |7.17.ez % .27.xw 37.c< G= |{ 47.57.67.YP 77.87.97.07.a7.L9 +2 b7.c7.d7.e7.6..f7.g7.h7.i7.j7.k7.l7.m7.`[ n7.&5.o7.p7.q7.r7.s7.$x t7.[4.u7.v7.{l w7.x7.y7.z7.A7.B7.B( /, C7.D7.E7.,( F7.G7.H7.;= I7.J7.K7.`<.L7.M7.N7.m..O7.P7.Q7.R7.S7.T7.U7.33 V7.W7.X7.Y7.Z7.`7. 8..8.+8.@8.#8.$8.%8.&8.%8.*8.=8.Zw -8.9w ;8.>8.,8.'8.)8. ..GW !8.~8.{8.]8.^8./8.(8./N _8.|} 7-.:8.<8.[8.}8.p+ |8.6] B7 18.",
"6l X0 _S 28.2/.38.7=.48.Gg Pr 58.68.78.[M 88.}O (A 98.08.a8.b8.c8.d8.e8.f8.X;.o1 g8.h8.i8.g8.j8.k8.t6.l8.m8.n8.o8.H5.p8.q8.r8.s8.// =#.t8.1Z u8.L5.v8.w8.x8.y8.z8.Ak A8.B8.C8.D8.E8.i4 F8./} *<.G8.H8.I8.c~ uc w#.2_.h' J8.10 K8.L8.4o M8.N8.V6.&*.O8.P8.-v Q8.R8.S8.@E T8.U8.V8.3[ W8.X8.Y8.Z8.`8. 9..9.+9.@9.#9.$9.%9.&9.*9.n1.=9.By -9.Gy ;9.>9.,9.'9.q~.0-.R6 *z )9.!9.~9.{9.]9.xJ 84 B7 ^9.",
"~E /9.A, U|.(9._9.:9.<9.V4 X5.[9.}9.|9.,: 19.29.j6.39.49.59.69.79.89.5{ 99.ZA 09.a9.@} b9.c9.d9.e9.n8.f9.g9.:>.h9.i9.j9.k9.s6.l9.Q}.m9.ou p' n9.o9.v8.p9.q9.r9.s9.g2 A5 fY p[.t9.u9.v9.8' A, w9.x9.{}.y9.z9.A9.B9.C9.rU D9.E9.F9.G9.H9.n).tx m-.@C I9.J9.K9.w3 L9.M-.M9.+} */ N9.O9.F*.P9.t=.B&.Q9.R9.qB %8.S9.T9.U9.V9.W9.x$.2s )] p7.p' E% LC Xz X9.Y9.Z9.`9. 0..0.19.+0.@0.#0.$0.%0.`$.&0.X5.",
"o@.S$.A<.*q M} 6a -K !d *0.=0.-0.iw ;0.>0./  ,0.'0.)0.!0.~0.R%.yK q>.{0.]0.^0./0.(0._0.FP :0.<0.m4.[0.}0.1*.|0.10.r% 20.z* U8.30.40.50.60.70.80.zB 90.00.a0.b0.c0.d0.NE e0.f0.g0.h0.i0.j0.j;.k0.l0.m0.n0.~7 t[ o0.p0.9] q0.r0.s0.t0.s@ 6W CA u0.v0.j~.w0.zz x0.y0.B3.z0.6;.A0.B_ B0.C_ C0.D0.E0.F0.G0.H0.I0.J0.K0.L0.M0.i+ DJ N0.IX O0.P0.Q0.R0.S0.T0.U0.V0.W0.X0.Y0.Z0.`0. a.w: .a.+a.@a.#a.$a.",
"%a.&a.*a.=a.-a.;a.+. XH >a.,a.H_.*{.=P [7.'a.)a.c-.!a.~a.{a.r'.i< l&.]a.^a.E8 /a.(a._a.m0 :a.<a.[a.}a.|a..< 1a.2a.3a.4a.5a.Y6.6a.7a.8a.8a.9a.3( Xz 0a.aa.~) ^*.ba.ca.da.k9 ea.lb fa.ga.T% ha.a*.ia.fG ja.69.ka.i[ N%.la.ma.ZY na.NU oa.pa.*U qa.v0.p-.ra.sa.IK ta.ua.r*.va.wa.xa.ya.za.w&.Aa.Ba.Ca.Da.Ea.Fa.Ga.Ha.Ia.Ja.Ka.La.q% Ma.]) Vs V, Na.X2 Co d[ V^ Oa.Pa.Qa.Ra.Sa.Ta.Ua.Va.89 Wa.Xa.Ya.",
"V[.7I Za.CE `a. b..b.+b.@b.YX #b.Q- $b.m4 29.%b.&b.*b.=b.`-.9,.-b.S^ ;b.>b.,b.+;.'b.i7.)b.e< !b.~b.{b.]b.^b./b.L@ Aa.~6.(b._b.:b.<b.[b.[s 90.q6.}b.|b.X;.1b.%~ Y4 2b.3b.4b.`G 5b.'$ d1.6b.7b.8b.9b.0b. R ab.bb.cb.!< db.eb.[O `5.is u) F^.Q3.48.fb.H^.gb.O@.'-.k_ l'.hb.ib.jb.Z>.kb.lb.m$.mb.=C nb.ob.pb.qb.rb.sb.tb.ub.vb.wb.xb.q4.yb.zb./4 Na.N: Ab.7{ Bb.5+.Cb.Z~ Db.Eb.Fb.f3.)9.R_.Gb.Hb.m> ",
"Ib.k{.Jb.Kb.Lb.Mb.Nb.Ob.(/.Pb.r  *R Qb.sl Rb.)Q /I Sb.jL f=.U~.p}.Tb.Ub.=O iy 79.3F Vb.F& Wb.Xb.Yb.{=.Zb.`b. c..c.+c.t3 [=.@c.#c.$c.%c.&c.H;.*c.=c.-c.n6.Yb.;c.x3 >c.,c.'c.)c.S-.!c.~c.2=.{c.]c.^c./c.(c._c.:c.<c.[c.}c.+{ (- f .7l :3 |c.1c.2c.w;.OA 31 3c.4c.j%.X].5c.6c.7c.8c.9c.<*.0c.ac.bc.cc.dc.ec.fc.gc.hc.ic.|*.jc.kc.3D lc.q6.mc.nc.oc.f8.*~ pc.qc.C~ .c rc.sc.tc.uc.vc.wc.xc.JQ '$ yc.",
"zc.}+ Ac.Bc.Cc.u5 Dc.Ec.1r Fc.{@.Gc.0> Hc.&0.i0.=-.5m Ic.A0 Jc.Kc.'$ hb {}.wW W3 ;I p~.Lc.Mc.Nc.Oc.JG Pc.07 ![ Qc.U^ .'.Rc.]G Sc.Tc.Uc.Vc.v1 Wc.n6.D| Xc.Yc.(( MJ Zc.`c. d..d.+d.@d.#d.`-.$d.%d.&d.*d.=d.D3 -d.;d.>d.,d.'d.78 *;.z) )d.ob !d.}O z| !d ~d.0e `!.<F {d.[^ ]d.^d./d.(d.8L _d.:d.<d.[d.}d.|d.1d.2d.j).Iz 3d.4d.CG .E 5d.:9 6d.$< S2 7d.=c.8d.!) 69 A~ S^ 9d.0d.ad.bd.cd.dd.ed.fd.gd.",
"Wx hd.}8 id.jd.kd.ld.md.s  nd.d3.od.Sd _g pd.;V qd.&~.rd._< sd.{Z 6Q td.-z ;9 47 ud.:9 vd.FF ~[ wd.&8 -!.xd.yd.zd.Ad.|A Bd.p} Cd.Dd.Ed.Fd.I6 Gd.IY Hd.Id.Jd.Kd.AP Ld.e2 R6 Md.Nd.Od.Pd.Qd.Rd.Sd.Td.Ud.Vd.Wd.Xd.Yd.Zd.oR 68 J'.'>.`d. e..e.be P=.^b +e.@e.#e.$e.YE %e.&e.V| e9.*e.=e.-e.J$.;e.>e.,e.'e.(E )e.fB !e.~e.T| 2K {e.]e.2K ^e.TD PG a#.c8./e.(e._e.:e.%,.i_ <e.[e.}e.XJ |e.1e.2e.3e.4e.",
"R4 5e.6e.Jy 7e.6U 8e._'./,.9e.0e.ae.R{ be.ce.An de.y@ ee.;+.fe.ge.he.PO m/ I@ S^.5).ie.je.ke.xc.le.ct me.$4 71 -b.ne.9;.@F ]*.oe.pe.qe.re.se.@I j7.&>.te.ue.ve.S#.we.xe.ye.j, Z}.ze.Ae.Be.Ce.De.36.Ee.Fe.Ge.He.Ie.Je.c3.Ke.Le.Me.D! I,.Ne.Oe.1T Pe.,!.Qe.Re.Se.Te.Ue.Ve.+2 ID We.Xe.x8 {J Ye.h_.Ze.`e.!G  f.2,..f.+f.@f.#f.$f.%f.@I &f.*f.R;.=f.-f.k_ =-.sN H` M..;f.B7.0-.>f.,f.'f.)f.1e.!f.~f.",
"{f.]f.y7.^f./f.(f.## _f._> AL :f.<f.1r ,k [f.An }f.|f.1f.S- 2f.4c.1%  c 3f.r/ 4f.!a.5f.6f.7f.8f.=e.9f.0f.8% af.bf.$,.cf.}A 8).df.T@.I6 ef.ff.gf.R4 ,o L$.hf.if.jf.kf.B@.P} :/.lf.mf.nf.of.pf.qf.rf.sf.tf.uf.vf.wf.xf.!Q yf.(,.3M /' $` m .JQ zf.Af.Bf.Y5.B5.Cf.Df.F8 Ef.Ff.Gf.BJ P+.Hf.If.Jf.Kf.Lf.Mf.d1 co Nf.Of.Pf.,*.Qf.Rf.Sf.Tf.{-.Uf.Vf.]a 73 Wf.Xf./b.Yf.,!.Zf.R6 `f.*:  g..g.+g.]).@g.#g.",
"$g.%g.&g.*g.=g.,f {8 fO -g.!3.;g.wX >g.,g.'g.rv )g.<. !g.(+ ~g.#. {g.#e.]g.^g./g.97 (g._g.:g.KK U^ <g.ZA [g.}g.|g.1g.~,.2g.99 3g.RC 8} vO 4g.l7.yJ n=.:3.5g.6g.7g.n).m{.,M 8g..+ 9g.|=.0g.ag.bg.cg.dg.eg.fg.lK mQ gg.hg.ig.jg.kg.lg.mg.!5 g_ ng.fe Q  og.pg.qg.@$ w| rg.sg.tg.ug.vg.`L F8 wg.xg.yg.zg.Ag.Bg.Cg.Dg.Eg.Fg.Gg.Hg.Ig.%$.W| QD UL Jg.Kg.Z{ Lg.Mg.D9.k>.Ng.Og.T1 Pg.8e.Qg.Rg.Sg.Tg.Ug.",
"Vg.Wg.Xg.Yg.Zg.`g.vf. h..h.+h.@h.ij @) X% |]  # #h.(' $h.bC %h.&h.Lg *h.=h.-h.X6 XS ;h.N).>h.P@.,h.'h.)h.8~.!h.~h.{h.]h.^h./h.(h.T#.OK _h.Df.:h.<h.[h.}h.|h.L%.1h.2h.e*.h@ MT 3h.4h.5h.6h.7h.8h.9h.0h.ah.bh.!^.ch.dh.58 BH eh.fh./W gh.hh.ih.p= xP jh.kh.le lh.iu mh.nh.q0 8% oh.ph.qh.BO rh.sh.th.8;.uh._. cf.)h b_.UR j).vh.wh.xh.yh.(>.zh.(7 O,.Ah.@=.Bh.Ch.st Dh.Eh.%[ Fh.Gh.Hh.Ih.Jh.Kh.Lh.",
"Mh.Nh.Oh.6d Ph.bh. i 2c #& %/.Qh.Pc G!.Rh.Sh.Th.Uh.Vh.Wh.Xh.Yh.h3.Zh.`h.@: i=. i..i.+i.'[ 69.tG k4.m,.@i.#i.5[.#T $i.%i.&i.*i.=i.u[ <L -i.;i.>i.,i.'i.)i.!i.~i.{i.8~ ]i.^i.[:.%;./i.(i._i.:i.<i.[i.}i.|i.1i.2i.3i.4i.5i.6i.7i.8i.9i.0i.M$.ai.bi.ci.di.Xc ei.fi.7  &. gi.N. hi.ii.ji.^;.c% 73 ki.ZI li.mi.ni.oi.pi.qi.Z3 s< ri.Z3 si.ti.=N P&.ui.vi.}A wi.U@ xi._6 '@.yi.zi.#b.Ai.Bi.Ci.Di.Ei.Fi.",
"Gi.Hi.Ii.Ji.Ki.Li.|} Mi.j@ Ni.Oi.Pi.(2.Qi.{u Ri.J!.Si.Ti.Ui.Vi.Wi.Xi.Yi.Zi.`i. j..j.{h.+j.@j.#j.s6 $j.%j.&j.*j.A= `U =j.-j.;j.QK >j.tM ,j.'j.)j. S +2.!j.~j.Yf.{j.]j.^j./j./U LN (j._j.:j.<j.[j.}j.|j.1j.2j.C!.Lx 3j.4j.5j.6j.Tc 7j.8j.9j.0j.&: aj.6h bj.Px  c cj.vJ dj.pU ej.fj.%6.gj.fV sA hj.m[ ij.jj.kj.LL lj.mj.nj.oj.pj.). ;N >9 o|.qj.(D #4 rj./e LL sj.6W +/.tj.0i.Y< <:.uj.vj.wj.xj.yj."};
