/* XPM */
static char * purplevaders_xpm[] = {
"610 610 3 1",
" 	c #000000",
".	c #211F1D",
"+	c #6A04C3",
"                                                                                                                                                                                                                                                                                                                                                                                                                                                                                                                                                                                                                                  ",
" .................... .................... .................... .................... .................... .................... .................... .................... .................... .................... .................... .................... .................... .................... .................... .................... .................... .................... .................... .................... .................... .................... .................... .................... .................... .................... .................... .................... .................... ",
" .................... .................... .................... .................... .................... .................... .................... .................... .................... .................... .................... .................... .................... .................... .................... .................... .................... .................... .................... .................... .................... .................... .................... .................... .................... .................... .................... .................... .................... ",
" .................... .................... .................... .................... .................... .................... .................... .................... .................... .................... .................... .................... .................... .................... .................... .................... .................... .................... .................... .................... .................... .................... .................... .................... .................... .................... .................... .................... .................... ",
" .................... .................... .................... .................... .................... .................... .................... .................... .................... .................... .................... .................... .................... .................... .................... .................... .................... .................... .................... .................... .................... .................... .................... .................... .................... .................... .................... .................... .................... ",
" .................... .................... .................... .................... .................... .................... .................... .................... .................... .................... .................... .................... .................... .................... .................... .................... .................... .................... .................... .................... .................... .................... .................... .................... .................... .................... .................... .................... .................... ",
" .................... .................... .................... .................... .................... .................... .................... .................... .................... .................... .................... .................... .................... .................... .................... .................... .................... .................... .................... .................... .................... .................... .................... .................... .................... .................... .................... .................... .................... ",
" .................... .................... .................... .................... .................... .................... .................... .................... .................... .................... .................... .................... .................... .................... .................... .................... .................... .................... .................... .................... .................... .................... .................... .................... .................... .................... .................... .................... .................... ",
" .................... .................... .................... .................... .................... .................... .................... .................... .................... .................... .................... .................... .................... .................... .................... .................... .................... .................... .................... .................... .................... .................... .................... .................... .................... .................... .................... .................... .................... ",
" .................... .................... .................... .................... .................... .................... .................... .................... .................... .................... .................... .................... .................... .................... .................... .................... .................... .................... .................... .................... .................... .................... .................... .................... .................... .................... .................... .................... .................... ",
" .................... .................... .................... .................... .................... .................... .................... .................... .................... .................... .................... .................... .................... .................... .................... .................... .................... .................... .................... .................... .................... .................... .................... .................... .................... .................... .................... .................... .................... ",
" .................... .................... .................... .................... .................... .................... .................... .................... .................... .................... .................... .................... .................... .................... .................... .................... .................... .................... .................... .................... .................... .................... .................... .................... .................... .................... .................... .................... .................... ",
" .................... .................... .................... .................... .................... .................... .................... .................... .................... .................... .................... .................... .................... .................... .................... .................... .................... .................... .................... .................... .................... .................... .................... .................... .................... .................... .................... .................... .................... ",
" .................... .................... .................... .................... .................... .................... .................... .................... .................... .................... .................... .................... .................... .................... .................... .................... .................... .................... .................... .................... .................... .................... .................... .................... .................... .................... .................... .................... .................... ",
" .................... .................... .................... .................... .................... .................... .................... .................... .................... .................... .................... .................... .................... .................... .................... .................... .................... .................... .................... .................... .................... .................... .................... .................... .................... .................... .................... .................... .................... ",
" .................... .................... .................... .................... .................... .................... .................... .................... .................... .................... .................... .................... .................... .................... .................... .................... .................... .................... .................... .................... .................... .................... .................... .................... .................... .................... .................... .................... .................... ",
" .................... .................... .................... .................... .................... .................... .................... .................... .................... .................... .................... .................... .................... .................... .................... .................... .................... .................... .................... .................... .................... .................... .................... .................... .................... .................... .................... .................... .................... ",
" .................... .................... .................... .................... .................... .................... .................... .................... .................... .................... .................... .................... .................... .................... .................... .................... .................... .................... .................... .................... .................... .................... .................... .................... .................... .................... .................... .................... .................... ",
" .................... .................... .................... .................... .................... .................... .................... .................... .................... .................... .................... .................... .................... .................... .................... .................... .................... .................... .................... .................... .................... .................... .................... .................... .................... .................... .................... .................... .................... ",
" .................... .................... .................... .................... .................... .................... .................... .................... .................... .................... .................... .................... .................... .................... .................... .................... .................... .................... .................... .................... .................... .................... .................... .................... .................... .................... .................... .................... .................... ",
" .................... .................... .................... .................... .................... .................... .................... .................... .................... .................... .................... .................... .................... .................... .................... .................... .................... .................... .................... .................... .................... .................... .................... .................... .................... .................... .................... .................... .................... ",
"                                                                                                                                                                                                                                                                                                                                                                                                                                                                                                                                                                                                                                  ",
" .................... .................... .................... .................... .................... .................... .................... .................... .................... .................... .................... .................... .................... .................... .................... .................... .................... .................... .................... .................... .................... .................... .................... .................... .................... .................... .................... .................... .................... ",
" .................... .................... .................... .................... .................... .................... .................... .................... .................... .................... .................... .................... .................... .................... .................... .................... .................... .................... .................... .................... .................... .................... .................... .................... .................... .................... .................... .................... .................... ",
" .................... .................... .................... .................... .................... .................... .................... .................... .................... .................... .................... .................... .................... .................... .................... .................... .................... .................... .................... .................... .................... .................... .................... .................... .................... .................... .................... .................... .................... ",
" .................... .................... .................... .................... .................... .................... .................... .................... .................... .................... .................... .................... .................... .................... .................... .................... .................... .................... .................... .................... .................... .................... .................... .................... .................... .................... .................... .................... .................... ",
" .................... .................... .................... .................... .................... .................... .................... .................... .................... .................... .................... .................... .................... .................... .................... .................... .................... .................... .................... .................... .................... .................... .................... .................... .................... .................... .................... .................... .................... ",
" .................... .................... .................... .................... .................... .................... .................... .................... .................... .................... .................... .................... .................... .................... .................... .................... .................... .................... .................... .................... .................... .................... .................... .................... .................... .................... .................... .................... .................... ",
" .................... .................... .................... .................... .................... .................... .................... .................... .................... .................... .................... .................... .................... .................... .................... .................... .................... .................... .................... .................... .................... .................... .................... .................... .................... .................... .................... .................... .................... ",
" .................... .................... .................... .................... .................... .................... .................... .................... .................... .................... .................... .................... .................... .................... .................... .................... .................... .................... .................... .................... .................... .................... .................... .................... .................... .................... .................... .................... .................... ",
" .................... .................... .................... .................... .................... .................... .................... .................... .................... .................... .................... .................... .................... .................... .................... .................... .................... .................... .................... .................... .................... .................... .................... .................... .................... .................... .................... .................... .................... ",
" .................... .................... .................... .................... .................... .................... .................... .................... .................... .................... .................... .................... .................... .................... .................... .................... .................... .................... .................... .................... .................... .................... .................... .................... .................... .................... .................... .................... .................... ",
" .................... .................... .................... .................... .................... .................... .................... .................... .................... .................... .................... .................... .................... .................... .................... .................... .................... .................... .................... .................... .................... .................... .................... .................... .................... .................... .................... .................... .................... ",
" .................... .................... .................... .................... .................... .................... .................... .................... .................... .................... .................... .................... .................... .................... .................... .................... .................... .................... .................... .................... .................... .................... .................... .................... .................... .................... .................... .................... .................... ",
" .................... .................... .................... .................... .................... .................... .................... .................... .................... .................... .................... .................... .................... .................... .................... .................... .................... .................... .................... .................... .................... .................... .................... .................... .................... .................... .................... .................... .................... ",
" .................... .................... .................... .................... .................... .................... .................... .................... .................... .................... .................... .................... .................... .................... .................... .................... .................... .................... .................... .................... .................... .................... .................... .................... .................... .................... .................... .................... .................... ",
" .................... .................... .................... .................... .................... .................... .................... .................... .................... .................... .................... .................... .................... .................... .................... .................... .................... .................... .................... .................... .................... .................... .................... .................... .................... .................... .................... .................... .................... ",
" .................... .................... .................... .................... .................... .................... .................... .................... .................... .................... .................... .................... .................... .................... .................... .................... .................... .................... .................... .................... .................... .................... .................... .................... .................... .................... .................... .................... .................... ",
" .................... .................... .................... .................... .................... .................... .................... .................... .................... .................... .................... .................... .................... .................... .................... .................... .................... .................... .................... .................... .................... .................... .................... .................... .................... .................... .................... .................... .................... ",
" .................... .................... .................... .................... .................... .................... .................... .................... .................... .................... .................... .................... .................... .................... .................... .................... .................... .................... .................... .................... .................... .................... .................... .................... .................... .................... .................... .................... .................... ",
" .................... .................... .................... .................... .................... .................... .................... .................... .................... .................... .................... .................... .................... .................... .................... .................... .................... .................... .................... .................... .................... .................... .................... .................... .................... .................... .................... .................... .................... ",
" .................... .................... .................... .................... .................... .................... .................... .................... .................... .................... .................... .................... .................... .................... .................... .................... .................... .................... .................... .................... .................... .................... .................... .................... .................... .................... .................... .................... .................... ",
"                                                                                                                                                                                                                                                                                                                                                                                                                                                                                                                                                                                                                                  ",
" .................... .................... .................... .................... .................... .................... .................... .................... .................... .................... .................... .................... .................... .................... .................... .................... .................... .................... .................... .................... .................... .................... .................... .................... .................... .................... .................... .................... .................... ",
" .................... .................... .................... .................... .................... .................... .................... .................... .................... .................... .................... .................... .................... .................... .................... .................... .................... .................... .................... .................... .................... .................... .................... .................... .................... .................... .................... .................... .................... ",
" .................... .................... .................... .................... .................... .................... .................... .................... .................... .................... .................... .................... .................... .................... .................... .................... .................... .................... .................... .................... .................... .................... .................... .................... .................... .................... .................... .................... .................... ",
" .................... .................... .................... .................... .................... .................... .................... .................... .................... .................... .................... .................... .................... .................... .................... .................... .................... .................... .................... .................... .................... .................... .................... .................... .................... .................... .................... .................... .................... ",
" .................... .................... .................... .................... .................... .................... .................... .................... .................... .................... .................... .................... .................... .................... .................... .................... .................... .................... .................... .................... .................... .................... .................... .................... .................... .................... .................... .................... .................... ",
" .................... .................... .................... .................... .................... .................... .................... .................... .................... .................... .................... .................... .................... .................... .................... .................... .................... .................... .................... .................... .................... .................... .................... .................... .................... .................... .................... .................... .................... ",
" .................... .................... .................... .................... .................... .................... .................... .................... .................... .................... .................... .................... .................... .................... .................... .................... .................... .................... .................... .................... .................... .................... .................... .................... .................... .................... .................... .................... .................... ",
" .................... .................... .................... .................... .................... .................... .................... .................... .................... .................... .................... .................... .................... .................... .................... .................... .................... .................... .................... .................... .................... .................... .................... .................... .................... .................... .................... .................... .................... ",
" .................... .................... .................... .................... .................... .................... .................... .................... .................... .................... .................... .................... .................... .................... .................... .................... .................... .................... .................... .................... .................... .................... .................... .................... .................... .................... .................... .................... .................... ",
" .................... .................... .................... .................... .................... .................... .................... .................... .................... .................... .................... .................... .................... .................... .................... .................... .................... .................... .................... .................... .................... .................... .................... .................... .................... .................... .................... .................... .................... ",
" .................... .................... .................... .................... .................... .................... .................... .................... .................... .................... .................... .................... .................... .................... .................... .................... .................... .................... .................... .................... .................... .................... .................... .................... .................... .................... .................... .................... .................... ",
" .................... .................... .................... .................... .................... .................... .................... .................... .................... .................... .................... .................... .................... .................... .................... .................... .................... .................... .................... .................... .................... .................... .................... .................... .................... .................... .................... .................... .................... ",
" .................... .................... .................... .................... .................... .................... .................... .................... .................... .................... .................... .................... .................... .................... .................... .................... .................... .................... .................... .................... .................... .................... .................... .................... .................... .................... .................... .................... .................... ",
" .................... .................... .................... .................... .................... .................... .................... .................... .................... .................... .................... .................... .................... .................... .................... .................... .................... .................... .................... .................... .................... .................... .................... .................... .................... .................... .................... .................... .................... ",
" .................... .................... .................... .................... .................... .................... .................... .................... .................... .................... .................... .................... .................... .................... .................... .................... .................... .................... .................... .................... .................... .................... .................... .................... .................... .................... .................... .................... .................... ",
" .................... .................... .................... .................... .................... .................... .................... .................... .................... .................... .................... .................... .................... .................... .................... .................... .................... .................... .................... .................... .................... .................... .................... .................... .................... .................... .................... .................... .................... ",
" .................... .................... .................... .................... .................... .................... .................... .................... .................... .................... .................... .................... .................... .................... .................... .................... .................... .................... .................... .................... .................... .................... .................... .................... .................... .................... .................... .................... .................... ",
" .................... .................... .................... .................... .................... .................... .................... .................... .................... .................... .................... .................... .................... .................... .................... .................... .................... .................... .................... .................... .................... .................... .................... .................... .................... .................... .................... .................... .................... ",
" .................... .................... .................... .................... .................... .................... .................... .................... .................... .................... .................... .................... .................... .................... .................... .................... .................... .................... .................... .................... .................... .................... .................... .................... .................... .................... .................... .................... .................... ",
" .................... .................... .................... .................... .................... .................... .................... .................... .................... .................... .................... .................... .................... .................... .................... .................... .................... .................... .................... .................... .................... .................... .................... .................... .................... .................... .................... .................... .................... ",
"                                                                                                                                                                                                                                                                                                                                                                                                                                                                                                                                                                                                                                  ",
" .................... .................... .................... .................... .................... .................... .................... .................... .................... .................... .................... .................... .................... .................... .................... .................... .................... .................... .................... .................... .................... .................... .................... .................... .................... .................... .................... .................... .................... ",
" .................... .................... .................... .................... .................... .................... .................... .................... .................... .................... .................... .................... .................... .................... .................... .................... .................... .................... .................... .................... .................... .................... .................... .................... .................... .................... .................... .................... .................... ",
" .................... .................... .................... .................... .................... .................... .................... .................... .................... .................... .................... .................... .................... .................... .................... .................... .................... .................... .................... .................... .................... .................... .................... .................... .................... .................... .................... .................... .................... ",
" .................... .................... .................... .................... .................... .................... .................... .................... .................... .................... .................... .................... .................... .................... .................... .................... .................... .................... .................... .................... .................... .................... .................... .................... .................... .................... .................... .................... .................... ",
" .................... .................... .................... .................... .................... .................... .................... .................... .................... .................... .................... .................... .................... .................... .................... .................... .................... .................... .................... .................... .................... .................... .................... .................... .................... .................... .................... .................... .................... ",
" .................... .................... .................... .................... .................... .................... .................... .................... .................... .................... .................... .................... .................... .................... .................... .................... .................... .................... .................... .................... .................... .................... .................... .................... .................... .................... .................... .................... .................... ",
" .................... .................... .................... .................... .................... .................... .................... .................... .................... .................... .................... .................... .................... .................... .................... .................... .................... .................... .................... .................... .................... .................... .................... .................... .................... .................... .................... .................... .................... ",
" .................... .................... .................... .................... .................... .................... .................... .................... .................... .................... .................... .................... .................... .................... .................... .................... .................... .................... .................... .................... .................... .................... .................... .................... .................... .................... .................... .................... .................... ",
" .................... .................... .................... .................... .................... .................... .................... .................... .................... .................... .................... .................... .................... .................... .................... .................... .................... .................... .................... .................... .................... .................... .................... .................... .................... .................... .................... .................... .................... ",
" .................... .................... .................... .................... .................... .................... .................... .................... .................... .................... .................... .................... .................... .................... .................... .................... .................... .................... .................... .................... .................... .................... .................... .................... .................... .................... .................... .................... .................... ",
" .................... .................... .................... .................... .................... .................... .................... .................... .................... .................... .................... .................... .................... .................... .................... .................... .................... .................... .................... .................... .................... .................... .................... .................... .................... .................... .................... .................... .................... ",
" .................... .................... .................... .................... .................... .................... .................... .................... .................... .................... .................... .................... .................... .................... .................... .................... .................... .................... .................... .................... .................... .................... .................... .................... .................... .................... .................... .................... .................... ",
" .................... .................... .................... .................... .................... .................... .................... .................... .................... .................... .................... .................... .................... .................... .................... .................... .................... .................... .................... .................... .................... .................... .................... .................... .................... .................... .................... .................... .................... ",
" .................... .................... .................... .................... .................... .................... .................... .................... .................... .................... .................... .................... .................... .................... .................... .................... .................... .................... .................... .................... .................... .................... .................... .................... .................... .................... .................... .................... .................... ",
" .................... .................... .................... .................... .................... .................... .................... .................... .................... .................... .................... .................... .................... .................... .................... .................... .................... .................... .................... .................... .................... .................... .................... .................... .................... .................... .................... .................... .................... ",
" .................... .................... .................... .................... .................... .................... .................... .................... .................... .................... .................... .................... .................... .................... .................... .................... .................... .................... .................... .................... .................... .................... .................... .................... .................... .................... .................... .................... .................... ",
" .................... .................... .................... .................... .................... .................... .................... .................... .................... .................... .................... .................... .................... .................... .................... .................... .................... .................... .................... .................... .................... .................... .................... .................... .................... .................... .................... .................... .................... ",
" .................... .................... .................... .................... .................... .................... .................... .................... .................... .................... .................... .................... .................... .................... .................... .................... .................... .................... .................... .................... .................... .................... .................... .................... .................... .................... .................... .................... .................... ",
" .................... .................... .................... .................... .................... .................... .................... .................... .................... .................... .................... .................... .................... .................... .................... .................... .................... .................... .................... .................... .................... .................... .................... .................... .................... .................... .................... .................... .................... ",
" .................... .................... .................... .................... .................... .................... .................... .................... .................... .................... .................... .................... .................... .................... .................... .................... .................... .................... .................... .................... .................... .................... .................... .................... .................... .................... .................... .................... .................... ",
"                                                                                                                                                                                                                                                                                                                                                                                                                                                                                                                                                                                                                                  ",
" .................... .................... .................... .................... .................... .................... .................... .................... .................... .................... .................... .................... .................... .................... .................... .................... .................... .................... .................... .................... .................... .................... .................... .................... .................... .................... .................... .................... .................... ",
" .................... .................... .................... .................... .................... .................... .................... .................... .................... .................... .................... .................... .................... .................... .................... .................... .................... .................... .................... .................... .................... .................... .................... .................... .................... .................... .................... .................... .................... ",
" .................... .................... .................... .................... .................... .................... .................... .................... .................... .................... .................... .................... .................... .................... .................... .................... .................... .................... .................... .................... .................... .................... .................... .................... .................... .................... .................... .................... .................... ",
" .................... .................... .................... .................... .................... .................... .................... .................... .................... .................... .................... .................... .................... .................... .................... .................... .................... .................... .................... .................... .................... .................... .................... .................... .................... .................... .................... .................... .................... ",
" .................... .................... .................... .................... .................... .................... .................... .................... .................... .................... .................... .................... .................... .................... .................... .................... .................... .................... .................... .................... .................... .................... .................... .................... .................... .................... .................... .................... .................... ",
" .................... .................... .................... .................... .................... .................... .................... .................... .................... .................... .................... .................... .................... .................... .................... .................... .................... .................... .................... .................... .................... .................... .................... .................... .................... .................... .................... .................... .................... ",
" .................... .................... .................... .................... .................... .................... .................... .................... .................... .................... .................... .................... .................... .................... .................... .................... .................... .................... .................... .................... .................... .................... .................... .................... .................... .................... .................... .................... .................... ",
" .................... .................... .................... .................... .................... .................... .................... .................... .................... .................... .................... .................... .................... .................... .................... .................... .................... .................... .................... .................... .................... .................... .................... .................... .................... .................... .................... .................... .................... ",
" .................... .................... .................... .................... .................... .................... .................... .................... .................... .................... .................... .................... .................... .................... .................... .................... .................... .................... .................... .................... .................... .................... .................... .................... .................... .................... .................... .................... .................... ",
" .................... .................... .................... .................... .................... .................... .................... .................... .................... .................... .................... .................... .................... .................... .................... .................... .................... .................... .................... .................... .................... .................... .................... .................... .................... .................... .................... .................... .................... ",
" .................... .................... .................... .................... .................... .................... .................... .................... .................... .................... .................... .................... .................... .................... .................... .................... .................... .................... .................... .................... .................... .................... .................... .................... .................... .................... .................... .................... .................... ",
" .................... .................... .................... .................... .................... .................... .................... .................... .................... .................... .................... .................... .................... .................... .................... .................... .................... .................... .................... .................... .................... .................... .................... .................... .................... .................... .................... .................... .................... ",
" .................... .................... .................... .................... .................... .................... .................... .................... .................... .................... .................... .................... .................... .................... .................... .................... .................... .................... .................... .................... .................... .................... .................... .................... .................... .................... .................... .................... .................... ",
" .................... .................... .................... .................... .................... .................... .................... .................... .................... .................... .................... .................... .................... .................... .................... .................... .................... .................... .................... .................... .................... .................... .................... .................... .................... .................... .................... .................... .................... ",
" .................... .................... .................... .................... .................... .................... .................... .................... .................... .................... .................... .................... .................... .................... .................... .................... .................... .................... .................... .................... .................... .................... .................... .................... .................... .................... .................... .................... .................... ",
" .................... .................... .................... .................... .................... .................... .................... .................... .................... .................... .................... .................... .................... .................... .................... .................... .................... .................... .................... .................... .................... .................... .................... .................... .................... .................... .................... .................... .................... ",
" .................... .................... .................... .................... .................... .................... .................... .................... .................... .................... .................... .................... .................... .................... .................... .................... .................... .................... .................... .................... .................... .................... .................... .................... .................... .................... .................... .................... .................... ",
" .................... .................... .................... .................... .................... .................... .................... .................... .................... .................... .................... .................... .................... .................... .................... .................... .................... .................... .................... .................... .................... .................... .................... .................... .................... .................... .................... .................... .................... ",
" .................... .................... .................... .................... .................... .................... .................... .................... .................... .................... .................... .................... .................... .................... .................... .................... .................... .................... .................... .................... .................... .................... .................... .................... .................... .................... .................... .................... .................... ",
" .................... .................... .................... .................... .................... .................... .................... .................... .................... .................... .................... .................... .................... .................... .................... .................... .................... .................... .................... .................... .................... .................... .................... .................... .................... .................... .................... .................... .................... ",
"                                                                                                                                                                                                                                                                                                                                                                                                                                                                                                                                                                                                                                  ",
" .................... .................... .................... .................... .................... .................... .................... .................... .................... .................... .................... .................... .................... .................... .................... .................... .................... .................... .................... .................... .................... .................... .................... .................... .................... .................... .................... .................... .................... ",
" .................... .................... .................... .................... .................... .................... .................... .................... .................... .................... .................... .................... .................... .................... .................... .................... .................... .................... .................... .................... .................... .................... .................... .................... .................... .................... .................... .................... .................... ",
" .................... .................... .................... .................... .................... .................... .................... .................... .................... .................... .................... .................... .................... .................... .................... .................... .................... .................... .................... .................... .................... .................... .................... .................... .................... .................... .................... .................... .................... ",
" .................... .................... .................... .................... .................... .................... .................... .................... .................... .................... .................... .................... .................... .................... .................... .................... .................... .................... .................... .................... .................... .................... .................... .................... .................... .................... .................... .................... .................... ",
" .................... .................... .................... .................... .................... .................... .................... .................... .................... .................... .................... .................... .................... .................... .................... .................... .................... .................... .................... .................... .................... .................... .................... .................... .................... .................... .................... .................... .................... ",
" .................... .................... .................... .................... .................... .................... .................... .................... .................... .................... .................... .................... .................... .................... .................... .................... .................... .................... .................... .................... .................... .................... .................... .................... .................... .................... .................... .................... .................... ",
" .................... .................... .................... .................... .................... .................... .................... .................... .................... .................... .................... .................... .................... .................... .................... .................... .................... .................... .................... .................... .................... .................... .................... .................... .................... .................... .................... .................... .................... ",
" .................... .................... .................... .................... .................... .................... .................... .................... .................... .................... .................... .................... .................... .................... .................... .................... .................... .................... .................... .................... .................... .................... .................... .................... .................... .................... .................... .................... .................... ",
" .................... .................... .................... .................... .................... .................... .................... .................... .................... .................... .................... .................... .................... .................... .................... .................... .................... .................... .................... .................... .................... .................... .................... .................... .................... .................... .................... .................... .................... ",
" .................... .................... .................... .................... .................... .................... .................... .................... .................... .................... .................... .................... .................... .................... .................... .................... .................... .................... .................... .................... .................... .................... .................... .................... .................... .................... .................... .................... .................... ",
" .................... .................... .................... .................... .................... .................... .................... .................... .................... .................... .................... .................... .................... .................... .................... .................... .................... .................... .................... .................... .................... .................... .................... .................... .................... .................... .................... .................... .................... ",
" .................... .................... .................... .................... .................... .................... .................... .................... .................... .................... .................... .................... .................... .................... .................... .................... .................... .................... .................... .................... .................... .................... .................... .................... .................... .................... .................... .................... .................... ",
" .................... .................... .................... .................... .................... .................... .................... .................... .................... .................... .................... .................... .................... .................... .................... .................... .................... .................... .................... .................... .................... .................... .................... .................... .................... .................... .................... .................... .................... ",
" .................... .................... .................... .................... .................... .................... .................... .................... .................... .................... .................... .................... .................... .................... .................... .................... .................... .................... .................... .................... .................... .................... .................... .................... .................... .................... .................... .................... .................... ",
" .................... .................... .................... .................... .................... .................... .................... .................... .................... .................... .................... .................... .................... .................... .................... .................... .................... .................... .................... .................... .................... .................... .................... .................... .................... .................... .................... .................... .................... ",
" .................... .................... .................... .................... .................... .................... .................... .................... .................... .................... .................... .................... .................... .................... .................... .................... .................... .................... .................... .................... .................... .................... .................... .................... .................... .................... .................... .................... .................... ",
" .................... .................... .................... .................... .................... .................... .................... .................... .................... .................... .................... .................... .................... .................... .................... .................... .................... .................... .................... .................... .................... .................... .................... .................... .................... .................... .................... .................... .................... ",
" .................... .................... .................... .................... .................... .................... .................... .................... .................... .................... .................... .................... .................... .................... .................... .................... .................... .................... .................... .................... .................... .................... .................... .................... .................... .................... .................... .................... .................... ",
" .................... .................... .................... .................... .................... .................... .................... .................... .................... .................... .................... .................... .................... .................... .................... .................... .................... .................... .................... .................... .................... .................... .................... .................... .................... .................... .................... .................... .................... ",
" .................... .................... .................... .................... .................... .................... .................... .................... .................... .................... .................... .................... .................... .................... .................... .................... .................... .................... .................... .................... .................... .................... .................... .................... .................... .................... .................... .................... .................... ",
"                                                                                                                                                                                                                                                                                                                                                                                                                                                                                                                                                                                                                                  ",
" .................... .................... .................... .................... .................... .................... .................... .................... .................... .................... .................... .................... .................... .................... .................... .................... .................... .................... .................... .................... .................... .................... .................... .................... .................... .................... .................... .................... .................... ",
" .................... .................... .................... .................... .................... .................... .................... .................... .................... .................... .................... .................... .................... .................... .................... .................... .................... .................... .................... .................... .................... .................... .................... .................... .................... .................... .................... .................... .................... ",
" .................... .................... .................... .................... .................... .................... .................... .................... .................... .................... .................... .................... .................... .................... .................... .................... .................... .................... .................... .................... .................... .................... .................... .................... .................... .................... .................... .................... .................... ",
" .................... .................... .................... .................... .................... .................... .................... .................... .................... .................... .................... .................... .................... .................... .................... .................... .................... .................... .................... .................... .................... .................... .................... .................... .................... .................... .................... .................... .................... ",
" .................... .................... .................... .................... .................... .................... .................... .................... .................... .................... .................... .................... .................... .................... .................... .................... .................... .................... .................... .................... .................... .................... .................... .................... .................... .................... .................... .................... .................... ",
" .................... .................... .................... .................... .................... .................... .................... .................... .................... .................... .................... .................... .................... .................... .................... .................... .................... .................... .................... .................... .................... .................... .................... .................... .................... .................... .................... .................... .................... ",
" .................... .................... .................... .................... .................... .................... .................... .................... .................... .................... .................... .................... .................... .................... .................... .................... .................... .................... .................... .................... .................... .................... .................... .................... .................... .................... .................... .................... .................... ",
" .................... .................... .................... .................... .................... .................... .................... .................... .................... .................... .................... .................... .................... .................... .................... .................... .................... .................... .................... .................... .................... .................... .................... .................... .................... .................... .................... .................... .................... ",
" .................... .................... .................... .................... .................... .................... .................... .................... .................... .................... .................... .................... .................... .................... .................... .................... .................... .................... .................... .................... .................... .................... .................... .................... .................... .................... .................... .................... .................... ",
" .................... .................... .................... .................... .................... .................... .................... .................... .................... .................... .................... .................... .................... .................... .................... .................... .................... .................... .................... .................... .................... .................... .................... .................... .................... .................... .................... .................... .................... ",
" .................... .................... .................... .................... .................... .................... .................... .................... .................... .................... .................... .................... .................... .................... .................... .................... .................... .................... .................... .................... .................... .................... .................... .................... .................... .................... .................... .................... .................... ",
" .................... .................... .................... .................... .................... .................... .................... .................... .................... .................... .................... .................... .................... .................... .................... .................... .................... .................... .................... .................... .................... .................... .................... .................... .................... .................... .................... .................... .................... ",
" .................... .................... .................... .................... .................... .................... .................... .................... .................... .................... .................... .................... .................... .................... .................... .................... .................... .................... .................... .................... .................... .................... .................... .................... .................... .................... .................... .................... .................... ",
" .................... .................... .................... .................... .................... .................... .................... .................... .................... .................... .................... .................... .................... .................... .................... .................... .................... .................... .................... .................... .................... .................... .................... .................... .................... .................... .................... .................... .................... ",
" .................... .................... .................... .................... .................... .................... .................... .................... .................... .................... .................... .................... .................... .................... .................... .................... .................... .................... .................... .................... .................... .................... .................... .................... .................... .................... .................... .................... .................... ",
" .................... .................... .................... .................... .................... .................... .................... .................... .................... .................... .................... .................... .................... .................... .................... .................... .................... .................... .................... .................... .................... .................... .................... .................... .................... .................... .................... .................... .................... ",
" .................... .................... .................... .................... .................... .................... .................... .................... .................... .................... .................... .................... .................... .................... .................... .................... .................... .................... .................... .................... .................... .................... .................... .................... .................... .................... .................... .................... .................... ",
" .................... .................... .................... .................... .................... .................... .................... .................... .................... .................... .................... .................... .................... .................... .................... .................... .................... .................... .................... .................... .................... .................... .................... .................... .................... .................... .................... .................... .................... ",
" .................... .................... .................... .................... .................... .................... .................... .................... .................... .................... .................... .................... .................... .................... .................... .................... .................... .................... .................... .................... .................... .................... .................... .................... .................... .................... .................... .................... .................... ",
" .................... .................... .................... .................... .................... .................... .................... .................... .................... .................... .................... .................... .................... .................... .................... .................... .................... .................... .................... .................... .................... .................... .................... .................... .................... .................... .................... .................... .................... ",
"                                                                                                                                                                                                                                                                                                                                                                                                                                                                                                                                                                                                                                  ",
" .................... .................... .................... .................... .................... .................... .................... .................... .................... .................... .................... .................... .................... .................... .................... .................... .................... .................... .................... .................... .................... .................... .................... .................... .................... .................... .................... .................... .................... ",
" .................... .................... .................... .................... .................... .................... .................... .................... .................... .................... .................... .................... .................... .................... .................... .................... .................... .................... .................... .................... .................... .................... .................... .................... .................... .................... .................... .................... .................... ",
" .................... .................... .................... .................... .................... .................... .................... .................... .................... .................... .................... .................... .................... .................... .................... .................... .................... .................... .................... .................... .................... .................... .................... .................... .................... .................... .................... .................... .................... ",
" .................... .................... .................... .................... .................... .................... .................... .................... .................... .................... .................... .................... .................... .................... .................... .................... .................... .................... .................... .................... .................... .................... .................... .................... .................... .................... .................... .................... .................... ",
" .................... .................... .................... .................... .................... .................... .................... .................... .................... .................... .................... .................... .................... .................... .................... .................... .................... .................... .................... .................... .................... .................... .................... .................... .................... .................... .................... .................... .................... ",
" .................... .................... .................... .................... .................... .................... .................... .................... .................... .................... .................... .................... .................... .................... .................... .................... .................... .................... .................... .................... .................... .................... .................... .................... .................... .................... .................... .................... .................... ",
" .................... .................... .................... .................... .................... .................... .................... .................... .................... .................... .................... .................... .................... .................... .................... .................... .................... .................... .................... .................... .................... .................... .................... .................... .................... .................... .................... .................... .................... ",
" .................... .................... .................... .................... .................... .................... .................... .................... .................... .................... .................... .................... .................... .................... .................... .................... .................... .................... .................... .................... .................... .................... .................... .................... .................... .................... .................... .................... .................... ",
" .................... .................... .................... .................... .................... .................... .................... .................... .................... .................... .................... .................... .................... .................... .................... .................... .................... .................... .................... .................... .................... .................... .................... .................... .................... .................... .................... .................... .................... ",
" .................... .................... .................... .................... .................... .................... .................... .................... .................... .................... .................... .................... .................... .................... .................... .................... .................... .................... .................... .................... .................... .................... .................... .................... .................... .................... .................... .................... .................... ",
" .................... .................... .................... .................... .................... .................... .................... .................... .................... .................... .................... .................... .................... .................... .................... .................... .................... .................... .................... .................... .................... .................... .................... .................... .................... .................... .................... .................... .................... ",
" .................... .................... .................... .................... .................... .................... .................... .................... .................... .................... .................... .................... .................... .................... .................... .................... .................... .................... .................... .................... .................... .................... .................... .................... .................... .................... .................... .................... .................... ",
" .................... .................... .................... .................... .................... .................... .................... .................... .................... .................... .................... .................... .................... .................... .................... .................... .................... .................... .................... .................... .................... .................... .................... .................... .................... .................... .................... .................... .................... ",
" .................... .................... .................... .................... .................... .................... .................... .................... .................... .................... .................... .................... .................... .................... .................... .................... .................... .................... .................... .................... .................... .................... .................... .................... .................... .................... .................... .................... .................... ",
" .................... .................... .................... .................... .................... .................... .................... .................... .................... .................... .................... .................... .................... .................... .................... .................... .................... .................... .................... .................... .................... .................... .................... .................... .................... .................... .................... .................... .................... ",
" .................... .................... .................... .................... .................... .................... .................... .................... .................... .................... .................... .................... .................... .................... .................... .................... .................... .................... .................... .................... .................... .................... .................... .................... .................... .................... .................... .................... .................... ",
" .................... .................... .................... .................... .................... .................... .................... .................... .................... .................... .................... .................... .................... .................... .................... .................... .................... .................... .................... .................... .................... .................... .................... .................... .................... .................... .................... .................... .................... ",
" .................... .................... .................... .................... .................... .................... .................... .................... .................... .................... .................... .................... .................... .................... .................... .................... .................... .................... .................... .................... .................... .................... .................... .................... .................... .................... .................... .................... .................... ",
" .................... .................... .................... .................... .................... .................... .................... .................... .................... .................... .................... .................... .................... .................... .................... .................... .................... .................... .................... .................... .................... .................... .................... .................... .................... .................... .................... .................... .................... ",
" .................... .................... .................... .................... .................... .................... .................... .................... .................... .................... .................... .................... .................... .................... .................... .................... .................... .................... .................... .................... .................... .................... .................... .................... .................... .................... .................... .................... .................... ",
"                                                                                                                                                                                                                                                                                                                                                                                                                                                                                                                                                                                                                                  ",
" .................... .................... .................... .................... .................... .................... .................... .................... .................... .................... .................... .................... .................... .................... .................... .................... .................... .................... .................... .................... .................... .................... .................... .................... .................... .................... .................... .................... .................... ",
" .................... .................... .................... .................... .................... .................... .................... .................... .................... .................... .................... .................... .................... .................... .................... .................... .................... .................... .................... .................... .................... .................... .................... .................... .................... .................... .................... .................... .................... ",
" .................... .................... .................... .................... .................... .................... .................... .................... .................... .................... .................... .................... .................... .................... .................... .................... .................... .................... .................... .................... .................... .................... .................... .................... .................... .................... .................... .................... .................... ",
" .................... .................... .................... .................... .................... .................... .................... .................... .................... .................... .................... .................... .................... .................... .................... .................... .................... .................... .................... .................... .................... .................... .................... .................... .................... .................... .................... .................... .................... ",
" .................... .................... .................... .................... .................... .................... .................... .................... .................... .................... .................... .................... .................... .................... .................... .................... .................... .................... .................... .................... .................... .................... .................... .................... .................... .................... .................... .................... .................... ",
" .................... .................... .................... .................... .................... .................... .................... .................... .................... .................... .................... .................... .................... .................... .................... .................... .................... .................... .................... .................... .................... .................... .................... .................... .................... .................... .................... .................... .................... ",
" .................... .................... .................... .................... .................... .................... .................... .................... .................... .................... .................... .................... .................... .................... .................... .................... .................... .................... .................... .................... .................... .................... .................... .................... .................... .................... .................... .................... .................... ",
" .................... .................... .................... .................... .................... .................... .................... .................... .................... .................... .................... .................... .................... .................... .................... .................... .................... .................... .................... .................... .................... .................... .................... .................... .................... .................... .................... .................... .................... ",
" .................... .................... .................... .................... .................... .................... .................... .................... .................... .................... .................... .................... .................... .................... .................... .................... .................... .................... .................... .................... .................... .................... .................... .................... .................... .................... .................... .................... .................... ",
" .................... .................... .................... .................... .................... .................... .................... .................... .................... .................... .................... .................... .................... .................... .................... .................... .................... .................... .................... .................... .................... .................... .................... .................... .................... .................... .................... .................... .................... ",
" .................... .................... .................... .................... .................... .................... .................... .................... .................... .................... .................... .................... .................... .................... .................... .................... .................... .................... .................... .................... .................... .................... .................... .................... .................... .................... .................... .................... .................... ",
" .................... .................... .................... .................... .................... .................... .................... .................... .................... .................... .................... .................... .................... .................... .................... .................... .................... .................... .................... .................... .................... .................... .................... .................... .................... .................... .................... .................... .................... ",
" .................... .................... .................... .................... .................... .................... .................... .................... .................... .................... .................... .................... .................... .................... .................... .................... .................... .................... .................... .................... .................... .................... .................... .................... .................... .................... .................... .................... .................... ",
" .................... .................... .................... .................... .................... .................... .................... .................... .................... .................... .................... .................... .................... .................... .................... .................... .................... .................... .................... .................... .................... .................... .................... .................... .................... .................... .................... .................... .................... ",
" .................... .................... .................... .................... .................... .................... .................... .................... .................... .................... .................... .................... .................... .................... .................... .................... .................... .................... .................... .................... .................... .................... .................... .................... .................... .................... .................... .................... .................... ",
" .................... .................... .................... .................... .................... .................... .................... .................... .................... .................... .................... .................... .................... .................... .................... .................... .................... .................... .................... .................... .................... .................... .................... .................... .................... .................... .................... .................... .................... ",
" .................... .................... .................... .................... .................... .................... .................... .................... .................... .................... .................... .................... .................... .................... .................... .................... .................... .................... .................... .................... .................... .................... .................... .................... .................... .................... .................... .................... .................... ",
" .................... .................... .................... .................... .................... .................... .................... .................... .................... .................... .................... .................... .................... .................... .................... .................... .................... .................... .................... .................... .................... .................... .................... .................... .................... .................... .................... .................... .................... ",
" .................... .................... .................... .................... .................... .................... .................... .................... .................... .................... .................... .................... .................... .................... .................... .................... .................... .................... .................... .................... .................... .................... .................... .................... .................... .................... .................... .................... .................... ",
" .................... .................... .................... .................... .................... .................... .................... .................... .................... .................... .................... .................... .................... .................... .................... .................... .................... .................... .................... .................... .................... .................... .................... .................... .................... .................... .................... .................... .................... ",
"                                                                                                                                                                                                                                                                                                                                                                                                                                                                                                                                                                                                                                  ",
" .................... .................... .................... .................... .................... .................... .................... .................... .................... .................... .................... .................... .................... .................... .................... .................... .................... .................... .................... .................... .................... .................... .................... .................... .................... .................... .................... .................... .................... ",
" .................... .................... .................... .................... .................... .................... .................... .................... .................... .................... .................... .................... .................... .................... .................... .................... .................... .................... .................... .................... .................... .................... .................... .................... .................... .................... .................... .................... .................... ",
" .................... .................... .................... .................... .................... .................... .................... .................... .................... .................... .................... .................... .................... .................... .................... .................... .................... .................... .................... .................... .................... .................... .................... .................... .................... .................... .................... .................... .................... ",
" .................... .................... .................... .................... .................... .................... .................... .................... .................... .................... .................... .................... .................... .................... .................... .................... .................... .................... .................... .................... .................... .................... .................... .................... .................... .................... .................... .................... .................... ",
" .................... .................... .................... .................... .................... .................... .................... .................... .................... .................... .................... .................... .................... .................... .................... .................... .................... .................... .................... .................... .................... .................... .................... .................... .................... .................... .................... .................... .................... ",
" .................... .................... .................... .................... .................... .................... .................... .................... .................... .................... .................... .................... .................... .................... .................... .................... .................... .................... .................... .................... .................... .................... .................... .................... .................... .................... .................... .................... .................... ",
" .................... .................... .................... .................... .................... .................... .................... .................... .................... .................... .................... .................... .................... .................... .................... .................... .................... .................... .................... .................... .................... .................... .................... .................... .................... .................... .................... .................... .................... ",
" .................... .................... .................... .................... .................... .................... .................... .................... .................... .................... .................... .................... .................... .................... .................... .................... .................... .................... .................... .................... .................... .................... .................... .................... .................... .................... .................... .................... .................... ",
" .................... .................... .................... .................... .................... .................... .................... .................... .................... .................... .................... .................... .................... .................... .................... .................... .................... .................... .................... .................... .................... .................... .................... .................... .................... .................... .................... .................... .................... ",
" .................... .................... .................... .................... .................... .................... .................... .................... .................... .................... .................... .................... .................... .................... .................... .................... .................... .................... .................... .................... .................... .................... .................... .................... .................... .................... .................... .................... .................... ",
" .................... .................... .................... .................... .................... .................... .................... .................... .................... .................... .................... .................... .................... .................... .................... .................... .................... .................... .................... .................... .................... .................... .................... .................... .................... .................... .................... .................... .................... ",
" .................... .................... .................... .................... .................... .................... .................... .................... .................... .................... .................... .................... .................... .................... .................... .................... .................... .................... .................... .................... .................... .................... .................... .................... .................... .................... .................... .................... .................... ",
" .................... .................... .................... .................... .................... .................... .................... .................... .................... .................... .................... .................... .................... .................... .................... .................... .................... .................... .................... .................... .................... .................... .................... .................... .................... .................... .................... .................... .................... ",
" .................... .................... .................... .................... .................... .................... .................... .................... .................... .................... .................... .................... .................... .................... .................... .................... .................... .................... .................... .................... .................... .................... .................... .................... .................... .................... .................... .................... .................... ",
" .................... .................... .................... .................... .................... .................... .................... .................... .................... .................... .................... .................... .................... .................... .................... .................... .................... .................... .................... .................... .................... .................... .................... .................... .................... .................... .................... .................... .................... ",
" .................... .................... .................... .................... .................... .................... .................... .................... .................... .................... .................... .................... .................... .................... .................... .................... .................... .................... .................... .................... .................... .................... .................... .................... .................... .................... .................... .................... .................... ",
" .................... .................... .................... .................... .................... .................... .................... .................... .................... .................... .................... .................... .................... .................... .................... .................... .................... .................... .................... .................... .................... .................... .................... .................... .................... .................... .................... .................... .................... ",
" .................... .................... .................... .................... .................... .................... .................... .................... .................... .................... .................... .................... .................... .................... .................... .................... .................... .................... .................... .................... .................... .................... .................... .................... .................... .................... .................... .................... .................... ",
" .................... .................... .................... .................... .................... .................... .................... .................... .................... .................... .................... .................... .................... .................... .................... .................... .................... .................... .................... .................... .................... .................... .................... .................... .................... .................... .................... .................... .................... ",
" .................... .................... .................... .................... .................... .................... .................... .................... .................... .................... .................... .................... .................... .................... .................... .................... .................... .................... .................... .................... .................... .................... .................... .................... .................... .................... .................... .................... .................... ",
"                                                                                                                                                                                                                                                                                                                                                                                                                                                                                                                                                                                                                                  ",
" .................... .................... .................... ++++++++++++++++++++ .................... .................... .................... .................... .................... ++++++++++++++++++++ .................... .................... .................... .................... .................... .................... .................... .................... .................... ++++++++++++++++++++ .................... .................... .................... .................... .................... ++++++++++++++++++++ .................... .................... .................... ",
" .................... .................... .................... ++++++++++++++++++++ .................... .................... .................... .................... .................... ++++++++++++++++++++ .................... .................... .................... .................... .................... .................... .................... .................... .................... ++++++++++++++++++++ .................... .................... .................... .................... .................... ++++++++++++++++++++ .................... .................... .................... ",
" .................... .................... .................... ++++++++++++++++++++ .................... .................... .................... .................... .................... ++++++++++++++++++++ .................... .................... .................... .................... .................... .................... .................... .................... .................... ++++++++++++++++++++ .................... .................... .................... .................... .................... ++++++++++++++++++++ .................... .................... .................... ",
" .................... .................... .................... ++++++++++++++++++++ .................... .................... .................... .................... .................... ++++++++++++++++++++ .................... .................... .................... .................... .................... .................... .................... .................... .................... ++++++++++++++++++++ .................... .................... .................... .................... .................... ++++++++++++++++++++ .................... .................... .................... ",
" .................... .................... .................... ++++++++++++++++++++ .................... .................... .................... .................... .................... ++++++++++++++++++++ .................... .................... .................... .................... .................... .................... .................... .................... .................... ++++++++++++++++++++ .................... .................... .................... .................... .................... ++++++++++++++++++++ .................... .................... .................... ",
" .................... .................... .................... ++++++++++++++++++++ .................... .................... .................... .................... .................... ++++++++++++++++++++ .................... .................... .................... .................... .................... .................... .................... .................... .................... ++++++++++++++++++++ .................... .................... .................... .................... .................... ++++++++++++++++++++ .................... .................... .................... ",
" .................... .................... .................... ++++++++++++++++++++ .................... .................... .................... .................... .................... ++++++++++++++++++++ .................... .................... .................... .................... .................... .................... .................... .................... .................... ++++++++++++++++++++ .................... .................... .................... .................... .................... ++++++++++++++++++++ .................... .................... .................... ",
" .................... .................... .................... ++++++++++++++++++++ .................... .................... .................... .................... .................... ++++++++++++++++++++ .................... .................... .................... .................... .................... .................... .................... .................... .................... ++++++++++++++++++++ .................... .................... .................... .................... .................... ++++++++++++++++++++ .................... .................... .................... ",
" .................... .................... .................... ++++++++++++++++++++ .................... .................... .................... .................... .................... ++++++++++++++++++++ .................... .................... .................... .................... .................... .................... .................... .................... .................... ++++++++++++++++++++ .................... .................... .................... .................... .................... ++++++++++++++++++++ .................... .................... .................... ",
" .................... .................... .................... ++++++++++++++++++++ .................... .................... .................... .................... .................... ++++++++++++++++++++ .................... .................... .................... .................... .................... .................... .................... .................... .................... ++++++++++++++++++++ .................... .................... .................... .................... .................... ++++++++++++++++++++ .................... .................... .................... ",
" .................... .................... .................... ++++++++++++++++++++ .................... .................... .................... .................... .................... ++++++++++++++++++++ .................... .................... .................... .................... .................... .................... .................... .................... .................... ++++++++++++++++++++ .................... .................... .................... .................... .................... ++++++++++++++++++++ .................... .................... .................... ",
" .................... .................... .................... ++++++++++++++++++++ .................... .................... .................... .................... .................... ++++++++++++++++++++ .................... .................... .................... .................... .................... .................... .................... .................... .................... ++++++++++++++++++++ .................... .................... .................... .................... .................... ++++++++++++++++++++ .................... .................... .................... ",
" .................... .................... .................... ++++++++++++++++++++ .................... .................... .................... .................... .................... ++++++++++++++++++++ .................... .................... .................... .................... .................... .................... .................... .................... .................... ++++++++++++++++++++ .................... .................... .................... .................... .................... ++++++++++++++++++++ .................... .................... .................... ",
" .................... .................... .................... ++++++++++++++++++++ .................... .................... .................... .................... .................... ++++++++++++++++++++ .................... .................... .................... .................... .................... .................... .................... .................... .................... ++++++++++++++++++++ .................... .................... .................... .................... .................... ++++++++++++++++++++ .................... .................... .................... ",
" .................... .................... .................... ++++++++++++++++++++ .................... .................... .................... .................... .................... ++++++++++++++++++++ .................... .................... .................... .................... .................... .................... .................... .................... .................... ++++++++++++++++++++ .................... .................... .................... .................... .................... ++++++++++++++++++++ .................... .................... .................... ",
" .................... .................... .................... ++++++++++++++++++++ .................... .................... .................... .................... .................... ++++++++++++++++++++ .................... .................... .................... .................... .................... .................... .................... .................... .................... ++++++++++++++++++++ .................... .................... .................... .................... .................... ++++++++++++++++++++ .................... .................... .................... ",
" .................... .................... .................... ++++++++++++++++++++ .................... .................... .................... .................... .................... ++++++++++++++++++++ .................... .................... .................... .................... .................... .................... .................... .................... .................... ++++++++++++++++++++ .................... .................... .................... .................... .................... ++++++++++++++++++++ .................... .................... .................... ",
" .................... .................... .................... ++++++++++++++++++++ .................... .................... .................... .................... .................... ++++++++++++++++++++ .................... .................... .................... .................... .................... .................... .................... .................... .................... ++++++++++++++++++++ .................... .................... .................... .................... .................... ++++++++++++++++++++ .................... .................... .................... ",
" .................... .................... .................... ++++++++++++++++++++ .................... .................... .................... .................... .................... ++++++++++++++++++++ .................... .................... .................... .................... .................... .................... .................... .................... .................... ++++++++++++++++++++ .................... .................... .................... .................... .................... ++++++++++++++++++++ .................... .................... .................... ",
" .................... .................... .................... ++++++++++++++++++++ .................... .................... .................... .................... .................... ++++++++++++++++++++ .................... .................... .................... .................... .................... .................... .................... .................... .................... ++++++++++++++++++++ .................... .................... .................... .................... .................... ++++++++++++++++++++ .................... .................... .................... ",
"                                                                                                                                                                                                                                                                                                                                                                                                                                                                                                                                                                                                                                  ",
" .................... .................... .................... .................... ++++++++++++++++++++ .................... .................... .................... ++++++++++++++++++++ .................... .................... .................... .................... .................... .................... .................... .................... ++++++++++++++++++++ .................... .................... ++++++++++++++++++++ .................... .................... .................... ++++++++++++++++++++ .................... .................... ++++++++++++++++++++ .................... ",
" .................... .................... .................... .................... ++++++++++++++++++++ .................... .................... .................... ++++++++++++++++++++ .................... .................... .................... .................... .................... .................... .................... .................... ++++++++++++++++++++ .................... .................... ++++++++++++++++++++ .................... .................... .................... ++++++++++++++++++++ .................... .................... ++++++++++++++++++++ .................... ",
" .................... .................... .................... .................... ++++++++++++++++++++ .................... .................... .................... ++++++++++++++++++++ .................... .................... .................... .................... .................... .................... .................... .................... ++++++++++++++++++++ .................... .................... ++++++++++++++++++++ .................... .................... .................... ++++++++++++++++++++ .................... .................... ++++++++++++++++++++ .................... ",
" .................... .................... .................... .................... ++++++++++++++++++++ .................... .................... .................... ++++++++++++++++++++ .................... .................... .................... .................... .................... .................... .................... .................... ++++++++++++++++++++ .................... .................... ++++++++++++++++++++ .................... .................... .................... ++++++++++++++++++++ .................... .................... ++++++++++++++++++++ .................... ",
" .................... .................... .................... .................... ++++++++++++++++++++ .................... .................... .................... ++++++++++++++++++++ .................... .................... .................... .................... .................... .................... .................... .................... ++++++++++++++++++++ .................... .................... ++++++++++++++++++++ .................... .................... .................... ++++++++++++++++++++ .................... .................... ++++++++++++++++++++ .................... ",
" .................... .................... .................... .................... ++++++++++++++++++++ .................... .................... .................... ++++++++++++++++++++ .................... .................... .................... .................... .................... .................... .................... .................... ++++++++++++++++++++ .................... .................... ++++++++++++++++++++ .................... .................... .................... ++++++++++++++++++++ .................... .................... ++++++++++++++++++++ .................... ",
" .................... .................... .................... .................... ++++++++++++++++++++ .................... .................... .................... ++++++++++++++++++++ .................... .................... .................... .................... .................... .................... .................... .................... ++++++++++++++++++++ .................... .................... ++++++++++++++++++++ .................... .................... .................... ++++++++++++++++++++ .................... .................... ++++++++++++++++++++ .................... ",
" .................... .................... .................... .................... ++++++++++++++++++++ .................... .................... .................... ++++++++++++++++++++ .................... .................... .................... .................... .................... .................... .................... .................... ++++++++++++++++++++ .................... .................... ++++++++++++++++++++ .................... .................... .................... ++++++++++++++++++++ .................... .................... ++++++++++++++++++++ .................... ",
" .................... .................... .................... .................... ++++++++++++++++++++ .................... .................... .................... ++++++++++++++++++++ .................... .................... .................... .................... .................... .................... .................... .................... ++++++++++++++++++++ .................... .................... ++++++++++++++++++++ .................... .................... .................... ++++++++++++++++++++ .................... .................... ++++++++++++++++++++ .................... ",
" .................... .................... .................... .................... ++++++++++++++++++++ .................... .................... .................... ++++++++++++++++++++ .................... .................... .................... .................... .................... .................... .................... .................... ++++++++++++++++++++ .................... .................... ++++++++++++++++++++ .................... .................... .................... ++++++++++++++++++++ .................... .................... ++++++++++++++++++++ .................... ",
" .................... .................... .................... .................... ++++++++++++++++++++ .................... .................... .................... ++++++++++++++++++++ .................... .................... .................... .................... .................... .................... .................... .................... ++++++++++++++++++++ .................... .................... ++++++++++++++++++++ .................... .................... .................... ++++++++++++++++++++ .................... .................... ++++++++++++++++++++ .................... ",
" .................... .................... .................... .................... ++++++++++++++++++++ .................... .................... .................... ++++++++++++++++++++ .................... .................... .................... .................... .................... .................... .................... .................... ++++++++++++++++++++ .................... .................... ++++++++++++++++++++ .................... .................... .................... ++++++++++++++++++++ .................... .................... ++++++++++++++++++++ .................... ",
" .................... .................... .................... .................... ++++++++++++++++++++ .................... .................... .................... ++++++++++++++++++++ .................... .................... .................... .................... .................... .................... .................... .................... ++++++++++++++++++++ .................... .................... ++++++++++++++++++++ .................... .................... .................... ++++++++++++++++++++ .................... .................... ++++++++++++++++++++ .................... ",
" .................... .................... .................... .................... ++++++++++++++++++++ .................... .................... .................... ++++++++++++++++++++ .................... .................... .................... .................... .................... .................... .................... .................... ++++++++++++++++++++ .................... .................... ++++++++++++++++++++ .................... .................... .................... ++++++++++++++++++++ .................... .................... ++++++++++++++++++++ .................... ",
" .................... .................... .................... .................... ++++++++++++++++++++ .................... .................... .................... ++++++++++++++++++++ .................... .................... .................... .................... .................... .................... .................... .................... ++++++++++++++++++++ .................... .................... ++++++++++++++++++++ .................... .................... .................... ++++++++++++++++++++ .................... .................... ++++++++++++++++++++ .................... ",
" .................... .................... .................... .................... ++++++++++++++++++++ .................... .................... .................... ++++++++++++++++++++ .................... .................... .................... .................... .................... .................... .................... .................... ++++++++++++++++++++ .................... .................... ++++++++++++++++++++ .................... .................... .................... ++++++++++++++++++++ .................... .................... ++++++++++++++++++++ .................... ",
" .................... .................... .................... .................... ++++++++++++++++++++ .................... .................... .................... ++++++++++++++++++++ .................... .................... .................... .................... .................... .................... .................... .................... ++++++++++++++++++++ .................... .................... ++++++++++++++++++++ .................... .................... .................... ++++++++++++++++++++ .................... .................... ++++++++++++++++++++ .................... ",
" .................... .................... .................... .................... ++++++++++++++++++++ .................... .................... .................... ++++++++++++++++++++ .................... .................... .................... .................... .................... .................... .................... .................... ++++++++++++++++++++ .................... .................... ++++++++++++++++++++ .................... .................... .................... ++++++++++++++++++++ .................... .................... ++++++++++++++++++++ .................... ",
" .................... .................... .................... .................... ++++++++++++++++++++ .................... .................... .................... ++++++++++++++++++++ .................... .................... .................... .................... .................... .................... .................... .................... ++++++++++++++++++++ .................... .................... ++++++++++++++++++++ .................... .................... .................... ++++++++++++++++++++ .................... .................... ++++++++++++++++++++ .................... ",
" .................... .................... .................... .................... ++++++++++++++++++++ .................... .................... .................... ++++++++++++++++++++ .................... .................... .................... .................... .................... .................... .................... .................... ++++++++++++++++++++ .................... .................... ++++++++++++++++++++ .................... .................... .................... ++++++++++++++++++++ .................... .................... ++++++++++++++++++++ .................... ",
"                                                                                                                                                                                                                                                                                                                                                                                                                                                                                                                                                                                                                                  ",
" .................... .................... .................... ++++++++++++++++++++ ++++++++++++++++++++ ++++++++++++++++++++ ++++++++++++++++++++ ++++++++++++++++++++ ++++++++++++++++++++ ++++++++++++++++++++ .................... .................... .................... .................... .................... .................... .................... ++++++++++++++++++++ .................... ++++++++++++++++++++ ++++++++++++++++++++ ++++++++++++++++++++ ++++++++++++++++++++ ++++++++++++++++++++ ++++++++++++++++++++ ++++++++++++++++++++ .................... ++++++++++++++++++++ .................... ",
" .................... .................... .................... ++++++++++++++++++++ ++++++++++++++++++++ ++++++++++++++++++++ ++++++++++++++++++++ ++++++++++++++++++++ ++++++++++++++++++++ ++++++++++++++++++++ .................... .................... .................... .................... .................... .................... .................... ++++++++++++++++++++ .................... ++++++++++++++++++++ ++++++++++++++++++++ ++++++++++++++++++++ ++++++++++++++++++++ ++++++++++++++++++++ ++++++++++++++++++++ ++++++++++++++++++++ .................... ++++++++++++++++++++ .................... ",
" .................... .................... .................... ++++++++++++++++++++ ++++++++++++++++++++ ++++++++++++++++++++ ++++++++++++++++++++ ++++++++++++++++++++ ++++++++++++++++++++ ++++++++++++++++++++ .................... .................... .................... .................... .................... .................... .................... ++++++++++++++++++++ .................... ++++++++++++++++++++ ++++++++++++++++++++ ++++++++++++++++++++ ++++++++++++++++++++ ++++++++++++++++++++ ++++++++++++++++++++ ++++++++++++++++++++ .................... ++++++++++++++++++++ .................... ",
" .................... .................... .................... ++++++++++++++++++++ ++++++++++++++++++++ ++++++++++++++++++++ ++++++++++++++++++++ ++++++++++++++++++++ ++++++++++++++++++++ ++++++++++++++++++++ .................... .................... .................... .................... .................... .................... .................... ++++++++++++++++++++ .................... ++++++++++++++++++++ ++++++++++++++++++++ ++++++++++++++++++++ ++++++++++++++++++++ ++++++++++++++++++++ ++++++++++++++++++++ ++++++++++++++++++++ .................... ++++++++++++++++++++ .................... ",
" .................... .................... .................... ++++++++++++++++++++ ++++++++++++++++++++ ++++++++++++++++++++ ++++++++++++++++++++ ++++++++++++++++++++ ++++++++++++++++++++ ++++++++++++++++++++ .................... .................... .................... .................... .................... .................... .................... ++++++++++++++++++++ .................... ++++++++++++++++++++ ++++++++++++++++++++ ++++++++++++++++++++ ++++++++++++++++++++ ++++++++++++++++++++ ++++++++++++++++++++ ++++++++++++++++++++ .................... ++++++++++++++++++++ .................... ",
" .................... .................... .................... ++++++++++++++++++++ ++++++++++++++++++++ ++++++++++++++++++++ ++++++++++++++++++++ ++++++++++++++++++++ ++++++++++++++++++++ ++++++++++++++++++++ .................... .................... .................... .................... .................... .................... .................... ++++++++++++++++++++ .................... ++++++++++++++++++++ ++++++++++++++++++++ ++++++++++++++++++++ ++++++++++++++++++++ ++++++++++++++++++++ ++++++++++++++++++++ ++++++++++++++++++++ .................... ++++++++++++++++++++ .................... ",
" .................... .................... .................... ++++++++++++++++++++ ++++++++++++++++++++ ++++++++++++++++++++ ++++++++++++++++++++ ++++++++++++++++++++ ++++++++++++++++++++ ++++++++++++++++++++ .................... .................... .................... .................... .................... .................... .................... ++++++++++++++++++++ .................... ++++++++++++++++++++ ++++++++++++++++++++ ++++++++++++++++++++ ++++++++++++++++++++ ++++++++++++++++++++ ++++++++++++++++++++ ++++++++++++++++++++ .................... ++++++++++++++++++++ .................... ",
" .................... .................... .................... ++++++++++++++++++++ ++++++++++++++++++++ ++++++++++++++++++++ ++++++++++++++++++++ ++++++++++++++++++++ ++++++++++++++++++++ ++++++++++++++++++++ .................... .................... .................... .................... .................... .................... .................... ++++++++++++++++++++ .................... ++++++++++++++++++++ ++++++++++++++++++++ ++++++++++++++++++++ ++++++++++++++++++++ ++++++++++++++++++++ ++++++++++++++++++++ ++++++++++++++++++++ .................... ++++++++++++++++++++ .................... ",
" .................... .................... .................... ++++++++++++++++++++ ++++++++++++++++++++ ++++++++++++++++++++ ++++++++++++++++++++ ++++++++++++++++++++ ++++++++++++++++++++ ++++++++++++++++++++ .................... .................... .................... .................... .................... .................... .................... ++++++++++++++++++++ .................... ++++++++++++++++++++ ++++++++++++++++++++ ++++++++++++++++++++ ++++++++++++++++++++ ++++++++++++++++++++ ++++++++++++++++++++ ++++++++++++++++++++ .................... ++++++++++++++++++++ .................... ",
" .................... .................... .................... ++++++++++++++++++++ ++++++++++++++++++++ ++++++++++++++++++++ ++++++++++++++++++++ ++++++++++++++++++++ ++++++++++++++++++++ ++++++++++++++++++++ .................... .................... .................... .................... .................... .................... .................... ++++++++++++++++++++ .................... ++++++++++++++++++++ ++++++++++++++++++++ ++++++++++++++++++++ ++++++++++++++++++++ ++++++++++++++++++++ ++++++++++++++++++++ ++++++++++++++++++++ .................... ++++++++++++++++++++ .................... ",
" .................... .................... .................... ++++++++++++++++++++ ++++++++++++++++++++ ++++++++++++++++++++ ++++++++++++++++++++ ++++++++++++++++++++ ++++++++++++++++++++ ++++++++++++++++++++ .................... .................... .................... .................... .................... .................... .................... ++++++++++++++++++++ .................... ++++++++++++++++++++ ++++++++++++++++++++ ++++++++++++++++++++ ++++++++++++++++++++ ++++++++++++++++++++ ++++++++++++++++++++ ++++++++++++++++++++ .................... ++++++++++++++++++++ .................... ",
" .................... .................... .................... ++++++++++++++++++++ ++++++++++++++++++++ ++++++++++++++++++++ ++++++++++++++++++++ ++++++++++++++++++++ ++++++++++++++++++++ ++++++++++++++++++++ .................... .................... .................... .................... .................... .................... .................... ++++++++++++++++++++ .................... ++++++++++++++++++++ ++++++++++++++++++++ ++++++++++++++++++++ ++++++++++++++++++++ ++++++++++++++++++++ ++++++++++++++++++++ ++++++++++++++++++++ .................... ++++++++++++++++++++ .................... ",
" .................... .................... .................... ++++++++++++++++++++ ++++++++++++++++++++ ++++++++++++++++++++ ++++++++++++++++++++ ++++++++++++++++++++ ++++++++++++++++++++ ++++++++++++++++++++ .................... .................... .................... .................... .................... .................... .................... ++++++++++++++++++++ .................... ++++++++++++++++++++ ++++++++++++++++++++ ++++++++++++++++++++ ++++++++++++++++++++ ++++++++++++++++++++ ++++++++++++++++++++ ++++++++++++++++++++ .................... ++++++++++++++++++++ .................... ",
" .................... .................... .................... ++++++++++++++++++++ ++++++++++++++++++++ ++++++++++++++++++++ ++++++++++++++++++++ ++++++++++++++++++++ ++++++++++++++++++++ ++++++++++++++++++++ .................... .................... .................... .................... .................... .................... .................... ++++++++++++++++++++ .................... ++++++++++++++++++++ ++++++++++++++++++++ ++++++++++++++++++++ ++++++++++++++++++++ ++++++++++++++++++++ ++++++++++++++++++++ ++++++++++++++++++++ .................... ++++++++++++++++++++ .................... ",
" .................... .................... .................... ++++++++++++++++++++ ++++++++++++++++++++ ++++++++++++++++++++ ++++++++++++++++++++ ++++++++++++++++++++ ++++++++++++++++++++ ++++++++++++++++++++ .................... .................... .................... .................... .................... .................... .................... ++++++++++++++++++++ .................... ++++++++++++++++++++ ++++++++++++++++++++ ++++++++++++++++++++ ++++++++++++++++++++ ++++++++++++++++++++ ++++++++++++++++++++ ++++++++++++++++++++ .................... ++++++++++++++++++++ .................... ",
" .................... .................... .................... ++++++++++++++++++++ ++++++++++++++++++++ ++++++++++++++++++++ ++++++++++++++++++++ ++++++++++++++++++++ ++++++++++++++++++++ ++++++++++++++++++++ .................... .................... .................... .................... .................... .................... .................... ++++++++++++++++++++ .................... ++++++++++++++++++++ ++++++++++++++++++++ ++++++++++++++++++++ ++++++++++++++++++++ ++++++++++++++++++++ ++++++++++++++++++++ ++++++++++++++++++++ .................... ++++++++++++++++++++ .................... ",
" .................... .................... .................... ++++++++++++++++++++ ++++++++++++++++++++ ++++++++++++++++++++ ++++++++++++++++++++ ++++++++++++++++++++ ++++++++++++++++++++ ++++++++++++++++++++ .................... .................... .................... .................... .................... .................... .................... ++++++++++++++++++++ .................... ++++++++++++++++++++ ++++++++++++++++++++ ++++++++++++++++++++ ++++++++++++++++++++ ++++++++++++++++++++ ++++++++++++++++++++ ++++++++++++++++++++ .................... ++++++++++++++++++++ .................... ",
" .................... .................... .................... ++++++++++++++++++++ ++++++++++++++++++++ ++++++++++++++++++++ ++++++++++++++++++++ ++++++++++++++++++++ ++++++++++++++++++++ ++++++++++++++++++++ .................... .................... .................... .................... .................... .................... .................... ++++++++++++++++++++ .................... ++++++++++++++++++++ ++++++++++++++++++++ ++++++++++++++++++++ ++++++++++++++++++++ ++++++++++++++++++++ ++++++++++++++++++++ ++++++++++++++++++++ .................... ++++++++++++++++++++ .................... ",
" .................... .................... .................... ++++++++++++++++++++ ++++++++++++++++++++ ++++++++++++++++++++ ++++++++++++++++++++ ++++++++++++++++++++ ++++++++++++++++++++ ++++++++++++++++++++ .................... .................... .................... .................... .................... .................... .................... ++++++++++++++++++++ .................... ++++++++++++++++++++ ++++++++++++++++++++ ++++++++++++++++++++ ++++++++++++++++++++ ++++++++++++++++++++ ++++++++++++++++++++ ++++++++++++++++++++ .................... ++++++++++++++++++++ .................... ",
" .................... .................... .................... ++++++++++++++++++++ ++++++++++++++++++++ ++++++++++++++++++++ ++++++++++++++++++++ ++++++++++++++++++++ ++++++++++++++++++++ ++++++++++++++++++++ .................... .................... .................... .................... .................... .................... .................... ++++++++++++++++++++ .................... ++++++++++++++++++++ ++++++++++++++++++++ ++++++++++++++++++++ ++++++++++++++++++++ ++++++++++++++++++++ ++++++++++++++++++++ ++++++++++++++++++++ .................... ++++++++++++++++++++ .................... ",
"                                                                                                                                                                                                                                                                                                                                                                                                                                                                                                                                                                                                                                  ",
" .................... .................... ++++++++++++++++++++ ++++++++++++++++++++ .................... ++++++++++++++++++++ ++++++++++++++++++++ ++++++++++++++++++++ .................... ++++++++++++++++++++ ++++++++++++++++++++ .................... .................... .................... .................... .................... .................... ++++++++++++++++++++ ++++++++++++++++++++ ++++++++++++++++++++ .................... ++++++++++++++++++++ ++++++++++++++++++++ ++++++++++++++++++++ .................... ++++++++++++++++++++ ++++++++++++++++++++ ++++++++++++++++++++ .................... ",
" .................... .................... ++++++++++++++++++++ ++++++++++++++++++++ .................... ++++++++++++++++++++ ++++++++++++++++++++ ++++++++++++++++++++ .................... ++++++++++++++++++++ ++++++++++++++++++++ .................... .................... .................... .................... .................... .................... ++++++++++++++++++++ ++++++++++++++++++++ ++++++++++++++++++++ .................... ++++++++++++++++++++ ++++++++++++++++++++ ++++++++++++++++++++ .................... ++++++++++++++++++++ ++++++++++++++++++++ ++++++++++++++++++++ .................... ",
" .................... .................... ++++++++++++++++++++ ++++++++++++++++++++ .................... ++++++++++++++++++++ ++++++++++++++++++++ ++++++++++++++++++++ .................... ++++++++++++++++++++ ++++++++++++++++++++ .................... .................... .................... .................... .................... .................... ++++++++++++++++++++ ++++++++++++++++++++ ++++++++++++++++++++ .................... ++++++++++++++++++++ ++++++++++++++++++++ ++++++++++++++++++++ .................... ++++++++++++++++++++ ++++++++++++++++++++ ++++++++++++++++++++ .................... ",
" .................... .................... ++++++++++++++++++++ ++++++++++++++++++++ .................... ++++++++++++++++++++ ++++++++++++++++++++ ++++++++++++++++++++ .................... ++++++++++++++++++++ ++++++++++++++++++++ .................... .................... .................... .................... .................... .................... ++++++++++++++++++++ ++++++++++++++++++++ ++++++++++++++++++++ .................... ++++++++++++++++++++ ++++++++++++++++++++ ++++++++++++++++++++ .................... ++++++++++++++++++++ ++++++++++++++++++++ ++++++++++++++++++++ .................... ",
" .................... .................... ++++++++++++++++++++ ++++++++++++++++++++ .................... ++++++++++++++++++++ ++++++++++++++++++++ ++++++++++++++++++++ .................... ++++++++++++++++++++ ++++++++++++++++++++ .................... .................... .................... .................... .................... .................... ++++++++++++++++++++ ++++++++++++++++++++ ++++++++++++++++++++ .................... ++++++++++++++++++++ ++++++++++++++++++++ ++++++++++++++++++++ .................... ++++++++++++++++++++ ++++++++++++++++++++ ++++++++++++++++++++ .................... ",
" .................... .................... ++++++++++++++++++++ ++++++++++++++++++++ .................... ++++++++++++++++++++ ++++++++++++++++++++ ++++++++++++++++++++ .................... ++++++++++++++++++++ ++++++++++++++++++++ .................... .................... .................... .................... .................... .................... ++++++++++++++++++++ ++++++++++++++++++++ ++++++++++++++++++++ .................... ++++++++++++++++++++ ++++++++++++++++++++ ++++++++++++++++++++ .................... ++++++++++++++++++++ ++++++++++++++++++++ ++++++++++++++++++++ .................... ",
" .................... .................... ++++++++++++++++++++ ++++++++++++++++++++ .................... ++++++++++++++++++++ ++++++++++++++++++++ ++++++++++++++++++++ .................... ++++++++++++++++++++ ++++++++++++++++++++ .................... .................... .................... .................... .................... .................... ++++++++++++++++++++ ++++++++++++++++++++ ++++++++++++++++++++ .................... ++++++++++++++++++++ ++++++++++++++++++++ ++++++++++++++++++++ .................... ++++++++++++++++++++ ++++++++++++++++++++ ++++++++++++++++++++ .................... ",
" .................... .................... ++++++++++++++++++++ ++++++++++++++++++++ .................... ++++++++++++++++++++ ++++++++++++++++++++ ++++++++++++++++++++ .................... ++++++++++++++++++++ ++++++++++++++++++++ .................... .................... .................... .................... .................... .................... ++++++++++++++++++++ ++++++++++++++++++++ ++++++++++++++++++++ .................... ++++++++++++++++++++ ++++++++++++++++++++ ++++++++++++++++++++ .................... ++++++++++++++++++++ ++++++++++++++++++++ ++++++++++++++++++++ .................... ",
" .................... .................... ++++++++++++++++++++ ++++++++++++++++++++ .................... ++++++++++++++++++++ ++++++++++++++++++++ ++++++++++++++++++++ .................... ++++++++++++++++++++ ++++++++++++++++++++ .................... .................... .................... .................... .................... .................... ++++++++++++++++++++ ++++++++++++++++++++ ++++++++++++++++++++ .................... ++++++++++++++++++++ ++++++++++++++++++++ ++++++++++++++++++++ .................... ++++++++++++++++++++ ++++++++++++++++++++ ++++++++++++++++++++ .................... ",
" .................... .................... ++++++++++++++++++++ ++++++++++++++++++++ .................... ++++++++++++++++++++ ++++++++++++++++++++ ++++++++++++++++++++ .................... ++++++++++++++++++++ ++++++++++++++++++++ .................... .................... .................... .................... .................... .................... ++++++++++++++++++++ ++++++++++++++++++++ ++++++++++++++++++++ .................... ++++++++++++++++++++ ++++++++++++++++++++ ++++++++++++++++++++ .................... ++++++++++++++++++++ ++++++++++++++++++++ ++++++++++++++++++++ .................... ",
" .................... .................... ++++++++++++++++++++ ++++++++++++++++++++ .................... ++++++++++++++++++++ ++++++++++++++++++++ ++++++++++++++++++++ .................... ++++++++++++++++++++ ++++++++++++++++++++ .................... .................... .................... .................... .................... .................... ++++++++++++++++++++ ++++++++++++++++++++ ++++++++++++++++++++ .................... ++++++++++++++++++++ ++++++++++++++++++++ ++++++++++++++++++++ .................... ++++++++++++++++++++ ++++++++++++++++++++ ++++++++++++++++++++ .................... ",
" .................... .................... ++++++++++++++++++++ ++++++++++++++++++++ .................... ++++++++++++++++++++ ++++++++++++++++++++ ++++++++++++++++++++ .................... ++++++++++++++++++++ ++++++++++++++++++++ .................... .................... .................... .................... .................... .................... ++++++++++++++++++++ ++++++++++++++++++++ ++++++++++++++++++++ .................... ++++++++++++++++++++ ++++++++++++++++++++ ++++++++++++++++++++ .................... ++++++++++++++++++++ ++++++++++++++++++++ ++++++++++++++++++++ .................... ",
" .................... .................... ++++++++++++++++++++ ++++++++++++++++++++ .................... ++++++++++++++++++++ ++++++++++++++++++++ ++++++++++++++++++++ .................... ++++++++++++++++++++ ++++++++++++++++++++ .................... .................... .................... .................... .................... .................... ++++++++++++++++++++ ++++++++++++++++++++ ++++++++++++++++++++ .................... ++++++++++++++++++++ ++++++++++++++++++++ ++++++++++++++++++++ .................... ++++++++++++++++++++ ++++++++++++++++++++ ++++++++++++++++++++ .................... ",
" .................... .................... ++++++++++++++++++++ ++++++++++++++++++++ .................... ++++++++++++++++++++ ++++++++++++++++++++ ++++++++++++++++++++ .................... ++++++++++++++++++++ ++++++++++++++++++++ .................... .................... .................... .................... .................... .................... ++++++++++++++++++++ ++++++++++++++++++++ ++++++++++++++++++++ .................... ++++++++++++++++++++ ++++++++++++++++++++ ++++++++++++++++++++ .................... ++++++++++++++++++++ ++++++++++++++++++++ ++++++++++++++++++++ .................... ",
" .................... .................... ++++++++++++++++++++ ++++++++++++++++++++ .................... ++++++++++++++++++++ ++++++++++++++++++++ ++++++++++++++++++++ .................... ++++++++++++++++++++ ++++++++++++++++++++ .................... .................... .................... .................... .................... .................... ++++++++++++++++++++ ++++++++++++++++++++ ++++++++++++++++++++ .................... ++++++++++++++++++++ ++++++++++++++++++++ ++++++++++++++++++++ .................... ++++++++++++++++++++ ++++++++++++++++++++ ++++++++++++++++++++ .................... ",
" .................... .................... ++++++++++++++++++++ ++++++++++++++++++++ .................... ++++++++++++++++++++ ++++++++++++++++++++ ++++++++++++++++++++ .................... ++++++++++++++++++++ ++++++++++++++++++++ .................... .................... .................... .................... .................... .................... ++++++++++++++++++++ ++++++++++++++++++++ ++++++++++++++++++++ .................... ++++++++++++++++++++ ++++++++++++++++++++ ++++++++++++++++++++ .................... ++++++++++++++++++++ ++++++++++++++++++++ ++++++++++++++++++++ .................... ",
" .................... .................... ++++++++++++++++++++ ++++++++++++++++++++ .................... ++++++++++++++++++++ ++++++++++++++++++++ ++++++++++++++++++++ .................... ++++++++++++++++++++ ++++++++++++++++++++ .................... .................... .................... .................... .................... .................... ++++++++++++++++++++ ++++++++++++++++++++ ++++++++++++++++++++ .................... ++++++++++++++++++++ ++++++++++++++++++++ ++++++++++++++++++++ .................... ++++++++++++++++++++ ++++++++++++++++++++ ++++++++++++++++++++ .................... ",
" .................... .................... ++++++++++++++++++++ ++++++++++++++++++++ .................... ++++++++++++++++++++ ++++++++++++++++++++ ++++++++++++++++++++ .................... ++++++++++++++++++++ ++++++++++++++++++++ .................... .................... .................... .................... .................... .................... ++++++++++++++++++++ ++++++++++++++++++++ ++++++++++++++++++++ .................... ++++++++++++++++++++ ++++++++++++++++++++ ++++++++++++++++++++ .................... ++++++++++++++++++++ ++++++++++++++++++++ ++++++++++++++++++++ .................... ",
" .................... .................... ++++++++++++++++++++ ++++++++++++++++++++ .................... ++++++++++++++++++++ ++++++++++++++++++++ ++++++++++++++++++++ .................... ++++++++++++++++++++ ++++++++++++++++++++ .................... .................... .................... .................... .................... .................... ++++++++++++++++++++ ++++++++++++++++++++ ++++++++++++++++++++ .................... ++++++++++++++++++++ ++++++++++++++++++++ ++++++++++++++++++++ .................... ++++++++++++++++++++ ++++++++++++++++++++ ++++++++++++++++++++ .................... ",
" .................... .................... ++++++++++++++++++++ ++++++++++++++++++++ .................... ++++++++++++++++++++ ++++++++++++++++++++ ++++++++++++++++++++ .................... ++++++++++++++++++++ ++++++++++++++++++++ .................... .................... .................... .................... .................... .................... ++++++++++++++++++++ ++++++++++++++++++++ ++++++++++++++++++++ .................... ++++++++++++++++++++ ++++++++++++++++++++ ++++++++++++++++++++ .................... ++++++++++++++++++++ ++++++++++++++++++++ ++++++++++++++++++++ .................... ",
"                                                                                                                                                                                                                                                                                                                                                                                                                                                                                                                                                                                                                                  ",
" .................... ++++++++++++++++++++ ++++++++++++++++++++ ++++++++++++++++++++ ++++++++++++++++++++ ++++++++++++++++++++ ++++++++++++++++++++ ++++++++++++++++++++ ++++++++++++++++++++ ++++++++++++++++++++ ++++++++++++++++++++ ++++++++++++++++++++ .................... .................... .................... .................... .................... ++++++++++++++++++++ ++++++++++++++++++++ ++++++++++++++++++++ ++++++++++++++++++++ ++++++++++++++++++++ ++++++++++++++++++++ ++++++++++++++++++++ ++++++++++++++++++++ ++++++++++++++++++++ ++++++++++++++++++++ ++++++++++++++++++++ .................... ",
" .................... ++++++++++++++++++++ ++++++++++++++++++++ ++++++++++++++++++++ ++++++++++++++++++++ ++++++++++++++++++++ ++++++++++++++++++++ ++++++++++++++++++++ ++++++++++++++++++++ ++++++++++++++++++++ ++++++++++++++++++++ ++++++++++++++++++++ .................... .................... .................... .................... .................... ++++++++++++++++++++ ++++++++++++++++++++ ++++++++++++++++++++ ++++++++++++++++++++ ++++++++++++++++++++ ++++++++++++++++++++ ++++++++++++++++++++ ++++++++++++++++++++ ++++++++++++++++++++ ++++++++++++++++++++ ++++++++++++++++++++ .................... ",
" .................... ++++++++++++++++++++ ++++++++++++++++++++ ++++++++++++++++++++ ++++++++++++++++++++ ++++++++++++++++++++ ++++++++++++++++++++ ++++++++++++++++++++ ++++++++++++++++++++ ++++++++++++++++++++ ++++++++++++++++++++ ++++++++++++++++++++ .................... .................... .................... .................... .................... ++++++++++++++++++++ ++++++++++++++++++++ ++++++++++++++++++++ ++++++++++++++++++++ ++++++++++++++++++++ ++++++++++++++++++++ ++++++++++++++++++++ ++++++++++++++++++++ ++++++++++++++++++++ ++++++++++++++++++++ ++++++++++++++++++++ .................... ",
" .................... ++++++++++++++++++++ ++++++++++++++++++++ ++++++++++++++++++++ ++++++++++++++++++++ ++++++++++++++++++++ ++++++++++++++++++++ ++++++++++++++++++++ ++++++++++++++++++++ ++++++++++++++++++++ ++++++++++++++++++++ ++++++++++++++++++++ .................... .................... .................... .................... .................... ++++++++++++++++++++ ++++++++++++++++++++ ++++++++++++++++++++ ++++++++++++++++++++ ++++++++++++++++++++ ++++++++++++++++++++ ++++++++++++++++++++ ++++++++++++++++++++ ++++++++++++++++++++ ++++++++++++++++++++ ++++++++++++++++++++ .................... ",
" .................... ++++++++++++++++++++ ++++++++++++++++++++ ++++++++++++++++++++ ++++++++++++++++++++ ++++++++++++++++++++ ++++++++++++++++++++ ++++++++++++++++++++ ++++++++++++++++++++ ++++++++++++++++++++ ++++++++++++++++++++ ++++++++++++++++++++ .................... .................... .................... .................... .................... ++++++++++++++++++++ ++++++++++++++++++++ ++++++++++++++++++++ ++++++++++++++++++++ ++++++++++++++++++++ ++++++++++++++++++++ ++++++++++++++++++++ ++++++++++++++++++++ ++++++++++++++++++++ ++++++++++++++++++++ ++++++++++++++++++++ .................... ",
" .................... ++++++++++++++++++++ ++++++++++++++++++++ ++++++++++++++++++++ ++++++++++++++++++++ ++++++++++++++++++++ ++++++++++++++++++++ ++++++++++++++++++++ ++++++++++++++++++++ ++++++++++++++++++++ ++++++++++++++++++++ ++++++++++++++++++++ .................... .................... .................... .................... .................... ++++++++++++++++++++ ++++++++++++++++++++ ++++++++++++++++++++ ++++++++++++++++++++ ++++++++++++++++++++ ++++++++++++++++++++ ++++++++++++++++++++ ++++++++++++++++++++ ++++++++++++++++++++ ++++++++++++++++++++ ++++++++++++++++++++ .................... ",
" .................... ++++++++++++++++++++ ++++++++++++++++++++ ++++++++++++++++++++ ++++++++++++++++++++ ++++++++++++++++++++ ++++++++++++++++++++ ++++++++++++++++++++ ++++++++++++++++++++ ++++++++++++++++++++ ++++++++++++++++++++ ++++++++++++++++++++ .................... .................... .................... .................... .................... ++++++++++++++++++++ ++++++++++++++++++++ ++++++++++++++++++++ ++++++++++++++++++++ ++++++++++++++++++++ ++++++++++++++++++++ ++++++++++++++++++++ ++++++++++++++++++++ ++++++++++++++++++++ ++++++++++++++++++++ ++++++++++++++++++++ .................... ",
" .................... ++++++++++++++++++++ ++++++++++++++++++++ ++++++++++++++++++++ ++++++++++++++++++++ ++++++++++++++++++++ ++++++++++++++++++++ ++++++++++++++++++++ ++++++++++++++++++++ ++++++++++++++++++++ ++++++++++++++++++++ ++++++++++++++++++++ .................... .................... .................... .................... .................... ++++++++++++++++++++ ++++++++++++++++++++ ++++++++++++++++++++ ++++++++++++++++++++ ++++++++++++++++++++ ++++++++++++++++++++ ++++++++++++++++++++ ++++++++++++++++++++ ++++++++++++++++++++ ++++++++++++++++++++ ++++++++++++++++++++ .................... ",
" .................... ++++++++++++++++++++ ++++++++++++++++++++ ++++++++++++++++++++ ++++++++++++++++++++ ++++++++++++++++++++ ++++++++++++++++++++ ++++++++++++++++++++ ++++++++++++++++++++ ++++++++++++++++++++ ++++++++++++++++++++ ++++++++++++++++++++ .................... .................... .................... .................... .................... ++++++++++++++++++++ ++++++++++++++++++++ ++++++++++++++++++++ ++++++++++++++++++++ ++++++++++++++++++++ ++++++++++++++++++++ ++++++++++++++++++++ ++++++++++++++++++++ ++++++++++++++++++++ ++++++++++++++++++++ ++++++++++++++++++++ .................... ",
" .................... ++++++++++++++++++++ ++++++++++++++++++++ ++++++++++++++++++++ ++++++++++++++++++++ ++++++++++++++++++++ ++++++++++++++++++++ ++++++++++++++++++++ ++++++++++++++++++++ ++++++++++++++++++++ ++++++++++++++++++++ ++++++++++++++++++++ .................... .................... .................... .................... .................... ++++++++++++++++++++ ++++++++++++++++++++ ++++++++++++++++++++ ++++++++++++++++++++ ++++++++++++++++++++ ++++++++++++++++++++ ++++++++++++++++++++ ++++++++++++++++++++ ++++++++++++++++++++ ++++++++++++++++++++ ++++++++++++++++++++ .................... ",
" .................... ++++++++++++++++++++ ++++++++++++++++++++ ++++++++++++++++++++ ++++++++++++++++++++ ++++++++++++++++++++ ++++++++++++++++++++ ++++++++++++++++++++ ++++++++++++++++++++ ++++++++++++++++++++ ++++++++++++++++++++ ++++++++++++++++++++ .................... .................... .................... .................... .................... ++++++++++++++++++++ ++++++++++++++++++++ ++++++++++++++++++++ ++++++++++++++++++++ ++++++++++++++++++++ ++++++++++++++++++++ ++++++++++++++++++++ ++++++++++++++++++++ ++++++++++++++++++++ ++++++++++++++++++++ ++++++++++++++++++++ .................... ",
" .................... ++++++++++++++++++++ ++++++++++++++++++++ ++++++++++++++++++++ ++++++++++++++++++++ ++++++++++++++++++++ ++++++++++++++++++++ ++++++++++++++++++++ ++++++++++++++++++++ ++++++++++++++++++++ ++++++++++++++++++++ ++++++++++++++++++++ .................... .................... .................... .................... .................... ++++++++++++++++++++ ++++++++++++++++++++ ++++++++++++++++++++ ++++++++++++++++++++ ++++++++++++++++++++ ++++++++++++++++++++ ++++++++++++++++++++ ++++++++++++++++++++ ++++++++++++++++++++ ++++++++++++++++++++ ++++++++++++++++++++ .................... ",
" .................... ++++++++++++++++++++ ++++++++++++++++++++ ++++++++++++++++++++ ++++++++++++++++++++ ++++++++++++++++++++ ++++++++++++++++++++ ++++++++++++++++++++ ++++++++++++++++++++ ++++++++++++++++++++ ++++++++++++++++++++ ++++++++++++++++++++ .................... .................... .................... .................... .................... ++++++++++++++++++++ ++++++++++++++++++++ ++++++++++++++++++++ ++++++++++++++++++++ ++++++++++++++++++++ ++++++++++++++++++++ ++++++++++++++++++++ ++++++++++++++++++++ ++++++++++++++++++++ ++++++++++++++++++++ ++++++++++++++++++++ .................... ",
" .................... ++++++++++++++++++++ ++++++++++++++++++++ ++++++++++++++++++++ ++++++++++++++++++++ ++++++++++++++++++++ ++++++++++++++++++++ ++++++++++++++++++++ ++++++++++++++++++++ ++++++++++++++++++++ ++++++++++++++++++++ ++++++++++++++++++++ .................... .................... .................... .................... .................... ++++++++++++++++++++ ++++++++++++++++++++ ++++++++++++++++++++ ++++++++++++++++++++ ++++++++++++++++++++ ++++++++++++++++++++ ++++++++++++++++++++ ++++++++++++++++++++ ++++++++++++++++++++ ++++++++++++++++++++ ++++++++++++++++++++ .................... ",
" .................... ++++++++++++++++++++ ++++++++++++++++++++ ++++++++++++++++++++ ++++++++++++++++++++ ++++++++++++++++++++ ++++++++++++++++++++ ++++++++++++++++++++ ++++++++++++++++++++ ++++++++++++++++++++ ++++++++++++++++++++ ++++++++++++++++++++ .................... .................... .................... .................... .................... ++++++++++++++++++++ ++++++++++++++++++++ ++++++++++++++++++++ ++++++++++++++++++++ ++++++++++++++++++++ ++++++++++++++++++++ ++++++++++++++++++++ ++++++++++++++++++++ ++++++++++++++++++++ ++++++++++++++++++++ ++++++++++++++++++++ .................... ",
" .................... ++++++++++++++++++++ ++++++++++++++++++++ ++++++++++++++++++++ ++++++++++++++++++++ ++++++++++++++++++++ ++++++++++++++++++++ ++++++++++++++++++++ ++++++++++++++++++++ ++++++++++++++++++++ ++++++++++++++++++++ ++++++++++++++++++++ .................... .................... .................... .................... .................... ++++++++++++++++++++ ++++++++++++++++++++ ++++++++++++++++++++ ++++++++++++++++++++ ++++++++++++++++++++ ++++++++++++++++++++ ++++++++++++++++++++ ++++++++++++++++++++ ++++++++++++++++++++ ++++++++++++++++++++ ++++++++++++++++++++ .................... ",
" .................... ++++++++++++++++++++ ++++++++++++++++++++ ++++++++++++++++++++ ++++++++++++++++++++ ++++++++++++++++++++ ++++++++++++++++++++ ++++++++++++++++++++ ++++++++++++++++++++ ++++++++++++++++++++ ++++++++++++++++++++ ++++++++++++++++++++ .................... .................... .................... .................... .................... ++++++++++++++++++++ ++++++++++++++++++++ ++++++++++++++++++++ ++++++++++++++++++++ ++++++++++++++++++++ ++++++++++++++++++++ ++++++++++++++++++++ ++++++++++++++++++++ ++++++++++++++++++++ ++++++++++++++++++++ ++++++++++++++++++++ .................... ",
" .................... ++++++++++++++++++++ ++++++++++++++++++++ ++++++++++++++++++++ ++++++++++++++++++++ ++++++++++++++++++++ ++++++++++++++++++++ ++++++++++++++++++++ ++++++++++++++++++++ ++++++++++++++++++++ ++++++++++++++++++++ ++++++++++++++++++++ .................... .................... .................... .................... .................... ++++++++++++++++++++ ++++++++++++++++++++ ++++++++++++++++++++ ++++++++++++++++++++ ++++++++++++++++++++ ++++++++++++++++++++ ++++++++++++++++++++ ++++++++++++++++++++ ++++++++++++++++++++ ++++++++++++++++++++ ++++++++++++++++++++ .................... ",
" .................... ++++++++++++++++++++ ++++++++++++++++++++ ++++++++++++++++++++ ++++++++++++++++++++ ++++++++++++++++++++ ++++++++++++++++++++ ++++++++++++++++++++ ++++++++++++++++++++ ++++++++++++++++++++ ++++++++++++++++++++ ++++++++++++++++++++ .................... .................... .................... .................... .................... ++++++++++++++++++++ ++++++++++++++++++++ ++++++++++++++++++++ ++++++++++++++++++++ ++++++++++++++++++++ ++++++++++++++++++++ ++++++++++++++++++++ ++++++++++++++++++++ ++++++++++++++++++++ ++++++++++++++++++++ ++++++++++++++++++++ .................... ",
" .................... ++++++++++++++++++++ ++++++++++++++++++++ ++++++++++++++++++++ ++++++++++++++++++++ ++++++++++++++++++++ ++++++++++++++++++++ ++++++++++++++++++++ ++++++++++++++++++++ ++++++++++++++++++++ ++++++++++++++++++++ ++++++++++++++++++++ .................... .................... .................... .................... .................... ++++++++++++++++++++ ++++++++++++++++++++ ++++++++++++++++++++ ++++++++++++++++++++ ++++++++++++++++++++ ++++++++++++++++++++ ++++++++++++++++++++ ++++++++++++++++++++ ++++++++++++++++++++ ++++++++++++++++++++ ++++++++++++++++++++ .................... ",
"                                                                                                                                                                                                                                                                                                                                                                                                                                                                                                                                                                                                                                  ",
" .................... ++++++++++++++++++++ .................... ++++++++++++++++++++ ++++++++++++++++++++ ++++++++++++++++++++ ++++++++++++++++++++ ++++++++++++++++++++ ++++++++++++++++++++ ++++++++++++++++++++ .................... ++++++++++++++++++++ .................... .................... .................... .................... .................... .................... ++++++++++++++++++++ ++++++++++++++++++++ ++++++++++++++++++++ ++++++++++++++++++++ ++++++++++++++++++++ ++++++++++++++++++++ ++++++++++++++++++++ ++++++++++++++++++++ ++++++++++++++++++++ .................... .................... ",
" .................... ++++++++++++++++++++ .................... ++++++++++++++++++++ ++++++++++++++++++++ ++++++++++++++++++++ ++++++++++++++++++++ ++++++++++++++++++++ ++++++++++++++++++++ ++++++++++++++++++++ .................... ++++++++++++++++++++ .................... .................... .................... .................... .................... .................... ++++++++++++++++++++ ++++++++++++++++++++ ++++++++++++++++++++ ++++++++++++++++++++ ++++++++++++++++++++ ++++++++++++++++++++ ++++++++++++++++++++ ++++++++++++++++++++ ++++++++++++++++++++ .................... .................... ",
" .................... ++++++++++++++++++++ .................... ++++++++++++++++++++ ++++++++++++++++++++ ++++++++++++++++++++ ++++++++++++++++++++ ++++++++++++++++++++ ++++++++++++++++++++ ++++++++++++++++++++ .................... ++++++++++++++++++++ .................... .................... .................... .................... .................... .................... ++++++++++++++++++++ ++++++++++++++++++++ ++++++++++++++++++++ ++++++++++++++++++++ ++++++++++++++++++++ ++++++++++++++++++++ ++++++++++++++++++++ ++++++++++++++++++++ ++++++++++++++++++++ .................... .................... ",
" .................... ++++++++++++++++++++ .................... ++++++++++++++++++++ ++++++++++++++++++++ ++++++++++++++++++++ ++++++++++++++++++++ ++++++++++++++++++++ ++++++++++++++++++++ ++++++++++++++++++++ .................... ++++++++++++++++++++ .................... .................... .................... .................... .................... .................... ++++++++++++++++++++ ++++++++++++++++++++ ++++++++++++++++++++ ++++++++++++++++++++ ++++++++++++++++++++ ++++++++++++++++++++ ++++++++++++++++++++ ++++++++++++++++++++ ++++++++++++++++++++ .................... .................... ",
" .................... ++++++++++++++++++++ .................... ++++++++++++++++++++ ++++++++++++++++++++ ++++++++++++++++++++ ++++++++++++++++++++ ++++++++++++++++++++ ++++++++++++++++++++ ++++++++++++++++++++ .................... ++++++++++++++++++++ .................... .................... .................... .................... .................... .................... ++++++++++++++++++++ ++++++++++++++++++++ ++++++++++++++++++++ ++++++++++++++++++++ ++++++++++++++++++++ ++++++++++++++++++++ ++++++++++++++++++++ ++++++++++++++++++++ ++++++++++++++++++++ .................... .................... ",
" .................... ++++++++++++++++++++ .................... ++++++++++++++++++++ ++++++++++++++++++++ ++++++++++++++++++++ ++++++++++++++++++++ ++++++++++++++++++++ ++++++++++++++++++++ ++++++++++++++++++++ .................... ++++++++++++++++++++ .................... .................... .................... .................... .................... .................... ++++++++++++++++++++ ++++++++++++++++++++ ++++++++++++++++++++ ++++++++++++++++++++ ++++++++++++++++++++ ++++++++++++++++++++ ++++++++++++++++++++ ++++++++++++++++++++ ++++++++++++++++++++ .................... .................... ",
" .................... ++++++++++++++++++++ .................... ++++++++++++++++++++ ++++++++++++++++++++ ++++++++++++++++++++ ++++++++++++++++++++ ++++++++++++++++++++ ++++++++++++++++++++ ++++++++++++++++++++ .................... ++++++++++++++++++++ .................... .................... .................... .................... .................... .................... ++++++++++++++++++++ ++++++++++++++++++++ ++++++++++++++++++++ ++++++++++++++++++++ ++++++++++++++++++++ ++++++++++++++++++++ ++++++++++++++++++++ ++++++++++++++++++++ ++++++++++++++++++++ .................... .................... ",
" .................... ++++++++++++++++++++ .................... ++++++++++++++++++++ ++++++++++++++++++++ ++++++++++++++++++++ ++++++++++++++++++++ ++++++++++++++++++++ ++++++++++++++++++++ ++++++++++++++++++++ .................... ++++++++++++++++++++ .................... .................... .................... .................... .................... .................... ++++++++++++++++++++ ++++++++++++++++++++ ++++++++++++++++++++ ++++++++++++++++++++ ++++++++++++++++++++ ++++++++++++++++++++ ++++++++++++++++++++ ++++++++++++++++++++ ++++++++++++++++++++ .................... .................... ",
" .................... ++++++++++++++++++++ .................... ++++++++++++++++++++ ++++++++++++++++++++ ++++++++++++++++++++ ++++++++++++++++++++ ++++++++++++++++++++ ++++++++++++++++++++ ++++++++++++++++++++ .................... ++++++++++++++++++++ .................... .................... .................... .................... .................... .................... ++++++++++++++++++++ ++++++++++++++++++++ ++++++++++++++++++++ ++++++++++++++++++++ ++++++++++++++++++++ ++++++++++++++++++++ ++++++++++++++++++++ ++++++++++++++++++++ ++++++++++++++++++++ .................... .................... ",
" .................... ++++++++++++++++++++ .................... ++++++++++++++++++++ ++++++++++++++++++++ ++++++++++++++++++++ ++++++++++++++++++++ ++++++++++++++++++++ ++++++++++++++++++++ ++++++++++++++++++++ .................... ++++++++++++++++++++ .................... .................... .................... .................... .................... .................... ++++++++++++++++++++ ++++++++++++++++++++ ++++++++++++++++++++ ++++++++++++++++++++ ++++++++++++++++++++ ++++++++++++++++++++ ++++++++++++++++++++ ++++++++++++++++++++ ++++++++++++++++++++ .................... .................... ",
" .................... ++++++++++++++++++++ .................... ++++++++++++++++++++ ++++++++++++++++++++ ++++++++++++++++++++ ++++++++++++++++++++ ++++++++++++++++++++ ++++++++++++++++++++ ++++++++++++++++++++ .................... ++++++++++++++++++++ .................... .................... .................... .................... .................... .................... ++++++++++++++++++++ ++++++++++++++++++++ ++++++++++++++++++++ ++++++++++++++++++++ ++++++++++++++++++++ ++++++++++++++++++++ ++++++++++++++++++++ ++++++++++++++++++++ ++++++++++++++++++++ .................... .................... ",
" .................... ++++++++++++++++++++ .................... ++++++++++++++++++++ ++++++++++++++++++++ ++++++++++++++++++++ ++++++++++++++++++++ ++++++++++++++++++++ ++++++++++++++++++++ ++++++++++++++++++++ .................... ++++++++++++++++++++ .................... .................... .................... .................... .................... .................... ++++++++++++++++++++ ++++++++++++++++++++ ++++++++++++++++++++ ++++++++++++++++++++ ++++++++++++++++++++ ++++++++++++++++++++ ++++++++++++++++++++ ++++++++++++++++++++ ++++++++++++++++++++ .................... .................... ",
" .................... ++++++++++++++++++++ .................... ++++++++++++++++++++ ++++++++++++++++++++ ++++++++++++++++++++ ++++++++++++++++++++ ++++++++++++++++++++ ++++++++++++++++++++ ++++++++++++++++++++ .................... ++++++++++++++++++++ .................... .................... .................... .................... .................... .................... ++++++++++++++++++++ ++++++++++++++++++++ ++++++++++++++++++++ ++++++++++++++++++++ ++++++++++++++++++++ ++++++++++++++++++++ ++++++++++++++++++++ ++++++++++++++++++++ ++++++++++++++++++++ .................... .................... ",
" .................... ++++++++++++++++++++ .................... ++++++++++++++++++++ ++++++++++++++++++++ ++++++++++++++++++++ ++++++++++++++++++++ ++++++++++++++++++++ ++++++++++++++++++++ ++++++++++++++++++++ .................... ++++++++++++++++++++ .................... .................... .................... .................... .................... .................... ++++++++++++++++++++ ++++++++++++++++++++ ++++++++++++++++++++ ++++++++++++++++++++ ++++++++++++++++++++ ++++++++++++++++++++ ++++++++++++++++++++ ++++++++++++++++++++ ++++++++++++++++++++ .................... .................... ",
" .................... ++++++++++++++++++++ .................... ++++++++++++++++++++ ++++++++++++++++++++ ++++++++++++++++++++ ++++++++++++++++++++ ++++++++++++++++++++ ++++++++++++++++++++ ++++++++++++++++++++ .................... ++++++++++++++++++++ .................... .................... .................... .................... .................... .................... ++++++++++++++++++++ ++++++++++++++++++++ ++++++++++++++++++++ ++++++++++++++++++++ ++++++++++++++++++++ ++++++++++++++++++++ ++++++++++++++++++++ ++++++++++++++++++++ ++++++++++++++++++++ .................... .................... ",
" .................... ++++++++++++++++++++ .................... ++++++++++++++++++++ ++++++++++++++++++++ ++++++++++++++++++++ ++++++++++++++++++++ ++++++++++++++++++++ ++++++++++++++++++++ ++++++++++++++++++++ .................... ++++++++++++++++++++ .................... .................... .................... .................... .................... .................... ++++++++++++++++++++ ++++++++++++++++++++ ++++++++++++++++++++ ++++++++++++++++++++ ++++++++++++++++++++ ++++++++++++++++++++ ++++++++++++++++++++ ++++++++++++++++++++ ++++++++++++++++++++ .................... .................... ",
" .................... ++++++++++++++++++++ .................... ++++++++++++++++++++ ++++++++++++++++++++ ++++++++++++++++++++ ++++++++++++++++++++ ++++++++++++++++++++ ++++++++++++++++++++ ++++++++++++++++++++ .................... ++++++++++++++++++++ .................... .................... .................... .................... .................... .................... ++++++++++++++++++++ ++++++++++++++++++++ ++++++++++++++++++++ ++++++++++++++++++++ ++++++++++++++++++++ ++++++++++++++++++++ ++++++++++++++++++++ ++++++++++++++++++++ ++++++++++++++++++++ .................... .................... ",
" .................... ++++++++++++++++++++ .................... ++++++++++++++++++++ ++++++++++++++++++++ ++++++++++++++++++++ ++++++++++++++++++++ ++++++++++++++++++++ ++++++++++++++++++++ ++++++++++++++++++++ .................... ++++++++++++++++++++ .................... .................... .................... .................... .................... .................... ++++++++++++++++++++ ++++++++++++++++++++ ++++++++++++++++++++ ++++++++++++++++++++ ++++++++++++++++++++ ++++++++++++++++++++ ++++++++++++++++++++ ++++++++++++++++++++ ++++++++++++++++++++ .................... .................... ",
" .................... ++++++++++++++++++++ .................... ++++++++++++++++++++ ++++++++++++++++++++ ++++++++++++++++++++ ++++++++++++++++++++ ++++++++++++++++++++ ++++++++++++++++++++ ++++++++++++++++++++ .................... ++++++++++++++++++++ .................... .................... .................... .................... .................... .................... ++++++++++++++++++++ ++++++++++++++++++++ ++++++++++++++++++++ ++++++++++++++++++++ ++++++++++++++++++++ ++++++++++++++++++++ ++++++++++++++++++++ ++++++++++++++++++++ ++++++++++++++++++++ .................... .................... ",
" .................... ++++++++++++++++++++ .................... ++++++++++++++++++++ ++++++++++++++++++++ ++++++++++++++++++++ ++++++++++++++++++++ ++++++++++++++++++++ ++++++++++++++++++++ ++++++++++++++++++++ .................... ++++++++++++++++++++ .................... .................... .................... .................... .................... .................... ++++++++++++++++++++ ++++++++++++++++++++ ++++++++++++++++++++ ++++++++++++++++++++ ++++++++++++++++++++ ++++++++++++++++++++ ++++++++++++++++++++ ++++++++++++++++++++ ++++++++++++++++++++ .................... .................... ",
"                                                                                                                                                                                                                                                                                                                                                                                                                                                                                                                                                                                                                                  ",
" .................... ++++++++++++++++++++ .................... ++++++++++++++++++++ .................... .................... .................... .................... .................... ++++++++++++++++++++ .................... ++++++++++++++++++++ .................... .................... .................... .................... .................... .................... .................... ++++++++++++++++++++ .................... .................... .................... .................... .................... ++++++++++++++++++++ .................... .................... .................... ",
" .................... ++++++++++++++++++++ .................... ++++++++++++++++++++ .................... .................... .................... .................... .................... ++++++++++++++++++++ .................... ++++++++++++++++++++ .................... .................... .................... .................... .................... .................... .................... ++++++++++++++++++++ .................... .................... .................... .................... .................... ++++++++++++++++++++ .................... .................... .................... ",
" .................... ++++++++++++++++++++ .................... ++++++++++++++++++++ .................... .................... .................... .................... .................... ++++++++++++++++++++ .................... ++++++++++++++++++++ .................... .................... .................... .................... .................... .................... .................... ++++++++++++++++++++ .................... .................... .................... .................... .................... ++++++++++++++++++++ .................... .................... .................... ",
" .................... ++++++++++++++++++++ .................... ++++++++++++++++++++ .................... .................... .................... .................... .................... ++++++++++++++++++++ .................... ++++++++++++++++++++ .................... .................... .................... .................... .................... .................... .................... ++++++++++++++++++++ .................... .................... .................... .................... .................... ++++++++++++++++++++ .................... .................... .................... ",
" .................... ++++++++++++++++++++ .................... ++++++++++++++++++++ .................... .................... .................... .................... .................... ++++++++++++++++++++ .................... ++++++++++++++++++++ .................... .................... .................... .................... .................... .................... .................... ++++++++++++++++++++ .................... .................... .................... .................... .................... ++++++++++++++++++++ .................... .................... .................... ",
" .................... ++++++++++++++++++++ .................... ++++++++++++++++++++ .................... .................... .................... .................... .................... ++++++++++++++++++++ .................... ++++++++++++++++++++ .................... .................... .................... .................... .................... .................... .................... ++++++++++++++++++++ .................... .................... .................... .................... .................... ++++++++++++++++++++ .................... .................... .................... ",
" .................... ++++++++++++++++++++ .................... ++++++++++++++++++++ .................... .................... .................... .................... .................... ++++++++++++++++++++ .................... ++++++++++++++++++++ .................... .................... .................... .................... .................... .................... .................... ++++++++++++++++++++ .................... .................... .................... .................... .................... ++++++++++++++++++++ .................... .................... .................... ",
" .................... ++++++++++++++++++++ .................... ++++++++++++++++++++ .................... .................... .................... .................... .................... ++++++++++++++++++++ .................... ++++++++++++++++++++ .................... .................... .................... .................... .................... .................... .................... ++++++++++++++++++++ .................... .................... .................... .................... .................... ++++++++++++++++++++ .................... .................... .................... ",
" .................... ++++++++++++++++++++ .................... ++++++++++++++++++++ .................... .................... .................... .................... .................... ++++++++++++++++++++ .................... ++++++++++++++++++++ .................... .................... .................... .................... .................... .................... .................... ++++++++++++++++++++ .................... .................... .................... .................... .................... ++++++++++++++++++++ .................... .................... .................... ",
" .................... ++++++++++++++++++++ .................... ++++++++++++++++++++ .................... .................... .................... .................... .................... ++++++++++++++++++++ .................... ++++++++++++++++++++ .................... .................... .................... .................... .................... .................... .................... ++++++++++++++++++++ .................... .................... .................... .................... .................... ++++++++++++++++++++ .................... .................... .................... ",
" .................... ++++++++++++++++++++ .................... ++++++++++++++++++++ .................... .................... .................... .................... .................... ++++++++++++++++++++ .................... ++++++++++++++++++++ .................... .................... .................... .................... .................... .................... .................... ++++++++++++++++++++ .................... .................... .................... .................... .................... ++++++++++++++++++++ .................... .................... .................... ",
" .................... ++++++++++++++++++++ .................... ++++++++++++++++++++ .................... .................... .................... .................... .................... ++++++++++++++++++++ .................... ++++++++++++++++++++ .................... .................... .................... .................... .................... .................... .................... ++++++++++++++++++++ .................... .................... .................... .................... .................... ++++++++++++++++++++ .................... .................... .................... ",
" .................... ++++++++++++++++++++ .................... ++++++++++++++++++++ .................... .................... .................... .................... .................... ++++++++++++++++++++ .................... ++++++++++++++++++++ .................... .................... .................... .................... .................... .................... .................... ++++++++++++++++++++ .................... .................... .................... .................... .................... ++++++++++++++++++++ .................... .................... .................... ",
" .................... ++++++++++++++++++++ .................... ++++++++++++++++++++ .................... .................... .................... .................... .................... ++++++++++++++++++++ .................... ++++++++++++++++++++ .................... .................... .................... .................... .................... .................... .................... ++++++++++++++++++++ .................... .................... .................... .................... .................... ++++++++++++++++++++ .................... .................... .................... ",
" .................... ++++++++++++++++++++ .................... ++++++++++++++++++++ .................... .................... .................... .................... .................... ++++++++++++++++++++ .................... ++++++++++++++++++++ .................... .................... .................... .................... .................... .................... .................... ++++++++++++++++++++ .................... .................... .................... .................... .................... ++++++++++++++++++++ .................... .................... .................... ",
" .................... ++++++++++++++++++++ .................... ++++++++++++++++++++ .................... .................... .................... .................... .................... ++++++++++++++++++++ .................... ++++++++++++++++++++ .................... .................... .................... .................... .................... .................... .................... ++++++++++++++++++++ .................... .................... .................... .................... .................... ++++++++++++++++++++ .................... .................... .................... ",
" .................... ++++++++++++++++++++ .................... ++++++++++++++++++++ .................... .................... .................... .................... .................... ++++++++++++++++++++ .................... ++++++++++++++++++++ .................... .................... .................... .................... .................... .................... .................... ++++++++++++++++++++ .................... .................... .................... .................... .................... ++++++++++++++++++++ .................... .................... .................... ",
" .................... ++++++++++++++++++++ .................... ++++++++++++++++++++ .................... .................... .................... .................... .................... ++++++++++++++++++++ .................... ++++++++++++++++++++ .................... .................... .................... .................... .................... .................... .................... ++++++++++++++++++++ .................... .................... .................... .................... .................... ++++++++++++++++++++ .................... .................... .................... ",
" .................... ++++++++++++++++++++ .................... ++++++++++++++++++++ .................... .................... .................... .................... .................... ++++++++++++++++++++ .................... ++++++++++++++++++++ .................... .................... .................... .................... .................... .................... .................... ++++++++++++++++++++ .................... .................... .................... .................... .................... ++++++++++++++++++++ .................... .................... .................... ",
" .................... ++++++++++++++++++++ .................... ++++++++++++++++++++ .................... .................... .................... .................... .................... ++++++++++++++++++++ .................... ++++++++++++++++++++ .................... .................... .................... .................... .................... .................... .................... ++++++++++++++++++++ .................... .................... .................... .................... .................... ++++++++++++++++++++ .................... .................... .................... ",
"                                                                                                                                                                                                                                                                                                                                                                                                                                                                                                                                                                                                                                  ",
" .................... .................... .................... .................... ++++++++++++++++++++ ++++++++++++++++++++ .................... ++++++++++++++++++++ ++++++++++++++++++++ .................... .................... .................... .................... .................... .................... .................... .................... .................... ++++++++++++++++++++ .................... .................... .................... .................... .................... .................... .................... ++++++++++++++++++++ .................... .................... ",
" .................... .................... .................... .................... ++++++++++++++++++++ ++++++++++++++++++++ .................... ++++++++++++++++++++ ++++++++++++++++++++ .................... .................... .................... .................... .................... .................... .................... .................... .................... ++++++++++++++++++++ .................... .................... .................... .................... .................... .................... .................... ++++++++++++++++++++ .................... .................... ",
" .................... .................... .................... .................... ++++++++++++++++++++ ++++++++++++++++++++ .................... ++++++++++++++++++++ ++++++++++++++++++++ .................... .................... .................... .................... .................... .................... .................... .................... .................... ++++++++++++++++++++ .................... .................... .................... .................... .................... .................... .................... ++++++++++++++++++++ .................... .................... ",
" .................... .................... .................... .................... ++++++++++++++++++++ ++++++++++++++++++++ .................... ++++++++++++++++++++ ++++++++++++++++++++ .................... .................... .................... .................... .................... .................... .................... .................... .................... ++++++++++++++++++++ .................... .................... .................... .................... .................... .................... .................... ++++++++++++++++++++ .................... .................... ",
" .................... .................... .................... .................... ++++++++++++++++++++ ++++++++++++++++++++ .................... ++++++++++++++++++++ ++++++++++++++++++++ .................... .................... .................... .................... .................... .................... .................... .................... .................... ++++++++++++++++++++ .................... .................... .................... .................... .................... .................... .................... ++++++++++++++++++++ .................... .................... ",
" .................... .................... .................... .................... ++++++++++++++++++++ ++++++++++++++++++++ .................... ++++++++++++++++++++ ++++++++++++++++++++ .................... .................... .................... .................... .................... .................... .................... .................... .................... ++++++++++++++++++++ .................... .................... .................... .................... .................... .................... .................... ++++++++++++++++++++ .................... .................... ",
" .................... .................... .................... .................... ++++++++++++++++++++ ++++++++++++++++++++ .................... ++++++++++++++++++++ ++++++++++++++++++++ .................... .................... .................... .................... .................... .................... .................... .................... .................... ++++++++++++++++++++ .................... .................... .................... .................... .................... .................... .................... ++++++++++++++++++++ .................... .................... ",
" .................... .................... .................... .................... ++++++++++++++++++++ ++++++++++++++++++++ .................... ++++++++++++++++++++ ++++++++++++++++++++ .................... .................... .................... .................... .................... .................... .................... .................... .................... ++++++++++++++++++++ .................... .................... .................... .................... .................... .................... .................... ++++++++++++++++++++ .................... .................... ",
" .................... .................... .................... .................... ++++++++++++++++++++ ++++++++++++++++++++ .................... ++++++++++++++++++++ ++++++++++++++++++++ .................... .................... .................... .................... .................... .................... .................... .................... .................... ++++++++++++++++++++ .................... .................... .................... .................... .................... .................... .................... ++++++++++++++++++++ .................... .................... ",
" .................... .................... .................... .................... ++++++++++++++++++++ ++++++++++++++++++++ .................... ++++++++++++++++++++ ++++++++++++++++++++ .................... .................... .................... .................... .................... .................... .................... .................... .................... ++++++++++++++++++++ .................... .................... .................... .................... .................... .................... .................... ++++++++++++++++++++ .................... .................... ",
" .................... .................... .................... .................... ++++++++++++++++++++ ++++++++++++++++++++ .................... ++++++++++++++++++++ ++++++++++++++++++++ .................... .................... .................... .................... .................... .................... .................... .................... .................... ++++++++++++++++++++ .................... .................... .................... .................... .................... .................... .................... ++++++++++++++++++++ .................... .................... ",
" .................... .................... .................... .................... ++++++++++++++++++++ ++++++++++++++++++++ .................... ++++++++++++++++++++ ++++++++++++++++++++ .................... .................... .................... .................... .................... .................... .................... .................... .................... ++++++++++++++++++++ .................... .................... .................... .................... .................... .................... .................... ++++++++++++++++++++ .................... .................... ",
" .................... .................... .................... .................... ++++++++++++++++++++ ++++++++++++++++++++ .................... ++++++++++++++++++++ ++++++++++++++++++++ .................... .................... .................... .................... .................... .................... .................... .................... .................... ++++++++++++++++++++ .................... .................... .................... .................... .................... .................... .................... ++++++++++++++++++++ .................... .................... ",
" .................... .................... .................... .................... ++++++++++++++++++++ ++++++++++++++++++++ .................... ++++++++++++++++++++ ++++++++++++++++++++ .................... .................... .................... .................... .................... .................... .................... .................... .................... ++++++++++++++++++++ .................... .................... .................... .................... .................... .................... .................... ++++++++++++++++++++ .................... .................... ",
" .................... .................... .................... .................... ++++++++++++++++++++ ++++++++++++++++++++ .................... ++++++++++++++++++++ ++++++++++++++++++++ .................... .................... .................... .................... .................... .................... .................... .................... .................... ++++++++++++++++++++ .................... .................... .................... .................... .................... .................... .................... ++++++++++++++++++++ .................... .................... ",
" .................... .................... .................... .................... ++++++++++++++++++++ ++++++++++++++++++++ .................... ++++++++++++++++++++ ++++++++++++++++++++ .................... .................... .................... .................... .................... .................... .................... .................... .................... ++++++++++++++++++++ .................... .................... .................... .................... .................... .................... .................... ++++++++++++++++++++ .................... .................... ",
" .................... .................... .................... .................... ++++++++++++++++++++ ++++++++++++++++++++ .................... ++++++++++++++++++++ ++++++++++++++++++++ .................... .................... .................... .................... .................... .................... .................... .................... .................... ++++++++++++++++++++ .................... .................... .................... .................... .................... .................... .................... ++++++++++++++++++++ .................... .................... ",
" .................... .................... .................... .................... ++++++++++++++++++++ ++++++++++++++++++++ .................... ++++++++++++++++++++ ++++++++++++++++++++ .................... .................... .................... .................... .................... .................... .................... .................... .................... ++++++++++++++++++++ .................... .................... .................... .................... .................... .................... .................... ++++++++++++++++++++ .................... .................... ",
" .................... .................... .................... .................... ++++++++++++++++++++ ++++++++++++++++++++ .................... ++++++++++++++++++++ ++++++++++++++++++++ .................... .................... .................... .................... .................... .................... .................... .................... .................... ++++++++++++++++++++ .................... .................... .................... .................... .................... .................... .................... ++++++++++++++++++++ .................... .................... ",
" .................... .................... .................... .................... ++++++++++++++++++++ ++++++++++++++++++++ .................... ++++++++++++++++++++ ++++++++++++++++++++ .................... .................... .................... .................... .................... .................... .................... .................... .................... ++++++++++++++++++++ .................... .................... .................... .................... .................... .................... .................... ++++++++++++++++++++ .................... .................... ",
"                                                                                                                                                                                                                                                                                                                                                                                                                                                                                                                                                                                                                                  ",
" .................... .................... .................... .................... .................... .................... .................... .................... .................... .................... .................... .................... .................... .................... .................... .................... .................... .................... .................... .................... .................... .................... .................... .................... .................... .................... .................... .................... .................... ",
" .................... .................... .................... .................... .................... .................... .................... .................... .................... .................... .................... .................... .................... .................... .................... .................... .................... .................... .................... .................... .................... .................... .................... .................... .................... .................... .................... .................... .................... ",
" .................... .................... .................... .................... .................... .................... .................... .................... .................... .................... .................... .................... .................... .................... .................... .................... .................... .................... .................... .................... .................... .................... .................... .................... .................... .................... .................... .................... .................... ",
" .................... .................... .................... .................... .................... .................... .................... .................... .................... .................... .................... .................... .................... .................... .................... .................... .................... .................... .................... .................... .................... .................... .................... .................... .................... .................... .................... .................... .................... ",
" .................... .................... .................... .................... .................... .................... .................... .................... .................... .................... .................... .................... .................... .................... .................... .................... .................... .................... .................... .................... .................... .................... .................... .................... .................... .................... .................... .................... .................... ",
" .................... .................... .................... .................... .................... .................... .................... .................... .................... .................... .................... .................... .................... .................... .................... .................... .................... .................... .................... .................... .................... .................... .................... .................... .................... .................... .................... .................... .................... ",
" .................... .................... .................... .................... .................... .................... .................... .................... .................... .................... .................... .................... .................... .................... .................... .................... .................... .................... .................... .................... .................... .................... .................... .................... .................... .................... .................... .................... .................... ",
" .................... .................... .................... .................... .................... .................... .................... .................... .................... .................... .................... .................... .................... .................... .................... .................... .................... .................... .................... .................... .................... .................... .................... .................... .................... .................... .................... .................... .................... ",
" .................... .................... .................... .................... .................... .................... .................... .................... .................... .................... .................... .................... .................... .................... .................... .................... .................... .................... .................... .................... .................... .................... .................... .................... .................... .................... .................... .................... .................... ",
" .................... .................... .................... .................... .................... .................... .................... .................... .................... .................... .................... .................... .................... .................... .................... .................... .................... .................... .................... .................... .................... .................... .................... .................... .................... .................... .................... .................... .................... ",
" .................... .................... .................... .................... .................... .................... .................... .................... .................... .................... .................... .................... .................... .................... .................... .................... .................... .................... .................... .................... .................... .................... .................... .................... .................... .................... .................... .................... .................... ",
" .................... .................... .................... .................... .................... .................... .................... .................... .................... .................... .................... .................... .................... .................... .................... .................... .................... .................... .................... .................... .................... .................... .................... .................... .................... .................... .................... .................... .................... ",
" .................... .................... .................... .................... .................... .................... .................... .................... .................... .................... .................... .................... .................... .................... .................... .................... .................... .................... .................... .................... .................... .................... .................... .................... .................... .................... .................... .................... .................... ",
" .................... .................... .................... .................... .................... .................... .................... .................... .................... .................... .................... .................... .................... .................... .................... .................... .................... .................... .................... .................... .................... .................... .................... .................... .................... .................... .................... .................... .................... ",
" .................... .................... .................... .................... .................... .................... .................... .................... .................... .................... .................... .................... .................... .................... .................... .................... .................... .................... .................... .................... .................... .................... .................... .................... .................... .................... .................... .................... .................... ",
" .................... .................... .................... .................... .................... .................... .................... .................... .................... .................... .................... .................... .................... .................... .................... .................... .................... .................... .................... .................... .................... .................... .................... .................... .................... .................... .................... .................... .................... ",
" .................... .................... .................... .................... .................... .................... .................... .................... .................... .................... .................... .................... .................... .................... .................... .................... .................... .................... .................... .................... .................... .................... .................... .................... .................... .................... .................... .................... .................... ",
" .................... .................... .................... .................... .................... .................... .................... .................... .................... .................... .................... .................... .................... .................... .................... .................... .................... .................... .................... .................... .................... .................... .................... .................... .................... .................... .................... .................... .................... ",
" .................... .................... .................... .................... .................... .................... .................... .................... .................... .................... .................... .................... .................... .................... .................... .................... .................... .................... .................... .................... .................... .................... .................... .................... .................... .................... .................... .................... .................... ",
" .................... .................... .................... .................... .................... .................... .................... .................... .................... .................... .................... .................... .................... .................... .................... .................... .................... .................... .................... .................... .................... .................... .................... .................... .................... .................... .................... .................... .................... ",
"                                                                                                                                                                                                                                                                                                                                                                                                                                                                                                                                                                                                                                  ",
" .................... .................... .................... .................... .................... .................... .................... .................... .................... .................... .................... .................... .................... .................... .................... .................... .................... .................... .................... .................... .................... .................... .................... .................... .................... .................... .................... .................... .................... ",
" .................... .................... .................... .................... .................... .................... .................... .................... .................... .................... .................... .................... .................... .................... .................... .................... .................... .................... .................... .................... .................... .................... .................... .................... .................... .................... .................... .................... .................... ",
" .................... .................... .................... .................... .................... .................... .................... .................... .................... .................... .................... .................... .................... .................... .................... .................... .................... .................... .................... .................... .................... .................... .................... .................... .................... .................... .................... .................... .................... ",
" .................... .................... .................... .................... .................... .................... .................... .................... .................... .................... .................... .................... .................... .................... .................... .................... .................... .................... .................... .................... .................... .................... .................... .................... .................... .................... .................... .................... .................... ",
" .................... .................... .................... .................... .................... .................... .................... .................... .................... .................... .................... .................... .................... .................... .................... .................... .................... .................... .................... .................... .................... .................... .................... .................... .................... .................... .................... .................... .................... ",
" .................... .................... .................... .................... .................... .................... .................... .................... .................... .................... .................... .................... .................... .................... .................... .................... .................... .................... .................... .................... .................... .................... .................... .................... .................... .................... .................... .................... .................... ",
" .................... .................... .................... .................... .................... .................... .................... .................... .................... .................... .................... .................... .................... .................... .................... .................... .................... .................... .................... .................... .................... .................... .................... .................... .................... .................... .................... .................... .................... ",
" .................... .................... .................... .................... .................... .................... .................... .................... .................... .................... .................... .................... .................... .................... .................... .................... .................... .................... .................... .................... .................... .................... .................... .................... .................... .................... .................... .................... .................... ",
" .................... .................... .................... .................... .................... .................... .................... .................... .................... .................... .................... .................... .................... .................... .................... .................... .................... .................... .................... .................... .................... .................... .................... .................... .................... .................... .................... .................... .................... ",
" .................... .................... .................... .................... .................... .................... .................... .................... .................... .................... .................... .................... .................... .................... .................... .................... .................... .................... .................... .................... .................... .................... .................... .................... .................... .................... .................... .................... .................... ",
" .................... .................... .................... .................... .................... .................... .................... .................... .................... .................... .................... .................... .................... .................... .................... .................... .................... .................... .................... .................... .................... .................... .................... .................... .................... .................... .................... .................... .................... ",
" .................... .................... .................... .................... .................... .................... .................... .................... .................... .................... .................... .................... .................... .................... .................... .................... .................... .................... .................... .................... .................... .................... .................... .................... .................... .................... .................... .................... .................... ",
" .................... .................... .................... .................... .................... .................... .................... .................... .................... .................... .................... .................... .................... .................... .................... .................... .................... .................... .................... .................... .................... .................... .................... .................... .................... .................... .................... .................... .................... ",
" .................... .................... .................... .................... .................... .................... .................... .................... .................... .................... .................... .................... .................... .................... .................... .................... .................... .................... .................... .................... .................... .................... .................... .................... .................... .................... .................... .................... .................... ",
" .................... .................... .................... .................... .................... .................... .................... .................... .................... .................... .................... .................... .................... .................... .................... .................... .................... .................... .................... .................... .................... .................... .................... .................... .................... .................... .................... .................... .................... ",
" .................... .................... .................... .................... .................... .................... .................... .................... .................... .................... .................... .................... .................... .................... .................... .................... .................... .................... .................... .................... .................... .................... .................... .................... .................... .................... .................... .................... .................... ",
" .................... .................... .................... .................... .................... .................... .................... .................... .................... .................... .................... .................... .................... .................... .................... .................... .................... .................... .................... .................... .................... .................... .................... .................... .................... .................... .................... .................... .................... ",
" .................... .................... .................... .................... .................... .................... .................... .................... .................... .................... .................... .................... .................... .................... .................... .................... .................... .................... .................... .................... .................... .................... .................... .................... .................... .................... .................... .................... .................... ",
" .................... .................... .................... .................... .................... .................... .................... .................... .................... .................... .................... .................... .................... .................... .................... .................... .................... .................... .................... .................... .................... .................... .................... .................... .................... .................... .................... .................... .................... ",
" .................... .................... .................... .................... .................... .................... .................... .................... .................... .................... .................... .................... .................... .................... .................... .................... .................... .................... .................... .................... .................... .................... .................... .................... .................... .................... .................... .................... .................... ",
"                                                                                                                                                                                                                                                                                                                                                                                                                                                                                                                                                                                                                                  ",
" .................... .................... .................... .................... .................... .................... .................... .................... .................... .................... .................... .................... .................... .................... .................... .................... .................... .................... .................... .................... .................... .................... .................... .................... .................... .................... .................... .................... .................... ",
" .................... .................... .................... .................... .................... .................... .................... .................... .................... .................... .................... .................... .................... .................... .................... .................... .................... .................... .................... .................... .................... .................... .................... .................... .................... .................... .................... .................... .................... ",
" .................... .................... .................... .................... .................... .................... .................... .................... .................... .................... .................... .................... .................... .................... .................... .................... .................... .................... .................... .................... .................... .................... .................... .................... .................... .................... .................... .................... .................... ",
" .................... .................... .................... .................... .................... .................... .................... .................... .................... .................... .................... .................... .................... .................... .................... .................... .................... .................... .................... .................... .................... .................... .................... .................... .................... .................... .................... .................... .................... ",
" .................... .................... .................... .................... .................... .................... .................... .................... .................... .................... .................... .................... .................... .................... .................... .................... .................... .................... .................... .................... .................... .................... .................... .................... .................... .................... .................... .................... .................... ",
" .................... .................... .................... .................... .................... .................... .................... .................... .................... .................... .................... .................... .................... .................... .................... .................... .................... .................... .................... .................... .................... .................... .................... .................... .................... .................... .................... .................... .................... ",
" .................... .................... .................... .................... .................... .................... .................... .................... .................... .................... .................... .................... .................... .................... .................... .................... .................... .................... .................... .................... .................... .................... .................... .................... .................... .................... .................... .................... .................... ",
" .................... .................... .................... .................... .................... .................... .................... .................... .................... .................... .................... .................... .................... .................... .................... .................... .................... .................... .................... .................... .................... .................... .................... .................... .................... .................... .................... .................... .................... ",
" .................... .................... .................... .................... .................... .................... .................... .................... .................... .................... .................... .................... .................... .................... .................... .................... .................... .................... .................... .................... .................... .................... .................... .................... .................... .................... .................... .................... .................... ",
" .................... .................... .................... .................... .................... .................... .................... .................... .................... .................... .................... .................... .................... .................... .................... .................... .................... .................... .................... .................... .................... .................... .................... .................... .................... .................... .................... .................... .................... ",
" .................... .................... .................... .................... .................... .................... .................... .................... .................... .................... .................... .................... .................... .................... .................... .................... .................... .................... .................... .................... .................... .................... .................... .................... .................... .................... .................... .................... .................... ",
" .................... .................... .................... .................... .................... .................... .................... .................... .................... .................... .................... .................... .................... .................... .................... .................... .................... .................... .................... .................... .................... .................... .................... .................... .................... .................... .................... .................... .................... ",
" .................... .................... .................... .................... .................... .................... .................... .................... .................... .................... .................... .................... .................... .................... .................... .................... .................... .................... .................... .................... .................... .................... .................... .................... .................... .................... .................... .................... .................... ",
" .................... .................... .................... .................... .................... .................... .................... .................... .................... .................... .................... .................... .................... .................... .................... .................... .................... .................... .................... .................... .................... .................... .................... .................... .................... .................... .................... .................... .................... ",
" .................... .................... .................... .................... .................... .................... .................... .................... .................... .................... .................... .................... .................... .................... .................... .................... .................... .................... .................... .................... .................... .................... .................... .................... .................... .................... .................... .................... .................... ",
" .................... .................... .................... .................... .................... .................... .................... .................... .................... .................... .................... .................... .................... .................... .................... .................... .................... .................... .................... .................... .................... .................... .................... .................... .................... .................... .................... .................... .................... ",
" .................... .................... .................... .................... .................... .................... .................... .................... .................... .................... .................... .................... .................... .................... .................... .................... .................... .................... .................... .................... .................... .................... .................... .................... .................... .................... .................... .................... .................... ",
" .................... .................... .................... .................... .................... .................... .................... .................... .................... .................... .................... .................... .................... .................... .................... .................... .................... .................... .................... .................... .................... .................... .................... .................... .................... .................... .................... .................... .................... ",
" .................... .................... .................... .................... .................... .................... .................... .................... .................... .................... .................... .................... .................... .................... .................... .................... .................... .................... .................... .................... .................... .................... .................... .................... .................... .................... .................... .................... .................... ",
" .................... .................... .................... .................... .................... .................... .................... .................... .................... .................... .................... .................... .................... .................... .................... .................... .................... .................... .................... .................... .................... .................... .................... .................... .................... .................... .................... .................... .................... ",
"                                                                                                                                                                                                                                                                                                                                                                                                                                                                                                                                                                                                                                  ",
" .................... .................... .................... .................... .................... .................... .................... .................... .................... .................... .................... .................... .................... .................... .................... .................... .................... .................... .................... .................... .................... .................... .................... .................... .................... .................... .................... .................... .................... ",
" .................... .................... .................... .................... .................... .................... .................... .................... .................... .................... .................... .................... .................... .................... .................... .................... .................... .................... .................... .................... .................... .................... .................... .................... .................... .................... .................... .................... .................... ",
" .................... .................... .................... .................... .................... .................... .................... .................... .................... .................... .................... .................... .................... .................... .................... .................... .................... .................... .................... .................... .................... .................... .................... .................... .................... .................... .................... .................... .................... ",
" .................... .................... .................... .................... .................... .................... .................... .................... .................... .................... .................... .................... .................... .................... .................... .................... .................... .................... .................... .................... .................... .................... .................... .................... .................... .................... .................... .................... .................... ",
" .................... .................... .................... .................... .................... .................... .................... .................... .................... .................... .................... .................... .................... .................... .................... .................... .................... .................... .................... .................... .................... .................... .................... .................... .................... .................... .................... .................... .................... ",
" .................... .................... .................... .................... .................... .................... .................... .................... .................... .................... .................... .................... .................... .................... .................... .................... .................... .................... .................... .................... .................... .................... .................... .................... .................... .................... .................... .................... .................... ",
" .................... .................... .................... .................... .................... .................... .................... .................... .................... .................... .................... .................... .................... .................... .................... .................... .................... .................... .................... .................... .................... .................... .................... .................... .................... .................... .................... .................... .................... ",
" .................... .................... .................... .................... .................... .................... .................... .................... .................... .................... .................... .................... .................... .................... .................... .................... .................... .................... .................... .................... .................... .................... .................... .................... .................... .................... .................... .................... .................... ",
" .................... .................... .................... .................... .................... .................... .................... .................... .................... .................... .................... .................... .................... .................... .................... .................... .................... .................... .................... .................... .................... .................... .................... .................... .................... .................... .................... .................... .................... ",
" .................... .................... .................... .................... .................... .................... .................... .................... .................... .................... .................... .................... .................... .................... .................... .................... .................... .................... .................... .................... .................... .................... .................... .................... .................... .................... .................... .................... .................... ",
" .................... .................... .................... .................... .................... .................... .................... .................... .................... .................... .................... .................... .................... .................... .................... .................... .................... .................... .................... .................... .................... .................... .................... .................... .................... .................... .................... .................... .................... ",
" .................... .................... .................... .................... .................... .................... .................... .................... .................... .................... .................... .................... .................... .................... .................... .................... .................... .................... .................... .................... .................... .................... .................... .................... .................... .................... .................... .................... .................... ",
" .................... .................... .................... .................... .................... .................... .................... .................... .................... .................... .................... .................... .................... .................... .................... .................... .................... .................... .................... .................... .................... .................... .................... .................... .................... .................... .................... .................... .................... ",
" .................... .................... .................... .................... .................... .................... .................... .................... .................... .................... .................... .................... .................... .................... .................... .................... .................... .................... .................... .................... .................... .................... .................... .................... .................... .................... .................... .................... .................... ",
" .................... .................... .................... .................... .................... .................... .................... .................... .................... .................... .................... .................... .................... .................... .................... .................... .................... .................... .................... .................... .................... .................... .................... .................... .................... .................... .................... .................... .................... ",
" .................... .................... .................... .................... .................... .................... .................... .................... .................... .................... .................... .................... .................... .................... .................... .................... .................... .................... .................... .................... .................... .................... .................... .................... .................... .................... .................... .................... .................... ",
" .................... .................... .................... .................... .................... .................... .................... .................... .................... .................... .................... .................... .................... .................... .................... .................... .................... .................... .................... .................... .................... .................... .................... .................... .................... .................... .................... .................... .................... ",
" .................... .................... .................... .................... .................... .................... .................... .................... .................... .................... .................... .................... .................... .................... .................... .................... .................... .................... .................... .................... .................... .................... .................... .................... .................... .................... .................... .................... .................... ",
" .................... .................... .................... .................... .................... .................... .................... .................... .................... .................... .................... .................... .................... .................... .................... .................... .................... .................... .................... .................... .................... .................... .................... .................... .................... .................... .................... .................... .................... ",
" .................... .................... .................... .................... .................... .................... .................... .................... .................... .................... .................... .................... .................... .................... .................... .................... .................... .................... .................... .................... .................... .................... .................... .................... .................... .................... .................... .................... .................... ",
"                                                                                                                                                                                                                                                                                                                                                                                                                                                                                                                                                                                                                                  ",
" .................... .................... .................... .................... .................... .................... .................... .................... .................... .................... .................... .................... .................... .................... .................... .................... .................... .................... .................... .................... .................... .................... .................... .................... .................... .................... .................... .................... .................... ",
" .................... .................... .................... .................... .................... .................... .................... .................... .................... .................... .................... .................... .................... .................... .................... .................... .................... .................... .................... .................... .................... .................... .................... .................... .................... .................... .................... .................... .................... ",
" .................... .................... .................... .................... .................... .................... .................... .................... .................... .................... .................... .................... .................... .................... .................... .................... .................... .................... .................... .................... .................... .................... .................... .................... .................... .................... .................... .................... .................... ",
" .................... .................... .................... .................... .................... .................... .................... .................... .................... .................... .................... .................... .................... .................... .................... .................... .................... .................... .................... .................... .................... .................... .................... .................... .................... .................... .................... .................... .................... ",
" .................... .................... .................... .................... .................... .................... .................... .................... .................... .................... .................... .................... .................... .................... .................... .................... .................... .................... .................... .................... .................... .................... .................... .................... .................... .................... .................... .................... .................... ",
" .................... .................... .................... .................... .................... .................... .................... .................... .................... .................... .................... .................... .................... .................... .................... .................... .................... .................... .................... .................... .................... .................... .................... .................... .................... .................... .................... .................... .................... ",
" .................... .................... .................... .................... .................... .................... .................... .................... .................... .................... .................... .................... .................... .................... .................... .................... .................... .................... .................... .................... .................... .................... .................... .................... .................... .................... .................... .................... .................... ",
" .................... .................... .................... .................... .................... .................... .................... .................... .................... .................... .................... .................... .................... .................... .................... .................... .................... .................... .................... .................... .................... .................... .................... .................... .................... .................... .................... .................... .................... ",
" .................... .................... .................... .................... .................... .................... .................... .................... .................... .................... .................... .................... .................... .................... .................... .................... .................... .................... .................... .................... .................... .................... .................... .................... .................... .................... .................... .................... .................... ",
" .................... .................... .................... .................... .................... .................... .................... .................... .................... .................... .................... .................... .................... .................... .................... .................... .................... .................... .................... .................... .................... .................... .................... .................... .................... .................... .................... .................... .................... ",
" .................... .................... .................... .................... .................... .................... .................... .................... .................... .................... .................... .................... .................... .................... .................... .................... .................... .................... .................... .................... .................... .................... .................... .................... .................... .................... .................... .................... .................... ",
" .................... .................... .................... .................... .................... .................... .................... .................... .................... .................... .................... .................... .................... .................... .................... .................... .................... .................... .................... .................... .................... .................... .................... .................... .................... .................... .................... .................... .................... ",
" .................... .................... .................... .................... .................... .................... .................... .................... .................... .................... .................... .................... .................... .................... .................... .................... .................... .................... .................... .................... .................... .................... .................... .................... .................... .................... .................... .................... .................... ",
" .................... .................... .................... .................... .................... .................... .................... .................... .................... .................... .................... .................... .................... .................... .................... .................... .................... .................... .................... .................... .................... .................... .................... .................... .................... .................... .................... .................... .................... ",
" .................... .................... .................... .................... .................... .................... .................... .................... .................... .................... .................... .................... .................... .................... .................... .................... .................... .................... .................... .................... .................... .................... .................... .................... .................... .................... .................... .................... .................... ",
" .................... .................... .................... .................... .................... .................... .................... .................... .................... .................... .................... .................... .................... .................... .................... .................... .................... .................... .................... .................... .................... .................... .................... .................... .................... .................... .................... .................... .................... ",
" .................... .................... .................... .................... .................... .................... .................... .................... .................... .................... .................... .................... .................... .................... .................... .................... .................... .................... .................... .................... .................... .................... .................... .................... .................... .................... .................... .................... .................... ",
" .................... .................... .................... .................... .................... .................... .................... .................... .................... .................... .................... .................... .................... .................... .................... .................... .................... .................... .................... .................... .................... .................... .................... .................... .................... .................... .................... .................... .................... ",
" .................... .................... .................... .................... .................... .................... .................... .................... .................... .................... .................... .................... .................... .................... .................... .................... .................... .................... .................... .................... .................... .................... .................... .................... .................... .................... .................... .................... .................... ",
" .................... .................... .................... .................... .................... .................... .................... .................... .................... .................... .................... .................... .................... .................... .................... .................... .................... .................... .................... .................... .................... .................... .................... .................... .................... .................... .................... .................... .................... ",
"                                                                                                                                                                                                                                                                                                                                                                                                                                                                                                                                                                                                                                  ",
" .................... .................... .................... .................... .................... .................... .................... .................... .................... .................... .................... .................... .................... .................... .................... .................... .................... .................... .................... .................... .................... .................... .................... .................... .................... .................... .................... .................... .................... ",
" .................... .................... .................... .................... .................... .................... .................... .................... .................... .................... .................... .................... .................... .................... .................... .................... .................... .................... .................... .................... .................... .................... .................... .................... .................... .................... .................... .................... .................... ",
" .................... .................... .................... .................... .................... .................... .................... .................... .................... .................... .................... .................... .................... .................... .................... .................... .................... .................... .................... .................... .................... .................... .................... .................... .................... .................... .................... .................... .................... ",
" .................... .................... .................... .................... .................... .................... .................... .................... .................... .................... .................... .................... .................... .................... .................... .................... .................... .................... .................... .................... .................... .................... .................... .................... .................... .................... .................... .................... .................... ",
" .................... .................... .................... .................... .................... .................... .................... .................... .................... .................... .................... .................... .................... .................... .................... .................... .................... .................... .................... .................... .................... .................... .................... .................... .................... .................... .................... .................... .................... ",
" .................... .................... .................... .................... .................... .................... .................... .................... .................... .................... .................... .................... .................... .................... .................... .................... .................... .................... .................... .................... .................... .................... .................... .................... .................... .................... .................... .................... .................... ",
" .................... .................... .................... .................... .................... .................... .................... .................... .................... .................... .................... .................... .................... .................... .................... .................... .................... .................... .................... .................... .................... .................... .................... .................... .................... .................... .................... .................... .................... ",
" .................... .................... .................... .................... .................... .................... .................... .................... .................... .................... .................... .................... .................... .................... .................... .................... .................... .................... .................... .................... .................... .................... .................... .................... .................... .................... .................... .................... .................... ",
" .................... .................... .................... .................... .................... .................... .................... .................... .................... .................... .................... .................... .................... .................... .................... .................... .................... .................... .................... .................... .................... .................... .................... .................... .................... .................... .................... .................... .................... ",
" .................... .................... .................... .................... .................... .................... .................... .................... .................... .................... .................... .................... .................... .................... .................... .................... .................... .................... .................... .................... .................... .................... .................... .................... .................... .................... .................... .................... .................... ",
" .................... .................... .................... .................... .................... .................... .................... .................... .................... .................... .................... .................... .................... .................... .................... .................... .................... .................... .................... .................... .................... .................... .................... .................... .................... .................... .................... .................... .................... ",
" .................... .................... .................... .................... .................... .................... .................... .................... .................... .................... .................... .................... .................... .................... .................... .................... .................... .................... .................... .................... .................... .................... .................... .................... .................... .................... .................... .................... .................... ",
" .................... .................... .................... .................... .................... .................... .................... .................... .................... .................... .................... .................... .................... .................... .................... .................... .................... .................... .................... .................... .................... .................... .................... .................... .................... .................... .................... .................... .................... ",
" .................... .................... .................... .................... .................... .................... .................... .................... .................... .................... .................... .................... .................... .................... .................... .................... .................... .................... .................... .................... .................... .................... .................... .................... .................... .................... .................... .................... .................... ",
" .................... .................... .................... .................... .................... .................... .................... .................... .................... .................... .................... .................... .................... .................... .................... .................... .................... .................... .................... .................... .................... .................... .................... .................... .................... .................... .................... .................... .................... ",
" .................... .................... .................... .................... .................... .................... .................... .................... .................... .................... .................... .................... .................... .................... .................... .................... .................... .................... .................... .................... .................... .................... .................... .................... .................... .................... .................... .................... .................... ",
" .................... .................... .................... .................... .................... .................... .................... .................... .................... .................... .................... .................... .................... .................... .................... .................... .................... .................... .................... .................... .................... .................... .................... .................... .................... .................... .................... .................... .................... ",
" .................... .................... .................... .................... .................... .................... .................... .................... .................... .................... .................... .................... .................... .................... .................... .................... .................... .................... .................... .................... .................... .................... .................... .................... .................... .................... .................... .................... .................... ",
" .................... .................... .................... .................... .................... .................... .................... .................... .................... .................... .................... .................... .................... .................... .................... .................... .................... .................... .................... .................... .................... .................... .................... .................... .................... .................... .................... .................... .................... ",
" .................... .................... .................... .................... .................... .................... .................... .................... .................... .................... .................... .................... .................... .................... .................... .................... .................... .................... .................... .................... .................... .................... .................... .................... .................... .................... .................... .................... .................... ",
"                                                                                                                                                                                                                                                                                                                                                                                                                                                                                                                                                                                                                                  ",
" .................... .................... .................... .................... .................... .................... .................... .................... .................... .................... .................... .................... .................... .................... .................... .................... .................... .................... .................... .................... .................... .................... .................... .................... .................... .................... .................... .................... .................... ",
" .................... .................... .................... .................... .................... .................... .................... .................... .................... .................... .................... .................... .................... .................... .................... .................... .................... .................... .................... .................... .................... .................... .................... .................... .................... .................... .................... .................... .................... ",
" .................... .................... .................... .................... .................... .................... .................... .................... .................... .................... .................... .................... .................... .................... .................... .................... .................... .................... .................... .................... .................... .................... .................... .................... .................... .................... .................... .................... .................... ",
" .................... .................... .................... .................... .................... .................... .................... .................... .................... .................... .................... .................... .................... .................... .................... .................... .................... .................... .................... .................... .................... .................... .................... .................... .................... .................... .................... .................... .................... ",
" .................... .................... .................... .................... .................... .................... .................... .................... .................... .................... .................... .................... .................... .................... .................... .................... .................... .................... .................... .................... .................... .................... .................... .................... .................... .................... .................... .................... .................... ",
" .................... .................... .................... .................... .................... .................... .................... .................... .................... .................... .................... .................... .................... .................... .................... .................... .................... .................... .................... .................... .................... .................... .................... .................... .................... .................... .................... .................... .................... ",
" .................... .................... .................... .................... .................... .................... .................... .................... .................... .................... .................... .................... .................... .................... .................... .................... .................... .................... .................... .................... .................... .................... .................... .................... .................... .................... .................... .................... .................... ",
" .................... .................... .................... .................... .................... .................... .................... .................... .................... .................... .................... .................... .................... .................... .................... .................... .................... .................... .................... .................... .................... .................... .................... .................... .................... .................... .................... .................... .................... ",
" .................... .................... .................... .................... .................... .................... .................... .................... .................... .................... .................... .................... .................... .................... .................... .................... .................... .................... .................... .................... .................... .................... .................... .................... .................... .................... .................... .................... .................... ",
" .................... .................... .................... .................... .................... .................... .................... .................... .................... .................... .................... .................... .................... .................... .................... .................... .................... .................... .................... .................... .................... .................... .................... .................... .................... .................... .................... .................... .................... ",
" .................... .................... .................... .................... .................... .................... .................... .................... .................... .................... .................... .................... .................... .................... .................... .................... .................... .................... .................... .................... .................... .................... .................... .................... .................... .................... .................... .................... .................... ",
" .................... .................... .................... .................... .................... .................... .................... .................... .................... .................... .................... .................... .................... .................... .................... .................... .................... .................... .................... .................... .................... .................... .................... .................... .................... .................... .................... .................... .................... ",
" .................... .................... .................... .................... .................... .................... .................... .................... .................... .................... .................... .................... .................... .................... .................... .................... .................... .................... .................... .................... .................... .................... .................... .................... .................... .................... .................... .................... .................... ",
" .................... .................... .................... .................... .................... .................... .................... .................... .................... .................... .................... .................... .................... .................... .................... .................... .................... .................... .................... .................... .................... .................... .................... .................... .................... .................... .................... .................... .................... ",
" .................... .................... .................... .................... .................... .................... .................... .................... .................... .................... .................... .................... .................... .................... .................... .................... .................... .................... .................... .................... .................... .................... .................... .................... .................... .................... .................... .................... .................... ",
" .................... .................... .................... .................... .................... .................... .................... .................... .................... .................... .................... .................... .................... .................... .................... .................... .................... .................... .................... .................... .................... .................... .................... .................... .................... .................... .................... .................... .................... ",
" .................... .................... .................... .................... .................... .................... .................... .................... .................... .................... .................... .................... .................... .................... .................... .................... .................... .................... .................... .................... .................... .................... .................... .................... .................... .................... .................... .................... .................... ",
" .................... .................... .................... .................... .................... .................... .................... .................... .................... .................... .................... .................... .................... .................... .................... .................... .................... .................... .................... .................... .................... .................... .................... .................... .................... .................... .................... .................... .................... ",
" .................... .................... .................... .................... .................... .................... .................... .................... .................... .................... .................... .................... .................... .................... .................... .................... .................... .................... .................... .................... .................... .................... .................... .................... .................... .................... .................... .................... .................... ",
" .................... .................... .................... .................... .................... .................... .................... .................... .................... .................... .................... .................... .................... .................... .................... .................... .................... .................... .................... .................... .................... .................... .................... .................... .................... .................... .................... .................... .................... ",
"                                                                                                                                                                                                                                                                                                                                                                                                                                                                                                                                                                                                                                  ",
" .................... .................... .................... .................... .................... .................... .................... .................... .................... .................... .................... .................... .................... .................... .................... .................... .................... .................... .................... .................... .................... .................... .................... .................... .................... .................... .................... .................... .................... ",
" .................... .................... .................... .................... .................... .................... .................... .................... .................... .................... .................... .................... .................... .................... .................... .................... .................... .................... .................... .................... .................... .................... .................... .................... .................... .................... .................... .................... .................... ",
" .................... .................... .................... .................... .................... .................... .................... .................... .................... .................... .................... .................... .................... .................... .................... .................... .................... .................... .................... .................... .................... .................... .................... .................... .................... .................... .................... .................... .................... ",
" .................... .................... .................... .................... .................... .................... .................... .................... .................... .................... .................... .................... .................... .................... .................... .................... .................... .................... .................... .................... .................... .................... .................... .................... .................... .................... .................... .................... .................... ",
" .................... .................... .................... .................... .................... .................... .................... .................... .................... .................... .................... .................... .................... .................... .................... .................... .................... .................... .................... .................... .................... .................... .................... .................... .................... .................... .................... .................... .................... ",
" .................... .................... .................... .................... .................... .................... .................... .................... .................... .................... .................... .................... .................... .................... .................... .................... .................... .................... .................... .................... .................... .................... .................... .................... .................... .................... .................... .................... .................... ",
" .................... .................... .................... .................... .................... .................... .................... .................... .................... .................... .................... .................... .................... .................... .................... .................... .................... .................... .................... .................... .................... .................... .................... .................... .................... .................... .................... .................... .................... ",
" .................... .................... .................... .................... .................... .................... .................... .................... .................... .................... .................... .................... .................... .................... .................... .................... .................... .................... .................... .................... .................... .................... .................... .................... .................... .................... .................... .................... .................... ",
" .................... .................... .................... .................... .................... .................... .................... .................... .................... .................... .................... .................... .................... .................... .................... .................... .................... .................... .................... .................... .................... .................... .................... .................... .................... .................... .................... .................... .................... ",
" .................... .................... .................... .................... .................... .................... .................... .................... .................... .................... .................... .................... .................... .................... .................... .................... .................... .................... .................... .................... .................... .................... .................... .................... .................... .................... .................... .................... .................... ",
" .................... .................... .................... .................... .................... .................... .................... .................... .................... .................... .................... .................... .................... .................... .................... .................... .................... .................... .................... .................... .................... .................... .................... .................... .................... .................... .................... .................... .................... ",
" .................... .................... .................... .................... .................... .................... .................... .................... .................... .................... .................... .................... .................... .................... .................... .................... .................... .................... .................... .................... .................... .................... .................... .................... .................... .................... .................... .................... .................... ",
" .................... .................... .................... .................... .................... .................... .................... .................... .................... .................... .................... .................... .................... .................... .................... .................... .................... .................... .................... .................... .................... .................... .................... .................... .................... .................... .................... .................... .................... ",
" .................... .................... .................... .................... .................... .................... .................... .................... .................... .................... .................... .................... .................... .................... .................... .................... .................... .................... .................... .................... .................... .................... .................... .................... .................... .................... .................... .................... .................... ",
" .................... .................... .................... .................... .................... .................... .................... .................... .................... .................... .................... .................... .................... .................... .................... .................... .................... .................... .................... .................... .................... .................... .................... .................... .................... .................... .................... .................... .................... ",
" .................... .................... .................... .................... .................... .................... .................... .................... .................... .................... .................... .................... .................... .................... .................... .................... .................... .................... .................... .................... .................... .................... .................... .................... .................... .................... .................... .................... .................... ",
" .................... .................... .................... .................... .................... .................... .................... .................... .................... .................... .................... .................... .................... .................... .................... .................... .................... .................... .................... .................... .................... .................... .................... .................... .................... .................... .................... .................... .................... ",
" .................... .................... .................... .................... .................... .................... .................... .................... .................... .................... .................... .................... .................... .................... .................... .................... .................... .................... .................... .................... .................... .................... .................... .................... .................... .................... .................... .................... .................... ",
" .................... .................... .................... .................... .................... .................... .................... .................... .................... .................... .................... .................... .................... .................... .................... .................... .................... .................... .................... .................... .................... .................... .................... .................... .................... .................... .................... .................... .................... ",
" .................... .................... .................... .................... .................... .................... .................... .................... .................... .................... .................... .................... .................... .................... .................... .................... .................... .................... .................... .................... .................... .................... .................... .................... .................... .................... .................... .................... .................... ",
"                                                                                                                                                                                                                                                                                                                                                                                                                                                                                                                                                                                                                                  ",
" .................... .................... .................... .................... .................... .................... .................... .................... .................... .................... .................... .................... .................... .................... .................... .................... .................... .................... .................... .................... .................... .................... .................... .................... .................... .................... .................... .................... .................... ",
" .................... .................... .................... .................... .................... .................... .................... .................... .................... .................... .................... .................... .................... .................... .................... .................... .................... .................... .................... .................... .................... .................... .................... .................... .................... .................... .................... .................... .................... ",
" .................... .................... .................... .................... .................... .................... .................... .................... .................... .................... .................... .................... .................... .................... .................... .................... .................... .................... .................... .................... .................... .................... .................... .................... .................... .................... .................... .................... .................... ",
" .................... .................... .................... .................... .................... .................... .................... .................... .................... .................... .................... .................... .................... .................... .................... .................... .................... .................... .................... .................... .................... .................... .................... .................... .................... .................... .................... .................... .................... ",
" .................... .................... .................... .................... .................... .................... .................... .................... .................... .................... .................... .................... .................... .................... .................... .................... .................... .................... .................... .................... .................... .................... .................... .................... .................... .................... .................... .................... .................... ",
" .................... .................... .................... .................... .................... .................... .................... .................... .................... .................... .................... .................... .................... .................... .................... .................... .................... .................... .................... .................... .................... .................... .................... .................... .................... .................... .................... .................... .................... ",
" .................... .................... .................... .................... .................... .................... .................... .................... .................... .................... .................... .................... .................... .................... .................... .................... .................... .................... .................... .................... .................... .................... .................... .................... .................... .................... .................... .................... .................... ",
" .................... .................... .................... .................... .................... .................... .................... .................... .................... .................... .................... .................... .................... .................... .................... .................... .................... .................... .................... .................... .................... .................... .................... .................... .................... .................... .................... .................... .................... ",
" .................... .................... .................... .................... .................... .................... .................... .................... .................... .................... .................... .................... .................... .................... .................... .................... .................... .................... .................... .................... .................... .................... .................... .................... .................... .................... .................... .................... .................... ",
" .................... .................... .................... .................... .................... .................... .................... .................... .................... .................... .................... .................... .................... .................... .................... .................... .................... .................... .................... .................... .................... .................... .................... .................... .................... .................... .................... .................... .................... ",
" .................... .................... .................... .................... .................... .................... .................... .................... .................... .................... .................... .................... .................... .................... .................... .................... .................... .................... .................... .................... .................... .................... .................... .................... .................... .................... .................... .................... .................... ",
" .................... .................... .................... .................... .................... .................... .................... .................... .................... .................... .................... .................... .................... .................... .................... .................... .................... .................... .................... .................... .................... .................... .................... .................... .................... .................... .................... .................... .................... ",
" .................... .................... .................... .................... .................... .................... .................... .................... .................... .................... .................... .................... .................... .................... .................... .................... .................... .................... .................... .................... .................... .................... .................... .................... .................... .................... .................... .................... .................... ",
" .................... .................... .................... .................... .................... .................... .................... .................... .................... .................... .................... .................... .................... .................... .................... .................... .................... .................... .................... .................... .................... .................... .................... .................... .................... .................... .................... .................... .................... ",
" .................... .................... .................... .................... .................... .................... .................... .................... .................... .................... .................... .................... .................... .................... .................... .................... .................... .................... .................... .................... .................... .................... .................... .................... .................... .................... .................... .................... .................... ",
" .................... .................... .................... .................... .................... .................... .................... .................... .................... .................... .................... .................... .................... .................... .................... .................... .................... .................... .................... .................... .................... .................... .................... .................... .................... .................... .................... .................... .................... ",
" .................... .................... .................... .................... .................... .................... .................... .................... .................... .................... .................... .................... .................... .................... .................... .................... .................... .................... .................... .................... .................... .................... .................... .................... .................... .................... .................... .................... .................... ",
" .................... .................... .................... .................... .................... .................... .................... .................... .................... .................... .................... .................... .................... .................... .................... .................... .................... .................... .................... .................... .................... .................... .................... .................... .................... .................... .................... .................... .................... ",
" .................... .................... .................... .................... .................... .................... .................... .................... .................... .................... .................... .................... .................... .................... .................... .................... .................... .................... .................... .................... .................... .................... .................... .................... .................... .................... .................... .................... .................... ",
" .................... .................... .................... .................... .................... .................... .................... .................... .................... .................... .................... .................... .................... .................... .................... .................... .................... .................... .................... .................... .................... .................... .................... .................... .................... .................... .................... .................... .................... ",
"                                                                                                                                                                                                                                                                                                                                                                                                                                                                                                                                                                                                                                  ",
" .................... .................... .................... .................... .................... .................... .................... .................... .................... .................... .................... .................... .................... .................... .................... .................... .................... .................... .................... .................... .................... .................... .................... .................... .................... .................... .................... .................... .................... ",
" .................... .................... .................... .................... .................... .................... .................... .................... .................... .................... .................... .................... .................... .................... .................... .................... .................... .................... .................... .................... .................... .................... .................... .................... .................... .................... .................... .................... .................... ",
" .................... .................... .................... .................... .................... .................... .................... .................... .................... .................... .................... .................... .................... .................... .................... .................... .................... .................... .................... .................... .................... .................... .................... .................... .................... .................... .................... .................... .................... ",
" .................... .................... .................... .................... .................... .................... .................... .................... .................... .................... .................... .................... .................... .................... .................... .................... .................... .................... .................... .................... .................... .................... .................... .................... .................... .................... .................... .................... .................... ",
" .................... .................... .................... .................... .................... .................... .................... .................... .................... .................... .................... .................... .................... .................... .................... .................... .................... .................... .................... .................... .................... .................... .................... .................... .................... .................... .................... .................... .................... ",
" .................... .................... .................... .................... .................... .................... .................... .................... .................... .................... .................... .................... .................... .................... .................... .................... .................... .................... .................... .................... .................... .................... .................... .................... .................... .................... .................... .................... .................... ",
" .................... .................... .................... .................... .................... .................... .................... .................... .................... .................... .................... .................... .................... .................... .................... .................... .................... .................... .................... .................... .................... .................... .................... .................... .................... .................... .................... .................... .................... ",
" .................... .................... .................... .................... .................... .................... .................... .................... .................... .................... .................... .................... .................... .................... .................... .................... .................... .................... .................... .................... .................... .................... .................... .................... .................... .................... .................... .................... .................... ",
" .................... .................... .................... .................... .................... .................... .................... .................... .................... .................... .................... .................... .................... .................... .................... .................... .................... .................... .................... .................... .................... .................... .................... .................... .................... .................... .................... .................... .................... ",
" .................... .................... .................... .................... .................... .................... .................... .................... .................... .................... .................... .................... .................... .................... .................... .................... .................... .................... .................... .................... .................... .................... .................... .................... .................... .................... .................... .................... .................... ",
" .................... .................... .................... .................... .................... .................... .................... .................... .................... .................... .................... .................... .................... .................... .................... .................... .................... .................... .................... .................... .................... .................... .................... .................... .................... .................... .................... .................... .................... ",
" .................... .................... .................... .................... .................... .................... .................... .................... .................... .................... .................... .................... .................... .................... .................... .................... .................... .................... .................... .................... .................... .................... .................... .................... .................... .................... .................... .................... .................... ",
" .................... .................... .................... .................... .................... .................... .................... .................... .................... .................... .................... .................... .................... .................... .................... .................... .................... .................... .................... .................... .................... .................... .................... .................... .................... .................... .................... .................... .................... ",
" .................... .................... .................... .................... .................... .................... .................... .................... .................... .................... .................... .................... .................... .................... .................... .................... .................... .................... .................... .................... .................... .................... .................... .................... .................... .................... .................... .................... .................... ",
" .................... .................... .................... .................... .................... .................... .................... .................... .................... .................... .................... .................... .................... .................... .................... .................... .................... .................... .................... .................... .................... .................... .................... .................... .................... .................... .................... .................... .................... ",
" .................... .................... .................... .................... .................... .................... .................... .................... .................... .................... .................... .................... .................... .................... .................... .................... .................... .................... .................... .................... .................... .................... .................... .................... .................... .................... .................... .................... .................... ",
" .................... .................... .................... .................... .................... .................... .................... .................... .................... .................... .................... .................... .................... .................... .................... .................... .................... .................... .................... .................... .................... .................... .................... .................... .................... .................... .................... .................... .................... ",
" .................... .................... .................... .................... .................... .................... .................... .................... .................... .................... .................... .................... .................... .................... .................... .................... .................... .................... .................... .................... .................... .................... .................... .................... .................... .................... .................... .................... .................... ",
" .................... .................... .................... .................... .................... .................... .................... .................... .................... .................... .................... .................... .................... .................... .................... .................... .................... .................... .................... .................... .................... .................... .................... .................... .................... .................... .................... .................... .................... ",
" .................... .................... .................... .................... .................... .................... .................... .................... .................... .................... .................... .................... .................... .................... .................... .................... .................... .................... .................... .................... .................... .................... .................... .................... .................... .................... .................... .................... .................... ",
"                                                                                                                                                                                                                                                                                                                                                                                                                                                                                                                                                                                                                                  ",
" .................... .................... .................... .................... .................... .................... .................... .................... .................... .................... .................... .................... .................... .................... .................... .................... .................... .................... .................... .................... .................... .................... .................... .................... .................... .................... .................... .................... .................... ",
" .................... .................... .................... .................... .................... .................... .................... .................... .................... .................... .................... .................... .................... .................... .................... .................... .................... .................... .................... .................... .................... .................... .................... .................... .................... .................... .................... .................... .................... ",
" .................... .................... .................... .................... .................... .................... .................... .................... .................... .................... .................... .................... .................... .................... .................... .................... .................... .................... .................... .................... .................... .................... .................... .................... .................... .................... .................... .................... .................... ",
" .................... .................... .................... .................... .................... .................... .................... .................... .................... .................... .................... .................... .................... .................... .................... .................... .................... .................... .................... .................... .................... .................... .................... .................... .................... .................... .................... .................... .................... ",
" .................... .................... .................... .................... .................... .................... .................... .................... .................... .................... .................... .................... .................... .................... .................... .................... .................... .................... .................... .................... .................... .................... .................... .................... .................... .................... .................... .................... .................... ",
" .................... .................... .................... .................... .................... .................... .................... .................... .................... .................... .................... .................... .................... .................... .................... .................... .................... .................... .................... .................... .................... .................... .................... .................... .................... .................... .................... .................... .................... ",
" .................... .................... .................... .................... .................... .................... .................... .................... .................... .................... .................... .................... .................... .................... .................... .................... .................... .................... .................... .................... .................... .................... .................... .................... .................... .................... .................... .................... .................... ",
" .................... .................... .................... .................... .................... .................... .................... .................... .................... .................... .................... .................... .................... .................... .................... .................... .................... .................... .................... .................... .................... .................... .................... .................... .................... .................... .................... .................... .................... ",
" .................... .................... .................... .................... .................... .................... .................... .................... .................... .................... .................... .................... .................... .................... .................... .................... .................... .................... .................... .................... .................... .................... .................... .................... .................... .................... .................... .................... .................... ",
" .................... .................... .................... .................... .................... .................... .................... .................... .................... .................... .................... .................... .................... .................... .................... .................... .................... .................... .................... .................... .................... .................... .................... .................... .................... .................... .................... .................... .................... ",
" .................... .................... .................... .................... .................... .................... .................... .................... .................... .................... .................... .................... .................... .................... .................... .................... .................... .................... .................... .................... .................... .................... .................... .................... .................... .................... .................... .................... .................... ",
" .................... .................... .................... .................... .................... .................... .................... .................... .................... .................... .................... .................... .................... .................... .................... .................... .................... .................... .................... .................... .................... .................... .................... .................... .................... .................... .................... .................... .................... ",
" .................... .................... .................... .................... .................... .................... .................... .................... .................... .................... .................... .................... .................... .................... .................... .................... .................... .................... .................... .................... .................... .................... .................... .................... .................... .................... .................... .................... .................... ",
" .................... .................... .................... .................... .................... .................... .................... .................... .................... .................... .................... .................... .................... .................... .................... .................... .................... .................... .................... .................... .................... .................... .................... .................... .................... .................... .................... .................... .................... ",
" .................... .................... .................... .................... .................... .................... .................... .................... .................... .................... .................... .................... .................... .................... .................... .................... .................... .................... .................... .................... .................... .................... .................... .................... .................... .................... .................... .................... .................... ",
" .................... .................... .................... .................... .................... .................... .................... .................... .................... .................... .................... .................... .................... .................... .................... .................... .................... .................... .................... .................... .................... .................... .................... .................... .................... .................... .................... .................... .................... ",
" .................... .................... .................... .................... .................... .................... .................... .................... .................... .................... .................... .................... .................... .................... .................... .................... .................... .................... .................... .................... .................... .................... .................... .................... .................... .................... .................... .................... .................... ",
" .................... .................... .................... .................... .................... .................... .................... .................... .................... .................... .................... .................... .................... .................... .................... .................... .................... .................... .................... .................... .................... .................... .................... .................... .................... .................... .................... .................... .................... ",
" .................... .................... .................... .................... .................... .................... .................... .................... .................... .................... .................... .................... .................... .................... .................... .................... .................... .................... .................... .................... .................... .................... .................... .................... .................... .................... .................... .................... .................... ",
" .................... .................... .................... .................... .................... .................... .................... .................... .................... .................... .................... .................... .................... .................... .................... .................... .................... .................... .................... .................... .................... .................... .................... .................... .................... .................... .................... .................... .................... ",
"                                                                                                                                                                                                                                                                                                                                                                                                                                                                                                                                                                                                                                  "};
