/* XPM */
static char * west_xpm[] = {
"128 128 12948 3",
"   	c #5A516A",
".  	c #C0B194",
"+  	c #975B64",
"@  	c #9A5860",
"#  	c #A15861",
"$  	c #A35761",
"%  	c #A55B60",
"&  	c #A56069",
"*  	c #AC6568",
"=  	c #AB5A67",
"-  	c #B46468",
";  	c #B66468",
">  	c #B3585F",
",  	c #B35B61",
"'  	c #B5686A",
")  	c #C87B74",
"!  	c #B85F67",
"~  	c #C16A70",
"{  	c #C86A73",
"]  	c #C56B6C",
"^  	c #C46D74",
"/  	c #C36C76",
"(  	c #C57A7C",
"_  	c #C2797C",
":  	c #BB6F74",
"<  	c #C67579",
"[  	c #C17979",
"}  	c #D18885",
"|  	c #C5787B",
"1  	c #C2817F",
"2  	c #CC8083",
"3  	c #C37A7B",
"4  	c #BF767E",
"5  	c #C98184",
"6  	c #C47A81",
"7  	c #C47B7F",
"8  	c #C17C7A",
"9  	c #C37975",
"0  	c #C8777A",
"a  	c #C27D7D",
"b  	c #C1786E",
"c  	c #C2757E",
"d  	c #BD797A",
"e  	c #B97B7A",
"f  	c #B77578",
"g  	c #BF7A7E",
"h  	c #CA8680",
"i  	c #C17B7C",
"j  	c #BD7A79",
"k  	c #C27C81",
"l  	c #B76E72",
"m  	c #AE686B",
"n  	c #B77476",
"o  	c #C2777B",
"p  	c #AF5E65",
"q  	c #AC5E64",
"r  	c #B95B65",
"s  	c #AB515A",
"t  	c #A7515A",
"u  	c #A4535D",
"v  	c #503C36",
"w  	c #484761",
"x  	c #5B597E",
"y  	c #666285",
"z  	c #7E6D8D",
"A  	c #975B63",
"B  	c #A25A64",
"C  	c #A85A63",
"D  	c #A75860",
"E  	c #AB5760",
"F  	c #A5575A",
"G  	c #B1695A",
"H  	c #AB635E",
"I  	c #AA5C60",
"J  	c #C27375",
"K  	c #B1555D",
"L  	c #C77876",
"M  	c #C67D76",
"N  	c #B86669",
"O  	c #B57372",
"P  	c #B67471",
"Q  	c #BC7B7C",
"R  	c #B86E72",
"S  	c #BC6F72",
"T  	c #C3787B",
"U  	c #C57078",
"V  	c #C67B7C",
"W  	c #C78181",
"X  	c #C37B7D",
"Y  	c #B56E71",
"Z  	c #B67478",
"`  	c #CD8189",
" . 	c #C07781",
".. 	c #E19993",
"+. 	c #BC777A",
"@. 	c #D38587",
"#. 	c #C97A7D",
"$. 	c #C97A7E",
"%. 	c #C2807E",
"&. 	c #CD8486",
"*. 	c #CA8485",
"=. 	c #C27D7C",
"-. 	c #B97875",
";. 	c #D38388",
">. 	c #E08C90",
",. 	c #D5868B",
"'. 	c #DB8892",
"). 	c #D7878E",
"!. 	c #D98B8F",
"~. 	c #EA9C97",
"{. 	c #DE908F",
"]. 	c #D18983",
"^. 	c #DD928D",
"/. 	c #CE8284",
"(. 	c #CC7D81",
"_. 	c #CE8A87",
":. 	c #C27676",
"<. 	c #C27678",
"[. 	c #BC7770",
"}. 	c #B16266",
"|. 	c #AD5F63",
"1. 	c #A9575B",
"2. 	c #A25158",
"3. 	c #A1595E",
"4. 	c #99535A",
"5. 	c #312E31",
"6. 	c #444059",
"7. 	c #564F69",
"8. 	c #AA7178",
"9. 	c #211818",
"0. 	c #D7C799",
"a. 	c #985C62",
"b. 	c #A25D66",
"c. 	c #A35D65",
"d. 	c #AB656D",
"e. 	c #B4696D",
"f. 	c #A65E67",
"g. 	c #A66063",
"h. 	c #B2656A",
"i. 	c #B56668",
"j. 	c #BE6B6F",
"k. 	c #C37375",
"l. 	c #B15C62",
"m. 	c #B76265",
"n. 	c #CA636D",
"o. 	c #BF656D",
"p. 	c #C4696F",
"q. 	c #C56972",
"r. 	c #CE7B7A",
"s. 	c #C36C72",
"t. 	c #D07C84",
"u. 	c #C37378",
"v. 	c #C37474",
"w. 	c #C07075",
"x. 	c #C87C7B",
"y. 	c #CA7B7F",
"z. 	c #C97B7E",
"A. 	c #D18088",
"B. 	c #BF7678",
"C. 	c #C4787E",
"D. 	c #CA7D82",
"E. 	c #BF7A7D",
"F. 	c #C3767E",
"G. 	c #CA7980",
"H. 	c #CC7E81",
"I. 	c #C47979",
"J. 	c #C47679",
"K. 	c #C77C7F",
"L. 	c #C3757C",
"M. 	c #C0787B",
"N. 	c #C88382",
"O. 	c #BA7077",
"P. 	c #B87574",
"Q. 	c #BC7674",
"R. 	c #BF7778",
"S. 	c #BD767A",
"T. 	c #B57876",
"U. 	c #B77071",
"V. 	c #B66A6D",
"W. 	c #C47A7C",
"X. 	c #AB6869",
"Y. 	c #A85D62",
"Z. 	c #AB6063",
"`. 	c #A44F57",
" + 	c #A55058",
".+ 	c #A3515A",
"++ 	c #A06B64",
"@+ 	c #B5A781",
"#+ 	c #2F1F22",
"$+ 	c #3F384B",
"%+ 	c #52475F",
"&+ 	c #B9AC8B",
"*+ 	c #A2606A",
"=+ 	c #A25B65",
"-+ 	c #A25862",
";+ 	c #AC5A63",
">+ 	c #AC5962",
",+ 	c #B16C66",
"'+ 	c #B06A61",
")+ 	c #A95D5A",
"!+ 	c #AD5D5B",
"~+ 	c #B46768",
"{+ 	c #B16A68",
"]+ 	c #BC7166",
"^+ 	c #BA746E",
"/+ 	c #BA6369",
"(+ 	c #BD6E71",
"_+ 	c #B8666D",
":+ 	c #BA7375",
"<+ 	c #BA6B74",
"[+ 	c #BE7276",
"}+ 	c #C07978",
"|+ 	c #CA8880",
"1+ 	c #C4767C",
"2+ 	c #C97D7F",
"3+ 	c #CA8182",
"4+ 	c #BA7477",
"5+ 	c #C78481",
"6+ 	c #D38688",
"7+ 	c #C57F7B",
"8+ 	c #BC7A7B",
"9+ 	c #E19091",
"0+ 	c #C27582",
"a+ 	c #CF8488",
"b+ 	c #CD8481",
"c+ 	c #D58584",
"d+ 	c #C37F7E",
"e+ 	c #C27D80",
"f+ 	c #DA988D",
"g+ 	c #C4827E",
"h+ 	c #D7898C",
"i+ 	c #D28B8D",
"j+ 	c #D28586",
"k+ 	c #D2828A",
"l+ 	c #D2878A",
"m+ 	c #CA7E84",
"n+ 	c #DE9091",
"o+ 	c #E09293",
"p+ 	c #DA908B",
"q+ 	c #CD8087",
"r+ 	c #C9827F",
"s+ 	c #EBA095",
"t+ 	c #CC8482",
"u+ 	c #BC6C74",
"v+ 	c #BE7172",
"w+ 	c #BE6C6F",
"x+ 	c #D37E7D",
"y+ 	c #AC545D",
"z+ 	c #A3585A",
"A+ 	c #AB545D",
"B+ 	c #A76163",
"C+ 	c #BDAF87",
"D+ 	c #7B4F53",
"E+ 	c #966169",
"F+ 	c #9D666F",
"G+ 	c #C3848D",
"H+ 	c #C98892",
"I+ 	c #493134",
"J+ 	c #C1B28A",
"K+ 	c #A96A6E",
"L+ 	c #B16A74",
"M+ 	c #A25E64",
"N+ 	c #A9636A",
"O+ 	c #A76267",
"P+ 	c #B06364",
"Q+ 	c #A7535D",
"R+ 	c #BB7170",
"S+ 	c #D28282",
"T+ 	c #AD575E",
"U+ 	c #B45B60",
"V+ 	c #B46867",
"W+ 	c #B06066",
"X+ 	c #BD636C",
"Y+ 	c #BB6469",
"Z+ 	c #BF676A",
"`+ 	c #BE636E",
" @ 	c #C66C74",
".@ 	c #C36971",
"+@ 	c #C97C7C",
"@@ 	c #C16C77",
"#@ 	c #D17F81",
"$@ 	c #BF7A79",
"%@ 	c #CC7A75",
"&@ 	c #D6868C",
"*@ 	c #C6747E",
"=@ 	c #BF6F76",
"-@ 	c #C87B7F",
";@ 	c #CA8581",
">@ 	c #C77B7F",
",@ 	c #C2757B",
"'@ 	c #D17781",
")@ 	c #C97A80",
"!@ 	c #C5757A",
"~@ 	c #CA767D",
"{@ 	c #C67C79",
"]@ 	c #CB7A80",
"^@ 	c #C1756B",
"/@ 	c #C8797A",
"(@ 	c #C5787C",
"_@ 	c #CF7D7D",
":@ 	c #BE7A78",
"<@ 	c #CA7A76",
"[@ 	c #C27A78",
"}@ 	c #AF686B",
"|@ 	c #B67273",
"1@ 	c #AC6667",
"2@ 	c #B86F6E",
"3@ 	c #AB6667",
"4@ 	c #AB5A5E",
"5@ 	c #A35158",
"6@ 	c #A35A5C",
"7@ 	c #9E6661",
"8@ 	c #AB9E7A",
"9@ 	c #B4737C",
"0@ 	c #BE7C85",
"a@ 	c #B97982",
"b@ 	c #BF7D87",
"c@ 	c #774E54",
"d@ 	c #D9C99B",
"e@ 	c #A6606A",
"f@ 	c #A65D67",
"g@ 	c #A45A63",
"h@ 	c #AA5D64",
"i@ 	c #B26968",
"j@ 	c #AC565E",
"k@ 	c #AB665F",
"l@ 	c #A85658",
"m@ 	c #BC746E",
"n@ 	c #B76667",
"o@ 	c #C77F79",
"p@ 	c #B56365",
"q@ 	c #B86767",
"r@ 	c #B46066",
"s@ 	c #B56A6D",
"t@ 	c #BA7674",
"u@ 	c #B76E73",
"v@ 	c #CC797D",
"w@ 	c #C37476",
"x@ 	c #D78986",
"y@ 	c #C27679",
"z@ 	c #CA7E83",
"A@ 	c #CB807E",
"B@ 	c #C57B7D",
"C@ 	c #C5807D",
"D@ 	c #DA8D8F",
"E@ 	c #CE8281",
"F@ 	c #D28A8A",
"G@ 	c #D08583",
"H@ 	c #C87E7A",
"I@ 	c #C97E82",
"J@ 	c #D38B8B",
"K@ 	c #CA8081",
"L@ 	c #D58D8A",
"M@ 	c #D38C8C",
"N@ 	c #D48685",
"O@ 	c #D18D88",
"P@ 	c #E18E8F",
"Q@ 	c #E3918F",
"R@ 	c #CA7F82",
"S@ 	c #DD8A8F",
"T@ 	c #CA8085",
"U@ 	c #CC8583",
"V@ 	c #F19C9F",
"W@ 	c #E39B94",
"X@ 	c #D0827F",
"Y@ 	c #E59892",
"Z@ 	c #DA8E88",
"`@ 	c #C6817E",
" # 	c #BD6E70",
".# 	c #B8696C",
"+# 	c #B66568",
"@# 	c #A65559",
"## 	c #A4515A",
"$# 	c #9D575C",
"%# 	c #B7A882",
"&# 	c #8E5C61",
"*# 	c #C38089",
"=# 	c #C07F89",
"-# 	c #CA8892",
";# 	c #D7959F",
"># 	c #D6959F",
",# 	c #D4939D",
"'# 	c #845A60",
")# 	c #B39B7C",
"!# 	c #A06C6B",
"~# 	c #B26B70",
"{# 	c #A55E64",
"]# 	c #B85F6B",
"^# 	c #AE696C",
"/# 	c #B0666A",
"(# 	c #B56B6B",
"_# 	c #C47A77",
":# 	c #B26066",
"<# 	c #BB6A6B",
"[# 	c #B15E61",
"}# 	c #B7686D",
"|# 	c #BC6269",
"1# 	c #B85E64",
"2# 	c #C16C71",
"3# 	c #B76267",
"4# 	c #C0696F",
"5# 	c #C36670",
"6# 	c #BE7475",
"7# 	c #C16C74",
"8# 	c #C77780",
"9# 	c #C3767C",
"0# 	c #DA858E",
"a# 	c #C37177",
"b# 	c #C8777B",
"c# 	c #C57276",
"d# 	c #CB727D",
"e# 	c #CC8385",
"f# 	c #CC727B",
"g# 	c #CB727B",
"h# 	c #C9787C",
"i# 	c #C67177",
"j# 	c #C87377",
"k# 	c #C6767B",
"l# 	c #C17176",
"m# 	c #C17079",
"n# 	c #C87F7D",
"o# 	c #CA7580",
"p# 	c #BE7079",
"q# 	c #C87C83",
"r# 	c #BD7778",
"s# 	c #C7787A",
"t# 	c #C77D83",
"u# 	c #BC6F75",
"v# 	c #B87572",
"w# 	c #AF676B",
"x# 	c #B66970",
"y# 	c #B06165",
"z# 	c #AC6061",
"A# 	c #AE6163",
"B# 	c #AE6860",
"C# 	c #9B5F58",
"D# 	c #AEA07C",
"E# 	c #B1747C",
"F# 	c #CB8891",
"G# 	c #C6858F",
"H# 	c #CC8A94",
"I# 	c #CA8992",
"J# 	c #312124",
"K# 	c #D5C497",
"L# 	c #AA616C",
"M# 	c #A55F65",
"N# 	c #A85E63",
"O# 	c #A45B60",
"P# 	c #A5595E",
"Q# 	c #AC6265",
"R# 	c #B67068",
"S# 	c #B25961",
"T# 	c #B76A67",
"U# 	c #B66564",
"V# 	c #BE6F6B",
"W# 	c #BD6D6D",
"X# 	c #B76B65",
"Y# 	c #BD7375",
"Z# 	c #BB6C72",
"`# 	c #B4676D",
" $ 	c #BE6F76",
".$ 	c #BD6E72",
"+$ 	c #C47379",
"@$ 	c #CC7C81",
"#$ 	c #D28786",
"$$ 	c #C5747B",
"%$ 	c #D2897B",
"&$ 	c #CF8882",
"*$ 	c #CB8C88",
"=$ 	c #D58688",
"-$ 	c #CF8A87",
";$ 	c #CD797F",
">$ 	c #CA8080",
",$ 	c #CF8282",
"'$ 	c #C57E80",
")$ 	c #BE7879",
"!$ 	c #CF8583",
"~$ 	c #DF928D",
"{$ 	c #C8837F",
"]$ 	c #D08A85",
"^$ 	c #CB8281",
"/$ 	c #D78287",
"($ 	c #E0938C",
"_$ 	c #D48A8D",
":$ 	c #C88283",
"<$ 	c #E18F91",
"[$ 	c #E69A9A",
"}$ 	c #D08788",
"|$ 	c #CC7C7D",
"1$ 	c #D17F77",
"2$ 	c #D99089",
"3$ 	c #C37676",
"4$ 	c #CF7E80",
"5$ 	c #D1817B",
"6$ 	c #C0716E",
"7$ 	c #B26266",
"8$ 	c #A55259",
"9$ 	c #9F595C",
"0$ 	c #BCAF86",
"a$ 	c #A36A71",
"b$ 	c #CB8690",
"c$ 	c #C88891",
"d$ 	c #D4919B",
"e$ 	c #D6949E",
"f$ 	c #DB9AA4",
"g$ 	c #E2A0A9",
"h$ 	c #CA8E95",
"i$ 	c #DD9CA6",
"j$ 	c #B47F87",
"k$ 	c #9A8E6D",
"l$ 	c #AE7973",
"m$ 	c #A35B64",
"n$ 	c #9F5A62",
"o$ 	c #AC6169",
"p$ 	c #A86366",
"q$ 	c #BC7575",
"r$ 	c #CD8080",
"s$ 	c #B46568",
"t$ 	c #B36868",
"u$ 	c #B15660",
"v$ 	c #BB6868",
"w$ 	c #B8585E",
"x$ 	c #BC5F64",
"y$ 	c #B86566",
"z$ 	c #C97676",
"A$ 	c #B86067",
"B$ 	c #C86B76",
"C$ 	c #C57477",
"D$ 	c #B76C6F",
"E$ 	c #C27378",
"F$ 	c #CF8188",
"G$ 	c #D38584",
"H$ 	c #C37076",
"I$ 	c #C67176",
"J$ 	c #C87074",
"K$ 	c #CC767F",
"L$ 	c #CE7B81",
"M$ 	c #DD7A85",
"N$ 	c #C77279",
"O$ 	c #C47575",
"P$ 	c #C57077",
"Q$ 	c #BE6C61",
"R$ 	c #BF7574",
"S$ 	c #BD6C74",
"T$ 	c #C27078",
"U$ 	c #C4797A",
"V$ 	c #CF7F7E",
"W$ 	c #C2787D",
"X$ 	c #C8847E",
"Y$ 	c #C47877",
"Z$ 	c #B96A70",
"`$ 	c #AD6367",
" % 	c #B26969",
".% 	c #B05F63",
"+% 	c #B6716E",
"@% 	c #A26261",
"#% 	c #AB9070",
"$% 	c #946268",
"%% 	c #BD7E86",
"&% 	c #D28C97",
"*% 	c #CC8B95",
"=% 	c #D7959E",
"-% 	c #D895A0",
";% 	c #CF8F98",
">% 	c #CC8E96",
",% 	c #251B1A",
"'% 	c #D6C79A",
")% 	c #AD626D",
"!% 	c #AC5E68",
"~% 	c #AA5A65",
"{% 	c #AB5B63",
"]% 	c #AB5860",
"^% 	c #AE6464",
"/% 	c #B25F60",
"(% 	c #BF6A68",
"_% 	c #BD6D6B",
":% 	c #BE696C",
"<% 	c #BE706E",
"[% 	c #B26569",
"}% 	c #B76767",
"|% 	c #C27372",
"1% 	c #C27677",
"2% 	c #B8686B",
"3% 	c #C27479",
"4% 	c #CB7F7F",
"5% 	c #CB7779",
"6% 	c #C56E76",
"7% 	c #CB787C",
"8% 	c #CA8082",
"9% 	c #DE8990",
"0% 	c #C0797D",
"a% 	c #C78174",
"b% 	c #D68F8C",
"c% 	c #CF8783",
"d% 	c #D58781",
"e% 	c #CA757B",
"f% 	c #CD7E81",
"g% 	c #D48587",
"h% 	c #D17983",
"i% 	c #CA7A7F",
"j% 	c #D38682",
"k% 	c #D78C85",
"l% 	c #DB8C8E",
"m% 	c #C9767C",
"n% 	c #C87D7F",
"o% 	c #D28086",
"p% 	c #C9777D",
"q% 	c #DA9291",
"r% 	c #CB8482",
"s% 	c #D18082",
"t% 	c #CB797C",
"u% 	c #C77D7D",
"v% 	c #C36F71",
"w% 	c #CD817F",
"x% 	c #B45F66",
"y% 	c #B56267",
"z% 	c #AC595F",
"A% 	c #A4535C",
"B% 	c #B7A982",
"C% 	c #A26A70",
"D% 	c #C3828B",
"E% 	c #D6909A",
"F% 	c #DA96A0",
"G% 	c #DE9BA5",
"H% 	c #E19EA9",
"I% 	c #DF9DA7",
"J% 	c #D5969E",
"K% 	c #D3959B",
"L% 	c #D1949B",
"M% 	c #CD919A",
"N% 	c #C78C92",
"O% 	c #83765E",
"P% 	c #A88372",
"Q% 	c #A05C62",
"R% 	c #BC7373",
"S% 	c #AF666A",
"T% 	c #BE7577",
"U% 	c #BE7370",
"V% 	c #B35D61",
"W% 	c #B76B67",
"X% 	c #B66369",
"Y% 	c #B76666",
"Z% 	c #B55F64",
"`% 	c #B4575F",
" & 	c #B95B62",
".& 	c #BC6467",
"+& 	c #B97270",
"@& 	c #BD5F69",
"#& 	c #B9686F",
"$& 	c #C0656D",
"%& 	c #C87577",
"&& 	c #B96C71",
"*& 	c #CC7F81",
"=& 	c #CF8582",
"-& 	c #C17275",
";& 	c #CB7B78",
">& 	c #C66C72",
",& 	c #CA6C77",
"'& 	c #C86D77",
")& 	c #C77178",
"!& 	c #C8747A",
"~& 	c #BE6970",
"{& 	c #C16D6E",
"]& 	c #B86763",
"^& 	c #C07B76",
"/& 	c #BC7273",
"(& 	c #C26D76",
"_& 	c #C47779",
":& 	c #C7767C",
"<& 	c #BC6A6F",
"[& 	c #BE6A72",
"}& 	c #C27A79",
"|& 	c #BC636B",
"1& 	c #AF6464",
"2& 	c #C77677",
"3& 	c #B05E66",
"4& 	c #A95F64",
"5& 	c #B16A6D",
"6& 	c #B4A37F",
"7& 	c #825655",
"8& 	c #C4828B",
"9& 	c #CC8A93",
"0& 	c #DA959F",
"a& 	c #DE99A3",
"b& 	c #E09BA6",
"c& 	c #E29FA9",
"d& 	c #E09EA8",
"e& 	c #D0929C",
"f& 	c #DB99A3",
"g& 	c #2D2321",
"h& 	c #CFBF95",
"i& 	c #A35D66",
"j& 	c #AE5E68",
"k& 	c #AE5C66",
"l& 	c #AA5A61",
"m& 	c #AE6265",
"n& 	c #B0595D",
"o& 	c #BA696C",
"p& 	c #BB6769",
"q& 	c #C77A73",
"r& 	c #B66E71",
"s& 	c #B76164",
"t& 	c #B8666A",
"u& 	c #B96F6E",
"v& 	c #BD6C72",
"w& 	c #B96B70",
"x& 	c #C17073",
"y& 	c #B97977",
"z& 	c #D37B82",
"A& 	c #C27072",
"B& 	c #C7757B",
"C& 	c #BB7676",
"D& 	c #CA8B88",
"E& 	c #C57479",
"F& 	c #C88884",
"G& 	c #D7928F",
"H& 	c #CB8880",
"I& 	c #C67378",
"J& 	c #BD7376",
"K& 	c #C87779",
"L& 	c #CA787D",
"M& 	c #D68289",
"N& 	c #E28F8E",
"O& 	c #D68689",
"P& 	c #CE8880",
"Q& 	c #DA8885",
"R& 	c #D88686",
"S& 	c #CB817F",
"T& 	c #CB7E83",
"U& 	c #CD807F",
"V& 	c #BA7072",
"W& 	c #CA7C7B",
"X& 	c #CA7B7C",
"Y& 	c #CF7F7A",
"Z& 	c #D0817E",
"`& 	c #D68C87",
" * 	c #D48384",
".* 	c #C06E71",
"+* 	c #AA545D",
"@* 	c #BA6E71",
"#* 	c #BAA282",
"$* 	c #905E64",
"%* 	c #C88890",
"&* 	c #DD97A2",
"** 	c #E39DA7",
"=* 	c #DE9CA7",
"-* 	c #D4959D",
";* 	c #E6A2AB",
">* 	c #E5A0AA",
",* 	c #E4A0A8",
"'* 	c #EAA5AE",
")* 	c #E09DA6",
"!* 	c #D1939A",
"~* 	c #D3949D",
"{* 	c #776754",
"]* 	c #AF8C75",
"^* 	c #A35D63",
"/* 	c #C27D7E",
"(* 	c #AF696C",
"_* 	c #B36969",
":* 	c #B9636C",
"<* 	c #B36568",
"[* 	c #B96B71",
"}* 	c #B76466",
"|* 	c #B86367",
"1* 	c #BD5963",
"2* 	c #B65E61",
"3* 	c #C26C68",
"4* 	c #BE6F6A",
"5* 	c #B56968",
"6* 	c #C4626A",
"7* 	c #B6666B",
"8* 	c #C46E72",
"9* 	c #CA7376",
"0* 	c #D07D81",
"a* 	c #CC7E79",
"b* 	c #CC7F7A",
"c* 	c #C46D75",
"d* 	c #C56B76",
"e* 	c #D66D78",
"f* 	c #C76973",
"g* 	c #C76872",
"h* 	c #CD6A75",
"i* 	c #CA7279",
"j* 	c #BB6467",
"k* 	c #C0726E",
"l* 	c #C2756C",
"m* 	c #BF6A72",
"n* 	c #C97C7E",
"o* 	c #BF6B6F",
"p* 	c #BC7073",
"q* 	c #B06065",
"r* 	c #BC7574",
"s* 	c #BA6C6B",
"t* 	c #AD5960",
"u* 	c #AB5761",
"v* 	c #B76A71",
"w* 	c #A75F63",
"x* 	c #B9A183",
"y* 	c #795152",
"z* 	c #C7838C",
"A* 	c #C3838B",
"B* 	c #C98990",
"C* 	c #E29BA6",
"D* 	c #E6A0AB",
"E* 	c #E9A4AF",
"F* 	c #DA99A3",
"G* 	c #D797A0",
"H* 	c #D5979B",
"I* 	c #CF9298",
"J* 	c #E19FA9",
"K* 	c #28201D",
"L* 	c #D2C295",
"M* 	c #B2636E",
"N* 	c #B0606A",
"O* 	c #B35E68",
"P* 	c #B25B63",
"Q* 	c #B2635F",
"R* 	c #B76063",
"S* 	c #BB696D",
"T* 	c #C27273",
"U* 	c #C26E6E",
"V* 	c #BB716F",
"W* 	c #BC6E72",
"X* 	c #C27371",
"Y* 	c #B56868",
"Z* 	c #B85E68",
"`* 	c #B9666C",
" = 	c #BB676C",
".= 	c #CB847F",
"+= 	c #C8797E",
"@= 	c #BC6E69",
"#= 	c #C47479",
"$= 	c #D38687",
"%= 	c #D08888",
"&= 	c #CC8C87",
"*= 	c #C48082",
"== 	c #C8807B",
"-= 	c #C17177",
";= 	c #D08084",
">= 	c #C97E7C",
",= 	c #C9757C",
"'= 	c #DB8780",
")= 	c #CC867F",
"!= 	c #DB8B83",
"~= 	c #C87A7D",
"{= 	c #D18486",
"]= 	c #CF7B7E",
"^= 	c #C87578",
"/= 	c #D58388",
"(= 	c #CC7C83",
"_= 	c #C26F76",
":= 	c #DF908E",
"<= 	c #B46868",
"[= 	c #CA7A7A",
"}= 	c #CD7B7B",
"|= 	c #B96A6E",
"1= 	c #E38F90",
"2= 	c #AE6065",
"3= 	c #A7585E",
"4= 	c #BDA283",
"5= 	c #88595E",
"6= 	c #C5818A",
"7= 	c #D38C97",
"8= 	c #D8939D",
"9= 	c #D6939D",
"0= 	c #E29EA8",
"a= 	c #D6969E",
"b= 	c #E9A3AC",
"c= 	c #E9A3AB",
"d= 	c #E7A1A8",
"e= 	c #EFA7AE",
"f= 	c #EDA6AF",
"g= 	c #DD9AA4",
"h= 	c #E19EA8",
"i= 	c #E5A2AC",
"j= 	c #615845",
"k= 	c #BB967F",
"l= 	c #B36C71",
"m= 	c #D18785",
"n= 	c #B76F70",
"o= 	c #BB7173",
"p= 	c #C07374",
"q= 	c #B26269",
"r= 	c #C8787F",
"s= 	c #BD6369",
"t= 	c #B7676B",
"u= 	c #BC5A64",
"v= 	c #B3605F",
"w= 	c #CC7D76",
"x= 	c #BF6E72",
"y= 	c #B66767",
"z= 	c #BD6B6D",
"A= 	c #C27976",
"B= 	c #D88983",
"C= 	c #CA7D7D",
"D= 	c #CD7D78",
"E= 	c #C9757B",
"F= 	c #BE686F",
"G= 	c #CA777D",
"H= 	c #CF6A75",
"I= 	c #D56E79",
"J= 	c #C36A71",
"K= 	c #CC7277",
"L= 	c #C36A72",
"M= 	c #C97075",
"N= 	c #C16B68",
"O= 	c #C26E6B",
"P= 	c #C27670",
"Q= 	c #BF6D73",
"R= 	c #C8767A",
"S= 	c #C3716E",
"T= 	c #C68179",
"U= 	c #B56D6D",
"V= 	c #B86C6C",
"W= 	c #AC5A61",
"X= 	c #AB5E62",
"Y= 	c #AD6169",
"Z= 	c #BA9E82",
"`= 	c #755150",
" - 	c #C17D80",
".- 	c #C7848C",
"+- 	c #C6858B",
"@- 	c #CE8E96",
"#- 	c #E9A2AD",
"$- 	c #EEA7B2",
"%- 	c #EEA7B1",
"&- 	c #DD9BA5",
"*- 	c #ECA6AF",
"=- 	c #D6959D",
"-- 	c #E8A4AD",
";- 	c #E4A1AC",
">- 	c #201A18",
",- 	c #D7C79A",
"'- 	c #A95F69",
")- 	c #AC5E67",
"!- 	c #AF5D65",
"~- 	c #AB5B64",
"{- 	c #CB7879",
"]- 	c #C57571",
"^- 	c #C07271",
"/- 	c #BE7173",
"(- 	c #B6686B",
"_- 	c #B55C63",
":- 	c #B46065",
"<- 	c #B76167",
"[- 	c #BA5E66",
"}- 	c #BC676C",
"|- 	c #BB676D",
"1- 	c #C97C75",
"2- 	c #D47F78",
"3- 	c #BF6B71",
"4- 	c #C86F75",
"5- 	c #D27B83",
"6- 	c #DB8E8C",
"7- 	c #D2857F",
"8- 	c #CA8280",
"9- 	c #C8827C",
"0- 	c #C97478",
"a- 	c #C57D7B",
"b- 	c #C77979",
"c- 	c #C97278",
"d- 	c #D1847E",
"e- 	c #CF7C7F",
"f- 	c #C67679",
"g- 	c #D27F82",
"h- 	c #CE837C",
"i- 	c #BB6F72",
"j- 	c #CB7A7C",
"k- 	c #E28D91",
"l- 	c #E29390",
"m- 	c #C17775",
"n- 	c #D2847F",
"o- 	c #D27A78",
"p- 	c #C37573",
"q- 	c #CE787B",
"r- 	c #C87B79",
"s- 	c #CB757B",
"t- 	c #B6666A",
"u- 	c #C6A789",
"v- 	c #9A626A",
"w- 	c #CB8992",
"x- 	c #D38E98",
"y- 	c #DF99A3",
"z- 	c #E39DA8",
"A- 	c #E8A3AD",
"B- 	c #DF9DA5",
"C- 	c #E7A1A9",
"D- 	c #E6A1AA",
"E- 	c #EBA4AC",
"F- 	c #F3A8AF",
"G- 	c #E8A0A7",
"H- 	c #E8A2AB",
"I- 	c #EFA7B1",
"J- 	c #DB9AA3",
"K- 	c #DE9CA6",
"L- 	c #574C3D",
"M- 	c #B79D7F",
"N- 	c #B16768",
"O- 	c #B66F70",
"P- 	c #B5686E",
"Q- 	c #B6636B",
"R- 	c #B4646C",
"S- 	c #CC7C80",
"T- 	c #B35A62",
"U- 	c #B35E62",
"V- 	c #B55B61",
"W- 	c #C86C64",
"X- 	c #C5736A",
"Y- 	c #B56068",
"Z- 	c #B3686A",
"`- 	c #B36C6D",
" ; 	c #B06B6B",
".; 	c #D1797E",
"+; 	c #C57E78",
"@; 	c #BD7B7C",
"#; 	c #C67369",
"$; 	c #C37371",
"%; 	c #C67377",
"&; 	c #C8777D",
"*; 	c #C6777B",
"=; 	c #BF686F",
"-; 	c #C0676E",
";; 	c #C36B72",
">; 	c #C3666F",
",; 	c #D16A75",
"'; 	c #CA6671",
"); 	c #BF6A6F",
"!; 	c #BF6C6C",
"~; 	c #BC646A",
"{; 	c #CD817D",
"]; 	c #BF7073",
"^; 	c #BF7572",
"/; 	c #BF726F",
"(; 	c #B2676B",
"_; 	c #B36668",
":; 	c #AA6064",
"<; 	c #AD6366",
"[; 	c #A75F64",
"}; 	c #BDA486",
"|; 	c #593E3E",
"1; 	c #C38086",
"2; 	c #D48B95",
"3; 	c #D38D97",
"4; 	c #D6919A",
"5; 	c #E49DA8",
"6; 	c #E9A3AE",
"7; 	c #F2AAB5",
"8; 	c #DC98A2",
"9; 	c #E29EA7",
"0; 	c #E19EA6",
"a; 	c #DB99A0",
"b; 	c #E3A0A8",
"c; 	c #EBA5AF",
"d; 	c #1D1714",
"e; 	c #C3B18A",
"f; 	c #AF5F6A",
"g; 	c #B25F69",
"h; 	c #BE6E71",
"i; 	c #C1706C",
"j; 	c #B05B63",
"k; 	c #BE7374",
"l; 	c #B36267",
"m; 	c #B35F64",
"n; 	c #B25D61",
"o; 	c #BB6E6D",
"p; 	c #B66065",
"q; 	c #B96268",
"r; 	c #BC7573",
"s; 	c #CF7D7A",
"t; 	c #D28585",
"u; 	c #BC7171",
"v; 	c #BB676E",
"w; 	c #C4797D",
"x; 	c #BC7B7B",
"y; 	c #CC827B",
"z; 	c #C08178",
"A; 	c #C87F7E",
"B; 	c #BA7172",
"C; 	c #BC7474",
"D; 	c #CD807B",
"E; 	c #D18078",
"F; 	c #E18C85",
"G; 	c #D2827E",
"H; 	c #DD8E87",
"I; 	c #C36C73",
"J; 	c #DA8686",
"K; 	c #CB7375",
"L; 	c #C56E6F",
"M; 	c #E29189",
"N; 	c #D18182",
"O; 	c #C66E75",
"P; 	c #BD666E",
"Q; 	c #BA616A",
"R; 	c #DF887A",
"S; 	c #C77777",
"T; 	c #AC5A60",
"U; 	c #C27477",
"V; 	c #C2A488",
"W; 	c #7D5454",
"X; 	c #CB838C",
"Y; 	c #C9838E",
"Z; 	c #D58F9A",
"`; 	c #E79CA7",
" > 	c #DA969F",
".> 	c #E8A1AC",
"+> 	c #E49FAA",
"@> 	c #E29DA4",
"#> 	c #E19DA2",
"$> 	c #E09EA4",
"%> 	c #E09CA1",
"&> 	c #EFA6AE",
"*> 	c #F6ABB3",
"=> 	c #F4ABB3",
"-> 	c #F3ABB4",
";> 	c #F0A9B2",
">> 	c #E3A0AA",
",> 	c #D6979B",
"'> 	c #806456",
")> 	c #B79D7C",
"!> 	c #BD7675",
"~> 	c #C07A74",
"{> 	c #AC5F66",
"]> 	c #B96971",
"^> 	c #B4616C",
"/> 	c #BE797C",
"(> 	c #BC696D",
"_> 	c #BB5862",
":> 	c #B2575E",
"<> 	c #B66567",
"[> 	c #C97473",
"}> 	c #C67674",
"|> 	c #B26164",
"1> 	c #C57B78",
"2> 	c #BB7477",
"3> 	c #B96467",
"4> 	c #C8746A",
"5> 	c #B9666A",
"6> 	c #C26F77",
"7> 	c #CC7777",
"8> 	c #C9797C",
"9> 	c #BE626B",
"0> 	c #BB656D",
"a> 	c #C16C6F",
"b> 	c #C0636B",
"c> 	c #B86369",
"d> 	c #B85E65",
"e> 	c #B76362",
"f> 	c #B95E63",
"g> 	c #B75F65",
"h> 	c #CA7378",
"i> 	c #B96261",
"j> 	c #BC686A",
"k> 	c #BC746B",
"l> 	c #B16465",
"m> 	c #AC6865",
"n> 	c #A5595D",
"o> 	c #C9A58E",
"p> 	c #835E59",
"q> 	c #C47D86",
"r> 	c #C17D86",
"s> 	c #C78789",
"t> 	c #D5909A",
"u> 	c #EDA2AD",
"v> 	c #C98A8E",
"w> 	c #EAA2AE",
"x> 	c #ECA5B1",
"y> 	c #DC989E",
"z> 	c #DC9E9F",
"A> 	c #DE9CA3",
"B> 	c #DD9BA0",
"C> 	c #D59191",
"D> 	c #DD999F",
"E> 	c #CA8D91",
"F> 	c #D3969C",
"G> 	c #EAA5AF",
"H> 	c #281F1D",
"I> 	c #DCCC9D",
"J> 	c #AF606B",
"K> 	c #AD5E68",
"L> 	c #BE7377",
"M> 	c #D18887",
"N> 	c #BB6C67",
"O> 	c #B16261",
"P> 	c #B55961",
"Q> 	c #AF5E64",
"R> 	c #BB6268",
"S> 	c #BA6364",
"T> 	c #B3696B",
"U> 	c #B96F6F",
"V> 	c #C07275",
"W> 	c #C67776",
"X> 	c #BD7175",
"Y> 	c #C17574",
"Z> 	c #C37879",
"`> 	c #CE8785",
" , 	c #CE8480",
"., 	c #D18883",
"+, 	c #D78C88",
"@, 	c #BE7C77",
"#, 	c #B5706F",
"$, 	c #C6797F",
"%, 	c #CE8382",
"&, 	c #C97D76",
"*, 	c #BE6D71",
"=, 	c #D8837E",
"-, 	c #C87C7D",
";, 	c #C77579",
">, 	c #BE7071",
",, 	c #C16D70",
"', 	c #CC7B7A",
"), 	c #D38886",
"!, 	c #C16E71",
"~, 	c #D07A79",
"{, 	c #BA6366",
"], 	c #C8757A",
"^, 	c #D87F76",
"/, 	c #B76C6E",
"(, 	c #B2686A",
"_, 	c #C69D8A",
":, 	c #6E474B",
"<, 	c #C98089",
"[, 	c #CB848D",
"}, 	c #D18A91",
"|, 	c #D68F96",
"1, 	c #E39AA4",
"2, 	c #E19BA5",
"3, 	c #DB98A1",
"4, 	c #F8ADBA",
"5, 	c #E19CA5",
"6, 	c #E19EA1",
"7, 	c #F1A9B4",
"8, 	c #E29FA6",
"9, 	c #DF9B9D",
"0, 	c #F2A9B3",
"a, 	c #F9AEB8",
"b, 	c #F6ADB7",
"c, 	c #F5ABB5",
"d, 	c #E09C9B",
"e, 	c #D99A9E",
"f, 	c #5A4C40",
"g, 	c #C0A080",
"h, 	c #B15F6A",
"i, 	c #BA7075",
"j, 	c #AF5F68",
"k, 	c #CC797E",
"l, 	c #C2777C",
"m, 	c #BC676F",
"n, 	c #B55E64",
"o, 	c #B66366",
"p, 	c #C0716F",
"q, 	c #B75E65",
"r, 	c #B45D60",
"s, 	c #D78A80",
"t, 	c #BE726F",
"u, 	c #C46E71",
"v, 	c #BB6D71",
"w, 	c #BC6B6C",
"x, 	c #BF716A",
"y, 	c #C36C71",
"z, 	c #BA656B",
"A, 	c #B36A6C",
"B, 	c #C47372",
"C, 	c #B85F64",
"D, 	c #BC686B",
"E, 	c #B95C63",
"F, 	c #BE5862",
"G, 	c #BB6065",
"H, 	c #B45760",
"I, 	c #B76263",
"J, 	c #B56766",
"K, 	c #B65B64",
"L, 	c #C87675",
"M, 	c #BA7169",
"N, 	c #B16B6B",
"O, 	c #A96465",
"P, 	c #A3565D",
"Q, 	c #B6A581",
"R, 	c #70534E",
"S, 	c #C68183",
"T, 	c #BD7A82",
"U, 	c #C9898B",
"V, 	c #C6858C",
"W, 	c #D58F99",
"X, 	c #C98E91",
"Y, 	c #D18F98",
"Z, 	c #DF99A4",
"`, 	c #DC96A1",
" ' 	c #E6A3A6",
".' 	c #DFA0A2",
"+' 	c #F0ACAA",
"@' 	c #DE9C9B",
"#' 	c #DC9799",
"$' 	c #D9989A",
"%' 	c #DA999F",
"&' 	c #C88A8B",
"*' 	c #171112",
"=' 	c #E0D0A0",
"-' 	c #AE666E",
";' 	c #AE6068",
">' 	c #B3666C",
",' 	c #B15B63",
"'' 	c #AF5F65",
")' 	c #B16166",
"!' 	c #B55E65",
"~' 	c #B46466",
"{' 	c #BF7774",
"]' 	c #B56B6D",
"^' 	c #C97A7A",
"/' 	c #B8686C",
"(' 	c #B96E70",
"_' 	c #BF7A77",
":' 	c #BB7073",
"<' 	c #CE7E7B",
"[' 	c #C8817D",
"}' 	c #C77A78",
"|' 	c #CC817D",
"1' 	c #C27877",
"2' 	c #CD787C",
"3' 	c #C47579",
"4' 	c #C27776",
"5' 	c #C36972",
"6' 	c #C77375",
"7' 	c #CD807E",
"8' 	c #CB7E7E",
"9' 	c #D08081",
"0' 	c #C87A77",
"a' 	c #DB8E87",
"b' 	c #D18481",
"c' 	c #C97673",
"d' 	c #C37572",
"e' 	c #B86063",
"f' 	c #B75C62",
"g' 	c #C36D6A",
"h' 	c #C47275",
"i' 	c #CF7F84",
"j' 	c #BB9883",
"k' 	c #3B2A29",
"l' 	c #C77E88",
"m' 	c #C57E87",
"n' 	c #D38A93",
"o' 	c #DA909B",
"p' 	c #D7919B",
"q' 	c #EFA2AD",
"r' 	c #F3A6B2",
"s' 	c #DD9BA3",
"t' 	c #F1A8B3",
"u' 	c #E7A1AA",
"v' 	c #E29FA5",
"w' 	c #E9A4AE",
"x' 	c #E5A2A5",
"y' 	c #E29EA0",
"z' 	c #E7A2AA",
"A' 	c #F3AAB5",
"B' 	c #D19296",
"C' 	c #F8ADB8",
"D' 	c #DD9CA3",
"E' 	c #E29DA2",
"F' 	c #795E4F",
"G' 	c #BDA384",
"H' 	c #AB606A",
"I' 	c #BB6D76",
"J' 	c #AE5F69",
"K' 	c #C06C78",
"L' 	c #C07C77",
"M' 	c #BD6D70",
"N' 	c #B76268",
"O' 	c #D78A81",
"P' 	c #BC5B65",
"Q' 	c #CA7477",
"R' 	c #C26D6A",
"S' 	c #BF6A6A",
"T' 	c #D8867D",
"U' 	c #B96E71",
"V' 	c #D1747A",
"W' 	c #CF7A82",
"X' 	c #D17C7C",
"Y' 	c #C46A70",
"Z' 	c #BB585E",
"`' 	c #BF636C",
" ) 	c #BA5961",
".) 	c #CA7171",
"+) 	c #B86065",
"@) 	c #B75C63",
"#) 	c #C0666A",
"$) 	c #B15860",
"%) 	c #B35963",
"&) 	c #B26060",
"*) 	c #B76361",
"=) 	c #BE6F6C",
"-) 	c #BC706D",
";) 	c #B06867",
">) 	c #A86465",
",) 	c #B49B79",
"') 	c #7D5E57",
")) 	c #C47D82",
"!) 	c #CD818B",
"~) 	c #CC838C",
"{) 	c #C6828A",
"]) 	c #D08B93",
"^) 	c #CF8A93",
"/) 	c #CD8B92",
"() 	c #DA9A9C",
"_) 	c #D8969B",
":) 	c #F4AEAB",
"<) 	c #E09FA3",
"[) 	c #DF9EA2",
"}) 	c #E1A0A2",
"|) 	c #E59E9F",
"1) 	c #E9A4A4",
"2) 	c #D89997",
"3) 	c #D7989D",
"4) 	c #E6A1A9",
"5) 	c #D9989F",
"6) 	c #2C1F1F",
"7) 	c #DBCB9D",
"8) 	c #AB616B",
"9) 	c #AD5F69",
"0) 	c #B1666B",
"a) 	c #B6676F",
"b) 	c #B6676D",
"c) 	c #B46167",
"d) 	c #AF6167",
"e) 	c #BA6568",
"f) 	c #B26166",
"g) 	c #BA6D6E",
"h) 	c #BE6C70",
"i) 	c #BD7473",
"j) 	c #D48A85",
"k) 	c #AE5E63",
"l) 	c #C87773",
"m) 	c #B4686C",
"n) 	c #C4766E",
"o) 	c #C87D79",
"p) 	c #C97E7B",
"q) 	c #BF7471",
"r) 	c #BA7774",
"s) 	c #C17776",
"t) 	c #BE636B",
"u) 	c #C07174",
"v) 	c #B7626A",
"w) 	c #C26D73",
"x) 	c #BA6367",
"y) 	c #C77576",
"z) 	c #BC646B",
"A) 	c #CB7278",
"B) 	c #D57E86",
"C) 	c #DD8488",
"D) 	c #D27E79",
"E) 	c #BB6569",
"F) 	c #CE7E80",
"G) 	c #BE5863",
"H) 	c #B66267",
"I) 	c #B36163",
"J) 	c #B26469",
"K) 	c #BFA084",
"L) 	c #604742",
"M) 	c #D1848E",
"N) 	c #C47E86",
"O) 	c #D58893",
"P) 	c #D38A94",
"Q) 	c #DD939E",
"R) 	c #DC949E",
"S) 	c #F1A2AE",
"T) 	c #E49CA5",
"U) 	c #DB97A0",
"V) 	c #E39CA3",
"W) 	c #E49DA2",
"X) 	c #E6A2A6",
"Y) 	c #E9A3AD",
"Z) 	c #E49BA2",
"`) 	c #E7A3AB",
" ! 	c #EDA6B1",
".! 	c #DC9AA1",
"+! 	c #DA9AA1",
"@! 	c #DA9898",
"#! 	c #574839",
"$! 	c #C8A37C",
"%! 	c #AC606B",
"&! 	c #B46670",
"*! 	c #B96E6B",
"=! 	c #C57B7A",
"-! 	c #B06467",
";! 	c #BA666A",
">! 	c #CC807E",
",! 	c #D88781",
"'! 	c #C57470",
")! 	c #CD7678",
"!! 	c #BC7072",
"~! 	c #C57C7A",
"{! 	c #C7747D",
"]! 	c #D98886",
"^! 	c #BF6869",
"/! 	c #C36A69",
"(! 	c #C1676C",
"_! 	c #B96A6C",
":! 	c #B36E6C",
"<! 	c #B96465",
"[! 	c #B35F63",
"}! 	c #BA5F66",
"|! 	c #BD5863",
"1! 	c #B65962",
"2! 	c #B55B62",
"3! 	c #C27272",
"4! 	c #B56067",
"5! 	c #C97D7C",
"6! 	c #BD6B6A",
"7! 	c #AE6662",
"8! 	c #B3696A",
"9! 	c #BB997E",
"0! 	c #634E41",
"a! 	c #BB7679",
"b! 	c #BD777D",
"c! 	c #C67E86",
"d! 	c #C78289",
"e! 	c #D08691",
"f! 	c #D38C94",
"g! 	c #D38C96",
"h! 	c #D38F98",
"i! 	c #DA959D",
"j! 	c #DB969E",
"k! 	c #DB9B9D",
"l! 	c #F2A8B3",
"m! 	c #E9A5A2",
"n! 	c #F3AAAC",
"o! 	c #E2A0A6",
"p! 	c #E09DA2",
"q! 	c #D7979D",
"r! 	c #D39597",
"s! 	c #DC9BA2",
"t! 	c #D6979D",
"u! 	c #E4A0AB",
"v! 	c #51393D",
"w! 	c #CBB591",
"x! 	c #AC616B",
"y! 	c #AF626B",
"z! 	c #B05F69",
"A! 	c #B06068",
"B! 	c #B15D66",
"C! 	c #B7656B",
"D! 	c #B8656B",
"E! 	c #B65D66",
"F! 	c #BB6D6F",
"G! 	c #C37777",
"H! 	c #B9716E",
"I! 	c #C17373",
"J! 	c #DE888D",
"K! 	c #C87878",
"L! 	c #BF7371",
"M! 	c #CC7E7F",
"N! 	c #B66367",
"O! 	c #C06B6F",
"P! 	c #C37173",
"Q! 	c #B5666A",
"R! 	c #B05C64",
"S! 	c #B55A62",
"T! 	c #BC5E67",
"U! 	c #C26368",
"V! 	c #D27F85",
"W! 	c #E78E8D",
"X! 	c #C47177",
"Y! 	c #DC8485",
"Z! 	c #BA646A",
"`! 	c #DA8B8B",
" ~ 	c #B35C64",
".~ 	c #B9676D",
"+~ 	c #AE5E60",
"@~ 	c #B8A082",
"#~ 	c #493C33",
"$~ 	c #C07981",
"%~ 	c #CE828C",
"&~ 	c #C37F84",
"*~ 	c #CB848C",
"=~ 	c #E997A3",
"-~ 	c #DD929D",
";~ 	c #E296A2",
">~ 	c #DA969C",
",~ 	c #E7A0A3",
"'~ 	c #DC969B",
")~ 	c #E09BA2",
"!~ 	c #E49B9E",
"~~ 	c #E69FA4",
"{~ 	c #EAA2AB",
"]~ 	c #E59FA4",
"^~ 	c #E79BA0",
"/~ 	c #E3A0A5",
"(~ 	c #FFB2BE",
"_~ 	c #E7A2AB",
":~ 	c #DE9AA1",
"<~ 	c #E19DA6",
"[~ 	c #F3ABB5",
"}~ 	c #DE9BA4",
"|~ 	c #DB9A9D",
"1~ 	c #D5969A",
"2~ 	c #DC979A",
"3~ 	c #473D31",
"4~ 	c #BCA784",
"5~ 	c #A9606A",
"6~ 	c #B1666D",
"7~ 	c #BA7076",
"8~ 	c #B5686D",
"9~ 	c #C37A7A",
"0~ 	c #CA7C7C",
"a~ 	c #CB7E78",
"b~ 	c #C77072",
"c~ 	c #D18383",
"d~ 	c #C47075",
"e~ 	c #C57872",
"f~ 	c #CA7D7C",
"g~ 	c #C8767B",
"h~ 	c #C6767C",
"i~ 	c #C47473",
"j~ 	c #D28482",
"k~ 	c #C5776F",
"l~ 	c #BB6067",
"m~ 	c #C46F73",
"n~ 	c #C37472",
"o~ 	c #B5696A",
"p~ 	c #B35960",
"q~ 	c #AF6060",
"r~ 	c #AE5E61",
"s~ 	c #B86165",
"t~ 	c #B15862",
"u~ 	c #C17976",
"v~ 	c #C8797D",
"w~ 	c #CC8182",
"x~ 	c #C1706F",
"y~ 	c #AB9374",
"z~ 	c #8D6B5C",
"A~ 	c #B97479",
"B~ 	c #C0777C",
"C~ 	c #BD787D",
"D~ 	c #C07C83",
"E~ 	c #CC858E",
"F~ 	c #D48A93",
"G~ 	c #D38D93",
"H~ 	c #D49295",
"I~ 	c #E0979F",
"J~ 	c #ECA7A5",
"K~ 	c #E3A69E",
"L~ 	c #D8949E",
"M~ 	c #DF9FA1",
"N~ 	c #E7A0A5",
"O~ 	c #EFA7A7",
"P~ 	c #EEA8AA",
"Q~ 	c #E3A2A3",
"R~ 	c #DE9C9C",
"S~ 	c #D8999A",
"T~ 	c #F1A9B3",
"U~ 	c #DA9AA0",
"V~ 	c #E19FA1",
"W~ 	c #DA9AA2",
"X~ 	c #E7A2AD",
"Y~ 	c #7E575D",
"Z~ 	c #C8B88E",
"`~ 	c #B16C72",
" { 	c #BA7175",
".{ 	c #B0626A",
"+{ 	c #B15E67",
"@{ 	c #B65F69",
"#{ 	c #B9696C",
"${ 	c #B05F64",
"%{ 	c #BA6C71",
"&{ 	c #BB6D6D",
"*{ 	c #B45C62",
"={ 	c #B96F72",
"-{ 	c #B86A6E",
";{ 	c #CF7779",
">{ 	c #D28881",
",{ 	c #D08786",
"'{ 	c #C16069",
"){ 	c #B85F65",
"!{ 	c #BC6A6A",
"~{ 	c #BD656A",
"{{ 	c #B46265",
"]{ 	c #C36F73",
"^{ 	c #C66B74",
"/{ 	c #BD6C6E",
"({ 	c #D1797D",
"_{ 	c #D58083",
":{ 	c #D57F81",
"<{ 	c #BC696E",
"[{ 	c #DC8C85",
"}{ 	c #B6606A",
"|{ 	c #C37473",
"1{ 	c #AE5A64",
"2{ 	c #B89672",
"3{ 	c #6C594D",
"4{ 	c #C27680",
"5{ 	c #C27A82",
"6{ 	c #C98088",
"7{ 	c #CD848E",
"8{ 	c #DC9099",
"9{ 	c #D89199",
"0{ 	c #DC969D",
"a{ 	c #DF969E",
"b{ 	c #F7ACA6",
"c{ 	c #DC979C",
"d{ 	c #E39CA1",
"e{ 	c #DF9BA1",
"f{ 	c #E29BA3",
"g{ 	c #E79FA5",
"h{ 	c #E49CA4",
"i{ 	c #E3A0A4",
"j{ 	c #F5A9B5",
"k{ 	c #DE9AA4",
"l{ 	c #D69396",
"m{ 	c #E7A3A9",
"n{ 	c #E19EA5",
"o{ 	c #E39FA8",
"p{ 	c #D7959C",
"q{ 	c #DC97A1",
"r{ 	c #604C43",
"s{ 	c #B7A180",
"t{ 	c #AA636C",
"u{ 	c #B0636D",
"v{ 	c #B56971",
"w{ 	c #C27A77",
"x{ 	c #D18380",
"y{ 	c #C97F7A",
"z{ 	c #D4817E",
"A{ 	c #E89391",
"B{ 	c #BF6D70",
"C{ 	c #C36A6E",
"D{ 	c #C87772",
"E{ 	c #C6797D",
"F{ 	c #BA676E",
"G{ 	c #B75E66",
"H{ 	c #B2646A",
"I{ 	c #C16B6E",
"J{ 	c #B8696F",
"K{ 	c #B66666",
"L{ 	c #B55F66",
"M{ 	c #AE6165",
"N{ 	c #B05961",
"O{ 	c #AD595F",
"P{ 	c #B56268",
"Q{ 	c #B66167",
"R{ 	c #B5656A",
"S{ 	c #B97172",
"T{ 	c #C8797C",
"U{ 	c #A88B74",
"V{ 	c #695B4B",
"W{ 	c #BB7177",
"X{ 	c #BA7579",
"Y{ 	c #CC7D87",
"Z{ 	c #C77C84",
"`{ 	c #C17B84",
" ] 	c #CB858C",
".] 	c #C48289",
"+] 	c #D98F9A",
"@] 	c #DB9598",
"#] 	c #DE989C",
"$] 	c #D18F93",
"%] 	c #D89598",
"&] 	c #E6A1A2",
"*] 	c #DC9A9D",
"=] 	c #F4A69E",
"-] 	c #F7AAAF",
";] 	c #E5A5A5",
">] 	c #E49FA0",
",] 	c #E09E9F",
"'] 	c #D89696",
")] 	c #D19294",
"!] 	c #DE9CA4",
"~] 	c #E7A3AC",
"{] 	c #DD9DA1",
"]] 	c #E19FA8",
"^] 	c #DF9AA4",
"/] 	c #9D6B72",
"(] 	c #B5A281",
"_] 	c #AB676B",
":] 	c #B46872",
"<] 	c #B2606B",
"[] 	c #B6616B",
"}] 	c #C7777D",
"|] 	c #B35F65",
"1] 	c #BE6E6D",
"2] 	c #B9656C",
"3] 	c #D38785",
"4] 	c #CD857F",
"5] 	c #C47471",
"6] 	c #BB696E",
"7] 	c #BE6E72",
"8] 	c #C27373",
"9] 	c #BD716D",
"0] 	c #BC6266",
"a] 	c #BF5965",
"b] 	c #B46263",
"c] 	c #C05E67",
"d] 	c #C75B66",
"e] 	c #C56F76",
"f] 	c #C57475",
"g] 	c #AF6968",
"h] 	c #BC7572",
"i] 	c #CB7D7D",
"j] 	c #DA8A85",
"k] 	c #BD6A71",
"l] 	c #BB6C6D",
"m] 	c #BB6E6F",
"n] 	c #CD837C",
"o] 	c #A28B6F",
"p] 	c #5B5442",
"q] 	c #BE757C",
"r] 	c #CB7B86",
"s] 	c #D68590",
"t] 	c #D58792",
"u] 	c #CF858F",
"v] 	c #CD848D",
"w] 	c #DD909A",
"x] 	c #D98E9A",
"y] 	c #DF989C",
"z] 	c #DE939A",
"A] 	c #E09699",
"B] 	c #DE979E",
"C] 	c #DF98A0",
"D] 	c #E49DA4",
"E] 	c #E199A0",
"F] 	c #DE959A",
"G] 	c #E8A1A1",
"H] 	c #E49BA4",
"I] 	c #FCACB9",
"J] 	c #DD9BA1",
"K] 	c #DB979E",
"L] 	c #DD98A0",
"M] 	c #E19CA4",
"N] 	c #E19CA3",
"O] 	c #E09DA3",
"P] 	c #E09CA2",
"Q] 	c #DE99A1",
"R] 	c #D69193",
"S] 	c #D4929A",
"T] 	c #D18B90",
"U] 	c #504838",
"V] 	c #B0967B",
"W] 	c #AE646D",
"X] 	c #B06870",
"Y] 	c #BB6D74",
"Z] 	c #C67878",
"`] 	c #C77577",
" ^ 	c #BE7074",
".^ 	c #CE7C7E",
"+^ 	c #E69290",
"@^ 	c #B86068",
"#^ 	c #C87476",
"$^ 	c #BA676F",
"%^ 	c #C06769",
"&^ 	c #B96169",
"*^ 	c #BF6C6E",
"=^ 	c #BB7174",
"-^ 	c #CC7B7D",
";^ 	c #BF6E6E",
">^ 	c #B9686D",
",^ 	c #C07171",
"'^ 	c #B8676C",
")^ 	c #B96D6D",
"!^ 	c #B46669",
"~^ 	c #AF6366",
"{^ 	c #CE7B80",
"]^ 	c #B46968",
"^^ 	c #CD8384",
"/^ 	c #AA8675",
"(^ 	c #846F5C",
"_^ 	c #B76D73",
":^ 	c #BF727A",
"<^ 	c #C97B84",
"[^ 	c #D6848E",
"}^ 	c #CA8186",
"|^ 	c #D0858D",
"1^ 	c #C58287",
"2^ 	c #CF8A91",
"3^ 	c #D48A95",
"4^ 	c #D98F98",
"5^ 	c #E0959E",
"6^ 	c #D89299",
"7^ 	c #E09B99",
"8^ 	c #D89895",
"9^ 	c #EF9F9D",
"0^ 	c #F4ACA0",
"a^ 	c #F4A8A5",
"b^ 	c #F3ABA8",
"c^ 	c #E79F92",
"d^ 	c #DD9A9C",
"e^ 	c #E0A1A2",
"f^ 	c #D49699",
"g^ 	c #D39598",
"h^ 	c #F6ADB8",
"i^ 	c #E4A1A8",
"j^ 	c #DB9AA1",
"k^ 	c #E49FA9",
"l^ 	c #B67E85",
"m^ 	c #AC9F7A",
"n^ 	c #A8696C",
"o^ 	c #B2626D",
"p^ 	c #B2616A",
"q^ 	c #B3646C",
"r^ 	c #B7646A",
"s^ 	c #B46569",
"t^ 	c #D27C7E",
"u^ 	c #D7817E",
"v^ 	c #C5817B",
"w^ 	c #BD7278",
"x^ 	c #D48283",
"y^ 	c #B56B71",
"z^ 	c #B15E65",
"A^ 	c #D47E84",
"B^ 	c #B75760",
"C^ 	c #C17071",
"D^ 	c #B56063",
"E^ 	c #C4706E",
"F^ 	c #B25E63",
"G^ 	c #B35A5F",
"H^ 	c #B36367",
"I^ 	c #B36365",
"J^ 	c #C07072",
"K^ 	c #CB817D",
"L^ 	c #B1726A",
"M^ 	c #B5646B",
"N^ 	c #BD6F73",
"O^ 	c #BC7074",
"P^ 	c #A47F70",
"Q^ 	c #6F664F",
"R^ 	c #C2737C",
"S^ 	c #C77882",
"T^ 	c #DC8692",
"U^ 	c #C88087",
"V^ 	c #D0858F",
"W^ 	c #D68A93",
"X^ 	c #D88B95",
"Y^ 	c #D58F95",
"Z^ 	c #D99198",
"`^ 	c #DF959A",
" / 	c #E29D9A",
"./ 	c #E89B99",
"+/ 	c #E79C97",
"@/ 	c #DE979F",
"#/ 	c #E2979F",
"$/ 	c #DF979F",
"%/ 	c #DF979E",
"&/ 	c #E59C9D",
"*/ 	c #DB9496",
"=/ 	c #DE999A",
"-/ 	c #E69EA7",
";/ 	c #E4A2A1",
">/ 	c #E09B9F",
",/ 	c #E19BA2",
"'/ 	c #DE9BA1",
")/ 	c #E3A0A1",
"!/ 	c #ED9E9F",
"~/ 	c #E8A1AB",
"{/ 	c #D8929A",
"]/ 	c #E49CA7",
"^/ 	c #D4909A",
"// 	c #D7919A",
"(/ 	c #5C5241",
"_/ 	c #B79E80",
":/ 	c #B56C72",
"</ 	c #B36A71",
"[/ 	c #C4757A",
"}/ 	c #B97072",
"|/ 	c #B37368",
"1/ 	c #CD7F7C",
"2/ 	c #D98981",
"3/ 	c #BA696F",
"4/ 	c #BA6A6F",
"5/ 	c #DC878A",
"6/ 	c #CB767D",
"7/ 	c #CD7773",
"8/ 	c #B8656A",
"9/ 	c #C36F6F",
"0/ 	c #C57974",
"a/ 	c #CC7D79",
"b/ 	c #B16367",
"c/ 	c #B66B68",
"d/ 	c #B86365",
"e/ 	c #AE5C62",
"f/ 	c #B16765",
"g/ 	c #C77E79",
"h/ 	c #B86E6F",
"i/ 	c #AB6264",
"j/ 	c #BD7172",
"k/ 	c #BB8E7E",
"l/ 	c #927766",
"m/ 	c #C37D7E",
"n/ 	c #BD6F78",
"o/ 	c #C97882",
"p/ 	c #C67A82",
"q/ 	c #C37A81",
"r/ 	c #C38181",
"s/ 	c #BE7E7E",
"t/ 	c #C0817B",
"u/ 	c #D38692",
"v/ 	c #CA858B",
"w/ 	c #E49EA0",
"x/ 	c #EC9FA6",
"y/ 	c #EDA0A6",
"z/ 	c #DA959A",
"A/ 	c #DF9A9F",
"B/ 	c #FFB6AB",
"C/ 	c #E69C95",
"D/ 	c #E09D98",
"E/ 	c #DA989D",
"F/ 	c #E4998D",
"G/ 	c #D69694",
"H/ 	c #D39696",
"I/ 	c #D2949A",
"J/ 	c #E2A1A9",
"K/ 	c #E8A5A8",
"L/ 	c #C88B8D",
"M/ 	c #D19098",
"N/ 	c #CA8E93",
"O/ 	c #DC99A1",
"P/ 	c #D7949C",
"Q/ 	c #A79175",
"R/ 	c #B67876",
"S/ 	c #B6646F",
"T/ 	c #B4666D",
"U/ 	c #B0646B",
"V/ 	c #AB6365",
"W/ 	c #BD7575",
"X/ 	c #B66F6E",
"Y/ 	c #B96F71",
"Z/ 	c #D5877C",
"`/ 	c #CB7F7E",
" ( 	c #DA8882",
".( 	c #C87C7C",
"+( 	c #C56970",
"@( 	c #B96565",
"#( 	c #B95A63",
"$( 	c #B66467",
"%( 	c #B1585F",
"&( 	c #B85962",
"*( 	c #B55962",
"=( 	c #C06968",
"-( 	c #B4676B",
";( 	c #B2666A",
">( 	c #CA7C7D",
",( 	c #BF7373",
"'( 	c #C17372",
")( 	c #B36C6C",
"!( 	c #AA7F6D",
"~( 	c #80715A",
"{( 	c #BE6D76",
"]( 	c #C6767F",
"^( 	c #DA828D",
"/( 	c #DF8893",
"(( 	c #CA7E88",
"_( 	c #D0848E",
":( 	c #D0858E",
"<( 	c #CC868D",
"[( 	c #C6858A",
"}( 	c #D99191",
"|( 	c #D18F91",
"1( 	c #FBAFA6",
"2( 	c #DE939E",
"3( 	c #D28D95",
"4( 	c #E398A2",
"5( 	c #E69AA4",
"6( 	c #EA9BA6",
"7( 	c #DE979A",
"8( 	c #E59FA0",
"9( 	c #E29996",
"0( 	c #DF989E",
"a( 	c #ECA0AB",
"b( 	c #DE989E",
"c( 	c #E197A0",
"d( 	c #DF939B",
"e( 	c #E598A5",
"f( 	c #DD949F",
"g( 	c #DF9A9A",
"h( 	c #DE989A",
"i( 	c #F5A6B2",
"j( 	c #EA9EA9",
"k( 	c #DC959F",
"l( 	c #DC96A0",
"m( 	c #D8909A",
"n( 	c #796653",
"o( 	c #AF8E77",
"p( 	c #AC636D",
"q( 	c #C77C7C",
"r( 	c #BD7977",
"s( 	c #E3908F",
"t( 	c #BE7C75",
"u( 	c #B86B6E",
"v( 	c #E69297",
"w( 	c #B96D71",
"x( 	c #B8646E",
"y( 	c #B8636C",
"z( 	c #B55D66",
"A( 	c #BF696C",
"B( 	c #B56C70",
"C( 	c #B96C72",
"D( 	c #B16263",
"E( 	c #C27574",
"F( 	c #C67D79",
"G( 	c #BA5D68",
"H( 	c #BD7274",
"I( 	c #B76B6F",
"J( 	c #AE6A6A",
"K( 	c #A6826F",
"L( 	c #A37E70",
"M( 	c #BC7175",
"N( 	c #C6727D",
"O( 	c #CC7A84",
"P( 	c #C37981",
"Q( 	c #BD747F",
"R( 	c #BA757A",
"S( 	c #B8776D",
"T( 	c #CC8B88",
"U( 	c #BC7772",
"V( 	c #CB898D",
"W( 	c #D28C94",
"X( 	c #E2999D",
"Y( 	c #D28D92",
"Z( 	c #E79D9C",
"`( 	c #FDB8A5",
" _ 	c #F3A58E",
"._ 	c #DD9992",
"+_ 	c #E59DA0",
"@_ 	c #E3A2A0",
"#_ 	c #D7949A",
"$_ 	c #D59492",
"%_ 	c #C98F8A",
"&_ 	c #CF918C",
"*_ 	c #C9878C",
"=_ 	c #D9999A",
"-_ 	c #C98E8C",
";_ 	c #CC9093",
">_ 	c #C78986",
",_ 	c #D5928C",
"'_ 	c #D29199",
")_ 	c #CB8990",
"!_ 	c #CD8C93",
"~_ 	c #8D8264",
"{_ 	c #AD7D73",
"]_ 	c #B46D72",
"^_ 	c #AE686D",
"/_ 	c #B2636B",
"(_ 	c #B6686F",
"__ 	c #B9706F",
":_ 	c #CB7C7E",
"<_ 	c #DC8E8D",
"[_ 	c #B76D76",
"}_ 	c #C98481",
"|_ 	c #C27276",
"1_ 	c #BF7576",
"2_ 	c #B85D63",
"3_ 	c #B45860",
"4_ 	c #B36168",
"5_ 	c #B45A61",
"6_ 	c #C15B67",
"7_ 	c #B15F62",
"8_ 	c #B25C65",
"9_ 	c #B7676A",
"0_ 	c #B4696A",
"a_ 	c #B15A62",
"b_ 	c #A65A5D",
"c_ 	c #B36C6F",
"d_ 	c #A96A6B",
"e_ 	c #B88476",
"f_ 	c #977A69",
"g_ 	c #B96D74",
"h_ 	c #BB6F76",
"i_ 	c #C0727B",
"j_ 	c #CA7C85",
"k_ 	c #D1828C",
"l_ 	c #CF828C",
"m_ 	c #CE828B",
"n_ 	c #C07F81",
"o_ 	c #DE8E98",
"p_ 	c #E2929C",
"q_ 	c #D18891",
"r_ 	c #DE9297",
"s_ 	c #E19A9B",
"t_ 	c #E19597",
"u_ 	c #E2979E",
"v_ 	c #E49BA0",
"w_ 	c #EF9EAA",
"x_ 	c #E1969D",
"y_ 	c #E39894",
"z_ 	c #DA9298",
"A_ 	c #E2959B",
"B_ 	c #DF979A",
"C_ 	c #E2989E",
"D_ 	c #DC949A",
"E_ 	c #E0979E",
"F_ 	c #D28E8C",
"G_ 	c #DF9493",
"H_ 	c #C57F88",
"I_ 	c #D9919A",
"J_ 	c #E297A1",
"K_ 	c #E89BA7",
"L_ 	c #E399A4",
"M_ 	c #DF949F",
"N_ 	c #DC929D",
"O_ 	c #CC8790",
"P_ 	c #756B54",
"Q_ 	c #AF8979",
"R_ 	c #AC676E",
"S_ 	c #B66F75",
"T_ 	c #CB7E81",
"U_ 	c #BD7E79",
"V_ 	c #D18686",
"W_ 	c #C5777B",
"X_ 	c #C6787C",
"Y_ 	c #E0848D",
"Z_ 	c #B56970",
"`_ 	c #B9626B",
" : 	c #B25A63",
".: 	c #D57E87",
"+: 	c #AD5E66",
"@: 	c #D28584",
"#: 	c #C87A80",
"$: 	c #C17779",
"%: 	c #AF5B66",
"&: 	c #B2666D",
"*: 	c #A95F67",
"=: 	c #9D7768",
"-: 	c #8A7960",
";: 	c #B5676E",
">: 	c #BE7979",
",: 	c #B3676D",
"': 	c #BD757A",
"): 	c #B97178",
"!: 	c #C27C7D",
"~: 	c #BF757C",
"{: 	c #D4818D",
"]: 	c #CB8189",
"^: 	c #C88083",
"/: 	c #CD828B",
"(: 	c #D99497",
"_: 	c #EBA5A1",
":: 	c #DE9190",
"<: 	c #D7908F",
"[: 	c #F4A799",
"}: 	c #EEA29D",
"|: 	c #E69BA0",
"1: 	c #E2979A",
"2: 	c #DD949C",
"3: 	c #D0908F",
"4: 	c #CD8C8F",
"5: 	c #CB8D8B",
"6: 	c #DC9598",
"7: 	c #D39194",
"8: 	c #D69398",
"9: 	c #CE8E92",
"0: 	c #CB8C90",
"a: 	c #C08481",
"b: 	c #C08176",
"c: 	c #C98B87",
"d: 	c #E69BA6",
"e: 	c #D9919B",
"f: 	c #CE8891",
"g: 	c #81785C",
"h: 	c #AA8474",
"i: 	c #AD696E",
"j: 	c #AC636B",
"k: 	c #B0686D",
"l: 	c #BB6E71",
"m: 	c #BC6E75",
"n: 	c #DE908D",
"o: 	c #C98082",
"p: 	c #C68181",
"q: 	c #CF8480",
"r: 	c #C27977",
"s: 	c #D07C79",
"t: 	c #B35D62",
"u: 	c #AF5F62",
"v: 	c #AE585F",
"w: 	c #B46B6A",
"x: 	c #AF6265",
"y: 	c #A7575F",
"z: 	c #B96C6F",
"A: 	c #B26E6F",
"B: 	c #B37A75",
"C: 	c #AE8D79",
"D: 	c #AF6669",
"E: 	c #B1686F",
"F: 	c #CF7882",
"G: 	c #CE7A84",
"H: 	c #D17E89",
"I: 	c #CF8089",
"J: 	c #D88791",
"K: 	c #DA8893",
"L: 	c #C27D83",
"M: 	c #CA8287",
"N: 	c #C8828A",
"O: 	c #DD9194",
"P: 	c #E5949C",
"Q: 	c #E09695",
"R: 	c #EEA19E",
"S: 	c #E39698",
"T: 	c #ED9F9E",
"U: 	c #E0969C",
"V: 	c #E3949E",
"W: 	c #DD9098",
"X: 	c #F1A6A4",
"Y: 	c #F9AAA2",
"Z: 	c #DD9397",
"`: 	c #E0989B",
" < 	c #D99293",
".< 	c #D98F95",
"+< 	c #EB9F9F",
"@< 	c #DC959C",
"#< 	c #DA9594",
"$< 	c #CF8990",
"%< 	c #D08889",
"&< 	c #C9868C",
"*< 	c #CC8890",
"=< 	c #D28A94",
"-< 	c #D68F98",
";< 	c #D9909A",
">< 	c #DB8F9A",
",< 	c #CD888F",
"'< 	c #CC858F",
")< 	c #84785E",
"!< 	c #AC7F74",
"~< 	c #B16F72",
"{< 	c #BE7278",
"]< 	c #B97776",
"^< 	c #BC7576",
"/< 	c #B4676F",
"(< 	c #D58183",
"_< 	c #C4737B",
":< 	c #BF7377",
"<< 	c #B3656B",
"[< 	c #C7777B",
"}< 	c #B15F69",
"|< 	c #B76B72",
"1< 	c #BD7378",
"2< 	c #B56F70",
"3< 	c #B0686B",
"4< 	c #B16C6D",
"5< 	c #AE696F",
"6< 	c #A75E65",
"7< 	c #9A7067",
"8< 	c #918366",
"9< 	c #B1686C",
"0< 	c #BA6D70",
"a< 	c #BB7072",
"b< 	c #BA6B71",
"c< 	c #C3787A",
"d< 	c #BC7176",
"e< 	c #C98885",
"f< 	c #BC797D",
"g< 	c #C47F80",
"h< 	c #BF7F80",
"i< 	c #BE777C",
"j< 	c #C17F81",
"k< 	c #CD8B8A",
"l< 	c #CD898A",
"m< 	c #EB9996",
"n< 	c #E89891",
"o< 	c #F9A6A1",
"p< 	c #FAA79D",
"q< 	c #DF9496",
"r< 	c #E79790",
"s< 	c #E09394",
"t< 	c #E2988B",
"u< 	c #D3928C",
"v< 	c #D1918F",
"w< 	c #D69096",
"x< 	c #C98C89",
"y< 	c #CE8C90",
"z< 	c #D8959B",
"A< 	c #CE8F90",
"B< 	c #D08F91",
"C< 	c #C98A89",
"D< 	c #D2908D",
"E< 	c #D28E96",
"F< 	c #C38383",
"G< 	c #C9878F",
"H< 	c #DD909B",
"I< 	c #6C654D",
"J< 	c #B7917E",
"K< 	c #AE6A71",
"L< 	c #AD636C",
"M< 	c #B4696E",
"N< 	c #B56B68",
"O< 	c #C17A73",
"P< 	c #B77170",
"Q< 	c #BC7677",
"R< 	c #B36C6E",
"S< 	c #B87870",
"T< 	c #B5676C",
"U< 	c #BD6A6A",
"V< 	c #B25A65",
"W< 	c #B55C66",
"X< 	c #B35D66",
"Y< 	c #AF6062",
"Z< 	c #AA5C62",
"`< 	c #B16365",
" [ 	c #AA5C63",
".[ 	c #B66C6E",
"+[ 	c #A66165",
"@[ 	c #AE6F69",
"#[ 	c #A86C67",
"$[ 	c #A0866B",
"%[ 	c #BE6670",
"&[ 	c #B46A70",
"*[ 	c #B56D73",
"=[ 	c #BF7379",
"-[ 	c #CA7781",
";[ 	c #CF7C86",
">[ 	c #D28089",
",[ 	c #CE818A",
"'[ 	c #C97C85",
")[ 	c #E28B96",
"![ 	c #D4848E",
"~[ 	c #C67F86",
"{[ 	c #F8A9A8",
"][ 	c #EDA29E",
"^[ 	c #E89B9A",
"/[ 	c #DE9392",
"([ 	c #F5A9A8",
"_[ 	c #EAA0A0",
":[ 	c #F1A3A3",
"<[ 	c #E4959D",
"[[ 	c #F4A7A2",
"}[ 	c #DC9293",
"|[ 	c #DB9395",
"1[ 	c #DB9198",
"2[ 	c #DE939B",
"3[ 	c #DE9798",
"4[ 	c #DB9290",
"5[ 	c #D99294",
"6[ 	c #DD968E",
"7[ 	c #CF8A8C",
"8[ 	c #DF939E",
"9[ 	c #E698A4",
"0[ 	c #E1949F",
"a[ 	c #D78D98",
"b[ 	c #D88E98",
"c[ 	c #CC848D",
"d[ 	c #CC848E",
"e[ 	c #9F886F",
"f[ 	c #AA7574",
"g[ 	c #BD7C7D",
"h[ 	c #BE757A",
"i[ 	c #B06B6F",
"j[ 	c #C98280",
"k[ 	c #D78D8A",
"l[ 	c #BE7277",
"m[ 	c #D18384",
"n[ 	c #B86E71",
"o[ 	c #B3656C",
"p[ 	c #AC5B67",
"q[ 	c #B87273",
"r[ 	c #BC7076",
"s[ 	c #C37C7E",
"t[ 	c #B26B6F",
"u[ 	c #B77477",
"v[ 	c #AD716F",
"w[ 	c #9F716A",
"x[ 	c #96896B",
"y[ 	c #B66C70",
"z[ 	c #BA636D",
"A[ 	c #BB676F",
"B[ 	c #BD6B72",
"C[ 	c #C16E76",
"D[ 	c #BD6F74",
"E[ 	c #C0777D",
"F[ 	c #CB8585",
"G[ 	c #C87E82",
"H[ 	c #C17D7F",
"I[ 	c #BC8281",
"J[ 	c #CB8C87",
"K[ 	c #C38384",
"L[ 	c #DA8D86",
"M[ 	c #EA9E92",
"N[ 	c #FCAA9E",
"O[ 	c #F4A3A4",
"P[ 	c #EC9E9A",
"Q[ 	c #E1949A",
"R[ 	c #E59995",
"S[ 	c #E79C9A",
"T[ 	c #E8A1A0",
"U[ 	c #E29B98",
"V[ 	c #DC948C",
"W[ 	c #DD9492",
"X[ 	c #CE8D83",
"Y[ 	c #D28C91",
"Z[ 	c #D38E93",
"`[ 	c #CB8C8B",
" } 	c #D48E91",
".} 	c #C5858A",
"+} 	c #D18E91",
"@} 	c #CB8989",
"#} 	c #CC898C",
"$} 	c #CA8790",
"%} 	c #CC878D",
"&} 	c #C38189",
"*} 	c #C38087",
"=} 	c #C9848C",
"-} 	c #635746",
";} 	c #B69B80",
">} 	c #B36874",
",} 	c #B0696F",
"'} 	c #D18B86",
")} 	c #D58B8A",
"!} 	c #D58C86",
"~} 	c #CC837F",
"{} 	c #B4766E",
"]} 	c #C78380",
"^} 	c #B76C71",
"/} 	c #B26067",
"(} 	c #BC606B",
"_} 	c #AC6166",
":} 	c #B76D68",
"<} 	c #AC5C62",
"[} 	c #B06369",
"}} 	c #B06E64",
"|} 	c #AA6268",
"1} 	c #A76B6B",
"2} 	c #B28F7E",
"3} 	c #B56E72",
"4} 	c #B1666C",
"5} 	c #B6686C",
"6} 	c #B76D74",
"7} 	c #CD7881",
"8} 	c #C97C82",
"9} 	c #C87B81",
"0} 	c #D07F89",
"a} 	c #C57B83",
"b} 	c #D7848E",
"c} 	c #D3838D",
"d} 	c #D5878D",
"e} 	c #CB838A",
"f} 	c #DC8B92",
"g} 	c #D3878D",
"h} 	c #EE9D9B",
"i} 	c #E89896",
"j} 	c #DE8F97",
"k} 	c #F0A1A0",
"l} 	c #E49B9D",
"m} 	c #E09398",
"n} 	c #DD9596",
"o} 	c #E89CA0",
"p} 	c #D88C93",
"q} 	c #E18F97",
"r} 	c #DE9398",
"s} 	c #DC9295",
"t} 	c #D69093",
"u} 	c #DB9097",
"v} 	c #E79A96",
"w} 	c #DE9893",
"x} 	c #D58E91",
"y} 	c #CF888D",
"z} 	c #C8838A",
"A} 	c #BE7D82",
"B} 	c #CF868F",
"C} 	c #DA8D98",
"D} 	c #DE909B",
"E} 	c #E1919C",
"F} 	c #CA838A",
"G} 	c #D28690",
"H} 	c #BF7980",
"I} 	c #B4997D",
"J} 	c #C78480",
"K} 	c #AA6770",
"L} 	c #BC7E7B",
"M} 	c #C07C7A",
"N} 	c #D28487",
"O} 	c #D78E8C",
"P} 	c #AF636B",
"Q} 	c #BC6D74",
"R} 	c #B5666D",
"S} 	c #B86773",
"T} 	c #A85C67",
"U} 	c #C1787D",
"V} 	c #B9747A",
"W} 	c #B27073",
"X} 	c #A56368",
"Y} 	c #AB7D71",
"Z} 	c #AD8678",
"`} 	c #B06469",
" | 	c #BB646D",
".| 	c #BD6D72",
"+| 	c #BF6B72",
"@| 	c #C57179",
"#| 	c #C6777A",
"$| 	c #C6787E",
"%| 	c #C87B7B",
"&| 	c #C47778",
"*| 	c #CE7F84",
"=| 	c #D18A8B",
"-| 	c #D6918F",
";| 	c #C58981",
">| 	c #C28081",
",| 	c #DA8E84",
"'| 	c #CF8C86",
")| 	c #EB9F96",
"!| 	c #D98C8D",
"~| 	c #E29291",
"{| 	c #DE8D92",
"]| 	c #D78F8B",
"^| 	c #D79092",
"/| 	c #E09798",
"(| 	c #D79093",
"_| 	c #DF9492",
":| 	c #DD9193",
"<| 	c #E49C98",
"[| 	c #D69092",
"}| 	c #E49597",
"|| 	c #D99391",
"1| 	c #CB898C",
"2| 	c #D69095",
"3| 	c #D28E8E",
"4| 	c #BB8082",
"5| 	c #D58C96",
"6| 	c #D58A94",
"7| 	c #CB818B",
"8| 	c #594B39",
"9| 	c #B29A7E",
"0| 	c #B26873",
"a| 	c #AD6B70",
"b| 	c #B47072",
"c| 	c #B56F72",
"d| 	c #B26B6E",
"e| 	c #BF7A78",
"f| 	c #C47C78",
"g| 	c #CE857C",
"h| 	c #C47975",
"i| 	c #BA6974",
"j| 	c #B25D67",
"k| 	c #AE6166",
"l| 	c #B0666B",
"m| 	c #AD6365",
"n| 	c #AA605F",
"o| 	c #AA6167",
"p| 	c #AC6368",
"q| 	c #B27070",
"r| 	c #A56C68",
"s| 	c #A58D72",
"t| 	c #A85F63",
"u| 	c #BA656F",
"v| 	c #B46C70",
"w| 	c #C2757C",
"x| 	c #BB6D75",
"y| 	c #C6757D",
"z| 	c #CA777F",
"A| 	c #CE8688",
"B| 	c #CD7E87",
"C| 	c #E08793",
"D| 	c #C77E86",
"E| 	c #D1848B",
"F| 	c #D18A86",
"G| 	c #D28C89",
"H| 	c #DF9293",
"I| 	c #EA9B96",
"J| 	c #F7A9A0",
"K| 	c #F4A2A5",
"L| 	c #E8959C",
"M| 	c #DB8D95",
"N| 	c #DD8E95",
"O| 	c #E5989C",
"P| 	c #F29F9E",
"Q| 	c #DB8A8E",
"R| 	c #DC8D91",
"S| 	c #E09494",
"T| 	c #D88A94",
"U| 	c #D78C8E",
"V| 	c #D4888C",
"W| 	c #D78C91",
"X| 	c #D4898B",
"Y| 	c #D18A90",
"Z| 	c #CD828D",
"`| 	c #CB838B",
" 1 	c #C67F88",
".1 	c #DD8D98",
"+1 	c #D68994",
"@1 	c #CF858E",
"#1 	c #CB808A",
"$1 	c #C27C84",
"%1 	c #BE7A7C",
"&1 	c #BCA17E",
"*1 	c #C28181",
"=1 	c #B17377",
"-1 	c #CF847F",
";1 	c #CD8889",
">1 	c #C77E82",
",1 	c #C0757E",
"'1 	c #B77274",
")1 	c #AF646D",
"!1 	c #B46A72",
"~1 	c #AC646D",
"{1 	c #AE686F",
"]1 	c #C57D81",
"^1 	c #AD6E71",
"/1 	c #AC7972",
"(1 	c #A68E71",
"_1 	c #A95F63",
":1 	c #AA6365",
"<1 	c #AE5C65",
"[1 	c #BD6970",
"}1 	c #BF7175",
"|1 	c #C6777D",
"11 	c #C77678",
"21 	c #D18285",
"31 	c #CA7882",
"41 	c #CD8380",
"51 	c #CB7C80",
"61 	c #DB8C86",
"71 	c #CE8A88",
"81 	c #D7968C",
"91 	c #CD8D85",
"01 	c #CA8886",
"a1 	c #CE8986",
"b1 	c #D68B8F",
"c1 	c #D0838B",
"d1 	c #D78A90",
"e1 	c #DF9192",
"f1 	c #E7969B",
"g1 	c #DE9796",
"h1 	c #DC948F",
"i1 	c #DE9795",
"j1 	c #D18D87",
"k1 	c #D68C93",
"l1 	c #CC8A8C",
"m1 	c #D18D91",
"n1 	c #D0908D",
"o1 	c #D38A91",
"p1 	c #CE898F",
"q1 	c #D79391",
"r1 	c #D79496",
"s1 	c #CA848E",
"t1 	c #C5868B",
"u1 	c #C5838A",
"v1 	c #D08891",
"w1 	c #C67E87",
"x1 	c #C9808A",
"y1 	c #CC808B",
"z1 	c #4F4638",
"A1 	c #B89980",
"B1 	c #A9676F",
"C1 	c #AA646B",
"D1 	c #A8636A",
"E1 	c #C17876",
"F1 	c #BB7578",
"G1 	c #E1928B",
"H1 	c #C07E78",
"I1 	c #CB867F",
"J1 	c #B8706E",
"K1 	c #B6706F",
"L1 	c #AE636C",
"M1 	c #AC6869",
"N1 	c #A65F64",
"O1 	c #AD666B",
"P1 	c #A96E6B",
"Q1 	c #B7967B",
"R1 	c #AC6B68",
"S1 	c #AB5F65",
"T1 	c #B9666F",
"U1 	c #C56F78",
"V1 	c #CC7B7F",
"W1 	c #C16F75",
"X1 	c #D07A83",
"Y1 	c #CB7A82",
"Z1 	c #D18189",
"`1 	c #D27E88",
" 2 	c #D37F8A",
".2 	c #D3838C",
"+2 	c #D2828B",
"@2 	c #D78F8F",
"#2 	c #D28B87",
"$2 	c #F6A6A1",
"%2 	c #D6888B",
"&2 	c #F7A29C",
"*2 	c #FCBEB3",
"=2 	c #EB999C",
"-2 	c #DC8B94",
";2 	c #D88890",
">2 	c #DA8992",
",2 	c #ED9E9D",
"'2 	c #E08F90",
")2 	c #DF8D93",
"!2 	c #DC8C93",
"~2 	c #D2868C",
"{2 	c #E7999C",
"]2 	c #DE8E90",
"^2 	c #D98B90",
"/2 	c #E09694",
"(2 	c #CD838A",
"_2 	c #D2888E",
":2 	c #CE838B",
"<2 	c #CA8488",
"[2 	c #CC858A",
"}2 	c #CC8589",
"|2 	c #D38992",
"12 	c #CF838D",
"22 	c #C37C84",
"32 	c #C57C84",
"42 	c #C8807F",
"52 	c #945B5E",
"62 	c #BFAA88",
"72 	c #A86E71",
"82 	c #C17F7D",
"92 	c #E59595",
"02 	c #BB7677",
"a2 	c #CA8281",
"b2 	c #CC8280",
"c2 	c #CA8183",
"d2 	c #C07B7D",
"e2 	c #B36B72",
"f2 	c #AA626C",
"g2 	c #A9646C",
"h2 	c #B46C75",
"i2 	c #BF7D80",
"j2 	c #BD877D",
"k2 	c #A88D76",
"l2 	c #A8555E",
"m2 	c #AC5B62",
"n2 	c #B26068",
"o2 	c #C16670",
"p2 	c #C26872",
"q2 	c #C56C77",
"r2 	c #CA777E",
"s2 	c #CC757F",
"t2 	c #C87A7F",
"u2 	c #CD8086",
"v2 	c #E0938E",
"w2 	c #CE7B83",
"x2 	c #E1938D",
"y2 	c #E69F96",
"z2 	c #E3958F",
"A2 	c #DD928F",
"B2 	c #C88984",
"C2 	c #C78080",
"D2 	c #D3878F",
"E2 	c #DB8989",
"F2 	c #D78E91",
"G2 	c #D5888F",
"H2 	c #D3898B",
"I2 	c #E89D9A",
"J2 	c #E8979A",
"K2 	c #D99393",
"L2 	c #F3A1A1",
"M2 	c #E39294",
"N2 	c #D89086",
"O2 	c #D18687",
"P2 	c #D78C90",
"Q2 	c #DD9495",
"R2 	c #CB8889",
"S2 	c #D0898F",
"T2 	c #D98F94",
"U2 	c #D68B93",
"V2 	c #D48B91",
"W2 	c #D88C96",
"X2 	c #D28992",
"Y2 	c #CA8688",
"Z2 	c #C27C85",
"`2 	c #D48691",
" 3 	c #C17A80",
".3 	c #BD747E",
"+3 	c #4C4334",
"@3 	c #B3957C",
"#3 	c #A6656A",
"$3 	c #B27172",
"%3 	c #AF6871",
"&3 	c #B06B71",
"*3 	c #D58C81",
"=3 	c #BD7C78",
"-3 	c #C27770",
";3 	c #C3787F",
">3 	c #A96566",
",3 	c #A96369",
"'3 	c #A86769",
")3 	c #B0646F",
"!3 	c #A76465",
"~3 	c #A16266",
"{3 	c #AF9177",
"]3 	c #9A5157",
"^3 	c #A76162",
"/3 	c #AC5F63",
"(3 	c #AD6469",
"_3 	c #C06771",
":3 	c #C36E75",
"<3 	c #C06E76",
"[3 	c #C37077",
"}3 	c #CE757F",
"|3 	c #CF7781",
"13 	c #D88C87",
"23 	c #D48187",
"33 	c #D17C86",
"43 	c #E08C96",
"53 	c #E38F92",
"63 	c #D4848A",
"73 	c #D08388",
"83 	c #D28686",
"93 	c #DE928F",
"03 	c #DE9294",
"a3 	c #ED9F98",
"b3 	c #F5A19E",
"c3 	c #D5828D",
"d3 	c #DC8B93",
"e3 	c #F9A0A6",
"f3 	c #F19EA2",
"g3 	c #FAB5AF",
"h3 	c #F69F94",
"i3 	c #E29596",
"j3 	c #E59798",
"k3 	c #DA9292",
"l3 	c #D5898F",
"m3 	c #D8878F",
"n3 	c #D78C92",
"o3 	c #D88B93",
"p3 	c #D28B8F",
"q3 	c #CB8089",
"r3 	c #D58890",
"s3 	c #CF878E",
"t3 	c #CB8289",
"u3 	c #CD8585",
"v3 	c #CA7F89",
"w3 	c #D1838D",
"x3 	c #CC7E88",
"y3 	c #BC7479",
"z3 	c #BA7279",
"A3 	c #5D383B",
"B3 	c #C9B28E",
"C3 	c #AB6D71",
"D3 	c #B9787A",
"E3 	c #AD7073",
"F3 	c #C27B7E",
"G3 	c #D28887",
"H3 	c #E09692",
"I3 	c #B9737C",
"J3 	c #AC666F",
"K3 	c #B9727B",
"L3 	c #AD6974",
"M3 	c #A3626C",
"N3 	c #AF7E78",
"O3 	c #A38F73",
"P3 	c #A7595E",
"Q3 	c #A4565C",
"R3 	c #AC5D62",
"S3 	c #B6626B",
"T3 	c #BF656E",
"U3 	c #C7737C",
"V3 	c #C6727B",
"W3 	c #D18685",
"X3 	c #D07C82",
"Y3 	c #CB7B82",
"Z3 	c #D28689",
"`3 	c #C7807E",
" 4 	c #CD8684",
".4 	c #CC8A86",
"+4 	c #E69499",
"@4 	c #CF8D85",
"#4 	c #D38D8C",
"$4 	c #D08989",
"%4 	c #D08689",
"&4 	c #D38989",
"*4 	c #E69992",
"=4 	c #DD9395",
"-4 	c #EC9B9F",
";4 	c #CD8D8C",
">4 	c #EE9F93",
",4 	c #CB8584",
"'4 	c #DA8F8C",
")4 	c #D68A8E",
"!4 	c #D3888C",
"~4 	c #D0868B",
"{4 	c #DC8C96",
"]4 	c #D0868C",
"^4 	c #CE838D",
"/4 	c #C78688",
"(4 	c #B97D7D",
"_4 	c #CF838C",
":4 	c #C68387",
"<4 	c #CC7E8A",
"[4 	c #C17981",
"}4 	c #C97A84",
"|4 	c #C2757F",
"14 	c #544738",
"24 	c #BD9579",
"34 	c #A86870",
"44 	c #A4666A",
"54 	c #AC6A71",
"64 	c #BB7572",
"74 	c #CB817C",
"84 	c #BE7572",
"94 	c #AC696A",
"04 	c #B37172",
"a4 	c #AE6B70",
"b4 	c #AB676A",
"c4 	c #A46066",
"d4 	c #A7626C",
"e4 	c #A96A6C",
"f4 	c #B89477",
"g4 	c #93484E",
"h4 	c #A86162",
"i4 	c #B46869",
"j4 	c #AA5E63",
"k4 	c #BF646F",
"l4 	c #B6646C",
"m4 	c #C16A73",
"n4 	c #C57377",
"o4 	c #D57782",
"p4 	c #C8747B",
"q4 	c #D07681",
"r4 	c #D17D85",
"s4 	c #D17E85",
"t4 	c #D48088",
"u4 	c #D8858C",
"v4 	c #E19096",
"w4 	c #CD7E86",
"x4 	c #E18E93",
"y4 	c #D6898A",
"z4 	c #DB8E8F",
"A4 	c #E89692",
"B4 	c #FBA7A5",
"C4 	c #D7898D",
"D4 	c #E59399",
"E4 	c #E5929A",
"F4 	c #EB9299",
"G4 	c #E19290",
"H4 	c #E89897",
"I4 	c #E08F94",
"J4 	c #D7888B",
"K4 	c #DF9195",
"L4 	c #D68B90",
"M4 	c #D2838C",
"N4 	c #DA8B90",
"O4 	c #D88891",
"P4 	c #D48B8D",
"Q4 	c #CE8487",
"R4 	c #BF7B7B",
"S4 	c #D3898D",
"T4 	c #D5858F",
"U4 	c #C97E85",
"V4 	c #C1787C",
"W4 	c #C47C83",
"X4 	c #D1828D",
"Y4 	c #C87C85",
"Z4 	c #C0767B",
"`4 	c #BC727A",
" 5 	c #B97077",
".5 	c #3B2627",
"+5 	c #CFB290",
"@5 	c #B77678",
"#5 	c #B46F7A",
"$5 	c #A66970",
"%5 	c #CC8282",
"&5 	c #B4707B",
"*5 	c #A76670",
"=5 	c #A66770",
"-5 	c #A5636F",
";5 	c #A57670",
">5 	c #AF977C",
",5 	c #A75E61",
"'5 	c #B3656A",
")5 	c #AA575F",
"!5 	c #B6666D",
"~5 	c #AF6267",
"{5 	c #B8626B",
"]5 	c #D17C7E",
"^5 	c #C26F75",
"/5 	c #CA777B",
"(5 	c #CA787F",
"_5 	c #DD8C91",
":5 	c #C67577",
"<5 	c #C9787F",
"[5 	c #D47D8A",
"}5 	c #E0928A",
"|5 	c #EF9B9C",
"15 	c #D38A8B",
"25 	c #C7837D",
"35 	c #BF7C7B",
"45 	c #E79689",
"55 	c #DC8B82",
"65 	c #DA8E91",
"75 	c #F09C8A",
"85 	c #E49799",
"95 	c #E89999",
"05 	c #D98F8A",
"a5 	c #E89697",
"b5 	c #D98E8C",
"c5 	c #BD7E7F",
"d5 	c #D08585",
"e5 	c #CB8587",
"f5 	c #CC8183",
"g5 	c #CB8386",
"h5 	c #D78C94",
"i5 	c #C88487",
"j5 	c #D28A8F",
"k5 	c #C78488",
"l5 	c #CC858B",
"m5 	c #C18384",
"n5 	c #C87E88",
"o5 	c #C78286",
"p5 	c #C97E86",
"q5 	c #C67D85",
"r5 	c #C27980",
"s5 	c #C57680",
"t5 	c #4B4234",
"u5 	c #B59D7F",
"v5 	c #A7656F",
"w5 	c #CB8383",
"x5 	c #B27174",
"y5 	c #B37074",
"z5 	c #B37274",
"A5 	c #AF6A72",
"B5 	c #AA676F",
"C5 	c #BB767B",
"D5 	c #A6636D",
"E5 	c #A86670",
"F5 	c #B79B79",
"G5 	c #925555",
"H5 	c #A85159",
"I5 	c #A7565B",
"J5 	c #B75D66",
"K5 	c #B85E67",
"L5 	c #B2666C",
"M5 	c #CD737D",
"N5 	c #D87984",
"O5 	c #DD848E",
"P5 	c #D47C87",
"Q5 	c #D27A85",
"R5 	c #DE8E8E",
"S5 	c #D9868D",
"T5 	c #DE8A91",
"U5 	c #D78C87",
"V5 	c #DD8C8D",
"W5 	c #D78A88",
"X5 	c #F69A9E",
"Y5 	c #E8939E",
"Z5 	c #E39396",
"`5 	c #EB9796",
" 6 	c #E6979B",
".6 	c #DF8F8C",
"+6 	c #E58C97",
"@6 	c #E59192",
"#6 	c #E99C96",
"$6 	c #E99B99",
"%6 	c #D8848E",
"&6 	c #D98C90",
"*6 	c #DA878E",
"=6 	c #DF8B87",
"-6 	c #DB8F90",
";6 	c #D88F8D",
">6 	c #D1858A",
",6 	c #CF8888",
"'6 	c #D48C8E",
")6 	c #C78487",
"!6 	c #CE8583",
"~6 	c #C2787C",
"{6 	c #C9817A",
"]6 	c #C47F84",
"^6 	c #C37882",
"/6 	c #C2777E",
"(6 	c #BE6E77",
"_6 	c #B66B71",
":6 	c #332622",
"<6 	c #C9AF8E",
"[6 	c #B47279",
"}6 	c #BE7D7D",
"|6 	c #B17272",
"16 	c #B37075",
"26 	c #AE6C71",
"36 	c #A76672",
"46 	c #A0626B",
"56 	c #9E756D",
"66 	c #A09071",
"76 	c #B4686B",
"86 	c #AF6567",
"96 	c #AB5960",
"06 	c #AD535C",
"a6 	c #B25760",
"b6 	c #C05F69",
"c6 	c #B86169",
"d6 	c #B8636A",
"e6 	c #C16E73",
"f6 	c #C56C75",
"g6 	c #D38186",
"h6 	c #D38789",
"i6 	c #DA898D",
"j6 	c #DD8C87",
"k6 	c #D78785",
"l6 	c #D08587",
"m6 	c #E39993",
"n6 	c #DC8987",
"o6 	c #D38285",
"p6 	c #D5837C",
"q6 	c #DD8A8B",
"r6 	c #CC8687",
"s6 	c #CB8486",
"t6 	c #D28984",
"u6 	c #F4A095",
"v6 	c #EAA196",
"w6 	c #E59099",
"x6 	c #EB9C94",
"y6 	c #D0898A",
"z6 	c #CB817E",
"A6 	c #D78A89",
"B6 	c #CC7F88",
"C6 	c #BE7E7F",
"D6 	c #DA938D",
"E6 	c #DA8D93",
"F6 	c #D28E8D",
"G6 	c #C78385",
"H6 	c #CC8C8A",
"I6 	c #C98289",
"J6 	c #CB8285",
"K6 	c #D48A90",
"L6 	c #BC747D",
"M6 	c #C27B81",
"N6 	c #BE797F",
"O6 	c #CC7B86",
"P6 	c #C5767F",
"Q6 	c #B46C74",
"R6 	c #B0656E",
"S6 	c #635246",
"T6 	c #B3A07F",
"U6 	c #9F636A",
"V6 	c #B8757A",
"W6 	c #B77779",
"X6 	c #BE7675",
"Y6 	c #A9686E",
"Z6 	c #AC6E6D",
"`6 	c #A76A70",
" 7 	c #A6696E",
".7 	c #9D626A",
"+7 	c #BDAE86",
"@7 	c #773F43",
"#7 	c #AA535B",
"$7 	c #A75157",
"%7 	c #B0555C",
"&7 	c #BA5E67",
"*7 	c #C0636C",
"=7 	c #C1636D",
"-7 	c #C16972",
";7 	c #C36D73",
">7 	c #CE707B",
",7 	c #CB757C",
"'7 	c #CE7581",
")7 	c #CF7B83",
"!7 	c #E39796",
"~7 	c #CF7C85",
"{7 	c #F8AAA5",
"]7 	c #D48387",
"^7 	c #D58185",
"/7 	c #EB9D9B",
"(7 	c #D78D8B",
"_7 	c #E29297",
":7 	c #F2A2A1",
"<7 	c #DB8A8C",
"[7 	c #D7838C",
"}7 	c #E18D85",
"|7 	c #DF898D",
"17 	c #F59D99",
"27 	c #E59590",
"37 	c #F9A6A3",
"47 	c #CE8084",
"57 	c #DB8E90",
"67 	c #D9898F",
"77 	c #DF8F8F",
"87 	c #DC8989",
"97 	c #D18488",
"07 	c #CE888A",
"a7 	c #D18A8C",
"b7 	c #DC918C",
"c7 	c #CB8186",
"d7 	c #C67E85",
"e7 	c #CB8286",
"f7 	c #CE8481",
"g7 	c #BF7677",
"h7 	c #C57C80",
"i7 	c #C6787F",
"j7 	c #BD727B",
"k7 	c #B86B72",
"l7 	c #B97176",
"m7 	c #B86A71",
"n7 	c #BD6771",
"o7 	c #A95E63",
"p7 	c #3D362B",
"q7 	c #DAA792",
"r7 	c #B07474",
"s7 	c #A8686A",
"t7 	c #B17374",
"u7 	c #B17075",
"v7 	c #9B5E67",
"w7 	c #9E776D",
"x7 	c #9D8F71",
"y7 	c #9F545E",
"z7 	c #A6555D",
"A7 	c #AF6164",
"B7 	c #B36366",
"C7 	c #AE5B61",
"D7 	c #BC5862",
"E7 	c #B55A63",
"F7 	c #B75D65",
"G7 	c #C67175",
"H7 	c #E79294",
"I7 	c #E79093",
"J7 	c #DF8C8D",
"K7 	c #DC8C8A",
"L7 	c #BE736D",
"M7 	c #E28C8A",
"N7 	c #D48786",
"O7 	c #C7777C",
"P7 	c #EA9287",
"Q7 	c #D9888E",
"R7 	c #CF7D84",
"S7 	c #D08283",
"T7 	c #CB7F7B",
"U7 	c #D0847C",
"V7 	c #D78687",
"W7 	c #E49297",
"X7 	c #DD8D90",
"Y7 	c #D68B8B",
"Z7 	c #E79B95",
"`7 	c #C9847E",
" 8 	c #C87E80",
".8 	c #CD807D",
"+8 	c #DE9092",
"@8 	c #BB797F",
"#8 	c #CE8987",
"$8 	c #C47F85",
"%8 	c #C67F81",
"&8 	c #D28D8A",
"*8 	c #D18B8A",
"=8 	c #C48083",
"-8 	c #C37C7C",
";8 	c #DB9192",
">8 	c #BF777F",
",8 	c #BE767E",
"'8 	c #B97477",
")8 	c #B97071",
"!8 	c #C3707A",
"~8 	c #C26D77",
"{8 	c #A95C63",
"]8 	c #635445",
"^8 	c #AC9579",
"/8 	c #B37177",
"(8 	c #A86B6D",
"_8 	c #B9797A",
":8 	c #A6656F",
"<8 	c #A2656A",
"[8 	c #AD6F73",
"}8 	c #9E626B",
"|8 	c #BDAE88",
"18 	c #6A3A3E",
"28 	c #A8545C",
"38 	c #B75862",
"48 	c #AE535C",
"58 	c #AF535C",
"68 	c #B95A64",
"78 	c #B66067",
"88 	c #B76168",
"98 	c #C1666F",
"08 	c #D6707B",
"a8 	c #CC747A",
"b8 	c #CE767D",
"c8 	c #DA7984",
"d8 	c #E19190",
"e8 	c #DB868C",
"f8 	c #E08E90",
"g8 	c #E29195",
"h8 	c #EF9F9E",
"i8 	c #E38E8F",
"j8 	c #E3898E",
"k8 	c #DC8985",
"l8 	c #EA8F8C",
"m8 	c #D28F8C",
"n8 	c #EA9595",
"o8 	c #FAA7A2",
"p8 	c #E29487",
"q8 	c #D38281",
"r8 	c #F8A79D",
"s8 	c #E69599",
"t8 	c #E69495",
"u8 	c #DC8F92",
"v8 	c #D08086",
"w8 	c #D88788",
"x8 	c #D88A8F",
"y8 	c #DC8990",
"z8 	c #CB8287",
"A8 	c #D58C8D",
"B8 	c #CA8484",
"C8 	c #CE8685",
"D8 	c #CA8380",
"E8 	c #C67D82",
"F8 	c #CF8385",
"G8 	c #C47881",
"H8 	c #CE7782",
"I8 	c #BA7675",
"J8 	c #B86E70",
"K8 	c #AB5961",
"L8 	c #A3555C",
"M8 	c #6F5E4D",
"N8 	c #A88E74",
"O8 	c #A86867",
"P8 	c #975A61",
"Q8 	c #AF7276",
"R8 	c #9A756A",
"S8 	c #9E9271",
"T8 	c #9D5960",
"U8 	c #AD5963",
"V8 	c #AB5C65",
"W8 	c #B16569",
"X8 	c #B0555E",
"Y8 	c #B46365",
"Z8 	c #B96B66",
"`8 	c #AE5C60",
" 9 	c #BA6769",
".9 	c #C06C73",
"+9 	c #BD676D",
"@9 	c #BF6972",
"#9 	c #D78A8A",
"$9 	c #E19390",
"%9 	c #DF8C8C",
"&9 	c #DC8F90",
"*9 	c #D78378",
"=9 	c #D58489",
"-9 	c #E08B89",
";9 	c #D5888B",
">9 	c #D6858B",
",9 	c #DC898C",
"'9 	c #CB7A7E",
")9 	c #DA8B8F",
"!9 	c #D5898A",
"~9 	c #DB8D8C",
"{9 	c #E99698",
"]9 	c #D4868E",
"^9 	c #F9A7A8",
"/9 	c #D38881",
"(9 	c #D28380",
"_9 	c #BF8279",
":9 	c #CB8387",
"<9 	c #DC9294",
"[9 	c #C67D80",
"}9 	c #C38282",
"|9 	c #CF8489",
"19 	c #DE9195",
"29 	c #C98185",
"39 	c #5A5671",
"49 	c #806475",
"59 	c #C67B7B",
"69 	c #C27881",
"79 	c #CE8389",
"89 	c #C77C82",
"99 	c #BD767D",
"09 	c #BE727B",
"a9 	c #B46C73",
"b9 	c #B16C71",
"c9 	c #B66D72",
"d9 	c #B5656E",
"e9 	c #AF6168",
"f9 	c #AC5861",
"g9 	c #635A46",
"h9 	c #AA8F76",
"i9 	c #B27272",
"j9 	c #AB6A6F",
"k9 	c #B57178",
"l9 	c #A26569",
"m9 	c #B67577",
"n9 	c #BDAB86",
"o9 	c #5D3637",
"p9 	c #A6555F",
"q9 	c #A6555C",
"r9 	c #B1565F",
"s9 	c #B4555F",
"t9 	c #B4545D",
"u9 	c #B95862",
"v9 	c #BA636A",
"w9 	c #BE676E",
"x9 	c #BD646B",
"y9 	c #BD7072",
"z9 	c #D1707C",
"A9 	c #CA7179",
"B9 	c #D58386",
"C9 	c #D37E83",
"D9 	c #D58082",
"E9 	c #D17B83",
"F9 	c #E18E92",
"G9 	c #E29095",
"H9 	c #E59794",
"I9 	c #EC9899",
"J9 	c #DC878E",
"K9 	c #DB8785",
"L9 	c #D17E88",
"M9 	c #E28F91",
"N9 	c #E69892",
"O9 	c #D17F7B",
"P9 	c #F4A1A0",
"Q9 	c #E28B94",
"R9 	c #E98F8A",
"S9 	c #D8838A",
"T9 	c #D27E81",
"U9 	c #E49092",
"V9 	c #D7828A",
"W9 	c #D5848D",
"X9 	c #D08187",
"Y9 	c #DB888D",
"Z9 	c #CF7F86",
"`9 	c #D2888C",
" 0 	c #CB8586",
".0 	c #D18181",
"+0 	c #CB8484",
"@0 	c #DD908A",
"#0 	c #C57F80",
"$0 	c #CE8686",
"%0 	c #BF7178",
"&0 	c #C1777A",
"*0 	c #B3696E",
"=0 	c #B1696C",
"-0 	c #AD5F61",
";0 	c #A8585F",
">0 	c #9C5158",
",0 	c #7E7265",
"'0 	c #786781",
")0 	c #856D84",
"!0 	c #9E7C83",
"~0 	c #A08972",
"{0 	c #A15B64",
"]0 	c #9F5660",
"^0 	c #A95761",
"/0 	c #AB5E65",
"(0 	c #AA565F",
"_0 	c #A8585E",
":0 	c #B85661",
"<0 	c #AF585D",
"[0 	c #BD6A6F",
"}0 	c #BB666C",
"|0 	c #C77276",
"10 	c #C27476",
"20 	c #C4807C",
"30 	c #E79395",
"40 	c #E89293",
"50 	c #D98588",
"60 	c #D47F76",
"70 	c #D98788",
"80 	c #CF797F",
"90 	c #CE7F82",
"00 	c #E79993",
"a0 	c #D18385",
"b0 	c #D9908A",
"c0 	c #CC7C7A",
"d0 	c #D18275",
"e0 	c #D88289",
"f0 	c #D58187",
"g0 	c #D88380",
"h0 	c #D7888A",
"i0 	c #D48F8D",
"j0 	c #D18A84",
"k0 	c #C18480",
"l0 	c #BE7980",
"m0 	c #C78084",
"n0 	c #C67D83",
"o0 	c #C97C84",
"p0 	c #C77B7E",
"q0 	c #C78282",
"r0 	c #C1797D",
"s0 	c #B97478",
"t0 	c #7E6072",
"u0 	c #BA7878",
"v0 	c #C58281",
"w0 	c #C57982",
"x0 	c #C0777E",
"y0 	c #BD747D",
"z0 	c #B77076",
"A0 	c #BD7479",
"B0 	c #B77174",
"C0 	c #B86971",
"D0 	c #B06069",
"E0 	c #AF6069",
"F0 	c #A4555C",
"G0 	c #A24F58",
"H0 	c #8E7563",
"I0 	c #A38A71",
"J0 	c #896575",
"K0 	c #B58085",
"L0 	c #9A5E60",
"M0 	c #BBA583",
"N0 	c #523435",
"O0 	c #A0565E",
"P0 	c #A5555E",
"Q0 	c #A4535B",
"R0 	c #AB575E",
"S0 	c #AC545C",
"T0 	c #C05964",
"U0 	c #BB5D68",
"V0 	c #B85C64",
"W0 	c #BD6B6E",
"X0 	c #B76A6E",
"Y0 	c #BC686D",
"Z0 	c #C16B70",
"`0 	c #D16E79",
" a 	c #C96E78",
".a 	c #DF888B",
"+a 	c #D07E84",
"@a 	c #E39092",
"#a 	c #E29594",
"$a 	c #DF8990",
"%a 	c #E58E91",
"&a 	c #DA8489",
"*a 	c #D98889",
"=a 	c #D48C8C",
"-a 	c #DF8E93",
";a 	c #F69CA6",
">a 	c #D47D87",
",a 	c #EB9C9A",
"'a 	c #F19D9C",
")a 	c #DD868E",
"!a 	c #D6848A",
"~a 	c #D78C8D",
"{a 	c #CC8084",
"]a 	c #D2868A",
"^a 	c #CD7F87",
"/a 	c #CF8285",
"(a 	c #DC8A90",
"_a 	c #D68D8B",
":a 	c #E18D96",
"<a 	c #D58383",
"[a 	c #CB7A81",
"}a 	c #CC8483",
"|a 	c #CE8584",
"1a 	c #C47C7F",
"2a 	c #C17773",
"3a 	c #BE747A",
"4a 	c #BB7776",
"5a 	c #BB6A73",
"6a 	c #B3666D",
"7a 	c #B2646D",
"8a 	c #A75D61",
"9a 	c #A65358",
"0a 	c #A54F57",
"aa 	c #A1575F",
"ba 	c #826979",
"ca 	c #6C6382",
"da 	c #766A88",
"ea 	c #877185",
"fa 	c #A27883",
"ga 	c #9D5863",
"ha 	c #A45963",
"ia 	c #A85761",
"ja 	c #A95A62",
"ka 	c #AD5F62",
"la 	c #A7595F",
"ma 	c #AA5659",
"na 	c #B6626E",
"oa 	c #B16361",
"pa 	c #8B5C6C",
"qa 	c #BD777C",
"ra 	c #C28483",
"sa 	c #9D6A76",
"ta 	c #DB858A",
"ua 	c #665971",
"va 	c #886276",
"wa 	c #D07D85",
"xa 	c #E1908E",
"ya 	c #D78485",
"za 	c #B47779",
"Aa 	c #786174",
"Ba 	c #625872",
"Ca 	c #7C6275",
"Da 	c #B67683",
"Ea 	c #D18B8B",
"Fa 	c #E28B86",
"Ga 	c #CE8888",
"Ha 	c #BF7780",
"Ia 	c #615872",
"Ja 	c #C98183",
"Ka 	c #CB8788",
"La 	c #CE8687",
"Ma 	c #735F75",
"Na 	c #936871",
"Oa 	c #B67676",
"Pa 	c #B67176",
"Qa 	c #B67076",
"Ra 	c #AD6B6F",
"Sa 	c #BB737A",
"Ta 	c #C17677",
"Ua 	c #AE6369",
"Va 	c #B06067",
"Wa 	c #A75C63",
"Xa 	c #A45259",
"Ya 	c #A15056",
"Za 	c #A3525A",
"`a 	c #635C74",
" b 	c #746681",
".b 	c #816D83",
"+b 	c #B78D8C",
"@b 	c #533937",
"#b 	c #9C5B61",
"$b 	c #9F565D",
"%b 	c #A95760",
"&b 	c #B55A65",
"*b 	c #B25761",
"=b 	c #AF555E",
"-b 	c #B3555E",
";b 	c #AE5C64",
">b 	c #B95D64",
",b 	c #B45D63",
"'b 	c #B26466",
")b 	c #B7666E",
"!b 	c #C96D77",
"~b 	c #C87679",
"{b 	c #D27B80",
"]b 	c #C6747B",
"^b 	c #D27C83",
"/b 	c #CD8284",
"(b 	c #DF898E",
"_b 	c #D58889",
":b 	c #EE9B98",
"<b 	c #D48184",
"[b 	c #DD8A90",
"}b 	c #DC8C8B",
"|b 	c #E49697",
"1b 	c #DD8A92",
"2b 	c #D8818A",
"3b 	c #E28D92",
"4b 	c #EA9290",
"5b 	c #D07983",
"6b 	c #D37F86",
"7b 	c #DB8C90",
"8b 	c #C97981",
"9b 	c #CC7F85",
"0b 	c #C47F81",
"ab 	c #D48A88",
"bb 	c #E19193",
"cb 	c #E3928F",
"db 	c #D48989",
"eb 	c #C3797E",
"fb 	c #D3868D",
"gb 	c #C57A7E",
"hb 	c #C77C81",
"ib 	c #BC7579",
"jb 	c #C4737C",
"kb 	c #BC7276",
"lb 	c #C4807D",
"mb 	c #B26C6C",
"nb 	c #B76A6F",
"ob 	c #B36E6D",
"pb 	c #A8565D",
"qb 	c #A45058",
"rb 	c #985358",
"sb 	c #4F4962",
"tb 	c #615B7B",
"ub 	c #736680",
"vb 	c #796B8A",
"wb 	c #987885",
"xb 	c #9D5C64",
"yb 	c #AB5D68",
"zb 	c #AA5A63",
"Ab 	c #AE5863",
"Bb 	c #B15762",
"Cb 	c #9F545A",
"Db 	c #AE545C",
"Eb 	c #D08180",
"Fb 	c #AE575D",
"Gb 	c #BE6E6A",
"Hb 	c #A16569",
"Ib 	c #B87C81",
"Jb 	c #A6717B",
"Kb 	c #6A5C74",
"Lb 	c #806276",
"Mb 	c #BC7A80",
"Nb 	c #B57785",
"Ob 	c #DC8E8C",
"Pb 	c #E29081",
"Qb 	c #D7878B",
"Rb 	c #C17F85",
"Sb 	c #9E6977",
"Tb 	c #D9868F",
"Ub 	c #876472",
"Vb 	c #645972",
"Wb 	c #DC918E",
"Xb 	c #D58B8D",
"Yb 	c #A2707A",
"Zb 	c #9C6C7B",
"`b 	c #C47B7E",
" c 	c #C47882",
".c 	c #BE7875",
"+c 	c #C47E7D",
"@c 	c #CB8182",
"#c 	c #E19191",
"$c 	c #7D5F74",
"%c 	c #BB737B",
"&c 	c #B67169",
"*c 	c #BC7678",
"=c 	c #B76B74",
"-c 	c #B37072",
";c 	c #AE6E6F",
">c 	c #AF686D",
",c 	c #AD666A",
"'c 	c #DA868C",
")c 	c #A35859",
"!c 	c #9D4F56",
"~c 	c #964E55",
"{c 	c #56506F",
"]c 	c #666289",
"^c 	c #786D8F",
"/c 	c #8B7285",
"(c 	c #9C7580",
"_c 	c #9D5B62",
":c 	c #A25A62",
"<c 	c #AA5862",
"[c 	c #AE5762",
"}c 	c #AF5660",
"|c 	c #9E5553",
"1c 	c #AE565F",
"2c 	c #B26365",
"3c 	c #AB6362",
"4c 	c #B36469",
"5c 	c #D38685",
"6c 	c #C67578",
"7c 	c #E48C8F",
"8c 	c #CF7980",
"9c 	c #CE7D83",
"0c 	c #D8898A",
"ac 	c #D8878B",
"bc 	c #E59495",
"cc 	c #F7A29F",
"dc 	c #E49593",
"ec 	c #ED9999",
"fc 	c #EC9B99",
"gc 	c #E7A098",
"hc 	c #DB918F",
"ic 	c #E18F8D",
"jc 	c #D27B85",
"kc 	c #D58286",
"lc 	c #D5878C",
"mc 	c #D27C85",
"nc 	c #CF7E85",
"oc 	c #CB7B84",
"pc 	c #CD8283",
"qc 	c #D4898A",
"rc 	c #D68D89",
"sc 	c #D88F8F",
"tc 	c #C3767A",
"uc 	c #CA8083",
"vc 	c #B66E72",
"wc 	c #C57E7C",
"xc 	c #B97373",
"yc 	c #C07475",
"zc 	c #BA6E6F",
"Ac 	c #A15159",
"Bc 	c #995258",
"Cc 	c #3D3A4B",
"Dc 	c #535070",
"Ec 	c #5F5D82",
"Fc 	c #6F698C",
"Gc 	c #916F80",
"Hc 	c #A5606A",
"Ic 	c #A55B66",
"Jc 	c #AF5D68",
"Kc 	c #A4555F",
"Lc 	c #AD5760",
"Mc 	c #A2625C",
"Nc 	c #AC6969",
"Oc 	c #A95E60",
"Pc 	c #AB6162",
"Qc 	c #B1646C",
"Rc 	c #BE7472",
"Sc 	c #B36867",
"Tc 	c #695B72",
"Uc 	c #8B6375",
"Vc 	c #805F74",
"Wc 	c #91626E",
"Xc 	c #5E5771",
"Yc 	c #9B6977",
"Zc 	c #BA717A",
"`c 	c #C37C7F",
" d 	c #C37376",
".d 	c #C87B80",
"+d 	c #AE767F",
"@d 	c #C6867D",
"#d 	c #CA8685",
"$d 	c #D38389",
"%d 	c #DF8F94",
"&d 	c #BB7E82",
"*d 	c #675972",
"=d 	c #635872",
"-d 	c #D1818E",
";d 	c #C47D83",
">d 	c #C67A7F",
",d 	c #D48388",
"'d 	c #806174",
")d 	c #BE777B",
"!d 	c #BC7277",
"~d 	c #B86F77",
"{d 	c #B67173",
"]d 	c #B96F73",
"^d 	c #C27771",
"/d 	c #AD666C",
"(d 	c #AB6668",
"_d 	c #AB6768",
":d 	c #AC555E",
"<d 	c #B16162",
"[d 	c #9C5057",
"}d 	c #9B5258",
"|d 	c #685563",
"1d 	c #6C617A",
"2d 	c #706684",
"3d 	c #766987",
"4d 	c #8A6D80",
"5d 	c #9C5B63",
"6d 	c #A15862",
"7d 	c #A65E65",
"8d 	c #9E555C",
"9d 	c #9D585B",
"0d 	c #A76463",
"ad 	c #9A5A5C",
"bd 	c #A26462",
"cd 	c #A05C59",
"dd 	c #A05654",
"ed 	c #B46367",
"fd 	c #B46A69",
"gd 	c #A55F6A",
"hd 	c #A96466",
"id 	c #B77173",
"jd 	c #C17276",
"kd 	c #B6696D",
"ld 	c #CC8581",
"md 	c #D08383",
"nd 	c #DB8289",
"od 	c #DC8A8D",
"pd 	c #E09492",
"qd 	c #E38D93",
"rd 	c #F4A09F",
"sd 	c #DC8B8D",
"td 	c #F09B9B",
"ud 	c #D98688",
"vd 	c #DE8F90",
"wd 	c #E5948A",
"xd 	c #EC979B",
"yd 	c #D78A8E",
"zd 	c #EC9895",
"Ad 	c #D07F84",
"Bd 	c #D6888C",
"Cd 	c #CC8086",
"Dd 	c #CD7B83",
"Ed 	c #CF7C88",
"Fd 	c #D68B8D",
"Gd 	c #C3797A",
"Hd 	c #CE8684",
"Id 	c #DC8F91",
"Jd 	c #DB8D8B",
"Kd 	c #DD858F",
"Ld 	c #D28988",
"Md 	c #C3777B",
"Nd 	c #BF6E74",
"Od 	c #C9707A",
"Pd 	c #BB6F73",
"Qd 	c #C07870",
"Rd 	c #B86B70",
"Sd 	c #B56C6F",
"Td 	c #CB7D75",
"Ud 	c #AF6969",
"Vd 	c #9C4D55",
"Wd 	c #9E565C",
"Xd 	c #A69675",
"Yd 	c #564E3E",
"Zd 	c #3F3748",
"`d 	c #584F65",
" e 	c #4E485E",
".e 	c #C2B18A",
"+e 	c #9A5C65",
"@e 	c #A35C66",
"#e 	c #A45A64",
"$e 	c #AA5A64",
"%e 	c #B75D68",
"&e 	c #AB5B61",
"*e 	c #B25D62",
"=e 	c #B06268",
"-e 	c #AC5A5E",
";e 	c #B05860",
">e 	c #C2686D",
",e 	c #BB7070",
"'e 	c #8F6271",
")e 	c #625871",
"!e 	c #E18A8A",
"~e 	c #755C73",
"{e 	c #6E5B72",
"]e 	c #BD7474",
"^e 	c #C97D80",
"/e 	c #CB767C",
"(e 	c #D07F7D",
"_e 	c #D29192",
":e 	c #AE7B7F",
"<e 	c #EB9A9A",
"[e 	c #D5928A",
"}e 	c #CA8384",
"|e 	c #D08483",
"1e 	c #E08E92",
"2e 	c #D08686",
"3e 	c #CD8784",
"4e 	c #CC7982",
"5e 	c #B6757C",
"6e 	c #946676",
"7e 	c #A66F7A",
"8e 	c #D17B85",
"9e 	c #BF767B",
"0e 	c #C87F7F",
"ae 	c #C27478",
"be 	c #5F5771",
"ce 	c #796175",
"de 	c #CB8485",
"ee 	c #B47271",
"fe 	c #BA7773",
"ge 	c #B76A70",
"he 	c #CB7C7C",
"ie 	c #B4676E",
"je 	c #B26E69",
"ke 	c #BD7876",
"le 	c #B36E70",
"me 	c #AA565D",
"ne 	c #A6595D",
"oe 	c #A66363",
"pe 	c #945356",
"qe 	c #8E4E54",
"re 	c #36343B",
"se 	c #484561",
"te 	c #5A5676",
"ue 	c #666283",
"ve 	c #8B6C69",
"we 	c #9C5E64",
"xe 	c #A65862",
"ye 	c #AD5A63",
"ze 	c #AB555F",
"Ae 	c #AE575F",
"Be 	c #AB5B5D",
"Ce 	c #A9555B",
"De 	c #B06465",
"Ee 	c #B76467",
"Fe 	c #B7656C",
"Ge 	c #C07073",
"He 	c #B87070",
"Ie 	c #D68384",
"Je 	c #DC8E8E",
"Ke 	c #EB9195",
"Le 	c #DB8C8B",
"Me 	c #DA8F8B",
"Ne 	c #E89197",
"Oe 	c #F2979B",
"Pe 	c #DF8B8D",
"Qe 	c #D68A8A",
"Re 	c #EC9D9A",
"Se 	c #EB9F9B",
"Te 	c #DA888B",
"Ue 	c #E08A8F",
"Ve 	c #E79088",
"We 	c #D6818C",
"Xe 	c #D27B84",
"Ye 	c #D48087",
"Ze 	c #CD777F",
"`e 	c #D58486",
" f 	c #C6777E",
".f 	c #CB7B80",
"+f 	c #D08A88",
"@f 	c #F09C9D",
"#f 	c #CB7D7F",
"$f 	c #C57579",
"%f 	c #CC7E84",
"&f 	c #C57275",
"*f 	c #BA666E",
"=f 	c #C3746F",
"-f 	c #B46B6F",
";f 	c #AE5F62",
">f 	c #A2545C",
",f 	c #D07974",
"'f 	c #A8575D",
")f 	c #9F5A60",
"!f 	c #9D866E",
"~f 	c #82735C",
"{f 	c #AD7077",
"]f 	c #B6767F",
"^f 	c #B77780",
"/f 	c #B27578",
"(f 	c #645846",
"_f 	c #BAA183",
":f 	c #A9626C",
"<f 	c #A75D66",
"[f 	c #A85B64",
"}f 	c #AA5F66",
"|f 	c #A86063",
"1f 	c #AD565F",
"2f 	c #AF5F64",
"3f 	c #B36B6F",
"4f 	c #BF7173",
"5f 	c #C56C71",
"6f 	c #A2616B",
"7f 	c #765D73",
"8f 	c #DB8E8A",
"9f 	c #966371",
"0f 	c #8D6170",
"af 	c #D68174",
"bf 	c #BD7677",
"cf 	c #CF817F",
"df 	c #E28F85",
"ef 	c #BD7F85",
"ff 	c #7A6377",
"gf 	c #D58C88",
"hf 	c #D38C8B",
"if 	c #C97E81",
"jf 	c #AA6E7B",
"kf 	c #635871",
"lf 	c #886176",
"mf 	c #C27A7C",
"nf 	c #CA7C82",
"of 	c #D47983",
"pf 	c #C87E7E",
"qf 	c #BA6C73",
"rf 	c #9F6F79",
"sf 	c #9A6872",
"tf 	c #CF8181",
"uf 	c #B36D6D",
"vf 	c #AC6060",
"wf 	c #B36B6C",
"xf 	c #A3595E",
"yf 	c #9C5059",
"zf 	c #964F56",
"Af 	c #B8A984",
"Bf 	c #393128",
"Cf 	c #37262A",
"Df 	c #3D303A",
"Ef 	c #7D5966",
"Ff 	c #AB9979",
"Gf 	c #9C6868",
"Hf 	c #A05C64",
"If 	c #A55B64",
"Jf 	c #B35F69",
"Kf 	c #A95861",
"Lf 	c #B45A64",
"Mf 	c #AC5E60",
"Nf 	c #B65862",
"Of 	c #B6565F",
"Pf 	c #B66D74",
"Qf 	c #B76569",
"Rf 	c #C9787A",
"Sf 	c #C77B7A",
"Tf 	c #B56A66",
"Uf 	c #D98686",
"Vf 	c #DC878D",
"Wf 	c #D2807F",
"Xf 	c #E89388",
"Yf 	c #F2A09B",
"Zf 	c #CF7883",
"`f 	c #EE959A",
" g 	c #DC898D",
".g 	c #D68587",
"+g 	c #F699A2",
"@g 	c #E89A94",
"#g 	c #EC9C8F",
"$g 	c #ED999A",
"%g 	c #CD797D",
"&g 	c #EF9596",
"*g 	c #CC7381",
"=g 	c #D17D84",
"-g 	c #D37A85",
";g 	c #CA797F",
">g 	c #CF757F",
",g 	c #D27E86",
"'g 	c #C8727C",
")g 	c #CB7880",
"!g 	c #C87C7E",
"~g 	c #C68681",
"{g 	c #D88E87",
"]g 	c #C37878",
"^g 	c #BC6971",
"/g 	c #C07175",
"(g 	c #BE666F",
"_g 	c #BA686F",
":g 	c #B35D65",
"<g 	c #B46567",
"[g 	c #B76A69",
"}g 	c #BB6C69",
"|g 	c #A35A5F",
"1g 	c #A38B70",
"2g 	c #7D7359",
"3g 	c #AE6F79",
"4g 	c #BE7D86",
"5g 	c #C08089",
"6g 	c #BC7F86",
"7g 	c #C0828B",
"8g 	c #BA7C85",
"9g 	c #8E8365",
"0g 	c #AD8276",
"ag 	c #A35D67",
"bg 	c #A85D66",
"cg 	c #AD6168",
"dg 	c #AB5D63",
"eg 	c #B56B6C",
"fg 	c #BF6E6F",
"gg 	c #CD7C7E",
"hg 	c #AC6162",
"ig 	c #AD5D61",
"jg 	c #BE6468",
"kg 	c #B66569",
"lg 	c #EA9790",
"mg 	c #C77575",
"ng 	c #BF6C72",
"og 	c #C8817A",
"pg 	c #B96E6F",
"qg 	c #D3887E",
"rg 	c #C17B75",
"sg 	c #DE8F88",
"tg 	c #E39182",
"ug 	c #F29993",
"vg 	c #F9B0A4",
"wg 	c #D6817F",
"xg 	c #D18081",
"yg 	c #DB8B8A",
"zg 	c #D48488",
"Ag 	c #D28085",
"Bg 	c #C9787E",
"Cg 	c #D67984",
"Dg 	c #D27D86",
"Eg 	c #C9797E",
"Fg 	c #CA757C",
"Gg 	c #C7797A",
"Hg 	c #C17076",
"Ig 	c #D38482",
"Jg 	c #C87E78",
"Kg 	c #C27A7B",
"Lg 	c #BF6F72",
"Mg 	c #BA6971",
"Ng 	c #B96B6A",
"Og 	c #C07276",
"Pg 	c #B76D6D",
"Qg 	c #B66B69",
"Rg 	c #AE6C6C",
"Sg 	c #9C565A",
"Tg 	c #975457",
"Ug 	c #B4A480",
"Vg 	c #423B2F",
"Wg 	c #B07379",
"Xg 	c #B77981",
"Yg 	c #BA7C84",
"Zg 	c #BF7F88",
"`g 	c #A16C70",
" h 	c #B6A680",
".h 	c #A2666A",
"+h 	c #A25C67",
"@h 	c #B3616B",
"#h 	c #A95B63",
"$h 	c #AD5B63",
"%h 	c #B55862",
"&h 	c #AF565E",
"*h 	c #B86366",
"=h 	c #C17370",
"-h 	c #C47478",
";h 	c #BF7571",
">h 	c #C5786E",
",h 	c #D58783",
"'h 	c #DC8B86",
")h 	c #DB8F8C",
"!h 	c #E09082",
"~h 	c #CF8082",
"{h 	c #D48489",
"]h 	c #EC9C95",
"^h 	c #ED9296",
"/h 	c #E79398",
"(h 	c #F4999B",
"_h 	c #E18F8F",
":h 	c #EB9795",
"<h 	c #DE938A",
"[h 	c #E18E8D",
"}h 	c #D77E86",
"|h 	c #D77D7C",
"1h 	c #D17780",
"2h 	c #D58687",
"3h 	c #C57279",
"4h 	c #D6888D",
"5h 	c #C67C7B",
"6h 	c #C07571",
"7h 	c #BD6C70",
"8h 	c #B66268",
"9h 	c #C57268",
"0h 	c #BB6971",
"ah 	c #B16F6C",
"bh 	c #BB7570",
"ch 	c #AF6D67",
"dh 	c #AA686A",
"eh 	c #A0886F",
"fh 	c #796D57",
"gh 	c #B97880",
"hh 	c #B97A82",
"ih 	c #C4858D",
"jh 	c #CB8C8D",
"kh 	c #C68A92",
"lh 	c #C3878F",
"mh 	c #B4A880",
"nh 	c #A56D6D",
"oh 	c #A75F68",
"ph 	c #AB5E68",
"qh 	c #AC6469",
"rh 	c #A65D63",
"sh 	c #B2686C",
"th 	c #BB7573",
"uh 	c #B76768",
"vh 	c #C97D75",
"wh 	c #C56D71",
"xh 	c #B9656A",
"yh 	c #CC847E",
"zh 	c #BF7376",
"Ah 	c #B77572",
"Bh 	c #CF8382",
"Ch 	c #C7766C",
"Dh 	c #E4918D",
"Eh 	c #F0A198",
"Fh 	c #F297A0",
"Gh 	c #E79292",
"Hh 	c #CF787F",
"Ih 	c #D98985",
"Jh 	c #D48382",
"Kh 	c #D98589",
"Lh 	c #D58184",
"Mh 	c #D37E82",
"Nh 	c #CF7880",
"Oh 	c #D58888",
"Ph 	c #D88188",
"Qh 	c #CF8183",
"Rh 	c #C37178",
"Sh 	c #C8747C",
"Th 	c #D17D80",
"Uh 	c #CB7D80",
"Vh 	c #C6767A",
"Wh 	c #CD7C81",
"Xh 	c #B8696E",
"Yh 	c #C6807C",
"Zh 	c #C67877",
"`h 	c #BF7274",
" i 	c #AD5F66",
".i 	c #C57C7B",
"+i 	c #B76F73",
"@i 	c #B76C70",
"#i 	c #A1595B",
"$i 	c #AA6669",
"%i 	c #9E5B58",
"&i 	c #965355",
"*i 	c #A78E73",
"=i 	c #514637",
"-i 	c #C8838C",
";i 	c #B5797F",
">i 	c #C88690",
",i 	c #D28F99",
"'i 	c #CB8B95",
")i 	c #C0848B",
"!i 	c #9D6C72",
"~i 	c #C0B289",
"{i 	c #AB5F68",
"]i 	c #AF5E68",
"^i 	c #AF5C66",
"/i 	c #AD5962",
"(i 	c #B45963",
"_i 	c #AC5C61",
":i 	c #B8666C",
"<i 	c #B56567",
"[i 	c #BB6F6E",
"}i 	c #AC6767",
"|i 	c #B36666",
"1i 	c #C27674",
"2i 	c #BB7172",
"3i 	c #CD7C7A",
"4i 	c #C76E72",
"5i 	c #CE7E7A",
"6i 	c #C97A76",
"7i 	c #ED9B99",
"8i 	c #F09A9F",
"9i 	c #D17C82",
"0i 	c #E68D93",
"ai 	c #F7A0A3",
"bi 	c #EC9690",
"ci 	c #CF787D",
"di 	c #D27B81",
"ei 	c #E18D8D",
"fi 	c #CA787C",
"gi 	c #E88F97",
"hi 	c #CC787E",
"ii 	c #CA737B",
"ji 	c #CA747C",
"ki 	c #CC757D",
"li 	c #CA727B",
"mi 	c #C87379",
"ni 	c #D07B82",
"oi 	c #CD747B",
"pi 	c #CF8384",
"qi 	c #D28683",
"ri 	c #BF7478",
"si 	c #C27878",
"ti 	c #BA686E",
"ui 	c #C2706E",
"vi 	c #C16F6D",
"wi 	c #B55F63",
"xi 	c #BC6867",
"yi 	c #A85258",
"zi 	c #C57F79",
"Ai 	c #9E545A",
"Bi 	c #AC8773",
"Ci 	c #A68271",
"Di 	c #AB7176",
"Ei 	c #B57980",
"Fi 	c #CA8891",
"Gi 	c #C1858C",
"Hi 	c #BF838A",
"Ii 	c #CB8E96",
"Ji 	c #D696A0",
"Ki 	c #CF929B",
"Li 	c #DB99A4",
"Mi 	c #8C6269",
"Ni 	c #CCBD91",
"Oi 	c #AE656F",
"Pi 	c #A75E66",
"Qi 	c #AB5964",
"Ri 	c #B16B6F",
"Si 	c #AF5E60",
"Ti 	c #BC6A70",
"Ui 	c #B05760",
"Vi 	c #BA5A62",
"Wi 	c #C77B75",
"Xi 	c #BB646B",
"Yi 	c #C2706F",
"Zi 	c #D1857F",
"`i 	c #D98284",
" j 	c #D37D76",
".j 	c #D9877F",
"+j 	c #DC8F88",
"@j 	c #E18D8C",
"#j 	c #D48783",
"$j 	c #E28D8F",
"%j 	c #CE787C",
"&j 	c #CF737B",
"*j 	c #D98282",
"=j 	c #D27D81",
"-j 	c #CE717C",
";j 	c #D67480",
">j 	c #D4747F",
",j 	c #CC777D",
"'j 	c #D17981",
")j 	c #CD7A7F",
"!j 	c #C07473",
"~j 	c #CA7177",
"{j 	c #C87677",
"]j 	c #D28480",
"^j 	c #C7797B",
"/j 	c #C76D75",
"(j 	c #C97775",
"_j 	c #BB686E",
":j 	c #BF7776",
"<j 	c #B9696A",
"[j 	c #B46267",
"}j 	c #B9696B",
"|j 	c #A95F61",
"1j 	c #B36B68",
"2j 	c #A25A5D",
"3j 	c #A56665",
"4j 	c #9C866C",
"5j 	c #655044",
"6j 	c #AD7378",
"7j 	c #B87B7F",
"8j 	c #CD8B95",
"9j 	c #D1909A",
"0j 	c #DC99A3",
"aj 	c #DC9AA4",
"bj 	c #C98C94",
"cj 	c #845D61",
"dj 	c #D3C396",
"ej 	c #AE636E",
"fj 	c #B3626D",
"gj 	c #AB5C66",
"hj 	c #AD5C62",
"ij 	c #B55963",
"jj 	c #BA616C",
"kj 	c #BC7071",
"lj 	c #B25A60",
"mj 	c #B25C5F",
"nj 	c #B45D61",
"oj 	c #B66E6C",
"pj 	c #C17E74",
"qj 	c #D17C7F",
"rj 	c #CD7377",
"sj 	c #C56E72",
"tj 	c #D48584",
"uj 	c #CF767F",
"vj 	c #BB696F",
"wj 	c #DC8487",
"xj 	c #ED9D97",
"yj 	c #ED8F93",
"zj 	c #DE868A",
"Aj 	c #E68D92",
"Bj 	c #E1898C",
"Cj 	c #D37C83",
"Dj 	c #DB8588",
"Ej 	c #CD7378",
"Fj 	c #C6717B",
"Gj 	c #CE777C",
"Hj 	c #C86E75",
"Ij 	c #C96E77",
"Jj 	c #C66E76",
"Kj 	c #CC717A",
"Lj 	c #D58086",
"Mj 	c #C67A7B",
"Nj 	c #D5948A",
"Oj 	c #C37174",
"Pj 	c #C17171",
"Qj 	c #C27173",
"Rj 	c #C2736F",
"Sj 	c #B56164",
"Tj 	c #BF6A6E",
"Uj 	c #AC565B",
"Vj 	c #CE817A",
"Wj 	c #BC6B74",
"Xj 	c #A07E6C",
"Yj 	c #937862",
"Zj 	c #B4797B",
"`j 	c #BF7E88",
" k 	c #C7868E",
".k 	c #C1838C",
"+k 	c #D6939C",
"@k 	c #CE8F97",
"#k 	c #D3929A",
"$k 	c #DB9BA4",
"%k 	c #553D40",
"&k 	c #D8C99B",
"*k 	c #A8606A",
"=k 	c #AA5E67",
"-k 	c #AC5C66",
";k 	c #B4666C",
">k 	c #AE6069",
",k 	c #B9646B",
"'k 	c #AE6965",
")k 	c #C98681",
"!k 	c #C77778",
"~k 	c #B66062",
"{k 	c #DD847E",
"]k 	c #C77070",
"^k 	c #CF7D78",
"/k 	c #D17C7D",
"(k 	c #DE8883",
"_k 	c #D68476",
":k 	c #E2908B",
"<k 	c #EAA097",
"[k 	c #D67E80",
"}k 	c #D17A7A",
"|k 	c #CC6A73",
"1k 	c #DC8587",
"2k 	c #CC7078",
"3k 	c #CB6D76",
"4k 	c #C67076",
"5k 	c #CA7779",
"6k 	c #C77278",
"7k 	c #CA6E78",
"8k 	c #C77578",
"9k 	c #CB7979",
"0k 	c #C96F77",
"ak 	c #C87276",
"bk 	c #D17F82",
"ck 	c #C26E74",
"dk 	c #D38683",
"ek 	c #BB7363",
"fk 	c #AD7166",
"gk 	c #BB6F6D",
"hk 	c #BE726D",
"ik 	c #C07C79",
"jk 	c #BF7473",
"kk 	c #B56569",
"lk 	c #B56469",
"mk 	c #A15A5D",
"nk 	c #A98975",
"ok 	c #775E47",
"pk 	c #AD7272",
"qk 	c #B47A7D",
"rk 	c #BC7F85",
"sk 	c #C98B94",
"tk 	c #E6A1AC",
"uk 	c #E6A2AD",
"vk 	c #E6A2AC",
"wk 	c #D597A0",
"xk 	c #D999A3",
"yk 	c #6C4D51",
"zk 	c #D7C89A",
"Ak 	c #AA616B",
"Bk 	c #B6646E",
"Ck 	c #B35F6A",
"Dk 	c #AA5B64",
"Ek 	c #B75B65",
"Fk 	c #B05D62",
"Gk 	c #B9696E",
"Hk 	c #BB6766",
"Ik 	c #BA6D6A",
"Jk 	c #B96564",
"Kk 	c #BC7376",
"Lk 	c #C3736C",
"Mk 	c #C57978",
"Nk 	c #D98483",
"Ok 	c #D58585",
"Pk 	c #CD7478",
"Qk 	c #E28B8B",
"Rk 	c #E49392",
"Sk 	c #D78589",
"Tk 	c #DD888A",
"Uk 	c #DD878B",
"Vk 	c #E2858F",
"Wk 	c #F49C9F",
"Xk 	c #E79092",
"Yk 	c #D87B86",
"Zk 	c #D77D88",
"`k 	c #CB767B",
" l 	c #C96B75",
".l 	c #D5807D",
"+l 	c #C56B72",
"@l 	c #D87F84",
"#l 	c #C97177",
"$l 	c #CE7A7E",
"%l 	c #C9797F",
"&l 	c #CE8081",
"*l 	c #CC8982",
"=l 	c #B9636E",
"-l 	c #B7686B",
";l 	c #BC6A6B",
">l 	c #B26064",
",l 	c #AB5A5F",
"'l 	c #B56A6E",
")l 	c #B38278",
"!l 	c #98806C",
"~l 	c #BA7881",
"{l 	c #BE7E85",
"]l 	c #C5868E",
"^l 	c #CD8C96",
"/l 	c #D4939C",
"(l 	c #D29499",
"_l 	c #D1929C",
":l 	c #D4969D",
"<l 	c #CA9094",
"[l 	c #DD9DA5",
"}l 	c #DC9BA4",
"|l 	c #453334",
"1l 	c #CBB990",
"2l 	c #A45D66",
"3l 	c #B3686D",
"4l 	c #AD6265",
"5l 	c #BA6B6D",
"6l 	c #AF5C65",
"7l 	c #C77B7B",
"8l 	c #BF7072",
"9l 	c #BC686E",
"0l 	c #BA6569",
"al 	c #BE6B6E",
"bl 	c #D17876",
"cl 	c #CD7B7F",
"dl 	c #DA8884",
"el 	c #EB9189",
"fl 	c #E49E92",
"gl 	c #E3988F",
"hl 	c #C8827D",
"il 	c #C87979",
"jl 	c #C86E72",
"kl 	c #D97E7D",
"ll 	c #D47D7F",
"ml 	c #D47D81",
"nl 	c #D06C78",
"ol 	c #CB6E76",
"pl 	c #C97679",
"ql 	c #CB7078",
"rl 	c #C77378",
"sl 	c #C76D74",
"tl 	c #C27572",
"ul 	c #C86C76",
"vl 	c #C56B73",
"wl 	c #CE767E",
"xl 	c #CF7B7F",
"yl 	c #E38B8E",
"zl 	c #BA6C67",
"Al 	c #BA7973",
"Bl 	c #BB6F71",
"Cl 	c #AC6262",
"Dl 	c #BD7674",
"El 	c #B06969",
"Fl 	c #C27774",
"Gl 	c #9E7D6E",
"Hl 	c #7A6855",
"Il 	c #B6797F",
"Jl 	c #C7878B",
"Kl 	c #D1929B",
"Ll 	c #EBA5B1",
"Ml 	c #E29FA8",
"Nl 	c #D4969E",
"Ol 	c #D898A0",
"Pl 	c #E5A2AB",
"Ql 	c #4E393B",
"Rl 	c #A55E67",
"Sl 	c #BC626E",
"Tl 	c #B15C66",
"Ul 	c #B45C65",
"Vl 	c #B15F66",
"Wl 	c #AF706A",
"Xl 	c #B9746C",
"Yl 	c #B36567",
"Zl 	c #BB6B6B",
"`l 	c #B76367",
" m 	c #C7766E",
".m 	c #BF6965",
"+m 	c #CF7C77",
"@m 	c #DF868A",
"#m 	c #E98F91",
"$m 	c #DE8788",
"%m 	c #E29191",
"&m 	c #F49C95",
"*m 	c #E68E8B",
"=m 	c #CE7B7F",
"-m 	c #D57981",
";m 	c #D0717C",
">m 	c #D2787D",
",m 	c #EC8C95",
"'m 	c #CF777B",
")m 	c #D56D78",
"!m 	c #CD6A74",
"~m 	c #C16C73",
"{m 	c #C87478",
"]m 	c #C46870",
"^m 	c #F5A2A1",
"/m 	c #CE777F",
"(m 	c #DE8F8C",
"_m 	c #D07F82",
":m 	c #C67375",
"<m 	c #C87A79",
"[m 	c #B35A61",
"}m 	c #C37877",
"|m 	c #BB696A",
"1m 	c #BC6F6E",
"2m 	c #AA5B63",
"3m 	c #CF7D76",
"4m 	c #C07F75",
"5m 	c #9D8B6E",
"6m 	c #C07F7D",
"7m 	c #B97B80",
"8m 	c #C5858C",
"9m 	c #CE9098",
"0m 	c #CD9098",
"am 	c #D8989F",
"bm 	c #D09298",
"cm 	c #E29EA6",
"dm 	c #DD9CA5",
"em 	c #1A1412",
"fm 	c #D8C89A",
"gm 	c #A8646A",
"hm 	c #AB6069",
"im 	c #A95C65",
"jm 	c #AC6569",
"km 	c #C16D78",
"lm 	c #AD686A",
"mm 	c #D18483",
"nm 	c #CA817C",
"om 	c #BE7375",
"pm 	c #C77273",
"qm 	c #DD8381",
"rm 	c #DB8B81",
"sm 	c #E08D85",
"tm 	c #DD9289",
"um 	c #D38180",
"vm 	c #D27F79",
"wm 	c #C86D75",
"xm 	c #DB8382",
"ym 	c #CD727A",
"zm 	c #D27B7F",
"Am 	c #D67B82",
"Bm 	c #DB8A86",
"Cm 	c #CC7379",
"Dm 	c #CC717B",
"Em 	c #CD7979",
"Fm 	c #BF686C",
"Gm 	c #C86C70",
"Hm 	c #C56872",
"Im 	c #D37A7E",
"Jm 	c #C56D75",
"Km 	c #D08384",
"Lm 	c #D68382",
"Mm 	c #B96868",
"Nm 	c #B16968",
"Om 	c #B06569",
"Pm 	c #B66969",
"Qm 	c #B97571",
"Rm 	c #AA6263",
"Sm 	c #B8706F",
"Tm 	c #BC7774",
"Um 	c #9A7567",
"Vm 	c #897660",
"Wm 	c #BB7882",
"Xm 	c #BD7D84",
"Ym 	c #C6868F",
"Zm 	c #BF8389",
"`m 	c #D5939C",
" n 	c #D996A0",
".n 	c #E8A3AC",
"+n 	c #DF9EA6",
"@n 	c #D5979D",
"#n 	c #DE9BA3",
"$n 	c #EBA5AE",
"%n 	c #E8A4AE",
"&n 	c #302323",
"*n 	c #B5646F",
"=n 	c #B9636F",
"-n 	c #AD5C66",
";n 	c #B75E68",
">n 	c #B6656B",
",n 	c #C27274",
"'n 	c #B8676A",
")n 	c #AE6967",
"!n 	c #AA655E",
"~n 	c #B56C6A",
"{n 	c #B65F62",
"]n 	c #BB675E",
"^n 	c #C1696E",
"/n 	c #BB6066",
"(n 	c #C1696F",
"_n 	c #E38584",
":n 	c #DC8385",
"<n 	c #D38781",
"[n 	c #E58A8D",
"}n 	c #D6817C",
"|n 	c #C86B73",
"1n 	c #CB7277",
"2n 	c #D0757B",
"3n 	c #CA6B77",
"4n 	c #EB8F92",
"5n 	c #DA8085",
"6n 	c #C2696F",
"7n 	c #D26B76",
"8n 	c #C96A73",
"9n 	c #BD676C",
"0n 	c #C3656F",
"an 	c #EB9394",
"bn 	c #DF8488",
"cn 	c #D8828A",
"dn 	c #CA7373",
"en 	c #BE646C",
"fn 	c #CC7D7D",
"gn 	c #B05A62",
"hn 	c #BA716D",
"in 	c #A8575E",
"jn 	c #AA6A69",
"kn 	c #B4967D",
"ln 	c #B37479",
"mn 	c #BF8280",
"nn 	c #C7828C",
"on 	c #CC8991",
"pn 	c #C2828B",
"qn 	c #C4868D",
"rn 	c #C2858B",
"sn 	c #D6979F",
"tn 	c #D9989E",
"un 	c #E8A2AA",
"vn 	c #E59FA7",
"wn 	c #D898A1",
"xn 	c #261E1A",
"yn 	c #CDB38E",
"zn 	c #B66771",
"An 	c #B2626C",
"Bn 	c #B06468",
"Cn 	c #BC7173",
"Dn 	c #B05F66",
"En 	c #BA6C70",
"Fn 	c #BD6A73",
"Gn 	c #C67678",
"Hn 	c #BA696E",
"In 	c #B8666B",
"Jn 	c #D0747E",
"Kn 	c #CC777B",
"Ln 	c #CC7E7C",
"Mn 	c #EA8E88",
"Nn 	c #D98486",
"On 	c #DA8982",
"Pn 	c #E7978E",
"Qn 	c #C1666D",
"Rn 	c #C76C6F",
"Sn 	c #CF7575",
"Tn 	c #CD7076",
"Un 	c #D2747A",
"Vn 	c #D5787E",
"Wn 	c #CB6C74",
"Xn 	c #C96F74",
"Yn 	c #DE8B89",
"Zn 	c #C77376",
"`n 	c #CF787A",
" o 	c #CD7574",
".o 	c #CB7073",
"+o 	c #C7676E",
"@o 	c #C77373",
"#o 	c #C26B72",
"$o 	c #D48682",
"%o 	c #BA695E",
"&o 	c #BB6C6B",
"*o 	c #C77372",
"=o 	c #BA6B6A",
"-o 	c #AC6764",
";o 	c #AD6266",
">o 	c #AC6766",
",o 	c #AB7C72",
"'o 	c #927E66",
")o 	c #BB777F",
"!o 	c #C47F89",
"~o 	c #C2838B",
"{o 	c #C98591",
"]o 	c #D7929C",
"^o 	c #CF8F96",
"/o 	c #D8969F",
"(o 	c #DF9C9F",
"_o 	c #F3ABB6",
":o 	c #F4AAB4",
"<o 	c #DA999E",
"[o 	c #DF9CA4",
"}o 	c #EAA4AF",
"|o 	c #191412",
"1o 	c #D6C699",
"2o 	c #B76570",
"3o 	c #B8616B",
"4o 	c #B45E67",
"5o 	c #CE807E",
"6o 	c #B66A6C",
"7o 	c #B76756",
"8o 	c #C27673",
"9o 	c #B86B69",
"0o 	c #B76967",
"ao 	c #BD6A6C",
"bo 	c #C4686D",
"co 	c #BC6065",
"do 	c #EC8D86",
"eo 	c #F4A09A",
"fo 	c #E38C88",
"go 	c #E08B87",
"ho 	c #CD7479",
"io 	c #C96971",
"jo 	c #D67680",
"ko 	c #C56E75",
"lo 	c #CC7377",
"mo 	c #D77D7F",
"no 	c #C66870",
"oo 	c #C0686C",
"po 	c #C2626C",
"qo 	c #C0686E",
"ro 	c #D98083",
"so 	c #C57576",
"to 	c #D28280",
"uo 	c #C3686A",
"vo 	c #C56E73",
"wo 	c #BB6468",
"xo 	c #BF7370",
"yo 	c #B5646A",
"zo 	c #BA6D69",
"Ao 	c #A65E62",
"Bo 	c #BDAD88",
"Co 	c #7E5255",
"Do 	c #BD787E",
"Eo 	c #C48087",
"Fo 	c #C18187",
"Go 	c #C9878E",
"Ho 	c #C7868A",
"Io 	c #E19AA4",
"Jo 	c #D3919A",
"Ko 	c #D4949B",
"Lo 	c #D09397",
"Mo 	c #E29EA9",
"No 	c #DE9CA5",
"Oo 	c #DA99A2",
"Po 	c #F4ABB5",
"Qo 	c #E09CA4",
"Ro 	c #DE9AA0",
"So 	c #D5969D",
"To 	c #271F1C",
"Uo 	c #CCBA91",
"Vo 	c #B46971",
"Wo 	c #B46C71",
"Xo 	c #B3606D",
"Yo 	c #BF7177",
"Zo 	c #CB7C82",
"`o 	c #CA7077",
" p 	c #D37B80",
".p 	c #D17B7A",
"+p 	c #D17A7D",
"@p 	c #DA847D",
"#p 	c #D98680",
"$p 	c #D47B78",
"%p 	c #C76E6B",
"&p 	c #C5706F",
"*p 	c #D4787B",
"=p 	c #C97275",
"-p 	c #CA656E",
";p 	c #C86D72",
">p 	c #D87D7E",
",p 	c #C5636C",
"'p 	c #D1757B",
")p 	c #DE8386",
"!p 	c #D17A7C",
"~p 	c #DC8884",
"{p 	c #C7706E",
"]p 	c #C45E67",
"^p 	c #C97276",
"/p 	c #D87D7C",
"(p 	c #C8696F",
"_p 	c #BF696F",
":p 	c #C77775",
"<p 	c #C87568",
"[p 	c #CC8077",
"}p 	c #BA6F69",
"|p 	c #AA5D62",
"1p 	c #A8575C",
"2p 	c #B16B6D",
"3p 	c #A5736C",
"4p 	c #96866B",
"5p 	c #BE7880",
"6p 	c #B4767C",
"7p 	c #D68C96",
"8p 	c #C58589",
"9p 	c #D5919C",
"0p 	c #D19197",
"ap 	c #D69499",
"bp 	c #DF9C9B",
"cp 	c #DB9AA2",
"dp 	c #D6969B",
"ep 	c #D9969C",
"fp 	c #EAA4AD",
"gp 	c #F0A9B1",
"hp 	c #1F1A16",
"ip 	c #B86671",
"jp 	c #B05F6B",
"kp 	c #B05F67",
"lp 	c #B65E69",
"mp 	c #B66868",
"np 	c #B97466",
"op 	c #AD6463",
"pp 	c #B25C5E",
"qp 	c #C26564",
"rp 	c #B96162",
"sp 	c #C6706D",
"tp 	c #DA807F",
"up 	c #F6A19F",
"vp 	c #EC9A93",
"wp 	c #D17C7A",
"xp 	c #C97176",
"yp 	c #C36E71",
"zp 	c #D07477",
"Ap 	c #CA6873",
"Bp 	c #D57880",
"Cp 	c #E68A8F",
"Dp 	c #CC7177",
"Ep 	c #C36870",
"Fp 	c #BB6167",
"Gp 	c #C2676C",
"Hp 	c #BF6369",
"Ip 	c #BE6068",
"Jp 	c #C4696B",
"Kp 	c #D17374",
"Lp 	c #E7918B",
"Mp 	c #C27874",
"Np 	c #DE8487",
"Op 	c #C46F74",
"Pp 	c #C67875",
"Qp 	c #AD585F",
"Rp 	c #AD6162",
"Sp 	c #A55D63",
"Tp 	c #B5A380",
"Up 	c #523B38",
"Vp 	c #C17A82",
"Wp 	c #C6828B",
"Xp 	c #C5868C",
"Yp 	c #CC8993",
"Zp 	c #BA8086",
"`p 	c #DE98A3",
" q 	c #DA97A1",
".q 	c #CF9297",
"+q 	c #DA9999",
"@q 	c #DE9AA2",
"#q 	c #D69497",
"$q 	c #E4A0A7",
"%q 	c #DF9CA5",
"&q 	c #D695A0",
"*q 	c #221D18",
"=q 	c #D5C598",
"-q 	c #AE636B",
";q 	c #AD636A",
">q 	c #B0616A",
",q 	c #C37175",
"'q 	c #BA666D",
")q 	c #C9727B",
"!q 	c #C06A70",
"~q 	c #C06E70",
"{q 	c #D88081",
"]q 	c #C96D72",
"^q 	c #EE9A96",
"/q 	c #D47F7E",
"(q 	c #E1857E",
"_q 	c #E98D87",
":q 	c #C3726F",
"<q 	c #E08A7F",
"[q 	c #D27673",
"}q 	c #C56C6E",
"|q 	c #C66970",
"1q 	c #C4686B",
"2q 	c #C45F6A",
"3q 	c #D1727C",
"4q 	c #DB7583",
"5q 	c #E48A90",
"6q 	c #C2646B",
"7q 	c #C96C71",
"8q 	c #C7666C",
"9q 	c #D06F74",
"0q 	c #C96F72",
"aq 	c #D9787D",
"bq 	c #D17279",
"cq 	c #E18D89",
"dq 	c #DB8B88",
"eq 	c #CD7F73",
"fq 	c #C56B70",
"gq 	c #B96669",
"hq 	c #B26167",
"iq 	c #A06864",
"jq 	c #A49474",
"kq 	c #AD6E72",
"lq 	c #BB777E",
"mq 	c #C27E86",
"nq 	c #BE7F84",
"oq 	c #D18C95",
"pq 	c #DF98A3",
"qq 	c #D8969D",
"rq 	c #D8969C",
"sq 	c #E19DA7",
"tq 	c #E4A1A9",
"uq 	c #DA979D",
"vq 	c #E29EA5",
"wq 	c #ECA6B2",
"xq 	c #231E18",
"yq 	c #D0C095",
"zq 	c #B3646E",
"Aq 	c #BC6772",
"Bq 	c #C06671",
"Cq 	c #AD5E65",
"Dq 	c #B46268",
"Eq 	c #BC6D70",
"Fq 	c #B9686E",
"Gq 	c #C2786D",
"Hq 	c #B76D6C",
"Iq 	c #B16F69",
"Jq 	c #C8737A",
"Kq 	c #C67472",
"Lq 	c #D57D7D",
"Mq 	c #E58F8D",
"Nq 	c #C37370",
"Oq 	c #DF8F86",
"Pq 	c #C06368",
"Qq 	c #CF7878",
"Rq 	c #CD767B",
"Sq 	c #CD7078",
"Tq 	c #D7797A",
"Uq 	c #C7696D",
"Vq 	c #C1616A",
"Wq 	c #C86D71",
"Xq 	c #C26A6D",
"Yq 	c #B85A62",
"Zq 	c #CA7475",
"`q 	c #C7706C",
" r 	c #D0817C",
".r 	c #D58179",
"+r 	c #CA7F7B",
"@r 	c #C07C71",
"#r 	c #B6676C",
"$r 	c #BA716E",
"%r 	c #B16668",
"&r 	c #B59E80",
"*r 	c #57443D",
"=r 	c #BA777E",
"-r 	c #C27E83",
";r 	c #CC878F",
">r 	c #C68589",
",r 	c #CB8791",
"'r 	c #D48F99",
")r 	c #C98891",
"!r 	c #D9979F",
"~r 	c #E49EA9",
"{r 	c #DC9BA5",
"]r 	c #DE9DA4",
"^r 	c #C58888",
"/r 	c #CE918F",
"(r 	c #D59195",
"_r 	c #E29DA5",
":r 	c #E39EA8",
"<r 	c #E4A1AB",
"[r 	c #2F2621",
"}r 	c #CFBE93",
"|r 	c #B2616D",
"1r 	c #B1606A",
"2r 	c #BB616C",
"3r 	c #B25D63",
"4r 	c #BA6A6E",
"5r 	c #BA5D66",
"6r 	c #CA7577",
"7r 	c #DB8985",
"8r 	c #CB7576",
"9r 	c #D17A79",
"0r 	c #BD626A",
"ar 	c #D37677",
"br 	c #CB7265",
"cr 	c #D77F77",
"dr 	c #BF5E64",
"er 	c #C4696A",
"fr 	c #C15D65",
"gr 	c #D67C7D",
"hr 	c #C16169",
"ir 	c #C8686F",
"jr 	c #D07178",
"kr 	c #C06168",
"lr 	c #C3656C",
"mr 	c #CB6D74",
"nr 	c #CA6B72",
"or 	c #CA6B6B",
"pr 	c #D77681",
"qr 	c #EC8E93",
"rr 	c #C8787A",
"sr 	c #C67575",
"tr 	c #AD5D64",
"ur 	c #A9585F",
"vr 	c #A46360",
"wr 	c #A49374",
"xr 	c #9E6267",
"yr 	c #C47C84",
"zr 	c #C17D85",
"Ar 	c #CA848D",
"Br 	c #C58289",
"Cr 	c #CF8C94",
"Dr 	c #D48F97",
"Er 	c #DD98A1",
"Fr 	c #D69B99",
"Gr 	c #D8979C",
"Hr 	c #D8979E",
"Ir 	c #EAA4A9",
"Jr 	c #E4A0A6",
"Kr 	c #DD9BA2",
"Lr 	c #ECA4B0",
"Mr 	c #24201A",
"Nr 	c #D1C094",
"Or 	c #B3646F",
"Pr 	c #B1606B",
"Qr 	c #B05F68",
"Rr 	c #AF6268",
"Sr 	c #BA6F72",
"Tr 	c #B9716D",
"Ur 	c #B05A5F",
"Vr 	c #B46B69",
"Wr 	c #C57E73",
"Xr 	c #CF7477",
"Yr 	c #C67174",
"Zr 	c #BD676B",
"`r 	c #C26B6C",
" s 	c #C87575",
".s 	c #BF656B",
"+s 	c #CA6D72",
"@s 	c #CA6971",
"#s 	c #D3757C",
"$s 	c #DD7C83",
"%s 	c #D7787C",
"&s 	c #C15F66",
"*s 	c #C76C6E",
"=s 	c #C2686E",
"-s 	c #D17477",
";s 	c #C0676C",
">s 	c #B26265",
",s 	c #CB7777",
"'s 	c #CE7279",
")s 	c #CC7679",
"!s 	c #D6847B",
"~s 	c #BE6A6D",
"{s 	c #C57B75",
"]s 	c #B66B6B",
"^s 	c #AE6564",
"/s 	c #A08D70",
"(s 	c #695C4A",
"_s 	c #BB727A",
":s 	c #BB767D",
"<s 	c #C88088",
"[s 	c #DF8D98",
"}s 	c #C9838B",
"|s 	c #C8858B",
"1s 	c #BD8282",
"2s 	c #C48483",
"3s 	c #B77F79",
"4s 	c #D29097",
"5s 	c #D59598",
"6s 	c #CA8B93",
"7s 	c #DC99A2",
"8s 	c #D7989C",
"9s 	c #E19C9E",
"0s 	c #DE9D9F",
"as 	c #D5969B",
"bs 	c #E6A1AB",
"cs 	c #DC979D",
"ds 	c #F5ACB6",
"es 	c #D998A1",
"fs 	c #E29DA8",
"gs 	c #231E1A",
"hs 	c #D2C196",
"is 	c #B96874",
"js 	c #C0747B",
"ks 	c #B6676E",
"ls 	c #B45F68",
"ms 	c #B45F69",
"ns 	c #B36068",
"os 	c #C16A71",
"ps 	c #E38F88",
"qs 	c #D1787D",
"rs 	c #C66B70",
"ss 	c #C56B6F",
"ts 	c #E68F89",
"us 	c #E18880",
"vs 	c #BE5F62",
"ws 	c #CD6F71",
"xs 	c #C05F66",
"ys 	c #BF5F66",
"zs 	c #C4646C",
"As 	c #D07379",
"Bs 	c #C7686E",
"Cs 	c #CC6E73",
"Ds 	c #BF6165",
"Es 	c #C66A71",
"Fs 	c #CC7171",
"Gs 	c #C76C71",
"Hs 	c #C1686C",
"Is 	c #D27879",
"Js 	c #DF8889",
"Ks 	c #CB7E7B",
"Ls 	c #C1706E",
"Ms 	c #C06E72",
"Ns 	c #B55F68",
"Os 	c #AF6162",
"Ps 	c #B3A47F",
"Qs 	c #8A5559",
"Rs 	c #C07980",
"Ss 	c #CD808A",
"Ts 	c #C78187",
"Us 	c #C9838A",
"Vs 	c #CA858D",
"Ws 	c #C7858B",
"Xs 	c #CA8890",
"Ys 	c #D18D95",
"Zs 	c #CC8C90",
"`s 	c #DA999D",
" t 	c #E49DA7",
".t 	c #E59FA5",
"+t 	c #E5A0A6",
"@t 	c #E09EA5",
"#t 	c #D8979D",
"$t 	c #D19397",
"%t 	c #DF9EA5",
"&t 	c #F6ACB7",
"*t 	c #EBA3AE",
"=t 	c #221E19",
"-t 	c #C7B68E",
";t 	c #B2646F",
">t 	c #C16772",
",t 	c #B36268",
"'t 	c #B96D6C",
")t 	c #BC6E6E",
"!t 	c #E4868C",
"~t 	c #E7978F",
"{t 	c #C16769",
"]t 	c #C46C6D",
"^t 	c #C7656D",
"/t 	c #EC9489",
"(t 	c #C3636B",
"_t 	c #CF7279",
":t 	c #CC7676",
"<t 	c #C06469",
"[t 	c #BF6068",
"}t 	c #C1646A",
"|t 	c #C2696B",
"1t 	c #B36767",
"2t 	c #C46B6F",
"3t 	c #D67982",
"4t 	c #AE5D62",
"5t 	c #B86463",
"6t 	c #AB5A63",
"7t 	c #9A7A66",
"8t 	c #8B8063",
"9t 	c #BC7478",
"0t 	c #C1767F",
"at 	c #C97D87",
"bt 	c #C07B81",
"ct 	c #D98B96",
"dt 	c #CF8D8F",
"et 	c #BE7F7C",
"ft 	c #C58588",
"gt 	c #BF7D81",
"ht 	c #CE8B92",
"it 	c #CF908E",
"jt 	c #D29396",
"kt 	c #DB9A9A",
"lt 	c #DB999F",
"mt 	c #F5ABB7",
"nt 	c #D89495",
"ot 	c #F8AEB9",
"pt 	c #F5ACB7",
"qt 	c #D7969F",
"rt 	c #E9A1AC",
"st 	c #221B18",
"tt 	c #AD686F",
"ut 	c #BF7378",
"vt 	c #B6616C",
"wt 	c #BA656D",
"xt 	c #B66165",
"yt 	c #BE6D70",
"zt 	c #BD666C",
"At 	c #C87475",
"Bt 	c #D47C7E",
"Ct 	c #D78381",
"Dt 	c #D47875",
"Et 	c #BB6063",
"Ft 	c #BA6068",
"Gt 	c #DF8389",
"Ht 	c #C26469",
"It 	c #C5646E",
"Jt 	c #D5797E",
"Kt 	c #C4676A",
"Lt 	c #D97F83",
"Mt 	c #BF5D68",
"Nt 	c #C05E69",
"Ot 	c #E18C8D",
"Pt 	c #EB8C8F",
"Qt 	c #DE8282",
"Rt 	c #E0868C",
"St 	c #C67670",
"Tt 	c #BF756C",
"Ut 	c #B8A482",
"Vt 	c #6F4548",
"Wt 	c #D5808B",
"Xt 	c #C67C85",
"Yt 	c #C78086",
"Zt 	c #D48893",
"`t 	c #D18992",
" u 	c #D48C95",
".u 	c #D08D93",
"+u 	c #C9898F",
"@u 	c #DA9497",
"#u 	c #DC999C",
"$u 	c #DF9A9E",
"%u 	c #ECA4A3",
"&u 	c #EAA6A7",
"*u 	c #E19DA0",
"=u 	c #E2A0A0",
"-u 	c #DE9CA0",
";u 	c #DF9AA1",
">u 	c #DC9AA2",
",u 	c #E6A2AA",
"'u 	c #DB989E",
")u 	c #332D24",
"!u 	c #C3B28A",
"~u 	c #B46470",
"{u 	c #B2646C",
"]u 	c #B86A6D",
"^u 	c #B35F66",
"/u 	c #BB646C",
"(u 	c #CE7B76",
"_u 	c #D7817C",
":u 	c #D78584",
"<u 	c #D0807B",
"[u 	c #C97073",
"}u 	c #EA938D",
"|u 	c #C2686F",
"1u 	c #BE5C65",
"2u 	c #E27D84",
"3u 	c #E28687",
"4u 	c #C4676C",
"5u 	c #CE7778",
"6u 	c #C3676D",
"7u 	c #DD8782",
"8u 	c #C87072",
"9u 	c #B65A63",
"0u 	c #E18786",
"au 	c #EC9C96",
"bu 	c #BB6E6E",
"cu 	c #C07170",
"du 	c #C47777",
"eu 	c #CB7674",
"fu 	c #BD6F6D",
"gu 	c #B16669",
"hu 	c #A66A65",
"iu 	c #A59775",
"ju 	c #B16870",
"ku 	c #BF777B",
"lu 	c #C1757D",
"mu 	c #C07C81",
"nu 	c #C07B7F",
"ou 	c #D28791",
"pu 	c #BB7B7C",
"qu 	c #CE8B91",
"ru 	c #D48D96",
"su 	c #BF847F",
"tu 	c #C78C88",
"uu 	c #CC918F",
"vu 	c #DE9D9C",
"wu 	c #DB979B",
"xu 	c #CF8F94",
"yu 	c #D29491",
"zu 	c #DF9EA3",
"Au 	c #DD9CA1",
"Bu 	c #D49194",
"Cu 	c #D19496",
"Du 	c #DF9CA7",
"Eu 	c #E39EA9",
"Fu 	c #EEA4AF",
"Gu 	c #DA97A2",
"Hu 	c #302522",
"Iu 	c #CCB491",
"Ju 	c #AE636D",
"Ku 	c #B26870",
"Lu 	c #B96A72",
"Mu 	c #B4606B",
"Nu 	c #BB6970",
"Ou 	c #BE6A6E",
"Pu 	c #CF7B7B",
"Qu 	c #C26E6D",
"Ru 	c #F19C97",
"Su 	c #CD7777",
"Tu 	c #D6827E",
"Uu 	c #BE5D68",
"Vu 	c #C56B71",
"Wu 	c #DD817E",
"Xu 	c #BD5E65",
"Yu 	c #DD8085",
"Zu 	c #D87B7C",
"`u 	c #C1686B",
" v 	c #C3656D",
".v 	c #CA7678",
"+v 	c #D67C80",
"@v 	c #DF8587",
"#v 	c #E48D88",
"$v 	c #D87F85",
"%v 	c #EB9794",
"&v 	c #B86768",
"*v 	c #C2B28B",
"=v 	c #654241",
"-v 	c #D47F8A",
";v 	c #CB7B85",
">v 	c #CE8089",
",v 	c #D1848D",
"'v 	c #D0868F",
")v 	c #D68D96",
"!v 	c #DD959D",
"~v 	c #E09A9E",
"{v 	c #DB9696",
"]v 	c #E89EA1",
"^v 	c #EBA5A5",
"/v 	c #E99E9A",
"(v 	c #ECA0A4",
"_v 	c #E19D9F",
":v 	c #D69897",
"<v 	c #E4A2A8",
"[v 	c #ECA5A7",
"}v 	c #D29797",
"|v 	c #FCB0BC",
"1v 	c #DF9BA5",
"2v 	c #D5939D",
"3v 	c #E099A5",
"4v 	c #3D372B",
"5v 	c #C5B48C",
"6v 	c #B46570",
"7v 	c #B1626C",
"8v 	c #B2616B",
"9v 	c #B4636A",
"0v 	c #B4656A",
"av 	c #C76E6F",
"bv 	c #C77976",
"cv 	c #D58280",
"dv 	c #D27D77",
"ev 	c #D98584",
"fv 	c #CC7574",
"gv 	c #C2696C",
"hv 	c #CB7373",
"iv 	c #EA8893",
"jv 	c #CE7677",
"kv 	c #CC7073",
"lv 	c #CE7473",
"mv 	c #BD606A",
"nv 	c #BD636B",
"ov 	c #B76369",
"pv 	c #D17B7F",
"qv 	c #DF8984",
"rv 	c #C06B70",
"sv 	c #B46266",
"tv 	c #BE7271",
"uv 	c #A85C62",
"vv 	c #C2AA85",
"wv 	c #76464A",
"xv 	c #CA7983",
"yv 	c #B37378",
"zv 	c #C0787E",
"Av 	c #BC7981",
"Bv 	c #BA7772",
"Cv 	c #D78D97",
"Dv 	c #C98A8A",
"Ev 	c #C68686",
"Fv 	c #D28B85",
"Gv 	c #DB9997",
"Hv 	c #D69995",
"Iv 	c #D99296",
"Jv 	c #DA949C",
"Kv 	c #CC908D",
"Lv 	c #D8989B",
"Mv 	c #D5969C",
"Nv 	c #D39497",
"Ov 	c #D5989A",
"Pv 	c #D29399",
"Qv 	c #EDA4B0",
"Rv 	c #F2A7B2",
"Sv 	c #E59EA9",
"Tv 	c #EBA2AD",
"Uv 	c #312422",
"Vv 	c #CDBB91",
"Wv 	c #B0666D",
"Xv 	c #C1737B",
"Yv 	c #DB8F8D",
"Zv 	c #B7666D",
"`v 	c #CB7F80",
" w 	c #CB797B",
".w 	c #D27B7E",
"+w 	c #EB9A96",
"@w 	c #C66D70",
"#w 	c #D47A79",
"$w 	c #CC727A",
"%w 	c #DE7E7E",
"&w 	c #C76E75",
"*w 	c #CB7577",
"=w 	c #CC7977",
"-w 	c #CB7177",
";w 	c #D47C81",
">w 	c #DC8682",
",w 	c #BD6269",
"'w 	c #B85A63",
")w 	c #CC7176",
"!w 	c #E18085",
"~w 	c #DA8783",
"{w 	c #DF8883",
"]w 	c #E4938C",
"^w 	c #EEA298",
"/w 	c #C8757B",
"(w 	c #BEAE86",
"_w 	c #48312E",
":w 	c #BF7279",
"<w 	c #C1777F",
"[w 	c #DC8590",
"}w 	c #D6838E",
"|w 	c #DD8A95",
"1w 	c #D48791",
"2w 	c #D38890",
"3w 	c #E695A1",
"4w 	c #D89098",
"5w 	c #E49A9F",
"6w 	c #D89896",
"7w 	c #D99096",
"8w 	c #D99398",
"9w 	c #DD989C",
"0w 	c #E29C9D",
"aw 	c #E09AA1",
"bw 	c #E3A19F",
"cw 	c #E4A4A1",
"dw 	c #DC9D9F",
"ew 	c #E29DA7",
"fw 	c #E59EA8",
"gw 	c #E89EA9",
"hw 	c #413B2E",
"iw 	c #C1B088",
"jw 	c #B3646B",
"kw 	c #BC6C6F",
"lw 	c #B96867",
"mw 	c #C88273",
"nw 	c #C17470",
"ow 	c #CA847F",
"pw 	c #CB7377",
"qw 	c #C16667",
"rw 	c #BD5E66",
"sw 	c #D87E81",
"tw 	c #CA6A76",
"uw 	c #CC7375",
"vw 	c #CD7373",
"ww 	c #B96469",
"xw 	c #D07B73",
"yw 	c #BB5C65",
"zw 	c #B9686A",
"Aw 	c #B85D65",
"Bw 	c #C07370",
"Cw 	c #BA7C73",
"Dw 	c #DC8786",
"Ew 	c #B86569",
"Fw 	c #C16D74",
"Gw 	c #BCA57E",
"Hw 	c #261D19",
"Iw 	c #CD747F",
"Jw 	c #CF7D87",
"Kw 	c #C47B82",
"Lw 	c #C07B71",
"Mw 	c #B57169",
"Nw 	c #B07372",
"Ow 	c #CF868D",
"Pw 	c #C07E7E",
"Qw 	c #D38E8B",
"Rw 	c #C18382",
"Sw 	c #D3978D",
"Tw 	c #CA8987",
"Uw 	c #C68983",
"Vw 	c #D39391",
"Ww 	c #D59192",
"Xw 	c #D49093",
"Yw 	c #D39297",
"Zw 	c #D29292",
"`w 	c #D69692",
" x 	c #DC9A9A",
".x 	c #D8959D",
"+x 	c #D39499",
"@x 	c #C38C8D",
"#x 	c #D3949A",
"$x 	c #DA98A1",
"%x 	c #DA96A1",
"&x 	c #D59199",
"*x 	c #3A2D29",
"=x 	c #CAB290",
"-x 	c #BD6975",
";x 	c #B2666E",
">x 	c #D18680",
",x 	c #DC8D8A",
"'x 	c #C6787A",
")x 	c #DD8787",
"!x 	c #D68584",
"~x 	c #E08289",
"{x 	c #D67D83",
"]x 	c #E8928E",
"^x 	c #C0696B",
"/x 	c #C57075",
"(x 	c #CD7776",
"_x 	c #BA5F67",
":x 	c #C26B70",
"<x 	c #C0686F",
"[x 	c #CD757B",
"}x 	c #EA979C",
"|x 	c #ED9A8E",
"1x 	c #AF606A",
"2x 	c #C1B089",
"3x 	c #533B37",
"4x 	c #BD6D75",
"5x 	c #C8767F",
"6x 	c #DE8691",
"7x 	c #C67983",
"8x 	c #D3848E",
"9x 	c #DA8A94",
"0x 	c #DC9095",
"ax 	c #CD8B8B",
"bx 	c #DB8F99",
"cx 	c #DA9199",
"dx 	c #D89395",
"ex 	c #EEA39F",
"fx 	c #D99298",
"gx 	c #F0A2A3",
"hx 	c #F6A8AB",
"ix 	c #E49F9E",
"jx 	c #DE999F",
"kx 	c #D39195",
"lx 	c #E49D9E",
"mx 	c #F1ABA4",
"nx 	c #D29096",
"ox 	c #D5929B",
"px 	c #C2858C",
"qx 	c #E89FAA",
"rx 	c #ECA2AD",
"sx 	c #DD95A0",
"tx 	c #40392D",
"ux 	c #BEAD87",
"vx 	c #B96B72",
"wx 	c #B96F70",
"xx 	c #B05C62",
"yx 	c #C57472",
"zx 	c #D1897D",
"Ax 	c #D3887D",
"Bx 	c #E4938D",
"Cx 	c #CB7478",
"Dx 	c #C0656C",
"Ex 	c #C16F72",
"Fx 	c #CD7B7D",
"Gx 	c #C06972",
"Hx 	c #C1646C",
"Ix 	c #B96164",
"Jx 	c #BB5B65",
"Kx 	c #B05C63",
"Lx 	c #B65B65",
"Mx 	c #AE5B60",
"Nx 	c #AB5C63",
"Ox 	c #C07376",
"Px 	c #B99A7D",
"Qx 	c #54463A",
"Rx 	c #BD6C75",
"Sx 	c #C4737D",
"Tx 	c #CC7B85",
"Ux 	c #CE7B85",
"Vx 	c #C37A80",
"Wx 	c #CF8679",
"Xx 	c #B9726D",
"Yx 	c #B77570",
"Zx 	c #CF8A8B",
"`x 	c #D48D94",
" y 	c #DE9692",
".y 	c #BF8178",
"+y 	c #DF978E",
"@y 	c #DA968F",
"#y 	c #DA9793",
"$y 	c #D89593",
"%y 	c #D69198",
"&y 	c #E79BA6",
"*y 	c #DA9992",
"=y 	c #EFA69B",
"-y 	c #EFA9A8",
";y 	c #DD99A0",
">y 	c #DA979E",
",y 	c #C7847A",
"'y 	c #DB989C",
")y 	c #D19594",
"!y 	c #C3898A",
"~y 	c #E09AA4",
"{y 	c #CA8A91",
"]y 	c #4D3636",
"^y 	c #D3B293",
"/y 	c #A9626B",
"(y 	c #AE656D",
"_y 	c #B0626B",
":y 	c #BE7376",
"<y 	c #B6686E",
"[y 	c #CE8587",
"}y 	c #BC6C72",
"|y 	c #E48891",
"1y 	c #D07282",
"2y 	c #B96369",
"3y 	c #C87070",
"4y 	c #D37F80",
"5y 	c #E88B93",
"6y 	c #C36F76",
"7y 	c #C05E6A",
"8y 	c #C46C77",
"9y 	c #E3867A",
"0y 	c #CD7C76",
"ay 	c #BA6C6F",
"by 	c #AE6168",
"cy 	c #BEA684",
"dy 	c #5B4339",
"ey 	c #B4666A",
"fy 	c #C06E77",
"gy 	c #CC7782",
"hy 	c #C87682",
"iy 	c #D07D88",
"jy 	c #DA848F",
"ky 	c #D7858F",
"ly 	c #CF818A",
"my 	c #DB8B91",
"ny 	c #DA9093",
"oy 	c #D78C93",
"py 	c #D79494",
"qy 	c #E9A29D",
"ry 	c #E09997",
"sy 	c #E19896",
"ty 	c #DA9193",
"uy 	c #DF9698",
"vy 	c #E29C9C",
"wy 	c #EB9DA3",
"xy 	c #ECA49F",
"yy 	c #D89398",
"zy 	c #DB949A",
"Ay 	c #E69CA5",
"By 	c #EAA1A0",
"Cy 	c #DB969B",
"Dy 	c #D6929A",
"Ey 	c #C88A8F",
"Fy 	c #CD8B91",
"Gy 	c #F1A4B0",
"Hy 	c #E69CA7",
"Iy 	c #E99DA8",
"Jy 	c #E499A4",
"Ky 	c #3B352B",
"Ly 	c #BEAC87",
"My 	c #B66470",
"Ny 	c #B7686C",
"Oy 	c #C77A79",
"Py 	c #B96B6E",
"Qy 	c #B7786E",
"Ry 	c #C06F6A",
"Sy 	c #AF5E5F",
"Ty 	c #B15D65",
"Uy 	c #C66E6F",
"Vy 	c #BF6B6E",
"Wy 	c #C26D71",
"Xy 	c #DE8A8A",
"Yy 	c #B9636B",
"Zy 	c #C0656A",
"`y 	c #CC7D7E",
" z 	c #BD7071",
".z 	c #E08C8C",
"+z 	c #AE6566",
"@z 	c #C47D7C",
"#z 	c #B56A6F",
"$z 	c #A28E72",
"%z 	c #675B46",
"&z 	c #BA6B72",
"*z 	c #BB6B74",
"=z 	c #CA737E",
"-z 	c #B86D72",
";z 	c #C67F82",
">z 	c #CD7F85",
",z 	c #C17D7D",
"'z 	c #C9848A",
")z 	c #D58F94",
"!z 	c #DA9990",
"~z 	c #CD8B7F",
"{z 	c #D18C8F",
"]z 	c #D08A90",
"^z 	c #D89196",
"/z 	c #E79AA5",
"(z 	c #E19C9A",
"_z 	c #D49092",
":z 	c #D28E95",
"<z 	c #D59499",
"[z 	c #CB8A89",
"}z 	c #CA898E",
"|z 	c #D19094",
"1z 	c #CF8E96",
"2z 	c #D09092",
"3z 	c #E39BA6",
"4z 	c #D8929B",
"5z 	c #D78F9A",
"6z 	c #261E1B",
"7z 	c #CAB78D",
"8z 	c #B57072",
"9z 	c #B16967",
"0z 	c #B0676D",
"az 	c #B2636C",
"bz 	c #D08A87",
"cz 	c #DD8F87",
"dz 	c #BD6E76",
"ez 	c #DC8784",
"fz 	c #DB848B",
"gz 	c #B9696F",
"hz 	c #D38284",
"iz 	c #BC686F",
"jz 	c #C26E73",
"kz 	c #D07F7C",
"lz 	c #D1827E",
"mz 	c #DF868B",
"nz 	c #B26168",
"oz 	c #D18084",
"pz 	c #CD827D",
"qz 	c #E89797",
"rz 	c #CA7774",
"sz 	c #B56B72",
"tz 	c #BEA885",
"uz 	c #523F36",
"vz 	c #B9666D",
"wz 	c #C16B75",
"xz 	c #C37078",
"yz 	c #CD7882",
"zz 	c #D8818C",
"Az 	c #CF7C87",
"Bz 	c #D4818C",
"Cz 	c #D78B8D",
"Dz 	c #D88D8E",
"Ez 	c #E1929A",
"Fz 	c #DA9495",
"Gz 	c #DB9196",
"Hz 	c #EFA6A3",
"Iz 	c #D68C94",
"Jz 	c #DC9393",
"Kz 	c #DF9694",
"Lz 	c #E99D9F",
"Mz 	c #DC9596",
"Nz 	c #E5A09B",
"Oz 	c #E9A39F",
"Pz 	c #D89297",
"Qz 	c #E39F9A",
"Rz 	c #E79FA1",
"Sz 	c #DE9A99",
"Tz 	c #D79398",
"Uz 	c #D18C94",
"Vz 	c #C9888F",
"Wz 	c #DB939D",
"Xz 	c #DF95A0",
"Yz 	c #DA919C",
"Zz 	c #D68D97",
"`z 	c #3E372C",
" A 	c #C4B48B",
".A 	c #B36772",
"+A 	c #AF646E",
"@A 	c #B76D6F",
"#A 	c #D88783",
"$A 	c #C87A6D",
"%A 	c #BD6B6F",
"&A 	c #B87370",
"*A 	c #B86869",
"=A 	c #CD7C7C",
"-A 	c #D17A7F",
";A 	c #BD6A6D",
">A 	c #C9777B",
",A 	c #C8797F",
"'A 	c #C4797B",
")A 	c #C57A7F",
"!A 	c #CD817E",
"~A 	c #B36769",
"{A 	c #CC7E7D",
"]A 	c #AC5D67",
"^A 	c #A6816E",
"/A 	c #84775E",
"(A 	c #B4656B",
"_A 	c #BA6A72",
":A 	c #C37079",
"<A 	c #B46B72",
"[A 	c #CD8285",
"}A 	c #CA7F7D",
"|A 	c #C27D78",
"1A 	c #C87C82",
"2A 	c #DC8A95",
"3A 	c #CB848B",
"4A 	c #CE8B8C",
"5A 	c #D2918C",
"6A 	c #CA8784",
"7A 	c #E09B97",
"8A 	c #D28D8C",
"9A 	c #D68E93",
"0A 	c #D28C95",
"aA 	c #F0A4A2",
"bA 	c #EFA4A4",
"cA 	c #D19090",
"dA 	c #D89499",
"eA 	c #D79499",
"fA 	c #CA8C91",
"gA 	c #D28F96",
"hA 	c #CF8D93",
"iA 	c #CE8C92",
"jA 	c #CE8D94",
"kA 	c #CF8C92",
"lA 	c #D5919A",
"mA 	c #E098A3",
"nA 	c #D28B95",
"oA 	c #493530",
"pA 	c #D6C698",
"qA 	c #AB666E",
"rA 	c #B26971",
"sA 	c #C88081",
"tA 	c #DB858D",
"uA 	c #D28685",
"vA 	c #BE6B73",
"wA 	c #D68486",
"xA 	c #BC6970",
"yA 	c #CC7B80",
"zA 	c #CB7578",
"AA 	c #EDA099",
"BA 	c #C7767A",
"CA 	c #D68785",
"DA 	c #BA6970",
"EA 	c #BF6F77",
"FA 	c #D68381",
"GA 	c #DD918B",
"HA 	c #D48C8A",
"IA 	c #DCAC92",
"JA 	c #664C43",
"KA 	c #BD6E6F",
"LA 	c #BF6C74",
"MA 	c #BB6D72",
"NA 	c #C47078",
"OA 	c #DC808B",
"PA 	c #E18691",
"QA 	c #CB7A83",
"RA 	c #CF7D88",
"SA 	c #E98F9B",
"TA 	c #D9908F",
"UA 	c #D4878D",
"VA 	c #EA9D9A",
"WA 	c #D88D92",
"XA 	c #D59490",
"YA 	c #F0A9A7",
"ZA 	c #E29898",
"`A 	c #DF9A90",
" B 	c #CF898B",
".B 	c #F09D9C",
"+B 	c #E6A09D",
"@B 	c #D79293",
"#B 	c #E29C9E",
"$B 	c #E09796",
"%B 	c #EFA69F",
"&B 	c #E1969F",
"*B 	c #DB9999",
"=B 	c #D39094",
"-B 	c #DA949B",
";B 	c #DB949E",
">B 	c #CE8A93",
",B 	c #BD7D85",
"'B 	c #D68E99",
")B 	c #DB909B",
"!B 	c #D58B95",
"~B 	c #3C362B",
"{B 	c #BBA683",
"]B 	c #B26F76",
"^B 	c #AE676D",
"/B 	c #AD656B",
"(B 	c #C7807B",
"_B 	c #B96E73",
":B 	c #D87F83",
"<B 	c #D98B8B",
"[B 	c #B46A6D",
"}B 	c #C17570",
"|B 	c #B96C6B",
"1B 	c #BE6E74",
"2B 	c #BF817E",
"3B 	c #AE5E69",
"4B 	c #AB5E64",
"5B 	c #B4696F",
"6B 	c #A9736C",
"7B 	c #B7957D",
"8B 	c #B26169",
"9B 	c #BB666E",
"0B 	c #BD6B74",
"aB 	c #C9737C",
"bB 	c #DA7F8A",
"cB 	c #B57071",
"dB 	c #DF8390",
"eB 	c #C27979",
"fB 	c #CC7F87",
"gB 	c #CD8388",
"hB 	c #D68892",
"iB 	c #CC838A",
"jB 	c #C88387",
"kB 	c #D38C8D",
"lB 	c #E39895",
"mB 	c #F6ABA4",
"nB 	c #D49388",
"oB 	c #D08C8A",
"pB 	c #C4867E",
"qB 	c #D58E93",
"rB 	c #ECA6A0",
"sB 	c #DE9998",
"tB 	c #E2989B",
"uB 	c #D68F95",
"vB 	c #DA919B",
"wB 	c #E89BA6",
"xB 	c #C68988",
"yB 	c #E095A0",
"zB 	c #C9878A",
"AB 	c #CA8B8C",
"BB 	c #D18B95",
"CB 	c #CA8C8E",
"DB 	c #CB878D",
"EB 	c #D69194",
"FB 	c #CC858D",
"GB 	c #322822",
"HB 	c #CDBB92",
"IB 	c #B26D70",
"JB 	c #B06871",
"KB 	c #C7817F",
"LB 	c #C88181",
"MB 	c #DF8692",
"NB 	c #D8878C",
"OB 	c #C26C7A",
"PB 	c #B76B6D",
"QB 	c #BE6C73",
"RB 	c #BC6B71",
"SB 	c #C9787D",
"TB 	c #C06D6F",
"UB 	c #C97C79",
"VB 	c #C67978",
"WB 	c #DB8A80",
"XB 	c #AC5E69",
"YB 	c #BB7276",
"ZB 	c #BE797B",
"`B 	c #C1A888",
" C 	c #694C3E",
".C 	c #BD646C",
"+C 	c #BF6D75",
"@C 	c #C67279",
"#C 	c #D47C86",
"$C 	c #D37D88",
"%C 	c #CF7D89",
"&C 	c #D2808B",
"*C 	c #D5898B",
"=C 	c #D88D8D",
"-C 	c #D4858E",
";C 	c #D98A8F",
">C 	c #D89192",
",C 	c #E49B98",
"'C 	c #E8A39C",
")C 	c #E49C95",
"!C 	c #DB9191",
"~C 	c #FCB0AB",
"{C 	c #E79B97",
"]C 	c #E09A9C",
"^C 	c #E89F9F",
"/C 	c #F2A49D",
"(C 	c #D89794",
"_C 	c #D19293",
":C 	c #D18D92",
"<C 	c #D69596",
"[C 	c #D38C95",
"}C 	c #C9888A",
"|C 	c #C8868E",
"1C 	c #C08187",
"2C 	c #C5848C",
"3C 	c #CB868F",
"4C 	c #D18A93",
"5C 	c #C58089",
"6C 	c #383128",
"7C 	c #C6B58E",
"8C 	c #A7666C",
"9C 	c #B37478",
"0C 	c #B57070",
"aC 	c #AA6266",
"bC 	c #AF6568",
"cC 	c #CA817E",
"dC 	c #C37475",
"eC 	c #DE9090",
"fC 	c #AC6065",
"gC 	c #C0737B",
"hC 	c #DC908D",
"iC 	c #B96C74",
"jC 	c #A95F65",
"kC 	c #AF686A",
"lC 	c #B9A081",
"mC 	c #AE5D65",
"nC 	c #B9646C",
"oC 	c #C06873",
"pC 	c #C16F78",
"qC 	c #CE747F",
"rC 	c #C07178",
"sC 	c #C07270",
"tC 	c #B77472",
"uC 	c #C87C7F",
"vC 	c #C57B76",
"wC 	c #C47980",
"xC 	c #CE8385",
"yC 	c #C98388",
"zC 	c #DE8D97",
"AC 	c #DB8B95",
"BC 	c #CA8983",
"CC 	c #CE8E84",
"DC 	c #DB928E",
"EC 	c #D08C88",
"FC 	c #C28180",
"GC 	c #D38D91",
"HC 	c #F5A496",
"IC 	c #DE919A",
"JC 	c #D48D95",
"KC 	c #CB8487",
"LC 	c #D08A93",
"MC 	c #D58E96",
"NC 	c #D49095",
"OC 	c #CA898F",
"PC 	c #DE9499",
"QC 	c #CF8B92",
"RC 	c #CB898F",
"SC 	c #D28D93",
"TC 	c #CE858A",
"UC 	c #2E261F",
"VC 	c #CABA90",
"WC 	c #B67277",
"XC 	c #BF787B",
"YC 	c #BF7878",
"ZC 	c #DF8E92",
"`C 	c #DB8C8C",
" D 	c #B1626B",
".D 	c #B6696F",
"+D 	c #B7666A",
"@D 	c #C5747A",
"#D 	c #C7776D",
"$D 	c #CE8282",
"%D 	c #D58A88",
"&D 	c #C47873",
"*D 	c #AB6269",
"=D 	c #D8888F",
"-D 	c #CAA489",
";D 	c #765649",
">D 	c #C97979",
",D 	c #C36973",
"'D 	c #C0767A",
")D 	c #CE7681",
"!D 	c #C9767F",
"~D 	c #D37E88",
"{D 	c #D07C87",
"]D 	c #E49490",
"^D 	c #D98D8B",
"/D 	c #DD8F95",
"(D 	c #D7888F",
"_D 	c #E4969B",
":D 	c #E89F99",
"<D 	c #E1969B",
"[D 	c #E59A9A",
"}D 	c #F59CA6",
"|D 	c #DE9394",
"1D 	c #D79091",
"2D 	c #DD9095",
"3D 	c #F7A6A0",
"4D 	c #E0929A",
"5D 	c #DD9398",
"6D 	c #E49798",
"7D 	c #DC939B",
"8D 	c #D89594",
"9D 	c #E1999B",
"0D 	c #CF8F90",
"aD 	c #EE9DA9",
"bD 	c #D89198",
"cD 	c #C7828B",
"dD 	c #CB8590",
"eD 	c #BF7E87",
"fD 	c #D08792",
"gD 	c #C7818A",
"hD 	c #C17A84",
"iD 	c #2B261E",
"jD 	c #C9B68F",
"kD 	c #AA6D70",
"lD 	c #AA686F",
"mD 	c #AF6A6E",
"nD 	c #AE676B",
"oD 	c #B76D70",
"pD 	c #D78D86",
"qD 	c #BE767A",
"rD 	c #CA7E7E",
"sD 	c #DE8D93",
"tD 	c #BB7475",
"uD 	c #B46C72",
"vD 	c #AB646B",
"wD 	c #A7606A",
"xD 	c #B7A37D",
"yD 	c #A4585E",
"zD 	c #B86360",
"AD 	c #C56A73",
"BD 	c #BB6C73",
"CD 	c #C26F79",
"DD 	c #BE6D75",
"ED 	c #CA787E",
"FD 	c #C3757D",
"GD 	c #C87A81",
"HD 	c #CD7C80",
"ID 	c #CB7C7F",
"JD 	c #D2818B",
"KD 	c #CF8589",
"LD 	c #D98E92",
"MD 	c #CE8387",
"ND 	c #CD8788",
"OD 	c #D29287",
"PD 	c #D38985",
"QD 	c #D18787",
"RD 	c #C98882",
"SD 	c #D0888C",
"TD 	c #D78E94",
"UD 	c #EC9FA0",
"VD 	c #DB9397",
"WD 	c #DC8F99",
"XD 	c #DC9195",
"YD 	c #D58B94",
"ZD 	c #D58D92",
"`D 	c #E598A3",
" E 	c #D99199",
".E 	c #C88988",
"+E 	c #D59392",
"@E 	c #D79096",
"#E 	c #C8878D",
"$E 	c #CA848C",
"%E 	c #CD878E",
"&E 	c #C17D82",
"*E 	c #CA808A",
"=E 	c #3B3029",
"-E 	c #CCB18C",
";E 	c #B8757D",
">E 	c #AF6973",
",E 	c #AF6870",
"'E 	c #B06770",
")E 	c #BD7277",
"!E 	c #AE646C",
"~E 	c #B1616C",
"{E 	c #B4686E",
"]E 	c #AE5F67",
"^E 	c #CC787B",
"/E 	c #B5666F",
"(E 	c #C47675",
"_E 	c #C67C75",
":E 	c #E39594",
"<E 	c #BE7878",
"[E 	c #B16E70",
"}E 	c #A8626B",
"|E 	c #BBA885",
"1E 	c #845C57",
"2E 	c #BB686C",
"3E 	c #C16C70",
"4E 	c #C26C75",
"5E 	c #D77782",
"6E 	c #CA747E",
"7E 	c #CD7C84",
"8E 	c #CE7A86",
"9E 	c #D5838C",
"0E 	c #D5858B",
"aE 	c #DA8B91",
"bE 	c #E29294",
"cE 	c #D88B85",
"dE 	c #D88992",
"eE 	c #E89C9A",
"fE 	c #E49995",
"gE 	c #F3A0A2",
"hE 	c #E4959C",
"iE 	c #DC9396",
"jE 	c #DE9397",
"kE 	c #DF9298",
"lE 	c #D98B94",
"mE 	c #E49496",
"nE 	c #F5A5A5",
"oE 	c #DF9695",
"pE 	c #DD9399",
"qE 	c #E29B9C",
"rE 	c #DA9197",
"sE 	c #D58F91",
"tE 	c #C6868C",
"uE 	c #C6818B",
"vE 	c #C8858D",
"wE 	c #BE7E83",
"xE 	c #CA838D",
"yE 	c #C47D87",
"zE 	c #302622",
"AE 	c #CEB892",
"BE 	c #AA6671",
"CE 	c #AB6C70",
"DE 	c #A76368",
"EE 	c #AE6A70",
"FE 	c #B97273",
"GE 	c #B26871",
"HE 	c #B26A6E",
"IE 	c #C1797A",
"JE 	c #DD918F",
"KE 	c #CC8484",
"LE 	c #C17A7C",
"ME 	c #AE646E",
"NE 	c #AE686E",
"OE 	c #CB7D82",
"PE 	c #A6656C",
"QE 	c #B5A07A",
"RE 	c #753E40",
"SE 	c #BE636D",
"TE 	c #BB666F",
"UE 	c #C06971",
"VE 	c #C5787A",
"WE 	c #C06F79",
"XE 	c #D77883",
"YE 	c #BE7178",
"ZE 	c #C6767E",
"`E 	c #CA7D85",
" F 	c #BC717B",
".F 	c #CC7F79",
"+F 	c #CB7B7C",
"@F 	c #D38489",
"#F 	c #D5868D",
"$F 	c #CF8289",
"%F 	c #DD9594",
"&F 	c #C6867F",
"*F 	c #E29292",
"=F 	c #CD8985",
"-F 	c #C37E83",
";F 	c #DA9191",
">F 	c #D4898C",
",F 	c #DA9295",
"'F 	c #CA888A",
")F 	c #D68F8E",
"!F 	c #C38684",
"~F 	c #CE8990",
"{F 	c #DF9C95",
"]F 	c #CA868A",
"^F 	c #D68C95",
"/F 	c #C37D85",
"(F 	c #D38590",
"_F 	c #BD777F",
":F 	c #4D3E35",
"<F 	c #CFAF90",
"[F 	c #AB6D74",
"}F 	c #C88183",
"|F 	c #AF6C70",
"1F 	c #AA676D",
"2F 	c #B66E77",
"3F 	c #A66068",
"4F 	c #CC8283",
"5F 	c #CA8184",
"6F 	c #A05D60",
"7F 	c #C07B75",
"8F 	c #CE8680",
"9F 	c #B67771",
"0F 	c #BA7573",
"aF 	c #C0A086",
"bF 	c #6A4741",
"cF 	c #B56566",
"dF 	c #B36066",
"eF 	c #BC646C",
"fF 	c #CD7C75",
"gF 	c #C06C75",
"hF 	c #C8717A",
"iF 	c #D77B87",
"jF 	c #D07A84",
"kF 	c #CD7983",
"lF 	c #CB7883",
"mF 	c #D07F87",
"nF 	c #E19090",
"oF 	c #D88991",
"pF 	c #E09495",
"qF 	c #D7858D",
"rF 	c #FAA1A9",
"sF 	c #E99B95",
"tF 	c #F2A5A5",
"uF 	c #DA918F",
"vF 	c #E19796",
"wF 	c #DC9692",
"xF 	c #DC9493",
"yF 	c #EF9AA1",
"zF 	c #F0A2A1",
"AF 	c #FBABAC",
"BF 	c #EB9C9F",
"CF 	c #D88F96",
"DF 	c #DC9495",
"EF 	c #D99194",
"FF 	c #DC9098",
"GF 	c #D28E90",
"HF 	c #CA8487",
"IF 	c #CE8689",
"JF 	c #C58288",
"KF 	c #CF848E",
"LF 	c #CD818C",
"MF 	c #CF828D",
"NF 	c #241E19",
"OF 	c #C8B08D",
"PF 	c #A4666E",
"QF 	c #AE6B6C",
"RF 	c #A6686B",
"SF 	c #AD6A70",
"TF 	c #CB8385",
"UF 	c #D28886",
"VF 	c #A5636A",
"WF 	c #BB787A",
"XF 	c #A9636C",
"YF 	c #A7636B",
"ZF 	c #AB6B70",
"`F 	c #BEA886",
" G 	c #4F2B2B",
".G 	c #AD565E",
"+G 	c #BA7174",
"@G 	c #BF7B73",
"#G 	c #B46E6F",
"$G 	c #B77A72",
"%G 	c #D8898B",
"&G 	c #CB7B81",
"*G 	c #C1747D",
"=G 	c #BC777B",
"-G 	c #CC8889",
";G 	c #CC8089",
">G 	c #D1838A",
",G 	c #E3938E",
"'G 	c #CF8786",
")G 	c #D7908C",
"!G 	c #C28079",
"~G 	c #BB7E79",
"{G 	c #CE898A",
"]G 	c #CE848E",
"^G 	c #E69A9E",
"/G 	c #D28990",
"(G 	c #DC8F96",
"_G 	c #C38486",
":G 	c #C98787",
"<G 	c #CB828B",
"[G 	c #C98589",
"}G 	c #CD8B8D",
"|G 	c #BE837F",
"1G 	c #B87E77",
"2G 	c #CA868B",
"3G 	c #D58E8E",
"4G 	c #BA7A7D",
"5G 	c #C47D85",
"6G 	c #C47B85",
"7G 	c #C47A83",
"8G 	c #B96F79",
"9G 	c #4E3C35",
"0G 	c #C8A78A",
"aG 	c #AD6D74",
"bG 	c #C57C81",
"cG 	c #A7646D",
"dG 	c #AE6772",
"eG 	c #AA636D",
"fG 	c #AE6D72",
"gG 	c #AE6D69",
"hG 	c #C27F77",
"iG 	c #9A5F61",
"jG 	c #A26266",
"kG 	c #AE6F71",
"lG 	c #A3666A",
"mG 	c #BDA883",
"nG 	c #5A3B38",
"oG 	c #AC585D",
"pG 	c #AD585E",
"qG 	c #B8676B",
"rG 	c #BA626A",
"sG 	c #C16D73",
"tG 	c #CB6E78",
"uG 	c #C17375",
"vG 	c #C97980",
"wG 	c #D4868A",
"xG 	c #D27E87",
"yG 	c #DE918F",
"zG 	c #D7888E",
"AG 	c #DB8C92",
"BG 	c #E08B8F",
"CG 	c #F2A3A3",
"DG 	c #E29798",
"EG 	c #D88F90",
"FG 	c #D48D8B",
"GG 	c #E99997",
"HG 	c #DD8D8D",
"IG 	c #F7A59E",
"JG 	c #E69899",
"KG 	c #E7979D",
"LG 	c #CF888B",
"MG 	c #D68F91",
"NG 	c #D79392",
"OG 	c #DA8D96",
"PG 	c #D58C92",
"QG 	c #D48C91",
"RG 	c #CB868A",
"SG 	c #CE848D",
"TG 	c #D98893",
"UG 	c #CD808C",
"VG 	c #CC8189",
"WG 	c #C77C85",
"XG 	c #C2767F",
"YG 	c #382C26",
"ZG 	c #CBB390",
"`G 	c #A5666F",
" H 	c #A5656C",
".H 	c #A7646C",
"+H 	c #BA787B",
"@H 	c #AE7172",
"#H 	c #D0858C",
"$H 	c #C78184",
"%H 	c #A7636C",
"&H 	c #A7676D",
"*H 	c #AA636E",
"=H 	c #A96C6F",
"-H 	c #C4AB88",
";H 	c #50332F",
">H 	c #AC535B",
",H 	c #B2565F",
"'H 	c #B7676E",
")H 	c #BE7B78",
"!H 	c #C3827B",
"~H 	c #C17374",
"{H 	c #C67D7D",
"]H 	c #C07071",
"^H 	c #CD8081",
"/H 	c #C1737F",
"(H 	c #C1747E",
"_H 	c #C47D81",
":H 	c #CD7E89",
"<H 	c #D3848B",
"[H 	c #C58081",
"}H 	c #E1918C",
"|H 	c #E6988E",
"1H 	c #C48385",
"2H 	c #C08281",
"3H 	c #C98884",
"4H 	c #D08681",
"5H 	c #D1878B",
"6H 	c #CE8388",
"7H 	c #C98485",
"8H 	c #C28482",
"9H 	c #C98189",
"0H 	c #C07E7A",
"aH 	c #C38283",
"bH 	c #BC7D81",
"cH 	c #AE7374",
"dH 	c #BF7F7B",
"eH 	c #B87C7C",
"fH 	c #CB848A",
"gH 	c #BD7D81",
"hH 	c #BE7981",
"iH 	c #BF7A82",
"jH 	c #CA7D87",
"kH 	c #B16E74",
"lH 	c #B77278",
"mH 	c #BF707A",
"nH 	c #332C24",
"oH 	c #C4AE87",
"pH 	c #A5676F",
"qH 	c #A8676E",
"rH 	c #A5656F",
"sH 	c #A86770",
"tH 	c #A9676B",
"uH 	c #B67675",
"vH 	c #A96671",
"wH 	c #A9686F",
"xH 	c #B07074",
"yH 	c #B27373",
"zH 	c #B57679",
"AH 	c #BC9F82",
"BH 	c #704042",
"CH 	c #A6555A",
"DH 	c #AB5259",
"EH 	c #A8525A",
"FH 	c #B36067",
"GH 	c #AD5E64",
"HH 	c #BA7271",
"IH 	c #BD6A70",
"JH 	c #C67A78",
"KH 	c #C57C7C",
"LH 	c #CA7B82",
"MH 	c #DE8C93",
"NH 	c #D27C87",
"OH 	c #E49398",
"PH 	c #E58E8E",
"QH 	c #DD8E8E",
"RH 	c #E18F8E",
"SH 	c #E79796",
"TH 	c #DE8D91",
"UH 	c #ECA19C",
"VH 	c #DD8E94",
"WH 	c #E19395",
"XH 	c #D8858E",
"YH 	c #D58C8C",
"ZH 	c #D08589",
"`H 	c #DD9790",
" I 	c #FBAEA1",
".I 	c #DD8B94",
"+I 	c #D4888E",
"@I 	c #D38B8D",
"#I 	c #D6888F",
"$I 	c #D18A8F",
"%I 	c #E5969C",
"&I 	c #D48A83",
"*I 	c #D18D8B",
"=I 	c #CA818A",
"-I 	c #CC7F89",
";I 	c #DD8994",
">I 	c #CF808B",
",I 	c #CD7D87",
"'I 	c #CE7C87",
")I 	c #B66D75",
"!I 	c #211816",
"~I 	c #CDB491",
"{I 	c #A3626E",
"]I 	c #A4666D",
"^I 	c #A2646D",
"/I 	c #A3636C",
"(I 	c #C88385",
"_I 	c #BB757A",
":I 	c #B9777D",
"<I 	c #A76970",
"[I 	c #A2636C",
"}I 	c #A0616B",
"|I 	c #AD7075",
"1I 	c #C0B089",
"2I 	c #AA525B",
"3I 	c #B7565F",
"4I 	c #BE7075",
"5I 	c #C2817D",
"6I 	c #BC7274",
"7I 	c #BD7B78",
"8I 	c #BE7672",
"9I 	c #C97C7A",
"0I 	c #B47175",
"aI 	c #D3868A",
"bI 	c #C5747D",
"cI 	c #C4757F",
"dI 	c #C38082",
"eI 	c #D58C8E",
"fI 	c #CB7E88",
"gI 	c #C17C7B",
"hI 	c #D68189",
"iI 	c #CF8284",
"jI 	c #C4827F",
"kI 	c #C5857E",
"lI 	c #D7838F",
"mI 	c #CB818A",
"nI 	c #BA797A",
"oI 	c #CA848B",
"pI 	c #CE8A8C",
"qI 	c #B77B79",
"rI 	c #C37F85",
"sI 	c #BF807D",
"tI 	c #C17E76",
"uI 	c #BC7F7D",
"vI 	c #D89292",
"wI 	c #BA7F7B",
"xI 	c #C97F87",
"yI 	c #D88690",
"zI 	c #B7747A",
"AI 	c #BF787E",
"BI 	c #CC7A85",
"CI 	c #C5757E",
"DI 	c #B46A74",
"EI 	c #B56D72",
"FI 	c #3F352C",
"GI 	c #C7B78F",
"HI 	c #A1636B",
"II 	c #A2626A",
"JI 	c #A3636E",
"KI 	c #AE6F70",
"LI 	c #BE7E7D",
"MI 	c #B17B70",
"NI 	c #D3A290",
"OI 	c #8E484F",
"PI 	c #A75963",
"QI 	c #AB555C",
"RI 	c #B6555F",
"SI 	c #B76668",
"TI 	c #B95C65",
"UI 	c #BA5F68",
"VI 	c #BE6F73",
"WI 	c #AD6761",
"XI 	c #C56B75",
"YI 	c #C16D75",
"ZI 	c #C07379",
"`I 	c #C8777F",
" J 	c #C97E83",
".J 	c #DB7F8A",
"+J 	c #D68386",
"@J 	c #CD7D83",
"#J 	c #D5848B",
"$J 	c #DB908F",
"%J 	c #E59193",
"&J 	c #D88C90",
"*J 	c #E79898",
"=J 	c #FAA4A5",
"-J 	c #D7878D",
";J 	c #F1A39E",
">J 	c #ED9D93",
",J 	c #ED9EA0",
"'J 	c #E79699",
")J 	c #E39596",
"!J 	c #D4868D",
"~J 	c #DD9195",
"{J 	c #DA8C96",
"]J 	c #DA8E95",
"^J 	c #D28A89",
"/J 	c #D78D88",
"(J 	c #EA9C93",
"_J 	c #D0888B",
":J 	c #DE8995",
"<J 	c #C87D86",
"[J 	c #C87781",
"}J 	c #BA7178",
"|J 	c #C3707B",
"1J 	c #150F0E",
"2J 	c #CDBC92",
"3J 	c #A2666D",
"4J 	c #A3646E",
"5J 	c #B27279",
"6J 	c #AC6C71",
"7J 	c #B57278",
"8J 	c #A1626C",
"9J 	c #A56A70",
"0J 	c #9E616A",
"aJ 	c #BAA984",
"bJ 	c #352925",
"cJ 	c #A8535C",
"dJ 	c #AB535B",
"eJ 	c #AC535A",
"fJ 	c #B85760",
"gJ 	c #B26065",
"hJ 	c #BB6A6F",
"iJ 	c #BA6D73",
"jJ 	c #C77B7D",
"kJ 	c #B97073",
"lJ 	c #B77272",
"mJ 	c #B77474",
"nJ 	c #BF7A7B",
"oJ 	c #C77A7F",
"pJ 	c #BB7077",
"qJ 	c #C57880",
"rJ 	c #C2797D",
"sJ 	c #C0717B",
"tJ 	c #C77883",
"uJ 	c #C28380",
"vJ 	c #CD8389",
"wJ 	c #CB7D81",
"xJ 	c #C67B7F",
"yJ 	c #C98284",
"zJ 	c #C2807B",
"AJ 	c #C27F80",
"BJ 	c #C77F83",
"CJ 	c #D88D91",
"DJ 	c #D88C91",
"EJ 	c #C68285",
"FJ 	c #D48C8F",
"GJ 	c #BA7A78",
"HJ 	c #C7837B",
"IJ 	c #BF7E80",
"JJ 	c #C68286",
"KJ 	c #BE7F7E",
"LJ 	c #C98783",
"MJ 	c #BC7879",
"NJ 	c #B87878",
"OJ 	c #D5838D",
"PJ 	c #B47177",
"QJ 	c #C0787D",
"RJ 	c #BD717B",
"SJ 	c #C47D7E",
"TJ 	c #3A2E28",
"UJ 	c #C9B78E",
"VJ 	c #9D5E68",
"WJ 	c #A7646F",
"XJ 	c #9F606A",
"YJ 	c #A2626C",
"ZJ 	c #A1646C",
"`J 	c #9E836E",
" K 	c #927C5D",
".K 	c #B76C67",
"+K 	c #A85756",
"@K 	c #A8565C",
"#K 	c #AC5960",
"$K 	c #9E5658",
"%K 	c #B15A60",
"&K 	c #AF5D62",
"*K 	c #B56065",
"=K 	c #BD6772",
"-K 	c #B1636A",
";K 	c #C06D73",
">K 	c #C3787D",
",K 	c #D6838A",
"'K 	c #BA7576",
")K 	c #DD908F",
"!K 	c #D88683",
"~K 	c #D58C89",
"{K 	c #EA9F9A",
"]K 	c #D3868C",
"^K 	c #D78988",
"/K 	c #EAA29F",
"(K 	c #DF8C8A",
"_K 	c #F09993",
":K 	c #F09B9D",
"<K 	c #E99891",
"[K 	c #D98B8D",
"}K 	c #F7A39E",
"|K 	c #EC9C9F",
"1K 	c #D6868D",
"2K 	c #D4878A",
"3K 	c #DC9192",
"4K 	c #D88F91",
"5K 	c #D5858E",
"6K 	c #E3999A",
"7K 	c #D88E91",
"8K 	c #E09291",
"9K 	c #EAA19F",
"0K 	c #D2858E",
"aK 	c #D2818C",
"bK 	c #C67882",
"cK 	c #B96F76",
"dK 	c #B0636C",
"eK 	c #261818",
"fK 	c #A4676D",
"gK 	c #A1656D",
"hK 	c #A0666C",
"iK 	c #9C606A",
"jK 	c #9B6268",
"kK 	c #985D66",
"lK 	c #CABC90",
"mK 	c #362E25",
"nK 	c #A3545C",
"oK 	c #B15761",
"pK 	c #B0545E",
"qK 	c #BA5861",
"rK 	c #B7555E",
"sK 	c #B15A61",
"tK 	c #B5686F",
"uK 	c #CA7C80",
"vK 	c #B77074",
"wK 	c #BC7878",
"xK 	c #C88581",
"yK 	c #C27279",
"zK 	c #B97879",
"AK 	c #CD8088",
"BK 	c #CE7F85",
"CK 	c #CA8383",
"DK 	c #D6948F",
"EK 	c #D48D8C",
"FK 	c #CE8183",
"GK 	c #CC8387",
"HK 	c #C88885",
"IK 	c #E09493",
"JK 	c #C58285",
"KK 	c #D1838B",
"LK 	c #DA8792",
"MK 	c #D4838E",
"NK 	c #C67E83",
"OK 	c #E19594",
"PK 	c #D68A86",
"QK 	c #C47E82",
"RK 	c #C48282",
"SK 	c #BA777B",
"TK 	c #C4837C",
"UK 	c #B47775",
"VK 	c #C2797E",
"WK 	c #BB6E76",
"XK 	c #BE6C76",
"YK 	c #B3676E",
"ZK 	c #A5555C",
"`K 	c #3F2E28",
" L 	c #D4C496",
".L 	c #9F5E68",
"+L 	c #9C5C66",
"@L 	c #965A62",
"#L 	c #A05F69",
"$L 	c #AB9A79",
"%L 	c #6A614C",
"&L 	c #A85E5F",
"*L 	c #C1776E",
"=L 	c #A9555A",
"-L 	c #B57C76",
";L 	c #AF5A5F",
">L 	c #B3555D",
",L 	c #AE555D",
"'L 	c #BD5B65",
")L 	c #B95F67",
"!L 	c #BC666F",
"~L 	c #B06567",
"{L 	c #C36B74",
"]L 	c #C87278",
"^L 	c #C57178",
"/L 	c #B9716C",
"(L 	c #C27A7D",
"_L 	c #C5807B",
":L 	c #BE7C7A",
"<L 	c #AA6C70",
"[L 	c #BB7B7A",
"}L 	c #BA7877",
"|L 	c #B87679",
"1L 	c #D68A8D",
"2L 	c #DF9291",
"3L 	c #DB9590",
"4L 	c #E89F97",
"5L 	c #DC8C8E",
"6L 	c #DF8E8D",
"7L 	c #EA988E",
"8L 	c #D88D90",
"9L 	c #C28083",
"0L 	c #DA8D90",
"aL 	c #DC8994",
"bL 	c #CC8488",
"cL 	c #CD8288",
"dL 	c #D2878E",
"eL 	c #DA9091",
"fL 	c #EB9E95",
"gL 	c #D4888D",
"hL 	c #CE8789",
"iL 	c #CD8387",
"jL 	c #C67880",
"kL 	c #D17A85",
"lL 	c #BC7177",
"mL 	c #B86A72",
"nL 	c #B2636D",
"oL 	c #AE636A",
"pL 	c #351F20",
"qL 	c #D3C497",
"rL 	c #9B6066",
"sL 	c #995E65",
"tL 	c #9B6169",
"uL 	c #935961",
"vL 	c #995B65",
"wL 	c #B5A280",
"xL 	c #393229",
"yL 	c #9D535B",
"zL 	c #AD5861",
"AL 	c #B35861",
"BL 	c #BA5862",
"CL 	c #B8555F",
"DL 	c #B05F61",
"EL 	c #B8656E",
"FL 	c #B66E75",
"GL 	c #C38481",
"HL 	c #BC6C73",
"IL 	c #BE6D77",
"JL 	c #BD7678",
"KL 	c #D28589",
"LL 	c #CC837D",
"ML 	c #BC7477",
"NL 	c #C67E7D",
"OL 	c #C88D86",
"PL 	c #CE8586",
"QL 	c #D69491",
"RL 	c #CB8686",
"SL 	c #DB898B",
"TL 	c #CF8084",
"UL 	c #CD7E85",
"VL 	c #C88383",
"WL 	c #D58C8B",
"XL 	c #CE8589",
"YL 	c #C07F7E",
"ZL 	c #D5858C",
"`L 	c #D7838D",
" M 	c #CF8081",
".M 	c #CD7F86",
"+M 	c #EC8E9A",
"@M 	c #C48283",
"#M 	c #D98B7D",
"$M 	c #CA8887",
"%M 	c #C37F7F",
"&M 	c #CD8281",
"*M 	c #BF7871",
"=M 	c #BE767D",
"-M 	c #C88481",
";M 	c #C2787B",
">M 	c #C77D77",
",M 	c #BA6972",
"'M 	c #B86F72",
")M 	c #B16169",
"!M 	c #A5575C",
"~M 	c #A24E57",
"{M 	c #191210",
"]M 	c #7B758F",
"^M 	c #7D6A81",
"/M 	c #886F83",
"(M 	c #AC8889",
"_M 	c #443930",
":M 	c #9C5A60",
"<M 	c #9F565C",
"[M 	c #AA5760",
"}M 	c #A45C5D",
"|M 	c #A96065",
"1M 	c #AB545B",
"2M 	c #A55359",
"3M 	c #A85359",
"4M 	c #B35862",
"5M 	c #B65D64",
"6M 	c #B96D6F",
"7M 	c #A66468",
"8M 	c #B36A6F",
"9M 	c #BC6A71",
"0M 	c #B8736A",
"aM 	c #B6726D",
"bM 	c #BF7976",
"cM 	c #A46C68",
"dM 	c #C07F70",
"eM 	c #BF7B7F",
"fM 	c #C98C87",
"gM 	c #B77878",
"hM 	c #B87D79",
"iM 	c #CD8C87",
"jM 	c #BA6A7E",
"kM 	c #E29998",
"lM 	c #E1908F",
"mM 	c #E08A93",
"nM 	c #D98489",
"oM 	c #CF8088",
"pM 	c #EA918B",
"qM 	c #E19792",
"rM 	c #E79C98",
"sM 	c #BA7D79",
"tM 	c #C07A7A",
"uM 	c #C88381",
"vM 	c #C58085",
"wM 	c #D3908B",
"xM 	c #DB9088",
"yM 	c #CD8188",
"zM 	c #CE8187",
"AM 	c #C87A82",
"BM 	c #CD7B85",
"CM 	c #C57A81",
"DM 	c #C1737D",
"EM 	c #BE7077",
"FM 	c #C6787B",
"GM 	c #B96771",
"HM 	c #B3626C",
"IM 	c #AD6167",
"JM 	c #AF5862",
"KM 	c #341C1D",
"LM 	c #C8B68E",
"MM 	c #955D63",
"NM 	c #965B63",
"OM 	c #887187",
"PM 	c #A38184",
"QM 	c #AE5962",
"RM 	c #AB555E",
"SM 	c #BB5963",
"TM 	c #BE5963",
"UM 	c #B5565F",
"VM 	c #B9646F",
"WM 	c #BD6C77",
"XM 	c #C07378",
"YM 	c #C8787B",
"ZM 	c #C4727B",
"`M 	c #CC797F",
" N 	c #DB918D",
".N 	c #D48186",
"+N 	c #D7818D",
"@N 	c #C98583",
"#N 	c #BF7E7D",
"$N 	c #D48F89",
"%N 	c #D08082",
"&N 	c #C97C81",
"*N 	c #CF8085",
"=N 	c #CF8A86",
"-N 	c #DD9190",
";N 	c #D5868A",
">N 	c #CD7D82",
",N 	c #CC7E85",
"'N 	c #CF7D85",
")N 	c #CD7C86",
"!N 	c #D2878B",
"~N 	c #CD8478",
"{N 	c #DA8E8C",
"]N 	c #BC7D7E",
"^N 	c #D48789",
"/N 	c #D4867B",
"(N 	c #C6797A",
"_N 	c #B87075",
":N 	c #B16269",
"<N 	c #AE5F63",
"[N 	c #AE525B",
"}N 	c #A8525B",
"|N 	c #573D4B",
"1N 	c #5D587A",
"2N 	c #6C6487",
"3N 	c #7D6F8F",
"4N 	c #876F85",
"5N 	c #A26C74",
"6N 	c #A15963",
"7N 	c #A65962",
"8N 	c #A9565E",
"9N 	c #A9545D",
"0N 	c #B06461",
"aN 	c #A9525A",
"bN 	c #C35A64",
"cN 	c #B3535D",
"dN 	c #A45A60",
"eN 	c #B1666A",
"fN 	c #AA6367",
"gN 	c #B67175",
"hN 	c #B86B6F",
"iN 	c #AC6B69",
"jN 	c #B57975",
"kN 	c #B0736F",
"lN 	c #AD736F",
"mN 	c #AA6D69",
"nN 	c #C17E80",
"oN 	c #AC7472",
"pN 	c #BF7D7C",
"qN 	c #C47C85",
"rN 	c #D5908A",
"sN 	c #D08988",
"tN 	c #D58A8A",
"uN 	c #C57C7E",
"vN 	c #C07975",
"wN 	c #B57A74",
"xN 	c #D28C83",
"yN 	c #DB8C8F",
"zN 	c #B87875",
"AN 	c #B6716B",
"BN 	c #D28E8B",
"CN 	c #DA938B",
"DN 	c #E69A99",
"EN 	c #D68983",
"FN 	c #CC7B84",
"GN 	c #D08886",
"HN 	c #C4777D",
"IN 	c #BE6F74",
"JN 	c #B5666E",
"KN 	c #B2636A",
"LN 	c #AC5C63",
"MN 	c #A95A60",
"NN 	c #A85059",
"ON 	c #321D1D",
"PN 	c #7F7887",
"QN 	c #786682",
"RN 	c #766884",
"SN 	c #877289",
"TN 	c #A6727D",
"UN 	c #9E5962",
"VN 	c #AF5A64",
"WN 	c #AE5761",
"XN 	c #A2575C",
"YN 	c #AC535C",
"ZN 	c #B7636B",
"`N 	c #B25F68",
" O 	c #C3727B",
".O 	c #C98084",
"+O 	c #C2757A",
"@O 	c #C5767D",
"#O 	c #C5817D",
"$O 	c #D38F88",
"%O 	c #C88683",
"&O 	c #D6918C",
"*O 	c #CC7C7E",
"=O 	c #E28A8C",
"-O 	c #CC8184",
";O 	c #CF7F88",
">O 	c #E0958F",
",O 	c #E89C97",
"'O 	c #CA8486",
")O 	c #D8858B",
"!O 	c #CA7D83",
"~O 	c #CB7F83",
"{O 	c #CD8084",
"]O 	c #E49795",
"^O 	c #DF9494",
"/O 	c #F09796",
"(O 	c #D08387",
"_O 	c #CF8187",
":O 	c #CD8184",
"<O 	c #CF8884",
"[O 	c #DB8E89",
"}O 	c #CE807B",
"|O 	c #C07274",
"1O 	c #BB6D73",
"2O 	c #B25D65",
"3O 	c #A9565A",
"4O 	c #AE545D",
"5O 	c #A0575C",
"6O 	c #3F2C36",
"7O 	c #524D6A",
"8O 	c #625F87",
"9O 	c #6B668A",
"0O 	c #896D7B",
"aO 	c #8E6575",
"bO 	c #A15B65",
"cO 	c #A25962",
"dO 	c #AA5962",
"eO 	c #9F555C",
"fO 	c #A0545A",
"gO 	c #A76666",
"hO 	c #A65F61",
"iO 	c #AD5E61",
"jO 	c #A95058",
"kO 	c #AE595E",
"lO 	c #BA6B6E",
"mO 	c #A76166",
"nO 	c #AD675B",
"oO 	c #AF6A69",
"pO 	c #BE7576",
"qO 	c #D78F8A",
"rO 	c #B07373",
"sO 	c #A9716E",
"tO 	c #B17473",
"uO 	c #B67276",
"vO 	c #B07374",
"wO 	c #B77D79",
"xO 	c #BA7B7C",
"yO 	c #C17F7F",
"zO 	c #BC7F79",
"AO 	c #DA928E",
"BO 	c #CC8480",
"CO 	c #CF8880",
"DO 	c #D08B85",
"EO 	c #C68483",
"FO 	c #C87B76",
"GO 	c #B57873",
"HO 	c #BD7974",
"IO 	c #B67A73",
"JO 	c #B77773",
"KO 	c #D38B81",
"LO 	c #B77772",
"MO 	c #CC8885",
"NO 	c #B47478",
"OO 	c #C17C7F",
"PO 	c #C98282",
"QO 	c #C98386",
"RO 	c #C97B80",
"SO 	c #C9757F",
"TO 	c #CF8585",
"UO 	c #BC6B73",
"VO 	c #B06267",
"WO 	c #A9515B",
"XO 	c #A8515B",
"YO 	c #824651",
"ZO 	c #595476",
"`O 	c #6B6588",
" P 	c #6F6684",
".P 	c #7F708F",
"+P 	c #987487",
"@P 	c #A55D67",
"#P 	c #AF5B65",
"$P 	c #AA545E",
"%P 	c #A3535C",
"&P 	c #B15F65",
"*P 	c #B46165",
"=P 	c #B2565E",
"-P 	c #C06C6D",
";P 	c #C36A74",
">P 	c #BD666D",
",P 	c #C47A7F",
"'P 	c #CA7E80",
")P 	c #C57379",
"!P 	c #CA787B",
"~P 	c #D27C7C",
"{P 	c #CE7D76",
"]P 	c #DC8B87",
"^P 	c #EE9F94",
"/P 	c #E0958D",
"(P 	c #E7998F",
"_P 	c #DE8F7F",
":P 	c #CE8285",
"<P 	c #DC8B89",
"[P 	c #D47F87",
"}P 	c #E29A93",
"|P 	c #D9918E",
"1P 	c #D78E8D",
"2P 	c #D07D84",
"3P 	c #D37B85",
"4P 	c #EA9599",
"5P 	c #C98381",
"6P 	c #DB918C",
"7P 	c #CF8482",
"8P 	c #D78980",
"9P 	c #D28681",
"0P 	c #BC706F",
"aP 	c #C16B6C",
"bP 	c #BD6F72",
"cP 	c #AA555C",
"dP 	c #B86364",
"eP 	c #AC545E",
"fP 	c #9C525A",
"gP 	c #A3856F",
"hP 	c #33323F",
"iP 	c #4E4B69",
"jP 	c #5B587C",
"kP 	c #6C6A86",
"lP 	c #A3676D",
"mP 	c #AB5F6A",
"nP 	c #A75A62",
"oP 	c #A4585F",
"pP 	c #9F585B",
"qP 	c #A2565C",
"rP 	c #A5565D",
"sP 	c #A65960",
"tP 	c #A55D62",
"uP 	c #AF6367",
"vP 	c #AD5F60",
"wP 	c #BC6E6F",
"xP 	c #BF716B",
"yP 	c #B47373",
"zP 	c #B77877",
"AP 	c #B4716B",
"BP 	c #B37376",
"CP 	c #B17073",
"DP 	c #A97470",
"EP 	c #B97979",
"FP 	c #C07C7D",
"GP 	c #B67677",
"HP 	c #C78785",
"IP 	c #C3857F",
"JP 	c #C07D7C",
"KP 	c #C3877C",
"LP 	c #BE7C7E",
"MP 	c #BE7B6B",
"NP 	c #CA8282",
"OP 	c #C78381",
"PP 	c #D68E85",
"QP 	c #BC7E7A",
"RP 	c #BA7B74",
"SP 	c #BE7A79",
"TP 	c #CB7F7D",
"UP 	c #D5908B",
"VP 	c #BD7570",
"WP 	c #C47B80",
"XP 	c #CF857E",
"YP 	c #B97278",
"ZP 	c #B56D70",
"`P 	c #BB6B73",
" Q 	c #B8646B",
".Q 	c #B36069",
"+Q 	c #A9545C",
"@Q 	c #A75059",
"#Q 	c #A24F59",
"$Q 	c #4D303B",
"%Q 	c #545171",
"&Q 	c #605D84",
"*Q 	c #615F86",
"=Q 	c #736D91",
"-Q 	c #9F616A",
";Q 	c #A55F69",
">Q 	c #AB5D67",
",Q 	c #AD5863",
"'Q 	c #AB565F",
")Q 	c #A7555C",
"!Q 	c #B5646C",
"~Q 	c #B7656A",
"{Q 	c #B55B63",
"]Q 	c #CA7B76",
"^Q 	c #BD6973",
"/Q 	c #BF6D72",
"(Q 	c #CB7A7D",
"_Q 	c #C26F71",
":Q 	c #CD7A81",
"<Q 	c #C77479",
"[Q 	c #DB8581",
"}Q 	c #D5847E",
"|Q 	c #EB978C",
"1Q 	c #F59F9C",
"2Q 	c #E08E82",
"3Q 	c #E7978D",
"4Q 	c #DB878D",
"5Q 	c #DA878B",
"6Q 	c #E18E95",
"7Q 	c #DF9592",
"8Q 	c #D08487",
"9Q 	c #C4777A",
"0Q 	c #BF6F78",
"aQ 	c #CF7A81",
"bQ 	c #EFA29A",
"cQ 	c #D27D7F",
"dQ 	c #DA888D",
"eQ 	c #D48188",
"fQ 	c #D38B84",
"gQ 	c #D07B7B",
"hQ 	c #D28684",
"iQ 	c #D08182",
"jQ 	c #C87674",
"kQ 	c #CD817B",
"lQ 	c #C77776",
"mQ 	c #AE565B",
"nQ 	c #B6665F",
"oQ 	c #A6575D",
"pQ 	c #A0525A",
"qQ 	c #B6A781",
"rQ 	c #685F4A",
"sQ 	c #B9767F",
"tQ 	c #B97780",
"uQ 	c #B37681",
"vQ 	c #A06971",
"wQ 	c #B0A37E",
"xQ 	c #A77071",
"yQ 	c #AE5D67",
"zQ 	c #A7635F",
"AQ 	c #AA555F",
"BQ 	c #B1555E",
"CQ 	c #B4565F",
"DQ 	c #AA6667",
"EQ 	c #B46769",
"FQ 	c #C97872",
"GQ 	c #C47474",
"HQ 	c #C9827E",
"IQ 	c #D9878A",
"JQ 	c #C8807A",
"KQ 	c #B57075",
"LQ 	c #BB7479",
"MQ 	c #D48D88",
"NQ 	c #B57977",
"OQ 	c #C1807E",
"PQ 	c #C98786",
"QQ 	c #D38E89",
"RQ 	c #CA877C",
"SQ 	c #CC8479",
"TQ 	c #DA8C8F",
"UQ 	c #DD908E",
"VQ 	c #B87271",
"WQ 	c #C17871",
"XQ 	c #C18080",
"YQ 	c #CE8784",
"ZQ 	c #C17872",
"`Q 	c #B67571",
" R 	c #C37D79",
".R 	c #E49E94",
"+R 	c #CC8584",
"@R 	c #CC8782",
"#R 	c #D98C8E",
"$R 	c #DA8A89",
"%R 	c #D78E8B",
"&R 	c #C77D7E",
"*R 	c #C97F7C",
"=R 	c #BC7377",
"-R 	c #C0626C",
";R 	c #B35962",
">R 	c #A6535C",
",R 	c #9F545D",
"'R 	c #454258",
")R 	c #545275",
"!R 	c #463E53",
"~R 	c #252025",
"{R 	c #A45F6A",
"]R 	c #AA5E68",
"^R 	c #A95B65",
"/R 	c #B35D67",
"(R 	c #A5595F",
"_R 	c #A5575F",
":R 	c #AF6064",
"<R 	c #BA6772",
"[R 	c #B46068",
"}R 	c #CD7C7D",
"|R 	c #C47376",
"1R 	c #BE6A70",
"2R 	c #C26970",
"3R 	c #C16970",
"4R 	c #EE9F99",
"5R 	c #DD8987",
"6R 	c #DD8D86",
"7R 	c #E39488",
"8R 	c #E28D94",
"9R 	c #E58F96",
"0R 	c #DB8E8D",
"aR 	c #E09396",
"bR 	c #D5858A",
"cR 	c #E09991",
"dR 	c #D28182",
"eR 	c #CE7E81",
"fR 	c #C6727A",
"gR 	c #DD878A",
"hR 	c #DB8D8D",
"iR 	c #C87A7C",
"jR 	c #DD8D8E",
"kR 	c #D98E87",
"lR 	c #CB7F7C",
"mR 	c #C97573",
"nR 	c #BF6D6F",
"oR 	c #C36F6D",
"pR 	c #B05E63",
"qR 	c #A8545B",
"rR 	c #C47874",
"sR 	c #A2545B",
"tR 	c #C1B289",
"uR 	c #494234",
"vR 	c #C8858E",
"wR 	c #C3838C",
"xR 	c #BE818A",
"yR 	c #887A60",
"zR 	c #A77E71",
"AR 	c #A45D65",
"BR 	c #A46265",
"CR 	c #B75B66",
"DR 	c #B65863",
"ER 	c #B65861",
"FR 	c #B1555F",
"GR 	c #B3696D",
"HR 	c #C17170",
"IR 	c #C9777A",
"JR 	c #BD7875",
"KR 	c #BA6E6C",
"LR 	c #B76A6D",
"MR 	c #B56D6F",
"NR 	c #BE7578",
"OR 	c #B97275",
"PR 	c #C4787C",
"QR 	c #CF9188",
"RR 	c #BA7C7A",
"SR 	c #CD8981",
"TR 	c #C37C80",
"UR 	c #DA8A8D",
"VR 	c #E19291",
"WR 	c #C3817E",
"XR 	c #C47B7C",
"YR 	c #C0786E",
"ZR 	c #CD7F78",
"`R 	c #C97E80",
" S 	c #BE7573",
".S 	c #BF7773",
"+S 	c #C07A7C",
"@S 	c #E89B96",
"#S 	c #CD8083",
"$S 	c #D88F8B",
"%S 	c #D38F8B",
"&S 	c #BE7579",
"*S 	c #C17778",
"=S 	c #C47574",
"-S 	c #C47D79",
";S 	c #AE6066",
">S 	c #BD5D66",
",S 	c #B1545D",
"'S 	c #A5515A",
")S 	c #9B5059",
"!S 	c #CDBF92",
"~S 	c #1B1513",
"{S 	c #362E3D",
"]S 	c #C28089",
"^S 	c #C18089",
"/S 	c #D5C699",
"(S 	c #A05B65",
"_S 	c #AE606A",
":S 	c #B25E69",
"<S 	c #AE5B64",
"[S 	c #A65B61",
"}S 	c #B05861",
"|S 	c #D0797C",
"1S 	c #B7616B",
"2S 	c #D27D83",
"3S 	c #B55A60",
"4S 	c #BE616B",
"5S 	c #C16B6D",
"6S 	c #C7636E",
"7S 	c #CE8182",
"8S 	c #D27E7E",
"9S 	c #C87879",
"0S 	c #DC8A88",
"aS 	c #E3928D",
"bS 	c #D78887",
"cS 	c #D58387",
"dS 	c #E19592",
"eS 	c #DD847A",
"fS 	c #DC8482",
"gS 	c #D9858B",
"hS 	c #DB8D8F",
"iS 	c #D08485",
"jS 	c #E09992",
"kS 	c #D78489",
"lS 	c #D18484",
"mS 	c #C7787E",
"nS 	c #C98382",
"oS 	c #C87A7E",
"pS 	c #D27C7D",
"qS 	c #CC777C",
"rS 	c #D38386",
"sS 	c #CD7E7E",
"tS 	c #F29F8E",
"uS 	c #E18F87",
"vS 	c #C87775",
"wS 	c #B15C60",
"xS 	c #CF7F78",
"yS 	c #AD5F65",
"zS 	c #C8B98F",
"AS 	c #383229",
"BS 	c #C07F88",
"CS 	c #D5919B",
"DS 	c #D8959F",
"ES 	c #D996A1",
"FS 	c #CD8E97",
"GS 	c #5D5743",
"HS 	c #A15E65",
"IS 	c #AD5F6A",
"JS 	c #A65861",
"KS 	c #B15A64",
"LS 	c #AD5B62",
"MS 	c #B65A64",
"NS 	c #B45E64",
"OS 	c #B26769",
"PS 	c #B16866",
"QS 	c #C3696D",
"RS 	c #BA6A6C",
"SS 	c #B77068",
"TS 	c #BA6969",
"US 	c #C87E7F",
"VS 	c #C37A79",
"WS 	c #C5807E",
"XS 	c #CF8980",
"YS 	c #D18784",
"ZS 	c #C37B7C",
"`S 	c #DF9092",
" T 	c #D48D86",
".T 	c #CF8987",
"+T 	c #C57B7E",
"@T 	c #C97B6D",
"#T 	c #CE7F80",
"$T 	c #C67979",
"%T 	c #BD7576",
"&T 	c #C1786D",
"*T 	c #C6817D",
"=T 	c #BC7974",
"-T 	c #BB7772",
";T 	c #CE8982",
">T 	c #C67676",
",T 	c #C9807E",
"'T 	c #B66A70",
")T 	c #C16E75",
"!T 	c #B1535C",
"~T 	c #A7535C",
"{T 	c #9E515A",
"]T 	c #CEBE92",
"^T 	c #4B3934",
"/T 	c #BD7B84",
"(T 	c #C07E88",
"_T 	c #CF8E98",
":T 	c #CE8D97",
"<T 	c #CC8C96",
"[T 	c #353026",
"}T 	c #CAB991",
"|T 	c #AC616C",
"1T 	c #AA6066",
"2T 	c #AD5E62",
"3T 	c #BB6E73",
"4T 	c #B35B62",
"5T 	c #C26C6F",
"6T 	c #C1696D",
"7T 	c #BC6168",
"8T 	c #BD636A",
"9T 	c #BD6169",
"0T 	c #BE6169",
"aT 	c #D37F7E",
"bT 	c #C86F78",
"cT 	c #E6998D",
"dT 	c #EF988C",
"eT 	c #E89097",
"fT 	c #EA9794",
"gT 	c #D98783",
"hT 	c #D58484",
"iT 	c #D68286",
"jT 	c #E78896",
"kT 	c #D38887",
"lT 	c #E89499",
"mT 	c #E59593",
"nT 	c #DF968F",
"oT 	c #E39695",
"pT 	c #C67278",
"qT 	c #D08580",
"rT 	c #C98081",
"sT 	c #B7676F",
"tT 	c #DA8C89",
"uT 	c #DD8B86",
"vT 	c #CE7B7B",
"wT 	c #D3807E",
"xT 	c #C06A6C",
"yT 	c #C47771",
"zT 	c #D48179",
"AT 	c #D38883",
"BT 	c #A96264",
"CT 	c #9F535A",
"DT 	c #C0AF89",
"ET 	c #3C302A",
"FT 	c #D18A95",
"GT 	c #DA949E",
"HT 	c #D7949E",
"IT 	c #D1919B",
"JT 	c #E2A0AA",
"KT 	c #352F26",
"LT 	c #CCBB92",
"MT 	c #B7626D",
"NT 	c #AC5B65",
"OT 	c #B05A64",
"PT 	c #BC6D6F",
"QT 	c #BB6867",
"RT 	c #BA7771",
"ST 	c #AA6162",
"TT 	c #B36865",
"UT 	c #AB5C5D",
"VT 	c #B26669",
"WT 	c #AF6166",
"XT 	c #B66B6E",
"YT 	c #C17271",
"ZT 	c #C37377",
"`T 	c #B66C6A",
" U 	c #CE8080",
".U 	c #BD7E7B",
"+U 	c #C67C7C",
"@U 	c #C47A7A",
"#U 	c #B87377",
"$U 	c #BF7579",
"%U 	c #CB797F",
"&U 	c #CF8182",
"*U 	c #D98A8B",
"=U 	c #C37278",
"-U 	c #C16F77",
";U 	c #BE7275",
">U 	c #C1757B",
",U 	c #CE8A82",
"'U 	c #D68F86",
")U 	c #CA8981",
"!U 	c #BA756B",
"~U 	c #AF6C65",
"{U 	c #B5746F",
"]U 	c #C27978",
"^U 	c #C27C75",
"/U 	c #B67070",
"(U 	c #A65A5E",
"_U 	c #AA545C",
":U 	c #A2535B",
"<U 	c #C6B88D",
"[U 	c #573F3E",
"}U 	c #C4838C",
"|U 	c #C78790",
"1U 	c #D4949E",
"2U 	c #CD8F99",
"3U 	c #413C2F",
"4U 	c #C2B089",
"5U 	c #AF616B",
"6U 	c #AC5D68",
"7U 	c #AB5A64",
"8U 	c #A75961",
"9U 	c #AF5A63",
"0U 	c #BA6F6F",
"aU 	c #BA696B",
"bU 	c #BD6F70",
"cU 	c #C6747A",
"dU 	c #B96E6C",
"eU 	c #C8616B",
"fU 	c #CB7876",
"gU 	c #E6908B",
"hU 	c #D3787A",
"iU 	c #C87075",
"jU 	c #D47E83",
"kU 	c #D38188",
"lU 	c #D38182",
"mU 	c #D0737C",
"nU 	c #C8777E",
"oU 	c #CE7A81",
"pU 	c #E99797",
"qU 	c #D68783",
"rU 	c #CF8584",
"sU 	c #C17174",
"tU 	c #BA7171",
"uU 	c #C06D72",
"vU 	c #C06D6E",
"wU 	c #BF6870",
"xU 	c #C06D71",
"yU 	c #C37A74",
"zU 	c #C06B6C",
"AU 	c #D07C74",
"BU 	c #C8776F",
"CU 	c #B56B6A",
"DU 	c #A5525A",
"EU 	c #B26B6A",
"FU 	c #9F575C",
"GU 	c #B69F7D",
"HU 	c #40312D",
"IU 	c #D08B96",
"JU 	c #DE96A1",
"KU 	c #D796A0",
"LU 	c #D999A1",
"MU 	c #E6A3AC",
"NU 	c #1D1815",
"OU 	c #DBCB9C",
"PU 	c #B8636E",
"QU 	c #B45B66",
"RU 	c #BB706F",
"SU 	c #C47F75",
"TU 	c #B36467",
"UU 	c #AE6162",
"VU 	c #AC5C5E",
"WU 	c #BE7570",
"XU 	c #BD6D68",
"YU 	c #CF767B",
"ZU 	c #D4837E",
"`U 	c #DE8A89",
" V 	c #BF7979",
".V 	c #C07979",
"+V 	c #BD7579",
"@V 	c #C37D7C",
"#V 	c #C77F82",
"$V 	c #CD7878",
"%V 	c #CA737A",
"&V 	c #D37D81",
"*V 	c #D07981",
"=V 	c #CF7B82",
"-V 	c #C06E78",
";V 	c #C17877",
">V 	c #C17A7A",
",V 	c #C07377",
"'V 	c #DA8B88",
")V 	c #C4857D",
"!V 	c #BC7776",
"~V 	c #C77C78",
"{V 	c #BA6E70",
"]V 	c #B86F6F",
"^V 	c #C17D77",
"/V 	c #C37C79",
"(V 	c #B86162",
"_V 	c #A1535A",
":V 	c #A1585D",
"<V 	c #6A474B",
"[V 	c #C88990",
"}V 	c #D995A0",
"|V 	c #D999A2",
"1V 	c #595240",
"2V 	c #BBAA85",
"3V 	c #AC5C64",
"4V 	c #B3646A",
"5V 	c #C87B7E",
"6V 	c #C47076",
"7V 	c #BC7170",
"8V 	c #BB676B",
"9V 	c #BB5660",
"0V 	c #BE5962",
"aV 	c #C35E67",
"bV 	c #D1807B",
"cV 	c #D6837F",
"dV 	c #CC787D",
"eV 	c #ED9E95",
"fV 	c #C47879",
"gV 	c #BB696C",
"hV 	c #C77B7C",
"iV 	c #D68087",
"jV 	c #E08B8A",
"kV 	c #C56E78",
"lV 	c #E59292",
"mV 	c #DD858C",
"nV 	c #D48285",
"oV 	c #CC7F7C",
"pV 	c #E2908F",
"qV 	c #C2666F",
"rV 	c #BF6C6F",
"sV 	c #BA6A6D",
"tV 	c #BC7172",
"uV 	c #B87573",
"vV 	c #AC5F64",
"wV 	c #C07778",
"xV 	c #C46D6E",
"yV 	c #C27A75",
"zV 	c #B5746E",
"AV 	c #C27D76",
"BV 	c #A5565E",
"CV 	c #A65C5B",
"DV 	c #B7A480",
"EV 	c #493931",
"FV 	c #C8868F",
"GV 	c #DB959F",
"HV 	c #DD9CA4",
"IV 	c #F0A8B1",
"JV 	c #E5A0A9",
"KV 	c #DE9CA2",
"LV 	c #DF9DA6",
"MV 	c #402D30",
"NV 	c #E2D2A2",
"OV 	c #A86069",
"PV 	c #B9656F",
"QV 	c #B05C68",
"RV 	c #AF5D66",
"SV 	c #C17873",
"TV 	c #AE6563",
"UV 	c #B56564",
"VV 	c #B67271",
"WV 	c #B06666",
"XV 	c #B95762",
"YV 	c #B56162",
"ZV 	c #BE7169",
"`V 	c #BE656B",
" W 	c #C0646D",
".W 	c #E5928F",
"+W 	c #C07A73",
"@W 	c #C17575",
"#W 	c #C57674",
"$W 	c #D08181",
"%W 	c #C37478",
"&W 	c #CC7479",
"*W 	c #C37075",
"=W 	c #DE888F",
"-W 	c #C77C7D",
";W 	c #CA7D7E",
">W 	c #C07278",
",W 	c #CB787B",
"'W 	c #BC7475",
")W 	c #C2787A",
"!W 	c #C0777B",
"~W 	c #C6827A",
"{W 	c #B9726F",
"]W 	c #B36667",
"^W 	c #B9776F",
"/W 	c #BA7270",
"(W 	c #C87472",
"_W 	c #B56669",
":W 	c #BB716E",
"<W 	c #B16A67",
"[W 	c #9B6360",
"}W 	c #B3A781",
"|W 	c #96636A",
"1W 	c #D08E97",
"2W 	c #CB8B93",
"3W 	c #CF8D95",
"4W 	c #D8979F",
"5W 	c #6E654E",
"6W 	c #B79F80",
"7W 	c #B4636E",
"8W 	c #BE6F75",
"9W 	c #C47B7A",
"0W 	c #AD5961",
"aW 	c #C46F75",
"bW 	c #C4817B",
"cW 	c #BB6568",
"dW 	c #B45B62",
"eW 	c #BF6B6B",
"fW 	c #C45C67",
"gW 	c #CD7775",
"hW 	c #CA7576",
"iW 	c #B9706D",
"jW 	c #C07375",
"kW 	c #D57E80",
"lW 	c #B76769",
"mW 	c #CC8180",
"nW 	c #C7747C",
"oW 	c #C56E74",
"pW 	c #EA9195",
"qW 	c #C97678",
"rW 	c #CE817F",
"sW 	c #C37172",
"tW 	c #BA6A6B",
"uW 	c #B15E64",
"vW 	c #B36862",
"wW 	c #BD6E6C",
"xW 	c #A75B5F",
"yW 	c #BF7874",
"zW 	c #A86763",
"AW 	c #AE6968",
"BW 	c #AE6466",
"CW 	c #B89F80",
"DW 	c #473B32",
"EW 	c #BF7D84",
"FW 	c #CD8992",
"GW 	c #D6919B",
"HW 	c #E199A4",
"IW 	c #DD98A2",
"JW 	c #DF9BA4",
"KW 	c #DE9A9D",
"LW 	c #F3A9B2",
"MW 	c #D59397",
"NW 	c #F0A7B0",
"OW 	c #EEA7B0",
"PW 	c #AC7981",
"QW 	c #D0C194",
"RW 	c #B56671",
"SW 	c #B4626E",
"TW 	c #B8626D",
"UW 	c #B0656A",
"VW 	c #B15C64",
"WW 	c #AC5D5F",
"XW 	c #B66967",
"YW 	c #B06166",
"ZW 	c #A95D61",
"`W 	c #BB6E6B",
" X 	c #B05B5E",
".X 	c #BA6F6C",
"+X 	c #BC6D6B",
"@X 	c #B16A66",
"#X 	c #C37E75",
"$X 	c #C47475",
"%X 	c #B9656D",
"&X 	c #C27777",
"*X 	c #C07479",
"=X 	c #C0696E",
"-X 	c #B7686A",
";X 	c #C1686F",
">X 	c #C16C72",
",X 	c #BF6E73",
"'X 	c #C07273",
")X 	c #B16F6E",
"!X 	c #B77470",
"~X 	c #C17F79",
"{X 	c #AE6567",
"]X 	c #BC7877",
"^X 	c #BC7070",
"/X 	c #B7706F",
"(X 	c #A86267",
"_X 	c #B36566",
":X 	c #A65B5F",
"<X 	c #987263",
"[X 	c #9C8E6E",
"}X 	c #CC8891",
"|X 	c #CD8D96",
"1X 	c #D29197",
"2X 	c #D998A2",
"3X 	c #D7969E",
"4X 	c #ECA5AE",
"5X 	c #D998A0",
"6X 	c #E7A3AD",
"7X 	c #E4A1AA",
"8X 	c #766D54",
"9X 	c #AE8D77",
"0X 	c #B1676C",
"aX 	c #BB6B70",
"bX 	c #B66368",
"cX 	c #B36061",
"dX 	c #BB6465",
"eX 	c #CF7671",
"fX 	c #CA7474",
"gX 	c #C3706E",
"hX 	c #BE685A",
"iX 	c #B86E60",
"jX 	c #C06D70",
"kX 	c #C47572",
"lX 	c #CD7879",
"mX 	c #CA7074",
"nX 	c #D07A7B",
"oX 	c #BD5E69",
"pX 	c #CD737A",
"qX 	c #CA7B78",
"rX 	c #D3897D",
"sX 	c #CA7B79",
"tX 	c #C16F73",
"uX 	c #B96368",
"vX 	c #AD5B5F",
"wX 	c #B96568",
"xX 	c #AC5E61",
"yX 	c #B05A61",
"zX 	c #C3716F",
"AX 	c #B96468",
"BX 	c #A66A63",
"CX 	c #AA6763",
"DX 	c #A86361",
"EX 	c #AB9173",
"FX 	c #765950",
"GX 	c #B2757A",
"HX 	c #C8848C",
"IX 	c #CC8992",
"JX 	c #C6878E",
"KX 	c #CC8B92",
"LX 	c #E89FAB",
"MX 	c #DB98A3",
"NX 	c #E2A0A2",
"OX 	c #DF9CA2",
"PX 	c #F5ABB3",
"QX 	c #EAA4AC",
"RX 	c #F1A9B2",
"SX 	c #E8A4AF",
"TX 	c #B3A780",
"UX 	c #B56973",
"VX 	c #BA6671",
"WX 	c #BE6671",
"XX 	c #B05E67",
"YX 	c #AB5C61",
"ZX 	c #AF6465",
"`X 	c #AE5B62",
" Y 	c #AD595E",
".Y 	c #B25D66",
"+Y 	c #B9636A",
"@Y 	c #BD6D6C",
"#Y 	c #BE716C",
"$Y 	c #C37372",
"%Y 	c #B56F6C",
"&Y 	c #AF746E",
"*Y 	c #B9696D",
"=Y 	c #C17074",
"-Y 	c #BF6A6B",
";Y 	c #C0636A",
">Y 	c #BB6C6E",
",Y 	c #BE6366",
"'Y 	c #CA7C78",
")Y 	c #C17473",
"!Y 	c #BC726E",
"~Y 	c #B96566",
"{Y 	c #BC6C6B",
"]Y 	c #D17D81",
"^Y 	c #BF7273",
"/Y 	c #C67C76",
"(Y 	c #B76C6C",
"_Y 	c #B0636A",
":Y 	c #B8766C",
"<Y 	c #B86E6A",
"[Y 	c #AF6360",
"}Y 	c #AB6064",
"|Y 	c #A18A6F",
"1Y 	c #83735C",
"2Y 	c #BB7E84",
"3Y 	c #B98083",
"4Y 	c #D08D94",
"5Y 	c #D5939B",
"6Y 	c #D49199",
"7Y 	c #DA9A9F",
"8Y 	c #DB9AA0",
"9Y 	c #DD9AA0",
"0Y 	c #E19EA7",
"aY 	c #DA969E",
"bY 	c #DC9AA0",
"cY 	c #E5A1A9",
"dY 	c #E3A0A9",
"eY 	c #E9A5AF",
"fY 	c #7E745A",
"gY 	c #A68D74",
"hY 	c #AC606A",
"iY 	c #B66A6E",
"jY 	c #AE5D64",
"kY 	c #C57B7B",
"lY 	c #B56169",
"mY 	c #BD7073",
"nY 	c #BB6366",
"oY 	c #C86C6D",
"pY 	c #BB6F6A",
"qY 	c #BF6A69",
"rY 	c #BC6469",
"sY 	c #C47072",
"tY 	c #BE6167",
"uY 	c #C06269",
"vY 	c #D27A7C",
"wY 	c #DB8A89",
"xY 	c #B26564",
"yY 	c #B16466",
"zY 	c #BB7271",
"AY 	c #B8565F",
"BY 	c #AD5C5E",
"CY 	c #BF7673",
"DY 	c #B86F6A",
"EY 	c #CA7C77",
"FY 	c #BF7474",
"GY 	c #A58E72",
"HY 	c #715F4D",
"IY 	c #B8757B",
"JY 	c #CA8089",
"KY 	c #BE7A82",
"LY 	c #C5838C",
"MY 	c #CB8991",
"NY 	c #DC9B9C",
"OY 	c #E6A3A4",
"PY 	c #E29CA5",
"QY 	c #D6989C",
"RY 	c #FAAFB9",
"SY 	c #F8AEB8",
"TY 	c #DD9AA2",
"UY 	c #DA99A1",
"VY 	c #F3AAB4",
"WY 	c #F0A8B3",
"XY 	c #E29FAA",
"YY 	c #887F62",
"ZY 	c #AB7872",
"`Y 	c #BB6773",
" Z 	c #AE666B",
".Z 	c #BC606C",
"+Z 	c #B1696A",
"@Z 	c #B15C65",
"#Z 	c #AE6061",
"$Z 	c #BF706E",
"%Z 	c #BD6562",
"&Z 	c #B06766",
"*Z 	c #AE6A69",
"=Z 	c #C27675",
"-Z 	c #B66166",
";Z 	c #BA6065",
">Z 	c #C5646B",
",Z 	c #B66565",
"'Z 	c #C7757E",
")Z 	c #C87173",
"!Z 	c #CD7876",
"~Z 	c #BB6564",
"{Z 	c #B16469",
"]Z 	c #C27076",
"^Z 	c #CE8380",
"/Z 	c #B96D6A",
"(Z 	c #B86E73",
"_Z 	c #C6837B",
":Z 	c #BC7C79",
"<Z 	c #B06061",
"[Z 	c #A6585E",
"}Z 	c #AE9D7B",
"|Z 	c #635545",
"1Z 	c #BC7A82",
"2Z 	c #C27F88",
"3Z 	c #C3848A",
"4Z 	c #C68B8E",
"5Z 	c #D29098",
"6Z 	c #D9949F",
"7Z 	c #E7A2AC",
"8Z 	c #E19DA3",
"9Z 	c #DC979E",
"0Z 	c #E8A1A9",
"aZ 	c #DD9BA4",
"bZ 	c #DD9BA6",
"cZ 	c #80775B",
"dZ 	c #B8937E",
"eZ 	c #AE676C",
"fZ 	c #AD6067",
"gZ 	c #B06168",
"hZ 	c #B16069",
"iZ 	c #B8636D",
"jZ 	c #B05D65",
"kZ 	c #B86B6C",
"lZ 	c #B46363",
"mZ 	c #BE7171",
"nZ 	c #B96A6B",
"oZ 	c #BC5D65",
"pZ 	c #C36468",
"qZ 	c #B87A74",
"rZ 	c #D58084",
"sZ 	c #B85D61",
"tZ 	c #CB7878",
"uZ 	c #D98585",
"vZ 	c #C0676A",
"wZ 	c #D4857F",
"xZ 	c #C97B6E",
"yZ 	c #BE6069",
"zZ 	c #AD6161",
"AZ 	c #BA6F6D",
"BZ 	c #B56768",
"CZ 	c #AD6063",
"DZ 	c #B26465",
"EZ 	c #B66C6C",
"FZ 	c #B25C62",
"GZ 	c #AB6364",
"HZ 	c #A88571",
"IZ 	c #7E6C57",
"JZ 	c #B97578",
"KZ 	c #CB7F89",
"LZ 	c #BF7B83",
"MZ 	c #C18083",
"NZ 	c #E799A4",
"OZ 	c #DC9399",
"PZ 	c #DB979F",
"QZ 	c #E5A0A2",
"RZ 	c #DB96A1",
"SZ 	c #DB9CA1",
"TZ 	c #E09EA6",
"UZ 	c #E09DA4",
"VZ 	c #F2AAB4",
"WZ 	c #E9A2AE",
"XZ 	c #5D5643",
"YZ 	c #AC8B77",
"ZZ 	c #AF686E",
"`Z 	c #B8636F",
" ` 	c #AA5B62",
".` 	c #B35A64",
"+` 	c #B5676A",
"@` 	c #C06A72",
"#` 	c #CC777A",
"$` 	c #C57876",
"%` 	c #BB666A",
"&` 	c #C0666F",
"*` 	c #B36765",
"=` 	c #BD666A",
"-` 	c #C37074",
";` 	c #C46C69",
">` 	c #C66F71",
",` 	c #BB6F6C",
"'` 	c #BD706D",
")` 	c #B96066",
"!` 	c #B15E5E",
"~` 	c #C47872",
"{` 	c #BD6F6F",
"]` 	c #B15E66",
"^` 	c #AB6167",
"/` 	c #AC676A",
"(` 	c #AB6368",
"_` 	c #B4957C",
":` 	c #4C3E35",
"<` 	c #B7757D",
"[` 	c #C47F86",
"}` 	c #D88E99",
"|` 	c #CB898E",
"1` 	c #DF9898",
"2` 	c #D89B94",
"3` 	c #E59FA3",
"4` 	c #E09DA0",
"5` 	c #EBA4AE",
"6` 	c #DB989F",
"7` 	c #F4ACB5",
"8` 	c #E5A1AB",
"9` 	c #D897A1",
"0` 	c #7B6F57",
"a` 	c #A98E75",
"b` 	c #B1616D",
"c` 	c #AD616A",
"d` 	c #B0636B",
"e` 	c #AE5D66",
"f` 	c #B05F65",
"g` 	c #B05D64",
"h` 	c #AC6466",
"i` 	c #B15C5F",
"j` 	c #CD7E7D",
"k` 	c #B96064",
"l` 	c #B75C65",
"m` 	c #E3958A",
"n` 	c #C57070",
"o` 	c #B56161",
"p` 	c #C06A6E",
"q` 	c #C47670",
"r` 	c #CB7472",
"s` 	c #CA7C70",
"t` 	c #BF6669",
"u` 	c #C66F73",
"v` 	c #C06F6E",
"w` 	c #BC6166",
"x` 	c #BC6E6B",
"y` 	c #B75B61",
"z` 	c #B76C66",
"A` 	c #B36D67",
"B` 	c #B05D60",
"C` 	c #BC6E6D",
"D` 	c #B16962",
"E` 	c #AA5F60",
"F` 	c #A65C60",
"G` 	c #9E746A",
"H` 	c #967C6A",
"I` 	c #B97078",
"J` 	c #C77982",
"K` 	c #D3838E",
"L` 	c #D98B95",
"M` 	c #D88E97",
"N` 	c #E595A0",
"O` 	c #D79697",
"P` 	c #DE999C",
"Q` 	c #E29BA1",
"R` 	c #DF99A2",
"S` 	c #E79FA6",
"T` 	c #EEA5AA",
"U` 	c #E39EA6",
"V` 	c #FEB2BD",
"W` 	c #EBA4AD",
"X` 	c #DA989F",
"Y` 	c #F6ACB9",
"Z` 	c #342F25",
"`` 	c #B59F7F",
"  .	c #BB6873",
". .	c #B4616D",
"+ .	c #BA626E",
"@ .	c #B26069",
"# .	c #B25F67",
"$ .	c #B15A63",
"% .	c #B26568",
"& .	c #B56B69",
"* .	c #BD6A6E",
"= .	c #B76F6D",
"- .	c #B06566",
"; .	c #BA6069",
"> .	c #C07070",
", .	c #B9616A",
"' .	c #BB656C",
") .	c #B57370",
"! .	c #B46B6D",
"~ .	c #B4726F",
"{ .	c #B66559",
"] .	c #C77873",
"^ .	c #C87877",
"/ .	c #B36A6A",
"( .	c #B76665",
"_ .	c #AE5E64",
": .	c #B26A6C",
"< .	c #AB6369",
"[ .	c #B49D7E",
"} .	c #593D3B",
"| .	c #B47179",
"1 .	c #B5747C",
"2 .	c #C78188",
"3 .	c #CB878F",
"4 .	c #D28D96",
"5 .	c #E19F9C",
"6 .	c #D49797",
"7 .	c #DE9BA2",
"8 .	c #E9A2AC",
"9 .	c #E8A2AC",
"0 .	c #E59EAA",
"a .	c #E69EA6",
"b .	c #F7ADB8",
"c .	c #D19398",
"d .	c #DD9DA4",
"e .	c #D5959D",
"f .	c #6F654E",
"g .	c #B19B7C",
"h .	c #B15F67",
"i .	c #B16265",
"j .	c #C67068",
"k .	c #B55F65",
"l .	c #C57673",
"m .	c #C06E6B",
"n .	c #B9605D",
"o .	c #B36B6D",
"p .	c #CB7C7D",
"q .	c #CE7877",
"r .	c #C0706F",
"s .	c #CE7C73",
"t .	c #BE706C",
"u .	c #C7716E",
"v .	c #B76F69",
"w .	c #BA6668",
"x .	c #BA5761",
"y .	c #B76365",
"z .	c #B76867",
"A .	c #C57572",
"B .	c #AF6063",
"C .	c #B1686A",
"D .	c #A85A60",
"E .	c #AA6466",
"F .	c #C47876",
"G .	c #AB5A62",
"H .	c #B06869",
"I .	c #9F6F69",
"J .	c #9A8D6E",
"K .	c #AB6770",
"L .	c #BA7379",
"M .	c #C2767E",
"N .	c #C47F87",
"O .	c #E0909A",
"P .	c #D78D96",
"Q .	c #DB929B",
"R .	c #EFA0A4",
"S .	c #E19B9C",
"T .	c #DD9699",
"U .	c #FDB0BA",
"V .	c #E49FA4",
"W .	c #E29CA3",
"X .	c #E09C9F",
"Y .	c #DC9BA1",
"Z .	c #EDA6B0",
"` .	c #EAA4AE",
" ..	c #E09DA5",
"...	c #DE9AA5",
"+..	c #D09097",
"@..	c #211D17",
"#..	c #C4B38B",
"$..	c #BF6874",
"%..	c #B46D6D",
"&..	c #B2606A",
"*..	c #C06B74",
"=..	c #C36F74",
"-..	c #B46C69",
";..	c #BB5F67",
">..	c #BD5C66",
",..	c #C16B72",
"'..	c #B56666",
")..	c #B4646A",
"!..	c #BB5760",
"~..	c #BB6269",
"{..	c #C5777A",
"]..	c #BE6868",
"^..	c #C26467",
"/..	c #C6716D",
"(..	c #C16D6D",
"_..	c #B26262",
":..	c #AC6266",
"<..	c #B56568",
"[..	c #BB7272",
"}..	c #BC7F76",
"|..	c #D08781",
"1..	c #AC5E5F",
"2..	c #9E6C65",
"3..	c #A79075",
"4..	c #A1656B",
"5..	c #BA767B",
"6..	c #D2858F",
"7..	c #C8818A",
"8..	c #CB858D",
"9..	c #CD8990",
"0..	c #DD9798",
"a..	c #DE979D",
"b..	c #E19EA4",
"c..	c #EAA3AE",
"d..	c #E9A0A9",
"e..	c #EA9CA7",
"f..	c #E09BA3",
"g..	c #D7979C",
"h..	c #DC9C9F",
"i..	c #D8999D",
"j..	c #F4ABB6",
"k..	c #EFA8B3",
"l..	c #574F3E",
"m..	c #B69E7F",
"n..	c #AB626A",
"o..	c #B56B6F",
"p..	c #B15F68",
"q..	c #B45E68",
"r..	c #C87672",
"s..	c #B76969",
"t..	c #BB656B",
"u..	c #C46B71",
"v..	c #C0696D",
"w..	c #CD777D",
"x..	c #DD7E88",
"y..	c #D98078",
"z..	c #DC8787",
"A..	c #C97474",
"B..	c #BE6364",
"C..	c #D1847B",
"D..	c #B3635F",
"E..	c #C0746F",
"F..	c #BE7571",
"G..	c #B76566",
"H..	c #B06263",
"I..	c #AF665F",
"J..	c #AB5D62",
"K..	c #AA5F64",
"L..	c #A16863",
"M..	c #A19072",
"N..	c #95585F",
"O..	c #C0737C",
"P..	c #C97984",
"Q..	c #C2787F",
"R..	c #D6858F",
"S..	c #D58793",
"T..	c #D68A94",
"U..	c #EA9E9F",
"V..	c #F1A2A6",
"W..	c #EFA5A6",
"X..	c #DB9599",
"Y..	c #E39A9E",
"Z..	c #E198A0",
"`..	c #DB949D",
" +.	c #DE989F",
".+.	c #F5A9B4",
"++.	c #E39DA6",
"@+.	c #E9A0AC",
"#+.	c #E49EA6",
"$+.	c #FDB0BC",
"%+.	c #EFA5B1",
"&+.	c #DA97A0",
"*+.	c #251D1A",
"=+.	c #C6B48C",
"-+.	c #BE6774",
";+.	c #AE6366",
">+.	c #BC6F74",
",+.	c #C07076",
"'+.	c #B25F66",
")+.	c #CF7981",
"!+.	c #C37379",
"~+.	c #BB5E66",
"{+.	c #BC5C65",
"]+.	c #C0676D",
"^+.	c #AF5E63",
"/+.	c #D57F79",
"(+.	c #BC6665",
"_+.	c #B6686D",
":+.	c #AF6B6B",
"<+.	c #BD7774",
"[+.	c #BE7471",
"}+.	c #A96460",
"|+.	c #C57977",
"1+.	c #B26867",
"2+.	c #A55960",
"3+.	c #9D846C",
"4+.	c #917860",
"5+.	c #BE797D",
"6+.	c #BE767F",
"7+.	c #C77C86",
"8+.	c #CE858E",
"9+.	c #CC868C",
"0+.	c #DB9695",
"a+.	c #DF9B9C",
"b+.	c #DB9A98",
"c+.	c #DB9B9B",
"d+.	c #E29FA2",
"e+.	c #EDA5B0",
"f+.	c #E49EA7",
"g+.	c #E5A1A6",
"h+.	c #E39FA9",
"i+.	c #DA98A0",
"j+.	c #E9A3A8",
"k+.	c #56453C",
"l+.	c #C7B78E",
"m+.	c #B6636E",
"n+.	c #B3606B",
"o+.	c #B05D68",
"p+.	c #B3666B",
"q+.	c #BF7272",
"r+.	c #CA7F74",
"s+.	c #C47373",
"t+.	c #B2726B",
"u+.	c #BD6C6A",
"v+.	c #CA7B7D",
"w+.	c #D88988",
"x+.	c #CD8883",
"y+.	c #D58885",
"z+.	c #C07572",
"A+.	c #BD7372",
"B+.	c #CB7977",
"C+.	c #AF6264",
"D+.	c #B0605B",
"E+.	c #B56368",
"F+.	c #B45862",
"G+.	c #B46362",
"H+.	c #B36966",
"I+.	c #AA5F65",
"J+.	c #A85F62",
"K+.	c #A85E64",
"L+.	c #A56B67",
"M+.	c #AD9E7B",
"N+.	c #7C494C",
"O+.	c #B56A73",
"P+.	c #BD747B",
"Q+.	c #BB737C",
"R+.	c #CF7F89",
"S+.	c #D3858F",
"T+.	c #D1858F",
"U+.	c #DD9497",
"V+.	c #D78F95",
"W+.	c #D18B92",
"X+.	c #DA909A",
"Y+.	c #E39C9D",
"Z+.	c #F0A1A5",
"`+.	c #DE939C",
" @.	c #E79AA6",
".@.	c #DA929A",
"+@.	c #DF999E",
"@@.	c #E299A2",
"#@.	c #DE98A0",
"$@.	c #E69DA7",
"%@.	c #F3A7B3",
"&@.	c #D59299",
"*@.	c #E99FA9",
"=@.	c #E39CA5",
"-@.	c #DC97A2",
";@.	c #312423",
">@.	c #B66570",
",@.	c #AC6069",
"'@.	c #B16C70",
")@.	c #B4616A",
"!@.	c #BE7274",
"~@.	c #B66563",
"{@.	c #C07C7B",
"]@.	c #CE807C",
"^@.	c #B65C66",
"/@.	c #B55D68",
"(@.	c #C06B63",
"_@.	c #BC726D",
":@.	c #BD7573",
"<@.	c #BB7373",
"[@.	c #BD7C74",
"}@.	c #B2706B",
"|@.	c #A75C61",
"1@.	c #AD6867",
"2@.	c #B1A07E",
"3@.	c #615744",
"4@.	c #BB7079",
"5@.	c #C37980",
"6@.	c #C17A81",
"7@.	c #D68691",
"8@.	c #D58995",
"9@.	c #D58D93",
"0@.	c #D48D90",
"a@.	c #EAA1A1",
"b@.	c #E19F99",
"c@.	c #ECA6A2",
"d@.	c #EFA9A7",
"e@.	c #E9A1AB",
"f@.	c #E69CA2",
"g@.	c #EB9FA9",
"h@.	c #E3989F",
"i@.	c #DC9B9E",
"j@.	c #DD9CA0",
"k@.	c #EDA4AF",
"l@.	c #DA979F",
"m@.	c #E59CA8",
"n@.	c #382F28",
"o@.	c #D0C094",
"p@.	c #AF6269",
"q@.	c #B2666B",
"r@.	c #CE7D75",
"s@.	c #D27A68",
"t@.	c #B3796F",
"u@.	c #E79B94",
"v@.	c #C47577",
"w@.	c #E4968F",
"x@.	c #DC8E85",
"y@.	c #D07F73",
"z@.	c #BF6B64",
"A@.	c #B56066",
"B@.	c #B36465",
"C@.	c #C8606B",
"D@.	c #B96A73",
"E@.	c #B15D64",
"F@.	c #BE7775",
"G@.	c #AF6466",
"H@.	c #AD6A6A",
"I@.	c #B06C66",
"J@.	c #A5575E",
"K@.	c #A35B62",
"L@.	c #A76366",
"M@.	c #B09376",
"N@.	c #663D3D",
"O@.	c #B26970",
"P@.	c #BA6D75",
"Q@.	c #D07B85",
"R@.	c #C67982",
"S@.	c #C2777F",
"T@.	c #CC818A",
"U@.	c #D58B90",
"V@.	c #CA878A",
"W@.	c #D98C95",
"X@.	c #EA9FA0",
"Y@.	c #DE949D",
"Z@.	c #F7AAAB",
"`@.	c #E296A0",
" #.	c #D69298",
".#.	c #DE969E",
"+#.	c #E599A2",
"@#.	c #DC959B",
"##.	c #F0A1AC",
"$#.	c #DC949D",
"%#.	c #F8A7B2",
"&#.	c #D38D95",
"*#.	c #E097A1",
"=#.	c #E199A3",
"-#.	c #F4A6B2",
";#.	c #D7929B",
">#.	c #CE8C93",
",#.	c #D38D96",
"'#.	c #402C2D",
")#.	c #E0CFA0",
"!#.	c #B36873",
"~#.	c #B1656F",
"{#.	c #B1656E",
"]#.	c #AD626A",
"^#.	c #C1767A",
"/#.	c #BE736E",
"(#.	c #C26F72",
"_#.	c #DB918E",
":#.	c #C37F79",
"<#.	c #B35A63",
"[#.	c #C46F6F",
"}#.	c #B76066",
"|#.	c #B65E64",
"1#.	c #BB6662",
"2#.	c #CC7A72",
"3#.	c #AC6565",
"4#.	c #AF6469",
"5#.	c #BA6B6B",
"6#.	c #C5716F",
"7#.	c #B06366",
"8#.	c #B86D6D",
"9#.	c #A75B63",
"0#.	c #BEA286",
"a#.	c #504035",
"b#.	c #C1737C",
"c#.	c #D78995",
"d#.	c #B66B45",
"e#.	c #D28F8D",
"f#.	c #E59E9E",
"g#.	c #FAB2AA",
"h#.	c #FAA8A5",
"i#.	c #FCB1B1",
"j#.	c #E49EA4",
"k#.	c #EDA1AC",
"l#.	c #E69DA4",
"m#.	c #E29CA7",
"n#.	c #E29CA6",
"o#.	c #E59CA1",
"p#.	c #D79597",
"q#.	c #CF8B94",
"r#.	c #CF8D96",
"s#.	c #EAA0AA",
"t#.	c #D08D90",
"u#.	c #3E2C25",
"v#.	c #C9B88F",
"w#.	c #A8626C",
"x#.	c #B1696F",
"y#.	c #AF6368",
"z#.	c #BE6E6B",
"A#.	c #B26863",
"B#.	c #AE6C66",
"C#.	c #E1928D",
"D#.	c #E4988E",
"E#.	c #BF7170",
"F#.	c #C27E7A",
"G#.	c #C0736F",
"H#.	c #B76366",
"I#.	c #B35B66",
"J#.	c #AD6D6D",
"K#.	c #AC5E66",
"L#.	c #AF5D67",
"M#.	c #AA5C64",
"N#.	c #B05D69",
"O#.	c #A05F62",
"P#.	c #9D6062",
"Q#.	c #BBAC85",
"R#.	c #603B3B",
"S#.	c #AE6368",
"T#.	c #C27079",
"U#.	c #B56F75",
"V#.	c #C67A81",
"W#.	c #BF797C",
"X#.	c #D0828A",
"Y#.	c #DA8D92",
"Z#.	c #F59EA2",
"`#.	c #E29799",
" $.	c #DF929C",
".$.	c #DE8F9C",
"+$.	c #DD9697",
"@$.	c #DA8F95",
"#$.	c #E0949B",
"$$.	c #DE959B",
"%$.	c #DF949E",
"&$.	c #E79996",
"*$.	c #E19698",
"=$.	c #DA929C",
"-$.	c #DB9596",
";$.	c #DB939A",
">$.	c #DB959C",
",$.	c #D38F97",
"'$.	c #DF96A1",
")$.	c #D9929C",
"!$.	c #E196A1",
"~$.	c #3D292B",
"{$.	c #B06A73",
"]$.	c #AD646E",
"^$.	c #B1626E",
"/$.	c #BC7077",
"($.	c #BB7874",
"_$.	c #C2776B",
":$.	c #AD6769",
"<$.	c #C77E7C",
"[$.	c #B35B64",
"}$.	c #B77172",
"|$.	c #BF7277",
"1$.	c #B7646F",
"2$.	c #B45D65",
"3$.	c #AF676D",
"4$.	c #CA7770",
"5$.	c #C17879",
"6$.	c #AC686A",
"7$.	c #AE6C68",
"8$.	c #AA6168",
"9$.	c #BBA080",
"0$.	c #684643",
"a$.	c #D27F89",
"b$.	c #CB7E86",
"c$.	c #DA8690",
"d$.	c #D18791",
"e$.	c #D28774",
"f$.	c #CF8681",
"g$.	c #E89C9D",
"h$.	c #E7A1A0",
"i$.	c #E19D9D",
"j$.	c #FCB0A6",
"k$.	c #F3ABA5",
"l$.	c #F5A5A3",
"m$.	c #EBA4A5",
"n$.	c #E598A4",
"o$.	c #DA9493",
"p$.	c #E699A4",
"q$.	c #E0989F",
"r$.	c #E295A2",
"s$.	c #DE94A0",
"t$.	c #E69CA0",
"u$.	c #EA9AA5",
"v$.	c #D7949B",
"w$.	c #C9848F",
"x$.	c #E79DA8",
"y$.	c #EDA0AC",
"z$.	c #E197A2",
"A$.	c #E298A3",
"B$.	c #593A3D",
"C$.	c #C2A780",
"D$.	c #B2716B",
"E$.	c #B97674",
"F$.	c #B87272",
"G$.	c #B97173",
"H$.	c #B76B68",
"I$.	c #CB7B77",
"J$.	c #D38684",
"K$.	c #D3827C",
"L$.	c #DB908D",
"M$.	c #CD7F7E",
"N$.	c #C57D7F",
"O$.	c #B9666B",
"P$.	c #B76568",
"Q$.	c #B26567",
"R$.	c #B2656F",
"S$.	c #B0676C",
"T$.	c #A76468",
"U$.	c #A75D64",
"V$.	c #AD5D69",
"W$.	c #A86367",
"X$.	c #B6A681",
"Y$.	c #603D3B",
"Z$.	c #B7646C",
"`$.	c #B16A6F",
" %.	c #B86F71",
".%.	c #C07578",
"+%.	c #C17C7E",
"@%.	c #C98182",
"#%.	c #E9979B",
"$%.	c #E6989B",
"%%.	c #DE8D98",
"&%.	c #E89696",
"*%.	c #DD9294",
"=%.	c #E6999F",
"-%.	c #D0868E",
";%.	c #DA8D94",
">%.	c #DE9598",
",%.	c #DD9199",
"'%.	c #E798A4",
")%.	c #DD8F93",
"!%.	c #DF969A",
"~%.	c #E8A0A1",
"{%.	c #EBA1A2",
"]%.	c #DA9094",
"^%.	c #D18C90",
"/%.	c #D79195",
"(%.	c #D68F97",
"_%.	c #D78F98",
":%.	c #DD939D",
"<%.	c #E596A1",
"[%.	c #DE8F9B",
"}%.	c #332123",
"|%.	c #B86D79",
"1%.	c #AF6671",
"2%.	c #AC666D",
"3%.	c #BD787A",
"4%.	c #AC686F",
"5%.	c #B87376",
"6%.	c #B26E6E",
"7%.	c #B96D70",
"8%.	c #C77F7F",
"9%.	c #BA6E72",
"0%.	c #C17679",
"a%.	c #BE6C72",
"b%.	c #C37275",
"c%.	c #A96568",
"d%.	c #AE6B6D",
"e%.	c #C37B78",
"f%.	c #BA7676",
"g%.	c #B87D75",
"h%.	c #AE8A73",
"i%.	c #A46662",
"j%.	c #BA7176",
"k%.	c #CB7C86",
"l%.	c #CC7D86",
"m%.	c #D78591",
"n%.	c #D78C84",
"o%.	c #E29694",
"p%.	c #DB9195",
"q%.	c #DA9596",
"r%.	c #F2A8A5",
"s%.	c #ECA09B",
"t%.	c #EFA4A3",
"u%.	c #F2AAA2",
"v%.	c #E49C9D",
"w%.	c #E49CA3",
"x%.	c #E8979B",
"y%.	c #EA989E",
"z%.	c #E196A0",
"A%.	c #E0969E",
"B%.	c #E49AA2",
"C%.	c #EA9CA1",
"D%.	c #D19093",
"E%.	c #CA868D",
"F%.	c #CE8D92",
"G%.	c #E098A2",
"H%.	c #EA9DA8",
"I%.	c #D18B93",
"J%.	c #D18A94",
"K%.	c #966368",
"L%.	c #A89276",
"M%.	c #AB7D74",
"N%.	c #B16E71",
"O%.	c #AE6769",
"P%.	c #B16B6E",
"Q%.	c #D3918A",
"R%.	c #C87F7A",
"S%.	c #CC8481",
"T%.	c #CC8082",
"U%.	c #C2746F",
"V%.	c #BC6F6F",
"W%.	c #D78A8C",
"X%.	c #BD7275",
"Y%.	c #AA5F68",
"Z%.	c #B16B70",
"`%.	c #A66163",
" &.	c #A26668",
".&.	c #B5A581",
"+&.	c #482A2B",
"@&.	c #BF6670",
"#&.	c #BC7174",
"$&.	c #BF757A",
"%&.	c #BE757D",
"&&.	c #D28688",
"*&.	c #D2828C",
"=&.	c #D48D8E",
"-&.	c #D68D8F",
";&.	c #DB8E93",
">&.	c #E59596",
",&.	c #DB8F95",
"'&.	c #E2949B",
")&.	c #E2959A",
"!&.	c #DF929A",
"~&.	c #DF989A",
"{&.	c #D38A92",
"]&.	c #D38B93",
"^&.	c #DD8E99",
"/&.	c #E3949C",
"(&.	c #D48C94",
"_&.	c #D2898B",
":&.	c #CE8792",
"<&.	c #D59193",
"[&.	c #D79099",
"}&.	c #E396A1",
"|&.	c #D28892",
"1&.	c #27181B",
"2&.	c #CEB993",
"3&.	c #A8646F",
"4&.	c #B16F73",
"5&.	c #B26A74",
"6&.	c #B36B71",
"7&.	c #C07878",
"8&.	c #D08488",
"9&.	c #B16468",
"0&.	c #B7696D",
"a&.	c #C17576",
"b&.	c #C47A78",
"c&.	c #B2676F",
"d&.	c #C88783",
"e&.	c #B47074",
"f&.	c #AF6970",
"g&.	c #B97474",
"h&.	c #A58571",
"i&.	c #8F7E64",
"j&.	c #B87072",
"k&.	c #BC6A74",
"l&.	c #C2767D",
"m&.	c #D07D87",
"n&.	c #C67B83",
"o&.	c #CC7F71",
"p&.	c #D1858D",
"q&.	c #CD868B",
"r&.	c #F6ADA9",
"s&.	c #F1A99F",
"t&.	c #E59A99",
"u&.	c #F2A6A6",
"v&.	c #FCAAB3",
"w&.	c #E3969F",
"x&.	c #F19B9C",
"y&.	c #DB9299",
"z&.	c #F9A7A0",
"A&.	c #E0959F",
"B&.	c #EC9D9E",
"C&.	c #E2949F",
"D&.	c #DF949D",
"E&.	c #D88B96",
"F&.	c #CC8A8F",
"G&.	c #C9878D",
"H&.	c #D58E97",
"I&.	c #D78C95",
"J&.	c #D48B94",
"K&.	c #CE8690",
"L&.	c #C07F84",
"M&.	c #8A745E",
"N&.	c #B3927C",
"O&.	c #B56E75",
"P&.	c #AC666E",
"Q&.	c #AA6164",
"R&.	c #CA8884",
"S&.	c #C47E77",
"T&.	c #BD7672",
"U&.	c #CE8886",
"V&.	c #F0A8A1",
"W&.	c #C87D77",
"X&.	c #C87A76",
"Y&.	c #B9616C",
"Z&.	c #C88380",
"`&.	c #B26F70",
" *.	c #A35E64",
".*.	c #A46569",
"+*.	c #9E6166",
"@*.	c #B3A27F",
"#*.	c #462A2A",
"$*.	c #AC5B64",
"%*.	c #B9666E",
"&*.	c #BA6771",
"**.	c #C77079",
"=*.	c #C3777D",
"-*.	c #C3777C",
";*.	c #C5777F",
">*.	c #D6858C",
",*.	c #D08289",
"'*.	c #F29BA3",
")*.	c #DC8F93",
"!*.	c #E9989B",
"~*.	c #D98C91",
"{*.	c #F5A2A3",
"]*.	c #D38A8E",
"^*.	c #DD8B95",
"/*.	c #D88B91",
"(*.	c #D88A95",
"_*.	c #DD8E98",
":*.	c #DB8E94",
"<*.	c #E19493",
"[*.	c #E0919B",
"}*.	c #DC9296",
"|*.	c #D88D95",
"1*.	c #DF919C",
"2*.	c #D48D92",
"3*.	c #D28D90",
"4*.	c #D38B95",
"5*.	c #E4949F",
"6*.	c #D08790",
"7*.	c #241719",
"8*.	c #CEBD93",
"9*.	c #AA6A71",
"0*.	c #AC686E",
"a*.	c #B46E76",
"b*.	c #B56C74",
"c*.	c #CB8B85",
"d*.	c #BB7779",
"e*.	c #B0636E",
"f*.	c #B86C6E",
"g*.	c #AF646A",
"h*.	c #B36B6E",
"i*.	c #C87E7C",
"j*.	c #D8898C",
"k*.	c #A96069",
"l*.	c #A26066",
"m*.	c #B08E7B",
"n*.	c #8A6D5E",
"o*.	c #C3747D",
"p*.	c #C87A83",
"q*.	c #D17D87",
"r*.	c #CC7E86",
"s*.	c #DB8F92",
"t*.	c #C98488",
"u*.	c #DE9298",
"v*.	c #DF9796",
"w*.	c #E4979A",
"x*.	c #EFA8A0",
"y*.	c #EFA3A3",
"z*.	c #E18F9C",
"A*.	c #EF9FA1",
"B*.	c #EC9799",
"C*.	c #E39797",
"D*.	c #E997A1",
"E*.	c #E8949E",
"F*.	c #D98F97",
"G*.	c #E19595",
"H*.	c #DC9699",
"I*.	c #D68D94",
"J*.	c #C9858A",
"K*.	c #C27E89",
"L*.	c #E0939E",
"M*.	c #D18B94",
"N*.	c #C98288",
"O*.	c #775849",
"P*.	c #C5B28C",
"Q*.	c #AB6972",
"R*.	c #BC7A7A",
"S*.	c #BD7979",
"T*.	c #CB7D83",
"U*.	c #D18786",
"V*.	c #C47774",
"W*.	c #B1616B",
"X*.	c #B66A71",
"Y*.	c #BF787C",
"Z*.	c #A7626A",
"`*.	c #9F6769",
" =.	c #B9AC84",
".=.	c #452627",
"+=.	c #AA5A62",
"@=.	c #BB646E",
"#=.	c #C1797B",
"$=.	c #C77A81",
"%=.	c #D07C88",
"&=.	c #EF999D",
"*=.	c #E7969A",
"==.	c #E09698",
"-=.	c #F4A2A2",
";=.	c #F7A0A2",
">=.	c #D78592",
",=.	c #F99FA9",
"'=.	c #D58A91",
")=.	c #D4888F",
"!=.	c #DA8B95",
"~=.	c #D98C8F",
"{=.	c #EA9D9B",
"]=.	c #EF9EA1",
"^=.	c #DB9493",
"/=.	c #D68D92",
"(=.	c #D78D91",
"_=.	c #D79094",
":=.	c #D88D96",
"<=.	c #CF8B90",
"[=.	c #CC868E",
"}=.	c #D78A95",
"|=.	c #D28590",
"1=.	c #191212",
"2=.	c #C1AC88",
"3=.	c #A4646E",
"4=.	c #B77378",
"5=.	c #C1767E",
"6=.	c #D39289",
"7=.	c #AB666C",
"8=.	c #C98281",
"9=.	c #B76D71",
"0=.	c #AA606A",
"a=.	c #B1686D",
"b=.	c #B16D72",
"c=.	c #A7646A",
"d=.	c #AB6A6D",
"e=.	c #B2907E",
"f=.	c #846A5A",
"g=.	c #A85B63",
"h=.	c #BD7377",
"i=.	c #B96871",
"j=.	c #C7767D",
"k=.	c #C2747D",
"l=.	c #D68C8F",
"m=.	c #D98A91",
"n=.	c #C98188",
"o=.	c #EA9B9E",
"p=.	c #C88282",
"q=.	c #F3A7A4",
"r=.	c #EFA2A1",
"s=.	c #E4949C",
"t=.	c #DF9199",
"u=.	c #E18E96",
"v=.	c #E3999B",
"w=.	c #E3929B",
"x=.	c #E8979D",
"y=.	c #F39DA7",
"z=.	c #DD8F97",
"A=.	c #DD9499",
"B=.	c #E19496",
"C=.	c #D48E94",
"D=.	c #D08A92",
"E=.	c #C9838C",
"F=.	c #C9838D",
"G=.	c #CE8790",
"H=.	c #CF888E",
"I=.	c #BE787C",
"J=.	c #362B23",
"K=.	c #C8B58D",
"L=.	c #AE7074",
"M=.	c #AC6B6E",
"N=.	c #DA928B",
"O=.	c #D18781",
"P=.	c #D78C89",
"Q=.	c #AC646B",
"R=.	c #B76F72",
"S=.	c #AD666F",
"T=.	c #B36E73",
"U=.	c #B97175",
"V=.	c #D58B8E",
"W=.	c #B27075",
"X=.	c #A56169",
"Y=.	c #A1696A",
"Z=.	c #AF9F7D",
"`=.	c #5C3435",
" -.	c #A4575D",
".-.	c #AF5C64",
"+-.	c #B36169",
"@-.	c #C06871",
"#-.	c #C07074",
"$-.	c #C06F76",
"%-.	c #CA7880",
"&-.	c #D27D87",
"*-.	c #CF7E87",
"=-.	c #D98D90",
"--.	c #F8AFAA",
";-.	c #C57F81",
">-.	c #F3A599",
",-.	c #EDA39C",
"'-.	c #CF8287",
")-.	c #CB8087",
"!-.	c #D4848C",
"~-.	c #D98891",
"{-.	c #DC8A92",
"]-.	c #DB8B92",
"^-.	c #D98C92",
"/-.	c #DA8E93",
"(-.	c #D88A90",
"_-.	c #DA8B96",
":-.	c #DB8A93",
"<-.	c #D78A8B",
"[-.	c #DD8F99",
"}-.	c #D68D90",
"|-.	c #CD848B",
"1-.	c #D1848F",
"2-.	c #D4858F",
"3-.	c #CE808B",
"4-.	c #C27A83",
"5-.	c #1F1B16",
"6-.	c #BDAA85",
"7-.	c #A96A70",
"8-.	c #B6727B",
"9-.	c #D18C8B",
"0-.	c #B56E74",
"a-.	c #BB7576",
"b-.	c #B0676F",
"c-.	c #B46E71",
"d-.	c #AE616B",
"e-.	c #B97777",
"f-.	c #BA7173",
"g-.	c #A36168",
"h-.	c #A4636A",
"i-.	c #BBA383",
"j-.	c #54443A",
"k-.	c #AA5C65",
"l-.	c #BC646F",
"m-.	c #C06F77",
"n-.	c #C27379",
"o-.	c #C8757F",
"p-.	c #C17378",
"q-.	c #C97881",
"r-.	c #CC7D85",
"s-.	c #D6868A",
"t-.	c #D3848A",
"u-.	c #D88B8E",
"v-.	c #DB9092",
"w-.	c #DD9690",
"x-.	c #D6908F",
"y-.	c #FAABA7",
"z-.	c #D78E90",
"A-.	c #E39692",
"B-.	c #F7A7A1",
"C-.	c #DF9198",
"D-.	c #EB989E",
"E-.	c #E8989B",
"F-.	c #E9979C",
"G-.	c #FAA3A9",
"H-.	c #E8989F",
"I-.	c #DF8E9A",
"J-.	c #E39A9B",
"K-.	c #E29A9D",
"L-.	c #DB8D98",
"M-.	c #CD868E",
"N-.	c #CD858C",
"O-.	c #CB868C",
"P-.	c #CD848F",
"Q-.	c #C57F89",
"R-.	c #CC8388",
"S-.	c #432E2C",
"T-.	c #CAB990",
"U-.	c #AF7173",
"V-.	c #B97B7C",
"W-.	c #D88E85",
"X-.	c #AD6B71",
"Y-.	c #BB7374",
"Z-.	c #B27175",
"`-.	c #BF7879",
" ;.	c #AA666F",
".;.	c #BA7479",
"+;.	c #C98484",
"@;.	c #C88587",
"#;.	c #C77F85",
"$;.	c #9F6B6B",
"%;.	c #BAAD85",
"&;.	c #5E3034",
"*;.	c #AD525B",
"=;.	c #A9555C",
"-;.	c #B75E67",
";;.	c #C36873",
">;.	c #C56E77",
",;.	c #C7717C",
"';.	c #CB7C81",
");.	c #CF7C84",
"!;.	c #D27F8A",
"~;.	c #D07986",
"{;.	c #E08B94",
"];.	c #EB9A99",
"^;.	c #CD7D84",
"/;.	c #E59597",
"(;.	c #E69399",
"_;.	c #E5968F",
":;.	c #C78183",
"<;.	c #D0888A",
"[;.	c #E69C98",
"};.	c #CD8089",
"|;.	c #ED979D",
"1;.	c #D68B8E",
"2;.	c #DB8A91",
"3;.	c #EC9E98",
"4;.	c #E59698",
"5;.	c #E99B9E",
"6;.	c #EEA59E",
"7;.	c #DD8E96",
"8;.	c #D88D93",
"9;.	c #D68891",
"0;.	c #D8908F",
"a;.	c #CE848B",
"b;.	c #C37D86",
"c;.	c #D18A89",
"d;.	c #D58791",
"e;.	c #D3818C",
"f;.	c #BD737B",
"g;.	c #302A22",
"h;.	c #A86972",
"i;.	c #BD7C7E",
"j;.	c #AA6670",
"k;.	c #BA7476",
"l;.	c #B87576",
"m;.	c #B97574",
"n;.	c #AC626E",
"o;.	c #A56369",
"p;.	c #B57272",
"q;.	c #A26069",
"r;.	c #B9A784",
"s;.	c #44332D",
"t;.	c #A5535C",
"u;.	c #B25F6A",
"v;.	c #BE6973",
"w;.	c #D07D83",
"x;.	c #C7777E",
"y;.	c #CB7781",
"z;.	c #D37F88",
"A;.	c #D58B81",
"B;.	c #D18788",
"C;.	c #D98B92",
"D;.	c #E89D9E",
"E;.	c #E19894",
"F;.	c #D58D8D",
"G;.	c #D5898E",
"H;.	c #EA97A0",
"I;.	c #F09BA1",
"J;.	c #DE9596",
"K;.	c #D58A7F",
"L;.	c #D9878F",
"M;.	c #FBA3A7",
"N;.	c #EA9592",
"O;.	c #EE9894",
"P;.	c #F69EA6",
"Q;.	c #F499A4",
"R;.	c #D78693",
"S;.	c #DA8A92",
"T;.	c #D68B92",
"U;.	c #E09999",
"V;.	c #DA8B94",
"W;.	c #CD838C",
"X;.	c #DB8C96",
"Y;.	c #D78A94",
"Z;.	c #CE858D",
"`;.	c #C77F81",
" >.	c #C77E7E",
".>.	c #BD767C",
"+>.	c #6D4447",
"@>.	c #A3756F",
"#>.	c #B67679",
"$>.	c #D2898A",
"%>.	c #A6696D",
"&>.	c #B26D75",
"*>.	c #CA8482",
"=>.	c #B87B7C",
"->.	c #9D6E6B",
";>.	c #A99878",
">>.	c #6F393D",
",>.	c #B4535D",
"'>.	c #A9575D",
")>.	c #C6636E",
"!>.	c #BC616A",
"~>.	c #BE636C",
"{>.	c #C66B77",
"]>.	c #C47178",
"^>.	c #C16D76",
"/>.	c #CE8588",
"(>.	c #CF7E88",
"_>.	c #D6848D",
":>.	c #CF8486",
"<>.	c #F5A99E",
"[>.	c #D18E8B",
"}>.	c #D58F8E",
"|>.	c #E19294",
"1>.	c #D7878C",
"2>.	c #D2808C",
"3>.	c #D8908D",
"4>.	c #EA9F9C",
"5>.	c #F59DA5",
"6>.	c #D7858C",
"7>.	c #D3848C",
"8>.	c #EA969E",
"9>.	c #E29498",
"0>.	c #DE8F91",
"a>.	c #EE999F",
"b>.	c #DC9291",
"c>.	c #D1868B",
"d>.	c #D78E93",
"e>.	c #D38A8A",
"f>.	c #D98E8D",
"g>.	c #D89191",
"h>.	c #C37C85",
"i>.	c #CF818B",
"j>.	c #C37982",
"k>.	c #C27781",
"l>.	c #BB727B",
"m>.	c #BC7079",
"n>.	c #7E6457",
"o>.	c #A78975",
"p>.	c #AE6F74",
"q>.	c #C48381",
"r>.	c #AB6D73",
"s>.	c #C07D7F",
"t>.	c #DC938C",
"u>.	c #AB6A73",
"v>.	c #BC767C",
"w>.	c #A8646D",
"x>.	c #A9666D",
"y>.	c #BF7F7D",
"z>.	c #C0B088",
"A>.	c #321F1E",
"B>.	c #B9646E",
"C>.	c #BC6870",
"D>.	c #C9737D",
"E>.	c #CA757E",
"F>.	c #C8757E",
"G>.	c #C9747D",
"H>.	c #D67F86",
"I>.	c #D28184",
"J>.	c #D9878D",
"K>.	c #F29FA1",
"L>.	c #E1948F",
"M>.	c #DA9294",
"N>.	c #ECA39C",
"O>.	c #CC8187",
"P>.	c #F3A3A1",
"Q>.	c #D78D84",
"R>.	c #F097A3",
"S>.	c #F89FA4",
"T>.	c #EB959F",
"U>.	c #E98F9C",
"V>.	c #E9969C",
"W>.	c #E49295",
"X>.	c #E08F99",
"Y>.	c #DC8E92",
"Z>.	c #D2888D",
"`>.	c #D38791",
" ,.	c #D78993",
".,.	c #D18790",
"+,.	c #CD848C",
"@,.	c #CA818B",
"#,.	c #CD858A",
"$,.	c #C77D87",
"%,.	c #C37B83",
"&,.	c #CE7F89",
"*,.	c #C0767E",
"=,.	c #A46466",
"-,.	c #A98D73",
";,.	c #A98A75",
">,.	c #AE6971",
",,.	c #A6676F",
"',.	c #A86970",
"),.	c #A5666E",
"!,.	c #A4656D",
"~,.	c #CC8787",
"{,.	c #AD6D71",
"],.	c #C0807D",
"^,.	c #A67973",
"/,.	c #A99B78",
"(,.	c #804248",
"_,.	c #BB5761",
":,.	c #C6616C",
"<,.	c #C2616C",
"[,.	c #BE626C",
"},.	c #C76671",
"|,.	c #C66A75",
"1,.	c #C36B73",
"2,.	c #C5757C",
"3,.	c #D57F8A",
"4,.	c #E69999",
"5,.	c #E39194",
"6,.	c #EC999A",
"7,.	c #EB9B97",
"8,.	c #DB8991",
"9,.	c #D9908E",
"0,.	c #C57C82",
"a,.	c #CD8183",
"b,.	c #E79E98",
"c,.	c #DC8F8F",
"d,.	c #D98A8E",
"e,.	c #F5A29C",
"f,.	c #D7898E",
"g,.	c #ED9C9C",
"h,.	c #ECA49D",
"i,.	c #EC9F9A",
"j,.	c #F5A8A2",
"k,.	c #E29399",
"l,.	c #D98E93",
"m,.	c #E4979C",
"n,.	c #CC868B",
"o,.	c #C38083",
"p,.	c #CC8285",
"q,.	c #C57981",
"r,.	c #C2737D",
"s,.	c #C6737C",
"t,.	c #B56A72",
"u,.	c #716650",
"v,.	c #9F726C",
"w,.	c #B57577",
"x,.	c #A3646D",
"y,.	c #AB6B73",
"z,.	c #A4656F",
"A,.	c #AF6D75",
"B,.	c #A2646A",
"C,.	c #B26F71",
"D,.	c #BAA381",
"E,.	c #5B3336",
"F,.	c #AE535D",
"G,.	c #B35660",
"H,.	c #BD5E68",
"I,.	c #BB5F69",
"J,.	c #B8626C",
"K,.	c #BB656E",
"L,.	c #BF6C70",
"M,.	c #C67079",
"N,.	c #C6717A",
"O,.	c #C8787E",
"P,.	c #CF7E84",
"Q,.	c #D58789",
"R,.	c #D08085",
"S,.	c #E19296",
"T,.	c #E49D99",
"U,.	c #D28B8B",
"V,.	c #D3858A",
"W,.	c #E9979A",
"X,.	c #EB9695",
"Y,.	c #ED959C",
"Z,.	c #EE9999",
"`,.	c #F8A1A5",
" '.	c #D68690",
".'.	c #F199A4",
"+'.	c #E99C9A",
"@'.	c #CF868B",
"#'.	c #E5989B",
"$'.	c #D78A93",
"%'.	c #CD888D",
"&'.	c #D3888F",
"*'.	c #D0848C",
"='.	c #D4898D",
"-'.	c #CA7F88",
";'.	c #C67D86",
">'.	c #CA7B85",
",'.	c #B87079",
"''.	c #B66C71",
")'.	c #706350",
"!'.	c #BC9B83",
"~'.	c #D79090",
"{'.	c #AF7373",
"]'.	c #A06269",
"^'.	c #AF6C6E",
"/'.	c #A4676B",
"('.	c #B48D7C",
"_'.	c #AD9378",
":'.	c #914F55",
"<'.	c #A6525B",
"['.	c #B55761",
"}'.	c #B6545E",
"|'.	c #C15A65",
"1'.	c #C6606B",
"2'.	c #C06870",
"3'.	c #C2636E",
"4'.	c #D46F7A",
"5'.	c #C36C74",
"6'.	c #CB7780",
"7'.	c #DE8B91",
"8'.	c #DD8F90",
"9'.	c #E29797",
"0'.	c #CD8185",
"a'.	c #EAA199",
"b'.	c #EC9A9E",
"c'.	c #D58E8C",
"d'.	c #E08E8C",
"e'.	c #D38686",
"f'.	c #D88D8B",
"g'.	c #DF8F93",
"h'.	c #DA8B8E",
"i'.	c #F1A1A2",
"j'.	c #FAB1B0",
"k'.	c #E39595",
"l'.	c #D1868A",
"m'.	c #F7A3A4",
"n'.	c #D68A8F",
"o'.	c #E29692",
"p'.	c #DF9296",
"q'.	c #DC8E90",
"r'.	c #E9999B",
"s'.	c #D08789",
"t'.	c #CB8184",
"u'.	c #C17B7F",
"v'.	c #B47077",
"w'.	c #C57580",
"x'.	c #B76C74",
"y'.	c #B46671",
"z'.	c #98896D",
"A'.	c #A76F6E",
"B'.	c #995E66",
"C'.	c #9C5F69",
"D'.	c #AD6E74",
"E'.	c #AC6E70",
"F'.	c #A5686D",
"G'.	c #996968",
"H'.	c #B19C7D",
"I'.	c #81484A",
"J'.	c #A7525A",
"K'.	c #B65760",
"L'.	c #C6656F",
"M'.	c #BE666E",
"N'.	c #C66974",
"O'.	c #D27E84",
"P'.	c #C9747E",
"Q'.	c #D6878D",
"R'.	c #CB7F81",
"S'.	c #CA7A81",
"T'.	c #D08087",
"U'.	c #D38288",
"V'.	c #E29999",
"W'.	c #EE969F",
"X'.	c #E69798",
"Y'.	c #E8968F",
"Z'.	c #D68989",
"`'.	c #D48289",
" ).	c #E99197",
".).	c #D18085",
"+).	c #F9A1B1",
"@).	c #F295A2",
"#).	c #E6909B",
"$).	c #E28F94",
"%).	c #D7878F",
"&).	c #D98B8C",
"*).	c #F5A6A1",
"=).	c #D1828A",
"-).	c #CE8188",
";).	c #D0818C",
">).	c #CC8088",
",).	c #CA7F85",
"').	c #C17780",
")).	c #CD7C87",
"!).	c #C88180",
"~).	c #C98283",
"{).	c #A45A5D",
"]).	c #57463E",
"^).	c #CCAA8A",
"/).	c #985C64",
"().	c #9A5C66",
"_).	c #A1646B",
":).	c #9B5F66",
"<).	c #AA6B6D",
"[).	c #A78573",
"}).	c #98886C",
"|).	c #A1565E",
"1).	c #AB545E",
"2).	c #AF545E",
"3).	c #C9636E",
"4).	c #C0616B",
"5).	c #CD747E",
"6).	c #CA767C",
"7).	c #C9767B",
"8).	c #D5828B",
"9).	c #C67C80",
"0).	c #CD7F82",
"a).	c #D8868F",
"b).	c #CF8785",
"c).	c #CE8386",
"d).	c #D88488",
"e).	c #DC9090",
"f).	c #D9848E",
"g).	c #CA7D84",
"h).	c #F9B0AE",
"i).	c #E59894",
"j).	c #E09192",
"k).	c #DC8D8B",
"l).	c #CF8588",
"m).	c #E39A98",
"n).	c #C57B80",
"o).	c #C1747B",
"p).	c #BA6F76",
"q).	c #BE6C75",
"r).	c #AE6167",
"s).	c #A25359",
"t).	c #BF9E83",
"u).	c #995D65",
"v).	c #985C65",
"w).	c #9A5D66",
"x).	c #AA6E70",
"y).	c #B2726F",
"z).	c #AE7D76",
"A).	c #A89978",
"B).	c #AD6667",
"C).	c #A6565D",
"D).	c #A9555D",
"E).	c #B2545D",
"F).	c #C15964",
"G).	c #C8626D",
"H).	c #BB6068",
"I).	c #BB636B",
"J).	c #C26C74",
"K).	c #CA6F7A",
"L).	c #C9777C",
"M).	c #CE7A80",
"N).	c #CE7780",
"O).	c #C9767D",
"P).	c #C8757D",
"Q).	c #CF8186",
"R).	c #DC888E",
"S).	c #D48A8A",
"T).	c #D17F87",
"U).	c #D88E90",
"V).	c #CE8186",
"W).	c #DE8F8F",
"X).	c #ED9686",
"Y).	c #DD8C85",
"Z).	c #E2918C",
"`).	c #F89EA9",
" !.	c #E08D93",
".!.	c #ED969E",
"+!.	c #DA8890",
"@!.	c #E39096",
"#!.	c #D2808A",
"$!.	c #D1858C",
"%!.	c #E39398",
"&!.	c #D6878E",
"*!.	c #CF838B",
"=!.	c #D2878C",
"-!.	c #CE7E88",
";!.	c #CD7E84",
">!.	c #C47880",
",!.	c #C37B81",
"'!.	c #B26F77",
")!.	c #BC717A",
"!!.	c #BB7078",
"~!.	c #B46B70",
"{!.	c #A6545E",
"]!.	c #A2555B",
"^!.	c #201A15",
"/!.	c #CFBF93",
"(!.	c #905F69",
"_!.	c #926E7E",
":!.	c #A0747C",
"<!.	c #AC8D75",
"[!.	c #927F65",
"}!.	c #9B575F",
"|!.	c #A25B62",
"1!.	c #AD545E",
"2!.	c #BE5A65",
"3!.	c #BB5B66",
"4!.	c #BE5E68",
"5!.	c #BD656C",
"6!.	c #C66C75",
"7!.	c #CC6974",
"8!.	c #C97175",
"9!.	c #CA7079",
"0!.	c #CC777F",
"a!.	c #C8767D",
"b!.	c #ED8F9D",
"c!.	c #E69693",
"d!.	c #C3797C",
"e!.	c #CE8788",
"f!.	c #C88486",
"g!.	c #CA7F80",
"h!.	c #E08B8D",
"i!.	c #E2928F",
"j!.	c #DC8A8F",
"k!.	c #D6848B",
"l!.	c #DB8B90",
"m!.	c #F9A29F",
"n!.	c #DC918F",
"o!.	c #DD9391",
"p!.	c #E59A96",
"q!.	c #F19999",
"r!.	c #E69294",
"s!.	c #F0A3A1",
"t!.	c #CB7E85",
"u!.	c #C87C80",
"v!.	c #BA6A74",
"w!.	c #D38C85",
"x!.	c #9C5256",
"y!.	c #7C4144",
"z!.	c #C7B48D",
"A!.	c #925760",
"B!.	c #946875",
"C!.	c #A3676A",
"D!.	c #B08272",
"E!.	c #905055",
"F!.	c #A3565E",
"G!.	c #A8565E",
"H!.	c #AD545D",
"I!.	c #B1535D",
"J!.	c #B4565E",
"K!.	c #BF5C66",
"L!.	c #BF5D67",
"M!.	c #BA646B",
"N!.	c #C56873",
"O!.	c #C46C74",
"P!.	c #D78187",
"Q!.	c #CD7D7F",
"R!.	c #F0959F",
"S!.	c #D2848B",
"T!.	c #D27983",
"U!.	c #D38582",
"V!.	c #DE8C91",
"W!.	c #E58C87",
"X!.	c #E88C98",
"Y!.	c #E58A94",
"Z!.	c #EB979D",
"`!.	c #CD7F81",
" ~.	c #E18994",
".~.	c #D98D8F",
"+~.	c #CB7F85",
"@~.	c #D6898E",
"#~.	c #CE7F88",
"$~.	c #D28485",
"%~.	c #C37A7D",
"&~.	c #C97883",
"*~.	c #BE7479",
"=~.	c #B4686F",
"-~.	c #BD7075",
";~.	c #AA5861",
">~.	c #A6555B",
",~.	c #9D4D55",
"'~.	c #A65A5F",
")~.	c #52414D",
"!~.	c #736780",
"~~.	c #776883",
"{~.	c #8A7283",
"]~.	c #987982",
"^~.	c #985A62",
"/~.	c #9A575F",
"(~.	c #A25860",
"_~.	c #AF5A65",
":~.	c #B35964",
"<~.	c #B75A64",
"[~.	c #B05660",
"}~.	c #B75660",
"|~.	c #B75B62",
"1~.	c #BA5A64",
"2~.	c #BA5C68",
"3~.	c #BD5F68",
"4~.	c #C1626C",
"5~.	c #C76972",
"6~.	c #C96C76",
"7~.	c #CD7D7E",
"8~.	c #D37C81",
"9~.	c #E28A92",
"0~.	c #CA797E",
"a~.	c #CA7D81",
"b~.	c #D68889",
"c~.	c #E0918D",
"d~.	c #DB948A",
"e~.	c #D9888B",
"f~.	c #D18287",
"g~.	c #CF7B85",
"h~.	c #E29395",
"i~.	c #EC9795",
"j~.	c #E99A96",
"k~.	c #E79490",
"l~.	c #E18F8A",
"m~.	c #CF7D86",
"n~.	c #D98E91",
"o~.	c #D68A88",
"p~.	c #CB7C83",
"q~.	c #CA807C",
"r~.	c #C27D7F",
"s~.	c #CA8684",
"t~.	c #B66E73",
"u~.	c #AF676C",
"v~.	c #B05C65",
"w~.	c #A35359",
"x~.	c #A1545B",
"y~.	c #2B1F26",
"z~.	c #6F6889",
"A~.	c #7B6B88",
"B~.	c #8D7485",
"C~.	c #9B8272",
"D~.	c #8F525A",
"E~.	c #A25E63",
"F~.	c #A2565F",
"G~.	c #AB5660",
"H~.	c #AF565F",
"I~.	c #B1545E",
"J~.	c #BE5A64",
"K~.	c #C85F69",
"L~.	c #BB5F68",
"M~.	c #C2636D",
"N~.	c #D07A7E",
"O~.	c #D18083",
"P~.	c #C9747A",
"Q~.	c #D37D84",
"R~.	c #CF7982",
"S~.	c #DD868C",
"T~.	c #E48E93",
"U~.	c #D8878A",
"V~.	c #E99499",
"W~.	c #EEA19D",
"X~.	c #DA8D8A",
"Y~.	c #F6A3A1",
"Z~.	c #F79B95",
"`~.	c #DE918D",
" {.	c #F8A4A3",
".{.	c #D7848C",
"+{.	c #E69596",
"@{.	c #CA7B83",
"#{.	c #D08188",
"${.	c #E59394",
"%{.	c #D18086",
"&{.	c #C87881",
"*{.	c #C0787C",
"={.	c #B46F72",
"-{.	c #BD7676",
";{.	c #B26369",
">{.	c #B06167",
",{.	c #AA5860",
"'{.	c #B9686C",
"){.	c #9E4F57",
"!{.	c #504863",
"~{.	c #836E7F",
"{{.	c #7D6A84",
"]{.	c #7A6F8F",
"^{.	c #87728A",
"/{.	c #9B6A74",
"({.	c #9C5A62",
"_{.	c #AA5D67",
":{.	c #AC585F",
"<{.	c #B65660",
"[{.	c #BA5660",
"}{.	c #C26C73",
"|{.	c #C1676D",
"1{.	c #C96B76",
"2{.	c #C36A70",
"3{.	c #C46E75",
"4{.	c #CC6C76",
"5{.	c #CC6D78",
"6{.	c #C76C76",
"7{.	c #CB747C",
"8{.	c #D48A89",
"9{.	c #C4757B",
"0{.	c #D07C7F",
"a{.	c #D78A87",
"b{.	c #C98384",
"c{.	c #CF7B80",
"d{.	c #D18485",
"e{.	c #E69488",
"f{.	c #E09091",
"g{.	c #DD9290",
"h{.	c #EC9C9C",
"i{.	c #DB898F",
"j{.	c #C87D83",
"k{.	c #D18289",
"l{.	c #CC7981",
"m{.	c #CE7E82",
"n{.	c #C47B7B",
"o{.	c #CD8584",
"p{.	c #B0666C",
"q{.	c #BA7473",
"r{.	c #B06266",
"s{.	c #B3555F",
"t{.	c #9F4F57",
"u{.	c #524459",
"v{.	c #5E5C81",
"w{.	c #6E6484",
"x{.	c #7F6D84",
"y{.	c #967384",
"z{.	c #9B5A64",
"A{.	c #9F5861",
"B{.	c #A35B61",
"C{.	c #A3525C",
"D{.	c #A2515A",
"E{.	c #AB525C",
"F{.	c #AF565D",
"G{.	c #BF5863",
"H{.	c #BF6E70",
"I{.	c #D37E84",
"J{.	c #D07C80",
"K{.	c #DD8C88",
"L{.	c #D38081",
"M{.	c #C97E7F",
"N{.	c #E08892",
"O{.	c #D77F8C",
"P{.	c #CE7C84",
"Q{.	c #E19A90",
"R{.	c #DA8E8B",
"S{.	c #ED9A94",
"T{.	c #EC9497",
"U{.	c #E3908E",
"V{.	c #DF8791",
"W{.	c #D57F89",
"X{.	c #D38088",
"Y{.	c #E19093",
"Z{.	c #C97683",
"`{.	c #E49A97",
" ].	c #CE8087",
".].	c #E9979D",
"+].	c #E28D90",
"@].	c #D28288",
"#].	c #DF8D8B",
"$].	c #CB7B7F",
"%].	c #C6787D",
"&].	c #B67073",
"*].	c #AF6468",
"=].	c #AB6066",
"-].	c #AA585F",
";].	c #AB585C",
">].	c #9E4E54",
",].	c #A15458",
"'].	c #9C545B",
")].	c #3D3345",
"!].	c #52506E",
"~].	c #69607D",
"{].	c #696286",
"]].	c #776B8A",
"^].	c #916873",
"/].	c #A65F69",
"(].	c #9F5B63",
"_].	c #A2555D",
":].	c #B45B63",
"<].	c #BD616A",
"[].	c #C1656D",
"}].	c #C86873",
"|].	c #C86C73",
"1].	c #D68B89",
"2].	c #D38487",
"3].	c #C8767C",
"4].	c #E49191",
"5].	c #CD797E",
"6].	c #CF7E82",
"7].	c #DE8E89",
"8].	c #D8868A",
"9].	c #D9848A",
"0].	c #E79495",
"a].	c #D27681",
"b].	c #E28C91",
"c].	c #F6A09E",
"d].	c #E89B98",
"e].	c #CD7981",
"f].	c #D58282",
"g].	c #E09490",
"h].	c #DC8B83",
"i].	c #CC7F82",
"j].	c #C47678",
"k].	c #C36D75",
"l].	c #C26F74",
"m].	c #B77273",
"n].	c #AD6C6D",
"o].	c #A65C5F",
"p].	c #A5575B",
"q].	c #9F5259",
"r].	c #443643",
"s].	c #535170",
"t].	c #645E84",
"u].	c #71698B",
"v].	c #88738F",
"w].	c #A1616A",
"x].	c #A15A64",
"y].	c #A45962",
"z].	c #AB5963",
"A].	c #B35E65",
"B].	c #A3565A",
"C].	c #AD555C",
"D].	c #A75F60",
"E].	c #BA656A",
"F].	c #C37073",
"G].	c #CF7C80",
"H].	c #C5797D",
"I].	c #D8818B",
"J].	c #E49395",
"K].	c #D68688",
"L].	c #EFA19C",
"M].	c #E09791",
"N].	c #DA9387",
"O].	c #E1948A",
"P].	c #EB938A",
"Q].	c #F59DA4",
"R].	c #E79094",
"S].	c #E28A96",
"T].	c #E69296",
"U].	c #E99295",
"V].	c #D98888",
"W].	c #CB8685",
"X].	c #D38289",
"Y].	c #E19092",
"Z].	c #EA9399",
"`].	c #D4858A",
" ^.	c #D48484",
".^.	c #DF8A83",
"+^.	c #C5737B",
"@^.	c #BD6F76",
"#^.	c #B56C73",
"$^.	c #A45C5E",
"%^.	c #B26766",
"&^.	c #A45158",
"*^.	c #9D5057",
"=^.	c #985257",
"-^.	c #887D61",
";^.	c #3F3948",
">^.	c #4E4A64",
",^.	c #5A5472",
"'^.	c #625E74",
")^.	c #9C746C",
"!^.	c #A45D67",
"~^.	c #A15962",
"{^.	c #9B565B",
"]^.	c #A6545D",
"^^.	c #9D5458",
"/^.	c #9F5257",
"(^.	c #A4565B",
"_^.	c #A9535A",
":^.	c #B45F64",
"<^.	c #B8686A",
"[^.	c #B86568",
"}^.	c #CF7B81",
"|^.	c #D9858A",
"1^.	c #D8888D",
"2^.	c #E89491",
"3^.	c #E79799",
"4^.	c #D77F7B",
"5^.	c #DD898A",
"6^.	c #D27D82",
"7^.	c #E89493",
"8^.	c #E48D91",
"9^.	c #DA8589",
"0^.	c #D38786",
"a^.	c #C47B7D",
"b^.	c #D68E8E",
"c^.	c #D58989",
"d^.	c #DE8792",
"e^.	c #CD7C82",
"f^.	c #CC807D",
"g^.	c #C7727A",
"h^.	c #C16D72",
"i^.	c #D59087",
"j^.	c #C27D7B",
"k^.	c #AB5F61",
"l^.	c #AF6D6B",
"m^.	c #A5555B",
"n^.	c #A05057",
"o^.	c #985159",
"p^.	c #84775D",
"q^.	c #403E55",
"r^.	c #575577",
"s^.	c #646389",
"t^.	c #756B86",
"u^.	c #9F5D65",
"v^.	c #AD5E69",
"w^.	c #A75962",
"x^.	c #A85861",
"y^.	c #A7555A",
"z^.	c #A4535A",
"A^.	c #A25659",
"B^.	c #A25C5A",
"C^.	c #B87371",
"D^.	c #AE6768",
"E^.	c #C47676",
"F^.	c #D26E78",
"G^.	c #B56F6E",
"H^.	c #DC8991",
"I^.	c #C3767B",
"J^.	c #D6888A",
"K^.	c #D07E87",
"L^.	c #DA8C8B",
"M^.	c #E99392",
"N^.	c #E89997",
"O^.	c #E59B8E",
"P^.	c #D38B87",
"Q^.	c #D18588",
"R^.	c #E88E98",
"S^.	c #CC7880",
"T^.	c #D98B8E",
"U^.	c #D38689",
"V^.	c #C87980",
"W^.	c #D68C88",
"X^.	c #E1918F",
"Y^.	c #DB8986",
"Z^.	c #E29391",
"`^.	c #D7848A",
" /.	c #D27F7D",
"./.	c #D28381",
"+/.	c #D07E7F",
"@/.	c #C87A7B",
"#/.	c #B66B70",
"$/.	c #B96D73",
"%/.	c #C87B7C",
"&/.	c #B46F6E",
"*/.	c #B16268",
"=/.	c #AB5B5E",
"-/.	c #AA5F61",
";/.	c #A1565D",
">/.	c #B9AA83",
",/.	c #584F3F",
"'/.	c #B27579",
")/.	c #7D5256",
"!/.	c #956771",
"~/.	c #926165",
"{/.	c #A38D74",
"]/.	c #A0796D",
"^/.	c #A35E68",
"//.	c #9D5A61",
"(/.	c #A35A63",
"_/.	c #9E595F",
":/.	c #A95962",
"</.	c #A8555C",
"[/.	c #B56F6A",
"}/.	c #AD6165",
"|/.	c #B16362",
"1/.	c #B8696B",
"2/.	c #CD7178",
"3/.	c #C17173",
"4/.	c #B76A6B",
"5/.	c #C97A78",
"6/.	c #BF6F6D",
"7/.	c #C5767B",
"8/.	c #D1817E",
"9/.	c #C97A7B",
"0/.	c #DC8D8E",
"a/.	c #C4787A",
"b/.	c #D58586",
"c/.	c #D88484",
"d/.	c #D28081",
"e/.	c #DE8B8A",
"f/.	c #E2918F",
"g/.	c #D38484",
"h/.	c #E59190",
"i/.	c #D88E89",
"j/.	c #E59891",
"k/.	c #C57D7E",
"l/.	c #DF9794",
"m/.	c #E59496",
"n/.	c #C07573",
"o/.	c #BF696E",
"p/.	c #B97170",
"q/.	c #B46A6A",
"r/.	c #A1555B",
"s/.	c #A1545D",
"t/.	c #9D5159",
"u/.	c #AA9A78",
"v/.	c #784C52",
"w/.	c #362C39",
"x/.	c #4D3A3F",
"y/.	c #7C7159",
"z/.	c #A17A6F",
"A/.	c #9D5D66",
"B/.	c #A25C65",
"C/.	c #B15E69",
"D/.	c #A95660",
"E/.	c #A2585B",
"F/.	c #A6565B",
"G/.	c #A85A5C",
"H/.	c #A45556",
"I/.	c #A35B55",
"J/.	c #CD7A7B",
"K/.	c #A7615E",
"L/.	c #BE7E79",
"M/.	c #B97473",
"N/.	c #D88B88",
"O/.	c #C1747A",
"P/.	c #C77478",
"Q/.	c #CD767D",
"R/.	c #CE747D",
"S/.	c #E99598",
"T/.	c #EA9998",
"U/.	c #F7A595",
"V/.	c #ED9A93",
"W/.	c #ECA296",
"X/.	c #DF918C",
"Y/.	c #DE8C90",
"Z/.	c #DD8B8F",
"`/.	c #D18587",
" (.	c #DA858B",
".(.	c #CD7F83",
"+(.	c #CD7F7D",
"@(.	c #EA9295",
"#(.	c #D88886",
"$(.	c #D18284",
"%(.	c #C06F75",
"&(.	c #A85356",
"*(.	c #AA5C61",
"=(.	c #9A4F56",
"-(.	c #9F5159",
";(.	c #B1A07D",
">(.	c #55483A",
",(.	c #B5767E",
"'(.	c #B0757C",
")(.	c #C18189",
"!(.	c #BD8087",
"~(.	c #BA7F84",
"{(.	c #AC757C",
"](.	c #928668",
"^(.	c #B18D79",
"/(.	c #9F5F65",
"((.	c #A45B65",
"_(.	c #A46266",
":(.	c #A35C62",
"<(.	c #A55A62",
"[(.	c #AB565E",
"}(.	c #AF6965",
"|(.	c #B15F63",
"1(.	c #B06667",
"2(.	c #DB8B87",
"3(.	c #C97C77",
"4(.	c #B05C60",
"5(.	c #BF706F",
"6(.	c #C37A78",
"7(.	c #CE8681",
"8(.	c #DE9087",
"9(.	c #D07B79",
"0(.	c #D8847E",
"a(.	c #DF8589",
"b(.	c #CD737C",
"c(.	c #E69791",
"d(.	c #E09390",
"e(.	c #D98587",
"f(.	c #DC8182",
"g(.	c #C9787B",
"h(.	c #CE807F",
"i(.	c #C8777C",
"j(.	c #CF8685",
"k(.	c #DC8F8A",
"l(.	c #BF7075",
"m(.	c #DE908C",
"n(.	c #C2737A",
"o(.	c #C37579",
"p(.	c #D48480",
"q(.	c #BE6F6E",
"r(.	c #BA5D67",
"s(.	c #BC7270",
"t(.	c #B56F6F",
"u(.	c #B06C69",
"v(.	c #A7585C",
"w(.	c #9E5257",
"x(.	c #9F5C5E",
"y(.	c #7A7057",
"z(.	c #BD7983",
"A(.	c #C17F88",
"B(.	c #BC7E87",
"C(.	c #BA7D85",
"D(.	c #9E9272",
"E(.	c #A16D6C",
"F(.	c #A25E66",
"G(.	c #B0616B",
"H(.	c #A75A63",
"I(.	c #AD5862",
"J(.	c #A7585D",
"K(.	c #BB746C",
"L(.	c #DD848B",
"M(.	c #CF847E",
"N(.	c #B7776E",
"O(.	c #D38480",
"P(.	c #C57875",
"Q(.	c #BB6B6E",
"R(.	c #D7817D",
"S(.	c #DC8285",
"T(.	c #D88381",
"U(.	c #E59792",
"V(.	c #E2928C",
"W(.	c #E28C90",
"X(.	c #E99489",
"Y(.	c #DA8E89",
"Z(.	c #D98386",
"`(.	c #DA888C",
" _.	c #EC9898",
"._.	c #D47F84",
"+_.	c #D3837E",
"@_.	c #F2A09A",
"#_.	c #E2898C",
"$_.	c #DC8685",
"%_.	c #DB928D",
"&_.	c #D38586",
"*_.	c #BE716F",
"=_.	c #DE878C",
"-_.	c #AC706C",
";_.	c #B46666",
">_.	c #BA686C",
",_.	c #B06262",
"'_.	c #A5585E",
")_.	c #A0555D",
"!_.	c #A89474",
"~_.	c #4C4236",
"{_.	c #B37A7E",
"]_.	c #BD7F88",
"^_.	c #C88792",
"/_.	c #C4878F",
"(_.	c #C1868C",
"__.	c #CE9099",
":_.	c #CE8F99",
"<_.	c #847A5F",
"[_.	c #B6977E",
"}_.	c #A45C65",
"|_.	c #A55C63",
"1_.	c #AD6068",
"2_.	c #AD5C5F",
"3_.	c #C47A76",
"4_.	c #B56366",
"5_.	c #B86A6C",
"6_.	c #C37171",
"7_.	c #B86266",
"8_.	c #BF6F70",
"9_.	c #C97E79",
"0_.	c #B06665",
"a_.	c #D68984",
"b_.	c #C7817D",
"c_.	c #D08684",
"d_.	c #CD7675",
"e_.	c #D58782",
"f_.	c #D67F83",
"g_.	c #CC767E",
"h_.	c #D27C7F",
"i_.	c #C57779",
"j_.	c #C17075",
"k_.	c #DD938E",
"l_.	c #E9928E",
"m_.	c #DA8A8B",
"n_.	c #DA908D",
"o_.	c #CC7F80",
"p_.	c #BB666B",
"q_.	c #CE7975",
"r_.	c #B0565E",
"s_.	c #AF6161",
"t_.	c #C4776F",
"u_.	c #AB6265",
"v_.	c #B3706B",
"w_.	c #A05C61",
"x_.	c #9B856A",
"y_.	c #726750",
"z_.	c #AF727A",
"A_.	c #BE7E87",
"B_.	c #C58690",
"C_.	c #C1828C",
"D_.	c #C58790",
"E_.	c #C5868F",
"F_.	c #B1A27E",
"G_.	c #A56A6C",
"H_.	c #A85962",
"I_.	c #B45B65",
"J_.	c #A95A61",
"K_.	c #B05A63",
"L_.	c #AD6062",
"M_.	c #B36964",
"N_.	c #AC6D65",
"O_.	c #D08381",
"P_.	c #E4928F",
"Q_.	c #B96866",
"R_.	c #C87F79",
"S_.	c #B76F6E",
"T_.	c #C0676F",
"U_.	c #C1777B",
"V_.	c #D48182",
"W_.	c #BF6F74",
"X_.	c #C36F77",
"Y_.	c #DA8C8A",
"Z_.	c #D5857C",
"`_.	c #F3A294",
" :.	c #EB9791",
".:.	c #D27A80",
"+:.	c #D98488",
"@:.	c #D6828A",
"#:.	c #C67A7D",
"$:.	c #D28F87",
"%:.	c #D78389",
"&:.	c #DA8D84",
"*:.	c #DA828B",
"=:.	c #D2817F",
"-:.	c #B97168",
";:.	c #CA7479",
">:.	c #C97178",
",:.	c #AE6263",
"':.	c #A86263",
"):.	c #9E5358",
"!:.	c #4F4237",
"~:.	c #B4777E",
"{:.	c #B47980",
"]:.	c #CC8B94",
"^:.	c #C4898E",
"/:.	c #C3888F",
"(:.	c #DF9EA8",
"_:.	c #C88D94",
"::.	c #786F55",
"<:.	c #9E5C63",
"[:.	c #AC666A",
"}:.	c #A96267",
"|:.	c #A95960",
"1:.	c #AF5861",
"2:.	c #B36869",
"3:.	c #C77078",
"4:.	c #C57573",
"5:.	c #CE7A79",
"6:.	c #B76266",
"7:.	c #B6676B",
"8:.	c #BE6E69",
"9:.	c #DD878D",
"0:.	c #C06C6A",
"a:.	c #CA807F",
"b:.	c #CA797C",
"c:.	c #CE847C",
"d:.	c #CE747E",
"e:.	c #E48E8E",
"f:.	c #D78385",
"g:.	c #DC868C",
"h:.	c #CF7C81",
"i:.	c #D98482",
"j:.	c #CF757D",
"k:.	c #CE7B7D",
"l:.	c #D48B8B",
"m:.	c #D18984",
"n:.	c #D98786",
"o:.	c #C7787C",
"p:.	c #CB7778",
"q:.	c #D07A6E",
"r:.	c #B86C6B",
"s:.	c #CF807C",
"t:.	c #B67362",
"u:.	c #B1726F",
"v:.	c #AC6666",
"w:.	c #997567",
"x:.	c #AD7479",
"y:.	c #B2767B",
"z:.	c #B77C82",
"A:.	c #C3858D",
"B:.	c #C88A93",
"C:.	c #C98C92",
"D:.	c #D697A1",
"E:.	c #8E636A",
"F:.	c #BEAF86",
"G:.	c #B1636C",
"H:.	c #A45860",
"I:.	c #AB5862",
"J:.	c #AC5760",
"K:.	c #BF6C69",
"L:.	c #C8847D",
"M:.	c #BA706E",
"N:.	c #CF7A7F",
"O:.	c #C27875",
"P:.	c #BC736D",
"Q:.	c #C06B72",
"R:.	c #C36A73",
"S:.	c #C57676",
"T:.	c #C47174",
"U:.	c #D27E7F",
"V:.	c #DE8A8B",
"W:.	c #F8A2A0",
"X:.	c #DD8E8A",
"Y:.	c #F2959B",
"Z:.	c #CA7379",
"`:.	c #D68B8A",
" <.	c #CE7C81",
".<.	c #CC7E82",
"+<.	c #D17980",
"@<.	c #C17579",
"#<.	c #DE8F8D",
"$<.	c #D88F8C",
"%<.	c #C7857D",
"&<.	c #CF827E",
"*<.	c #DD8B84",
"=<.	c #BA7672",
"-<.	c #CA7B7A",
";<.	c #AD6066",
"><.	c #AF6569",
",<.	c #B26B6B",
"'<.	c #B49E7E",
")<.	c #524539",
"!<.	c #B3757D",
"~<.	c #CA8791",
"{<.	c #B97D83",
"]<.	c #C88992",
"^<.	c #D1949D",
"/<.	c #DA9AA3",
"(<.	c #E3A1AB",
"_<.	c #D596A1",
":<.	c #68604B",
"<<.	c #AC957A",
"[<.	c #AE6669",
"}<.	c #A76064",
"|<.	c #B7676D",
"1<.	c #BC5F67",
"2<.	c #B85C63",
"3<.	c #C77972",
"4<.	c #BF7074",
"5<.	c #BE7772",
"6<.	c #C2706C",
"7<.	c #CE797A",
"8<.	c #BD7B77",
"9<.	c #CF7D79",
"0<.	c #DF878E",
"a<.	c #C9737B",
"b<.	c #E59090",
"c<.	c #CB737D",
"d<.	c #E29091",
"e<.	c #D27881",
"f<.	c #C87174",
"g<.	c #DD8C8A",
"h<.	c #C87D7B",
"i<.	c #DD8B8B",
"j<.	c #D08A82",
"k<.	c #E29593",
"l<.	c #DA898A",
"m<.	c #D07D82",
"n<.	c #C67173",
"o<.	c #B66D6C",
"p<.	c #C0726C",
"q<.	c #BE746A",
"r<.	c #AA6564",
"s<.	c #A2866F",
"t<.	c #846A5C",
"u<.	c #AF767B",
"v<.	c #B5787F",
"w<.	c #C7868F",
"x<.	c #C0838A",
"y<.	c #CF919A",
"z<.	c #DF9CA6",
"A<.	c #D4959F",
"B<.	c #684A4E",
"C<.	c #AE626D",
"D<.	c #AF5F69",
"E<.	c #AC5D66",
"F<.	c #A65961",
"G<.	c #AE6067",
"H<.	c #BA6E73",
"I<.	c #B7706A",
"J<.	c #C57975",
"K<.	c #CE7F81",
"L<.	c #B76669",
"M<.	c #C27271",
"N<.	c #BA6669",
"O<.	c #BE6769",
"P<.	c #D07A7C",
"Q<.	c #C07777",
"R<.	c #E59994",
"S<.	c #E38E8C",
"T<.	c #E0948C",
"U<.	c #C26A71",
"V<.	c #C36B71",
"W<.	c #C26A70",
"X<.	c #C87177",
"Y<.	c #D18A88",
"Z<.	c #E28F90",
"`<.	c #CB7077",
" [.	c #BF745E",
".[.	c #C07D79",
"+[.	c #C7616C",
"@[.	c #C27472",
"#[.	c #C26E72",
"$[.	c #BC6C6E",
"%[.	c #A7555E",
"&[.	c #BFA484",
"*[.	c #5C4B3F",
"=[.	c #B6787D",
"-[.	c #C3848C",
";[.	c #C78891",
">[.	c #CC8D92",
",[.	c #DC9AA3",
"'[.	c #D2959E",
")[.	c #605744",
"![.	c #B2A07E",
"~[.	c #B4636F",
"{[.	c #B16067",
"][.	c #B55C64",
"^[.	c #B46166",
"/[.	c #CF7B7D",
"([.	c #C56A6D",
"_[.	c #BA6E6E",
":[.	c #C57776",
"<[.	c #CA7F7F",
"[[.	c #CC7D7A",
"}[.	c #CA7E7C",
"|[.	c #C67879",
"1[.	c #E28A8B",
"2[.	c #DB8489",
"3[.	c #E78F88",
"4[.	c #D78283",
"5[.	c #CA717B",
"6[.	c #D58182",
"7[.	c #C56971",
"8[.	c #D88684",
"9[.	c #CA7C7A",
"0[.	c #CA807D",
"a[.	c #C8817C",
"b[.	c #D78886",
"c[.	c #B36466",
"d[.	c #B06265",
"e[.	c #AD6564",
"f[.	c #BE776D",
"g[.	c #B58F7A",
"h[.	c #786754",
"i[.	c #B67D7D",
"j[.	c #B4797E",
"k[.	c #B87C84",
"l[.	c #C1838B",
"m[.	c #D0919A",
"n[.	c #D1939C",
"o[.	c #D697A0",
"p[.	c #CD8F95",
"q[.	c #5A4044",
"r[.	c #CEC094",
"s[.	c #AC5F68",
"t[.	c #A96167",
"u[.	c #B15B66",
"v[.	c #AB5B62",
"w[.	c #B26768",
"x[.	c #BC716D",
"y[.	c #BA706B",
"z[.	c #C9817B",
"A[.	c #C38178",
"B[.	c #CA807E",
"C[.	c #C06B6E",
"D[.	c #C9717C",
"E[.	c #B85C66",
"F[.	c #CD7C79",
"G[.	c #C47570",
"H[.	c #E99487",
"I[.	c #C37F7D",
"J[.	c #D28573",
"K[.	c #DC8788",
"L[.	c #D58587",
"M[.	c #D0797B",
"N[.	c #C2696E",
"O[.	c #CF7977",
"P[.	c #BE656D",
"Q[.	c #CA767A",
"R[.	c #C97D7E",
"S[.	c #D18281",
"T[.	c #CE7D81",
"U[.	c #C77F7D",
"V[.	c #C47273",
"W[.	c #BD7171",
"X[.	c #B25F64",
"Y[.	c #AE5C61",
"Z[.	c #BC7275",
"`[.	c #B9A582",
" }.	c #635045",
".}.	c #BD7B83",
"+}.	c #C88790",
"@}.	c #C4848E",
"#}.	c #CD8D95",
"$}.	c #CC8D95",
"%}.	c #C98D93",
"&}.	c #E6A1AD",
"*}.	c #EFA8B2",
"=}.	c #E5A0A7",
"-}.	c #5B5541",
";}.	c #B39E7E",
">}.	c #A65E66",
",}.	c #AB646A",
"'}.	c #B86C72",
")}.	c #B6626D",
"!}.	c #BF676F",
"~}.	c #CC6E78",
"{}.	c #BB6768",
"]}.	c #B45A60",
"^}.	c #CA7375",
"/}.	c #BB6A6C",
"(}.	c #CB7E80",
"_}.	c #BB7175",
":}.	c #C07C76",
"<}.	c #BF7A76",
"[}.	c #C16E70",
"}}.	c #D57D7F",
"|}.	c #E38990",
"1}.	c #CE797C",
"2}.	c #CF767D",
"3}.	c #DD8886",
"4}.	c #C86D74",
"5}.	c #D28481",
"6}.	c #C77077",
"7}.	c #BE6B71",
"8}.	c #DD8A88",
"9}.	c #DC8C87",
"0}.	c #DD948D",
"a}.	c #CC827D",
"b}.	c #D38E86",
"c}.	c #A55E60",
"d}.	c #BD9377",
"e}.	c #886D5B",
"f}.	c #C08282",
"g}.	c #BA7C7C",
"h}.	c #C3868E",
"i}.	c #CF8E95",
"j}.	c #D7979F",
"k}.	c #D1929A",
"l}.	c #D8989E",
"m}.	c #E9A4AD",
"n}.	c #503B3C",
"o}.	c #C8B88F",
"p}.	c #A45E67",
"q}.	c #A55E66",
"r}.	c #B65E68",
"s}.	c #CA847E",
"t}.	c #B8706C",
"u}.	c #DF958C",
"v}.	c #C27C79",
"w}.	c #C77271",
"x}.	c #C77877",
"y}.	c #BF6970",
"z}.	c #BB6A75",
"A}.	c #CF7F81",
"B}.	c #C37C76",
"C}.	c #C47C77",
"D}.	c #D27A7B",
"E}.	c #C57575",
"F}.	c #C67275",
"G}.	c #CC7F7D",
"H}.	c #D58B84",
"I}.	c #CB8180",
"J}.	c #D4857E",
"K}.	c #BF7672",
"L}.	c #BD6665",
"M}.	c #C57675",
"N}.	c #B1595C",
"O}.	c #B36065",
"P}.	c #CE7D80",
"Q}.	c #B49F7D",
"R}.	c #493F34",
"S}.	c #C37B7E",
"T}.	c #C7818C",
"U}.	c #C4838B",
"V}.	c #D28E98",
"W}.	c #C88A90",
"X}.	c #D19099",
"Y}.	c #D3939D",
"Z}.	c #D2949B",
"`}.	c #DE9DA5",
" |.	c #F2A9B1",
".|.	c #F0A7AF",
"+|.	c #524A3B",
"@|.	c #AC626A",
"#|.	c #AB6067",
"$|.	c #AD6369",
"%|.	c #B4656D",
"&|.	c #C97279",
"*|.	c #C36B70",
"=|.	c #BB6A6D",
"-|.	c #AE6468",
";|.	c #BC6A72",
">|.	c #D48383",
",|.	c #CB8181",
"'|.	c #C06E73",
")|.	c #C67277",
"!|.	c #D0777B",
"~|.	c #CD7075",
"{|.	c #D57E81",
"]|.	c #C16D71",
"^|.	c #CA7979",
"/|.	c #CB7476",
"(|.	c #C26C72",
"_|.	c #BF7070",
":|.	c #DB8C82",
"<|.	c #DF8C84",
"[|.	c #DA8A84",
"}|.	c #D57C7D",
"||.	c #C47175",
"1|.	c #AB5A60",
"2|.	c #A7585F",
"3|.	c #A68E74",
"4|.	c #8E7360",
"5|.	c #BF8180",
"6|.	c #BC7D83",
"7|.	c #BD8285",
"8|.	c #C7878E",
"9|.	c #E5A1AA",
"0|.	c #EDA6AE",
"a|.	c #E6A3AD",
"b|.	c #3D2D2D",
"c|.	c #B3626B",
"d|.	c #C97F7D",
"e|.	c #C97E7A",
"f|.	c #B87774",
"g|.	c #C07672",
"h|.	c #C66D76",
"i|.	c #C37875",
"j|.	c #B65C64",
"k|.	c #C16B71",
"l|.	c #B96166",
"m|.	c #B86C71",
"n|.	c #BC6D73",
"o|.	c #E7948F",
"p|.	c #C07E7B",
"q|.	c #D38788",
"r|.	c #D08385",
"s|.	c #D37D7F",
"t|.	c #BC676B",
"u|.	c #C76C73",
"v|.	c #BD656B",
"w|.	c #CC7B7B",
"x|.	c #D18584",
"y|.	c #C77C77",
"z|.	c #D37B7F",
"A|.	c #CA7879",
"B|.	c #B5686C",
"C|.	c #B2626A",
"D|.	c #BBA183",
"E|.	c #6F594D",
"F|.	c #BF7981",
"G|.	c #CA818C",
"H|.	c #C9848D",
"I|.	c #D08C97",
"J|.	c #C98D92",
"K|.	c #D3929B",
"L|.	c #E19DA8",
"M|.	c #E09CA6",
"N|.	c #F6ACB6",
"O|.	c #F4AAB3",
"P|.	c #F4A9B1",
"Q|.	c #E7A1AB",
"R|.	c #514839",
"S|.	c #AE6568",
"T|.	c #AE5E65",
"U|.	c #BA5965",
"V|.	c #B45861",
"W|.	c #B86066",
"X|.	c #B46467",
"Y|.	c #B6686A",
"Z|.	c #CA8480",
"`|.	c #DF9086",
" 1.	c #BF7977",
".1.	c #C86F76",
"+1.	c #C77274",
"@1.	c #C87477",
"#1.	c #C3676E",
"$1.	c #CD7A7A",
"%1.	c #D57E7E",
"&1.	c #D87F7A",
"*1.	c #C1676F",
"=1.	c #CE7876",
"-1.	c #E18F82",
";1.	c #D2827F",
">1.	c #C87576",
",1.	c #B16167",
"'1.	c #AF6163",
")1.	c #AB5E61",
"!1.	c #AA8F74",
"~1.	c #846B59",
"{1.	c #B27478",
"]1.	c #C47E80",
"^1.	c #C9858D",
"/1.	c #C7888C",
"(1.	c #D4939A",
"_1.	c #E09BA5",
":1.	c #E4A0A9",
"<1.	c #E8A3AE",
"[1.	c #271D1C",
"}1.	c #AE626C",
"|1.	c #BE7673",
"11.	c #B5716E",
"21.	c #B86C69",
"31.	c #BC6F71",
"41.	c #C7807C",
"51.	c #BC6A73",
"61.	c #B66466",
"71.	c #CF7A7B",
"81.	c #E1948E",
"91.	c #C07977",
"01.	c #D07979",
"a1.	c #C0666E",
"b1.	c #C2666C",
"c1.	c #BD5F66",
"d1.	c #BE696E",
"e1.	c #C9797B",
"f1.	c #B95D63",
"g1.	c #C38079",
"h1.	c #CD837B",
"i1.	c #C26F6D",
"j1.	c #C57173",
"k1.	c #B36063",
"l1.	c #B36468",
"m1.	c #BB9A84",
"n1.	c #685344",
"o1.	c #D38993",
"p1.	c #D68F99",
"q1.	c #C78A8E",
"r1.	c #D08E98",
"s1.	c #D6959E",
"t1.	c #D29299",
"u1.	c #CC8F95",
"v1.	c #F0A9B4",
"w1.	c #D3949C",
"x1.	c #F6ACB5",
"y1.	c #F4ABB4",
"z1.	c #474032",
"A1.	c #B7A282",
"B1.	c #AA636A",
"C1.	c #A96168",
"D1.	c #AE646A",
"E1.	c #B86F70",
"F1.	c #B05B64",
"G1.	c #B05862",
"H1.	c #BC5B66",
"I1.	c #C45B67",
"J1.	c #BC6A6C",
"K1.	c #C57277",
"L1.	c #CD7975",
"M1.	c #C9807F",
"N1.	c #BD7371",
"O1.	c #BB6B6F",
"P1.	c #B96569",
"Q1.	c #CF7D7C",
"R1.	c #DC8889",
"S1.	c #C56A71",
"T1.	c #EA8B80",
"U1.	c #CD7C7F",
"V1.	c #BE6469",
"W1.	c #F0948F",
"X1.	c #D87F7C",
"Y1.	c #E08671",
"Z1.	c #E99091",
"`1.	c #BF6D6B",
" 2.	c #C87873",
".2.	c #C06F73",
"+2.	c #AA5B60",
"@2.	c #A49274",
"#2.	c #756451",
"$2.	c #B87477",
"%2.	c #C4848A",
"&2.	c #D6929B",
"*2.	c #CA8D92",
"=2.	c #D09195",
"-2.	c #E19DA1",
";2.	c #D4969A",
">2.	c #F3A8B0",
",2.	c #CF9294",
"'2.	c #261A1B",
")2.	c #D3C297",
"!2.	c #B66770",
"~2.	c #AE5F6A",
"{2.	c #C07477",
"]2.	c #C47D78",
"^2.	c #B26367",
"/2.	c #B56C6B",
"(2.	c #BB686F",
"_2.	c #B9756D",
":2.	c #BC5962",
"<2.	c #B0575E",
"[2.	c #C36E72",
"}2.	c #DE7E7C",
"|2.	c #D37E80",
"12.	c #DB8885",
"22.	c #EA9391",
"32.	c #D07D74",
"42.	c #BB6669",
"52.	c #C56D72",
"62.	c #C05861",
"72.	c #DF8888",
"82.	c #C5666F",
"92.	c #BA6167",
"02.	c #C37D76",
"a2.	c #D07B77",
"b2.	c #AE5960",
"c2.	c #BBA184",
"d2.	c #675448",
"e2.	c #BE747D",
"f2.	c #C57E85",
"g2.	c #DC8F9A",
"h2.	c #D9919C",
"i2.	c #C5888C",
"j2.	c #CE9097",
"k2.	c #CE8E94",
"l2.	c #D4929C",
"m2.	c #ECA5AD",
"n2.	c #5A4940",
"o2.	c #B79F81",
"p2.	c #AA656A",
"q2.	c #B0646A",
"r2.	c #C97D81",
"s2.	c #B45C64",
"t2.	c #B85F66",
"u2.	c #B45E65",
"v2.	c #B56769",
"w2.	c #C77771",
"x2.	c #E0857F",
"y2.	c #CA7069",
"z2.	c #B86A68",
"A2.	c #C06B6A",
"B2.	c #C66B73",
"C2.	c #DE838A",
"D2.	c #C36065",
"E2.	c #C56A6E",
"F2.	c #CF7A7A",
"G2.	c #CF7F7C",
"H2.	c #DD8683",
"I2.	c #ED948C",
"J2.	c #C96F6F",
"K2.	c #D37B81",
"L2.	c #B56467",
"M2.	c #E08A8C",
"N2.	c #BC6C6C",
"O2.	c #BA6A70",
"P2.	c #B0947B",
"Q2.	c #685E4A",
"R2.	c #C07A82",
"S2.	c #B9797F",
"T2.	c #C28484",
"U2.	c #D29099",
"V2.	c #C5878C",
"W2.	c #F9AEBA",
"X2.	c #D9999F",
"Y2.	c #DB99A1",
"Z2.	c #F7ACB5",
"`2.	c #D9989B",
" 3.	c #D29498",
".3.	c #E39FAB",
"+3.	c #291D1D",
"@3.	c #C9B490",
"#3.	c #AA6469",
"$3.	c #AF6169",
"%3.	c #C17B79",
"&3.	c #BF7475",
"*3.	c #C7727D",
"=3.	c #C67074",
"-3.	c #C16861",
";3.	c #CC7870",
">3.	c #C16470",
",3.	c #CD7778",
"'3.	c #D78787",
")3.	c #C86E70",
"!3.	c #CC7877",
"~3.	c #BC5A63",
"{3.	c #C56C70",
"]3.	c #B2575D",
"^3.	c #BB696B",
"/3.	c #CD7980",
"(3.	c #C27270",
"_3.	c #CA7B7B",
":3.	c #B95F6A",
"<3.	c #B6977F",
"[3.	c #504739",
"}3.	c #C27880",
"|3.	c #C77F87",
"13.	c #CF878D",
"23.	c #E4939D",
"33.	c #D58B96",
"43.	c #C2858A",
"53.	c #C48C8A",
"63.	c #CA8A94",
"73.	c #C88B92",
"83.	c #F1A8B4",
"93.	c #D6949C",
"03.	c #F8AFB9",
"a3.	c #3E372D",
"b3.	c #A76066",
"c3.	c #A95A64",
"d3.	c #B16267",
"e3.	c #B8626A",
"f3.	c #B16164",
"g3.	c #BA5B65",
"h3.	c #C3746E",
"i3.	c #CD8180",
"j3.	c #BD6267",
"k3.	c #BB6A71",
"l3.	c #BD6569",
"m3.	c #B26061",
"n3.	c #CE7375",
"o3.	c #BE676B",
"p3.	c #E28A8A",
"q3.	c #CB7172",
"r3.	c #D07B7C",
"s3.	c #C56F70",
"t3.	c #D88280",
"u3.	c #D88183",
"v3.	c #C77272",
"w3.	c #BD6D6E",
"x3.	c #BD7272",
"y3.	c #D48687",
"z3.	c #BAA983",
"A3.	c #6C644D",
"B3.	c #B9757A",
"C3.	c #C27981",
"D3.	c #C27C83",
"E3.	c #CD858B",
"F3.	c #CC848C",
"G3.	c #CC888D",
"H3.	c #D69099",
"I3.	c #CC8C93",
"J3.	c #D49195",
"K3.	c #DB9190",
"L3.	c #D99D97",
"M3.	c #E3A1A5",
"N3.	c #E09DA7",
"O3.	c #EBA4AF",
"P3.	c #362728",
"Q3.	c #CCB288",
"R3.	c #AA676C",
"S3.	c #B1676E",
"T3.	c #BB7076",
"U3.	c #CC817E",
"V3.	c #B26267",
"W3.	c #CD797C",
"X3.	c #B35C62",
"Y3.	c #C66D6C",
"Z3.	c #CD7E79",
"`3.	c #CE7179",
" 4.	c #D07F77",
".4.	c #E7948C",
"+4.	c #D68684",
"@4.	c #C06E6D",
"#4.	c #C36B6D",
"$4.	c #B45D62",
"%4.	c #B65960",
"&4.	c #AB6E6E",
"*4.	c #C17678",
"=4.	c #E48F7B",
"-4.	c #BA6661",
";4.	c #AC5F65",
">4.	c #B1A17D",
",4.	c #594D3D",
"'4.	c #BC7279",
")4.	c #CB7D87",
"!4.	c #D58590",
"~4.	c #D18890",
"{4.	c #CE878F",
"]4.	c #CA868F",
"^4.	c #C4848B",
"/4.	c #CA888F",
"(4.	c #C18287",
"_4.	c #D69799",
":4.	c #B97F85",
"<4.	c #C78C91",
"[4.	c #DB98A0",
"}4.	c #FAAFBB",
"|4.	c #F1A6B2",
"14.	c #D6929D",
"24.	c #473C32",
"34.	c #C1A086",
"44.	c #AD636B",
"54.	c #BE6E73",
"64.	c #C07373",
"74.	c #B9636D",
"84.	c #B15861",
"94.	c #B8676E",
"04.	c #D2777A",
"a4.	c #B96560",
"b4.	c #C87175",
"c4.	c #E78D83",
"d4.	c #EF9C90",
"e4.	c #BF696B",
"f4.	c #D3777F",
"g4.	c #C1686E",
"h4.	c #C06C70",
"i4.	c #C46C6E",
"j4.	c #C97174",
"k4.	c #A95F68",
"l4.	c #AE997A",
"m4.	c #766854",
"n4.	c #C1787F",
"o4.	c #D18690",
"p4.	c #CA8588",
"q4.	c #CB868E",
"r4.	c #CF8C95",
"s4.	c #DD96A0",
"t4.	c #D39092",
"u4.	c #DE929A",
"v4.	c #DC9494",
"w4.	c #F2A6AC",
"x4.	c #D9999D",
"y4.	c #DC999F",
"z4.	c #DF9DA4",
"A4.	c #DC9BA3",
"B4.	c #E19CA7",
"C4.	c #543B3D",
"D4.	c #A9666A",
"E4.	c #AE626A",
"F4.	c #BE7677",
"G4.	c #CF7C83",
"H4.	c #BC696B",
"I4.	c #C77D7B",
"J4.	c #D28782",
"K4.	c #D88682",
"L4.	c #CD767C",
"M4.	c #DD8E8B",
"N4.	c #BB636A",
"O4.	c #C46A6E",
"P4.	c #B15D62",
"Q4.	c #B86567",
"R4.	c #B95E67",
"S4.	c #B37D76",
"T4.	c #B45E63",
"U4.	c #CB7978",
"V4.	c #C47374",
"W4.	c #CE7D7B",
"X4.	c #AC5E65",
"Y4.	c #B09D7B",
"Z4.	c #564E3D",
"`4.	c #BA6E76",
" 5.	c #C87C84",
".5.	c #CE7E89",
"+5.	c #CF838A",
"@5.	c #C68388",
"#5.	c #C48389",
"$5.	c #C6868B",
"%5.	c #C38988",
"&5.	c #CB8D90",
"*5.	c #BC7E86",
"=5.	c #CB888A",
"-5.	c #D08E94",
";5.	c #DD99A3",
">5.	c #E19CA6",
",5.	c #DD9AA3",
"'5.	c #FAAFBA",
")5.	c #F7ABB7",
"!5.	c #D9929F",
"~5.	c #CC8F94",
"{5.	c #393329",
"]5.	c #C3AC89",
"^5.	c #B57172",
"/5.	c #B0626C",
"(5.	c #B3636A",
"_5.	c #B46469",
":5.	c #BA666B",
"<5.	c #B86261",
"[5.	c #D28082",
"}5.	c #CC7276",
"|5.	c #D18280",
"15.	c #C97577",
"25.	c #EC9691",
"35.	c #E08988",
"45.	c #D78480",
"55.	c #D38280",
"65.	c #EEA59B",
"75.	c #D07C7E",
"85.	c #C17070",
"95.	c #CB7D79",
"05.	c #D98986",
"a5.	c #B26770",
"b5.	c #A98977",
"c5.	c #826C5B",
"d5.	c #B76E76",
"e5.	c #C57781",
"f5.	c #BC7A7C",
"g5.	c #BE777E",
"h5.	c #CC828B",
"i5.	c #CF8790",
"j5.	c #EB9AA5",
"k5.	c #DE949E",
"l5.	c #D28E94",
"m5.	c #D8939C",
"n5.	c #D99195",
"o5.	c #DF999B",
"p5.	c #D79498",
"q5.	c #EFABAE",
"r5.	c #D89A9F",
"s5.	c #DD9AA1",
"t5.	c #745351",
"u5.	c #C1B08A",
"v5.	c #B3696F",
"w5.	c #D17E80",
"x5.	c #C77377",
"y5.	c #DF8982",
"z5.	c #C67170",
"A5.	c #D1777A",
"B5.	c #C9757A",
"C5.	c #C99A80",
"D5.	c #635546",
"E5.	c #BD7078",
"F5.	c #CE7B86",
"G5.	c #CC848A",
"H5.	c #C37D82",
"I5.	c #C48586",
"J5.	c #C8888A",
"K5.	c #C18687",
"L5.	c #C48689",
"M5.	c #C68789",
"N5.	c #CE8B93",
"O5.	c #D8919B",
"P5.	c #CE8D8E",
"Q5.	c #C48688",
"R5.	c #CC8B91",
"S5.	c #CA8988",
"T5.	c #DB9A9E",
"U5.	c #D29298",
"V5.	c #DD97A1",
"W5.	c #EEA4B0",
"X5.	c #352D25",
"Y5.	c #C2A689",
"Z5.	c #B26570",
"`5.	c #AF666D",
" 6.	c #BD7478",
".6.	c #B4616B",
"+6.	c #B56069",
"@6.	c #C97779",
"#6.	c #CB837F",
"$6.	c #D0787E",
"%6.	c #D0807E",
"&6.	c #E3888A",
"*6.	c #D27D7D",
"=6.	c #D28687",
"-6.	c #CC7871",
";6.	c #B8696A",
">6.	c #CA7C7F",
",6.	c #A59273",
"'6.	c #7C7259",
")6.	c #B86E76",
"!6.	c #D07E88",
"~6.	c #DB8691",
"{6.	c #D7848F",
"]6.	c #D48690",
"^6.	c #D98D96",
"/6.	c #D79197",
"(6.	c #D69299",
"_6.	c #F9B1AB",
":6.	c #EAA1A3",
"<6.	c #E19AA1",
"[6.	c #EBA0AB",
"}6.	c #E59EA7",
"|6.	c #DD999B",
"16.	c #DB999E",
"26.	c #DB97A2",
"36.	c #D5939A",
"46.	c #7E5859",
"56.	c #BCAD86",
"66.	c #A96D6D",
"76.	c #B97276",
"86.	c #B96E72",
"96.	c #B86D70",
"06.	c #BB6D6B",
"a6.	c #CB807D",
"b6.	c #D57F84",
"c6.	c #E1908A",
"d6.	c #D4817D",
"e6.	c #C57775",
"f6.	c #C87778",
"g6.	c #B66066",
"h6.	c #C77476",
"i6.	c #BC6B70",
"j6.	c #C4747B",
"k6.	c #D98988",
"l6.	c #AC6168",
"m6.	c #B4987B",
"n6.	c #956E61",
"o6.	c #C27179",
"p6.	c #CF808A",
"q6.	c #D7828C",
"r6.	c #BF7A80",
"s6.	c #C57F86",
"t6.	c #E0909B",
"u6.	c #D18893",
"v6.	c #C8868B",
"w6.	c #CE8B8F",
"x6.	c #C8858C",
"y6.	c #D18F8C",
"z6.	c #BF817D",
"A6.	c #C58B89",
"B6.	c #F0A4AF",
"C6.	c #EFA3AE",
"D6.	c #D7939B",
"E6.	c #D48E9A",
"F6.	c #F2A6B1",
"G6.	c #DC95A1",
"H6.	c #D09096",
"I6.	c #C98790",
"J6.	c #393028",
"K6.	c #C5B08D",
"L6.	c #B36671",
"M6.	c #B46A6F",
"N6.	c #AF6668",
"O6.	c #CD8179",
"P6.	c #CC7C72",
"Q6.	c #CB7A77",
"R6.	c #BA6265",
"S6.	c #C67D78",
"T6.	c #C17476",
"U6.	c #CA7878",
"V6.	c #E4928D",
"W6.	c #C97876",
"X6.	c #E58F9A",
"Y6.	c #A78F75",
"Z6.	c #87765E",
"`6.	c #C1707A",
" 7.	c #DD8792",
".7.	c #CB828A",
"+7.	c #D18E92",
"@7.	c #E698A3",
"#7.	c #D99193",
"$7.	c #E79FA2",
"%7.	c #EEA7A1",
"&7.	c #E1999C",
"*7.	c #E198A3",
"=7.	c #E097A0",
"-7.	c #D59395",
";7.	c #DB999C",
">7.	c #DD9A9D",
",7.	c #DE9B9E",
"'7.	c #CB908F",
")7.	c #E8A0AB",
"!7.	c #CE8E93",
"~7.	c #D79598",
"{7.	c #D9939E",
"]7.	c #D39099",
"^7.	c #7A5359",
"/7.	c #B4A681",
"(7.	c #A87570",
"_7.	c #AE626E",
":7.	c #B76A73",
"<7.	c #B2656C",
"[7.	c #B4636C",
"}7.	c #EEA498",
"|7.	c #E48F90",
"17.	c #DE938B",
"27.	c #CF7C7C",
"37.	c #B5686B",
"47.	c #DA8988",
"57.	c #B86368",
"67.	c #B45E66",
"77.	c #C27176",
"87.	c #D98C8B",
"97.	c #AE656A",
"07.	c #A69374",
"a7.	c #6A5A4A",
"b7.	c #BC6B72",
"c7.	c #BB6C74",
"d7.	c #D67C87",
"e7.	c #DC838E",
"f7.	c #CE7E87",
"g7.	c #C58286",
"h7.	c #E18C98",
"i7.	c #D1868E",
"j7.	c #CF8C8F",
"k7.	c #D18B91",
"l7.	c #CA878C",
"m7.	c #D48E93",
"n7.	c #C48384",
"o7.	c #C58386",
"p7.	c #D2898E",
"q7.	c #D28C8C",
"r7.	c #D38E95",
"s7.	c #D48F93",
"t7.	c #C8878B",
"u7.	c #CC8A90",
"v7.	c #CD8B94",
"w7.	c #CE9093",
"x7.	c #D7939D",
"y7.	c #E39BA7",
"z7.	c #C8878F",
"A7.	c #D7919D",
"B7.	c #D08A94",
"C7.	c #4A3D34",
"D7.	c #BCA886",
"E7.	c #A8656B",
"F7.	c #B46972",
"G7.	c #B46B71",
"H7.	c #AC6367",
"I7.	c #BB7971",
"J7.	c #B4646B",
"K7.	c #D68980",
"L7.	c #B66A6B",
"M7.	c #C77C7B",
"N7.	c #C87277",
"O7.	c #CB7B79",
"P7.	c #D68C8A",
"Q7.	c #BD6B70",
"R7.	c #CE837E",
"S7.	c #E89991",
"T7.	c #DC8C8C",
"U7.	c #D68282",
"V7.	c #9B856C",
"W7.	c #A98A76",
"X7.	c #B96972",
"Y7.	c #B86C73",
"Z7.	c #CA757F",
"`7.	c #D6828D",
" 8.	c #D6838D",
".8.	c #CB7E87",
"+8.	c #C88189",
"@8.	c #D98C96",
"#8.	c #D88E94",
"$8.	c #D28B92",
"%8.	c #DA9795",
"&8.	c #D38B86",
"*8.	c #DA9398",
"=8.	c #E49C9E",
"-8.	c #E2999B",
";8.	c #E29A9F",
">8.	c #DF97A0",
",8.	c #E09BA0",
"'8.	c #D79497",
")8.	c #D09191",
"!8.	c #DD9B9A",
"~8.	c #D69293",
"{8.	c #E09BA4",
"]8.	c #D09297",
"^8.	c #CB8E8F",
"/8.	c #D9969D",
"(8.	c #D39399",
"_8.	c #DF97A2",
":8.	c #895B62",
"<8.	c #A99477",
"[8.	c #B07C76",
"}8.	c #AF636D",
"|8.	c #B0656B",
"18.	c #CD8782",
"28.	c #AB6D63",
"38.	c #D78680",
"48.	c #C37E7B",
"58.	c #B76E70",
"68.	c #B86268",
"78.	c #B45C66",
"88.	c #B15B65",
"98.	c #C3717A",
"08.	c #BD6D74",
"a8.	c #B19578",
"b8.	c #615444",
"c8.	c #BC6871",
"d8.	c #C7737E",
"e8.	c #DD828E",
"f8.	c #E18894",
"g8.	c #C2757D",
"h8.	c #C87E84",
"i8.	c #C67A84",
"j8.	c #C97E88",
"k8.	c #C78288",
"l8.	c #C48187",
"m8.	c #C68886",
"n8.	c #B9817D",
"o8.	c #C58388",
"p8.	c #CC8887",
"q8.	c #BE8381",
"r8.	c #CD8780",
"s8.	c #CF8E8E",
"t8.	c #BF857B",
"u8.	c #BA7D84",
"v8.	c #CA898B",
"w8.	c #BE8186",
"x8.	c #C28488",
"y8.	c #D08C96",
"z8.	c #C6858E",
"A8.	c #D88F9A",
"B8.	c #CB858E",
"C8.	c #4E4237",
"D8.	c #B5A080",
"E8.	c #AB666F",
"F8.	c #A9626A",
"G8.	c #AF696E",
"H8.	c #BC6C6D",
"I8.	c #BA7272",
"J8.	c #C07776",
"K8.	c #AB5C60",
"L8.	c #DA838A",
"M8.	c #B87171",
"N8.	c #D07F7E",
"O8.	c #B66971",
"P8.	c #BC8D7D",
"Q8.	c #A0836F",
"R8.	c #BD6A74",
"S8.	c #CF747F",
"T8.	c #DE8692",
"U8.	c #D1808A",
"V8.	c #DE8A95",
"W8.	c #D98A95",
"X8.	c #D28C90",
"Y8.	c #D6898C",
"Z8.	c #D68E92",
"`8.	c #E69E9C",
" 9.	c #E6989F",
".9.	c #F5A4A8",
"+9.	c #E39AA1",
"@9.	c #DB9197",
"#9.	c #E09A9F",
"$9.	c #DD999E",
"%9.	c #E6A0A2",
"&9.	c #DF9B9E",
"*9.	c #E2A0A3",
"=9.	c #D19191",
"-9.	c #E79F99",
";9.	c #E0979B",
">9.	c #DA989C",
",9.	c #E29AA4",
"'9.	c #D69399",
")9.	c #EEA2AD",
"!9.	c #D58E98",
"~9.	c #9A656E",
"{9.	c #A29674",
"]9.	c #A58171",
"^9.	c #AD686C",
"/9.	c #BA7B75",
"(9.	c #B7756D",
"_9.	c #C9807A",
":9.	c #D2867E",
"<9.	c #B16666",
"[9.	c #B6696E",
"}9.	c #B96C69",
"|9.	c #B86871",
"19.	c #E0908F",
"29.	c #AA5F67",
"39.	c #A79677",
"49.	c #685844",
"59.	c #B1626A",
"69.	c #AC656A",
"79.	c #CB717C",
"89.	c #D17883",
"99.	c #DE828D",
"09.	c #D7818C",
"a9.	c #C87C81",
"b9.	c #C97F85",
"c9.	c #D1818B",
"d9.	c #C87E85",
"e9.	c #C27E80",
"f9.	c #C98688",
"g9.	c #C08081",
"h9.	c #CA848A",
"i9.	c #D28A90",
"j9.	c #CF878B",
"k9.	c #CC888A",
"l9.	c #C88985",
"m9.	c #C58885",
"n9.	c #C8898C",
"o9.	c #E497A2",
"p9.	c #CE8A92",
"q9.	c #C78B8B",
"r9.	c #C7868C",
"s9.	c #C4848D",
"t9.	c #EB9DA9",
"u9.	c #CF8891",
"v9.	c #C6818A",
"w9.	c #4F4838",
"x9.	c #B7A081",
"y9.	c #B7716A",
"z9.	c #B86B71",
"A9.	c #AA6264",
"B9.	c #C77A7E",
"C9.	c #D18582",
"D9.	c #D5918D",
"E9.	c #C87F81",
"F9.	c #C67B79",
"G9.	c #AD5F68",
"H9.	c #BA7575",
"I9.	c #BD7878",
"J9.	c #A98273",
"K9.	c #9D8A6F",
"L9.	c #A55A61",
"M9.	c #C46F77",
"N9.	c #D17F89",
"O9.	c #E28994",
"P9.	c #E58C98",
"Q9.	c #CF868E",
"R9.	c #DB9597",
"S9.	c #D78F96",
"T9.	c #DD929A",
"U9.	c #E79B9A",
"V9.	c #DF999C",
"W9.	c #DA939B",
"X9.	c #DC9694",
"Y9.	c #EEA3A1",
"Z9.	c #E89E9C",
"`9.	c #DB958F",
" 0.	c #DA9699",
".0.	c #A56B73",
"+0.	c #958A6A",
"@0.	c #A78874",
"#0.	c #AD636E",
"$0.	c #AC636C",
"%0.	c #B1636D",
"&0.	c #AD686B",
"*0.	c #BA766E",
"=0.	c #B2626E",
"-0.	c #B47673",
";0.	c #B4736D",
">0.	c #B8696D",
",0.	c #B26E73",
"'0.	c #C09B87",
")0.	c #625343",
"!0.	c #C26973",
"~0.	c #BC6B6D",
"{0.	c #BE6B74",
"]0.	c #CA737D",
"^0.	c #C2727C",
"/0.	c #CD7A83",
"(0.	c #CE7A83",
"_0.	c #C37B82",
":0.	c #CA7E85",
"<0.	c #D1838C",
"[0.	c #D3878A",
"}0.	c #D59088",
"|0.	c #D79292",
"10.	c #CA828A",
"20.	c #C8848A",
"30.	c #CA8989",
"40.	c #C98784",
"50.	c #E39B97",
"60.	c #D18D90",
"70.	c #CE8B8E",
"80.	c #CD8A91",
"90.	c #C6878B",
"00.	c #CC8892",
"a0.	c #CD8A92",
"b0.	c #DE959F",
"c0.	c #E69AA5",
"d0.	c #CE8890",
"e0.	c #C7818B",
"f0.	c #CE8A8E",
"g0.	c #D58994",
"h0.	c #645C47",
"i0.	c #BB9E83",
"j0.	c #A5646B",
"k0.	c #B16D6D",
"l0.	c #BC7578",
"m0.	c #A56467",
"n0.	c #BB7571",
"o0.	c #B3686C",
"p0.	c #C57D76",
"q0.	c #C5797E",
"r0.	c #B4706B",
"s0.	c #CD7F75",
"t0.	c #A65C65",
"u0.	c #C6807B",
"v0.	c #A37D6D",
"w0.	c #A18E72",
"x0.	c #BA706D",
"y0.	c #BA7074",
"z0.	c #CB7680",
"A0.	c #D47D88",
"B0.	c #CB7C85",
"C0.	c #CD828A",
"D0.	c #D88A8E",
"E0.	c #D48C8B",
"F0.	c #CD858D",
"G0.	c #E5989E",
"H0.	c #E09A98",
"I0.	c #DD939A",
"J0.	c #DE9693",
"K0.	c #D79192",
"L0.	c #DB939C",
"M0.	c #DD9599",
"N0.	c #E9A39C",
"O0.	c #DB9E94",
"P0.	c #DD979C",
"Q0.	c #D99394",
"R0.	c #D89498",
"S0.	c #D39095",
"T0.	c #C4858C",
"U0.	c #CB8A90",
"V0.	c #C18388",
"W0.	c #CA8B8F",
"X0.	c #E395A1",
"Y0.	c #C68289",
"Z0.	c #A86B75",
"`0.	c #897C5F",
" a.	c #B49C7F",
".a.	c #A8646B",
"+a.	c #B97676",
"@a.	c #AD6A6E",
"#a.	c #B47573",
"$a.	c #B0706F",
"%a.	c #BD7779",
"&a.	c #C58477",
"*a.	c #CC8681",
"=a.	c #B3686F",
"-a.	c #AD6767",
";a.	c #BA7177",
">a.	c #B97678",
",a.	c #C07B78",
"'a.	c #B46D6F",
")a.	c #B57472",
"!a.	c #B36971",
"~a.	c #AC9A79",
"{a.	c #86665D",
"]a.	c #C2777A",
"^a.	c #B87677",
"/a.	c #CC7980",
"(a.	c #C9777F",
"_a.	c #D07B87",
":a.	c #DA8590",
"<a.	c #C87A85",
"[a.	c #C78085",
"}a.	c #D99192",
"|a.	c #CD868A",
"1a.	c #BC817E",
"2a.	c #C58886",
"3a.	c #D58F90",
"4a.	c #CF908A",
"5a.	c #D08B8B",
"6a.	c #D2908A",
"7a.	c #DA9390",
"8a.	c #CD8C88",
"9a.	c #CC8B8C",
"0a.	c #C58687",
"aa.	c #C38587",
"ba.	c #CC8C8B",
"ca.	c #CB8A8D",
"da.	c #CE8991",
"ea.	c #C7848B",
"fa.	c #C9828A",
"ga.	c #BD767F",
"ha.	c #83785D",
"ia.	c #A67B71",
"ja.	c #B57376",
"ka.	c #B66E6E",
"la.	c #BE7977",
"ma.	c #B36A6E",
"na.	c #B57373",
"oa.	c #B97570",
"pa.	c #AA6267",
"qa.	c #B48479",
"ra.	c #BA937F",
"sa.	c #BB686D",
"ta.	c #C06C76",
"ua.	c #CC727C",
"va.	c #D37A84",
"wa.	c #E38894",
"xa.	c #E48995",
"ya.	c #D2878F",
"za.	c #D08B8D",
"Aa.	c #DE8F8E",
"Ba.	c #D78E92",
"Ca.	c #DC9297",
"Da.	c #D58A8C",
"Ea.	c #D89194",
"Fa.	c #DB8F94",
"Ga.	c #E3979A",
"Ha.	c #E59A9B",
"Ia.	c #DD999A",
"Ja.	c #EE9FA0",
"Ka.	c #EA9AA2",
"La.	c #F9ACA3",
"Ma.	c #F4A7A7",
"Na.	c #E4A1A0",
"Oa.	c #DA969B",
"Pa.	c #E9A3A4",
"Qa.	c #D38C92",
"Ra.	c #CC878B",
"Sa.	c #C28287",
"Ta.	c #736A52",
"Ua.	c #C2A188",
"Va.	c #AA646E",
"Wa.	c #A7626B",
"Xa.	c #B06570",
"Ya.	c #B87176",
"Za.	c #BE7561",
"`a.	c #AF6658",
" b.	c #B37272",
".b.	c #B67172",
"+b.	c #BF7A75",
"@b.	c #C97F83",
"#b.	c #A65F68",
"$b.	c #A56264",
"%b.	c #AB6C6F",
"&b.	c #C19983",
"*b.	c #5D4F40",
"=b.	c #AB5F62",
"-b.	c #BB6871",
";b.	c #B07173",
">b.	c #C17F7E",
",b.	c #B66D71",
"'b.	c #AF7074",
")b.	c #CD8888",
"!b.	c #BF787D",
"~b.	c #C57A80",
"{b.	c #C57D83",
"]b.	c #CE8988",
"^b.	c #CB8B88",
"/b.	c #C78485",
"(b.	c #D4948D",
"_b.	c #D59391",
":b.	c #D78B92",
"<b.	c #D68C91",
"[b.	c #C78284",
"}b.	c #D18691",
"|b.	c #D28D8D",
"1b.	c #CA888C",
"2b.	c #C28085",
"3b.	c #C48487",
"4b.	c #DA8E98",
"5b.	c #C88388",
"6b.	c #DE8C97",
"7b.	c #B56E78",
"8b.	c #A08971",
"9b.	c #A56E70",
"0b.	c #AE6D71",
"ab.	c #C77A83",
"bb.	c #D08685",
"cb.	c #C88483",
"db.	c #D9958D",
"eb.	c #CC8984",
"fb.	c #BF7B79",
"gb.	c #C37C81",
"hb.	c #B47475",
"ib.	c #B79978",
"jb.	c #995257",
"kb.	c #D67D88",
"lb.	c #DB838E",
"mb.	c #CD8386",
"nb.	c #D18D8E",
"ob.	c #D79394",
"pb.	c #E18F9A",
"qb.	c #E9999F",
"rb.	c #D18F8E",
"sb.	c #E9A09C",
"tb.	c #EDA1A1",
"ub.	c #F09FA7",
"vb.	c #E7999B",
"wb.	c #F4A5A4",
"xb.	c #E79B99",
"yb.	c #E59B9D",
"zb.	c #D89497",
"Ab.	c #E29991",
"Bb.	c #DB9396",
"Cb.	c #D78B91",
"Db.	c #CA888B",
"Eb.	c #DB919B",
"Fb.	c #CE888E",
"Gb.	c #C57D86",
"Hb.	c #675847",
"Ib.	c #AF7271",
"Jb.	c #A8656E",
"Kb.	c #B46F76",
"Lb.	c #C57E7F",
"Mb.	c #B26D6E",
"Nb.	c #B87174",
"Ob.	c #B37076",
"Pb.	c #B56E79",
"Qb.	c #AE6B74",
"Rb.	c #A7686D",
"Sb.	c #BEA184",
"Tb.	c #635144",
"Ub.	c #AD555E",
"Vb.	c #B36A6D",
"Wb.	c #D3747F",
"Xb.	c #BB7E75",
"Yb.	c #C77D82",
"Zb.	c #D6818B",
"`b.	c #D08E8C",
" c.	c #B97878",
".c.	c #C0817F",
"+c.	c #C68385",
"@c.	c #D89291",
"#c.	c #D1898A",
"$c.	c #C67F87",
"%c.	c #CE8488",
"&c.	c #D38990",
"*c.	c #DF8D99",
"=c.	c #C88186",
"-c.	c #C68585",
";c.	c #BB7C7D",
">c.	c #BC7B82",
",c.	c #D28B91",
"'c.	c #CD838D",
")c.	c #C58485",
"!c.	c #DB8A95",
"~c.	c #C47781",
"{c.	c #8E575D",
"]c.	c #C5B68D",
"^c.	c #A6656D",
"/c.	c #AC6B71",
"(c.	c #B6716F",
"_c.	c #BD7B79",
":c.	c #DD9191",
"<c.	c #D28580",
"[c.	c #C78680",
"}c.	c #AA686C",
"|c.	c #B06F75",
"1c.	c #BA7B7D",
"2c.	c #A4786E",
"3c.	c #A99073",
"4c.	c #8F4C4E",
"5c.	c #BF6B73",
"6c.	c #C7707A",
"7c.	c #C5727B",
"8c.	c #C5767E",
"9c.	c #CE8283",
"0c.	c #D0858A",
"ac.	c #D3858E",
"bc.	c #D78D94",
"cc.	c #E29597",
"dc.	c #D78B90",
"ec.	c #D18B8E",
"fc.	c #DD9390",
"gc.	c #DC908F",
"hc.	c #DB9691",
"ic.	c #F7A6A5",
"jc.	c #FDAEA8",
"kc.	c #FCB0B0",
"lc.	c #EFA89E",
"mc.	c #D88D94",
"nc.	c #E19B99",
"oc.	c #DC939A",
"pc.	c #E69B9B",
"qc.	c #D98E97",
"rc.	c #C58189",
"sc.	c #D79095",
"tc.	c #CD8790",
"uc.	c #C68283",
"vc.	c #CE828D",
"wc.	c #564430",
"xc.	c #D2C296",
"yc.	c #AA6772",
"zc.	c #A5676E",
"Ac.	c #B8747A",
"Bc.	c #B26E6D",
"Cc.	c #C17E7E",
"Dc.	c #B36D6C",
"Ec.	c #B8736F",
"Fc.	c #A96B70",
"Gc.	c #B57379",
"Hc.	c #A6686E",
"Ic.	c #5E4C3F",
"Jc.	c #A3545A",
"Kc.	c #AC555D",
"Lc.	c #C96771",
"Mc.	c #B96D6E",
"Nc.	c #C27A7E",
"Oc.	c #C27579",
"Pc.	c #CE8582",
"Qc.	c #DD9393",
"Rc.	c #BB7F7F",
"Sc.	c #B9787C",
"Tc.	c #D48B8E",
"Uc.	c #CF858D",
"Vc.	c #CF828A",
"Wc.	c #CE848A",
"Xc.	c #C68588",
"Yc.	c #D4908D",
"Zc.	c #D18C8C",
"`c.	c #CF8A90",
" d.	c #C27E84",
".d.	c #D88893",
"+d.	c #D78691",
"@d.	c #B66F77",
"#d.	c #BB6F79",
"$d.	c #4B2D30",
"%d.	c #C5B28D",
"&d.	c #AB6B68",
"*d.	c #B37379",
"=d.	c #BB7275",
"-d.	c #C88785",
";d.	c #C78285",
">d.	c #B27375",
",d.	c #D28F86",
"'d.	c #B57477",
")d.	c #BD8981",
"!d.	c #B8977F",
"~d.	c #854749",
"{d.	c #AE6160",
"]d.	c #B25E64",
"^d.	c #BE6871",
"/d.	c #C16C75",
"(d.	c #BA7775",
"_d.	c #D08189",
":d.	c #CE868B",
"<d.	c #D2838D",
"[d.	c #D38C8F",
"}d.	c #E89995",
"|d.	c #E59598",
"1d.	c #F4A7A0",
"2d.	c #FBA7A2",
"3d.	c #EB9A97",
"4d.	c #F9A7AA",
"5d.	c #DB9692",
"6d.	c #E6969E",
"7d.	c #E49A99",
"8d.	c #D58C91",
"9d.	c #E59C9B",
"0d.	c #DC909A",
"ad.	c #CF8A8F",
"bd.	c #D78B8F",
"cd.	c #C27E81",
"dd.	c #2C271F",
"ed.	c #CEBC93",
"fd.	c #A86971",
"gd.	c #A86B6C",
"hd.	c #A3656C",
"id.	c #B4707A",
"jd.	c #B4767A",
"kd.	c #C78384",
"ld.	c #B47172",
"md.	c #B17172",
"nd.	c #A06569",
"od.	c #B8A883",
"pd.	c #433A2E",
"qd.	c #A5545B",
"rd.	c #AF535D",
"sd.	c #BF5A64",
"td.	c #C96671",
"ud.	c #BF6872",
"vd.	c #C17D7B",
"wd.	c #C47279",
"xd.	c #CF8484",
"yd.	c #D28787",
"zd.	c #D18389",
"Ad.	c #C98682",
"Bd.	c #C68182",
"Cd.	c #CA8A89",
"Dd.	c #CE878A",
"Ed.	c #CB7B87",
"Fd.	c #D68E91",
"Gd.	c #CC8386",
"Hd.	c #CC8389",
"Id.	c #D08A8B",
"Jd.	c #D79294",
"Kd.	c #D08A8E",
"Ld.	c #CD888C",
"Md.	c #D2848E",
"Nd.	c #C47C82",
"Od.	c #BE787E",
"Pd.	c #AC6F6F",
"Qd.	c #BC767B",
"Rd.	c #352824",
"Sd.	c #C0AD88",
"Td.	c #9D6167",
"Ud.	c #B47278",
"Vd.	c #B8766D",
"Wd.	c #B27776",
"Xd.	c #CE8D82",
"Yd.	c #CE8377",
"Zd.	c #B7777C",
"`d.	c #AB6C74",
" e.	c #A87A71",
".e.	c #A48F70",
"+e.	c #AE6E6D",
"@e.	c #B36866",
"#e.	c #BF656F",
"$e.	c #C86B75",
"%e.	c #C26E76",
"&e.	c #C3747A",
"*e.	c #BE787D",
"=e.	c #C67A80",
"-e.	c #C57D7D",
";e.	c #D08688",
">e.	c #DB8690",
",e.	c #E8919C",
"'e.	c #D78A8F",
")e.	c #F8A5A5",
"!e.	c #D08D8A",
"~e.	c #DC968E",
"{e.	c #FBA89D",
"]e.	c #E49691",
"^e.	c #F8A5A0",
"/e.	c #EA989B",
"(e.	c #EA9197",
"_e.	c #EEA19F",
":e.	c #E29A9A",
"<e.	c #D48B93",
"[e.	c #D0838D",
"}e.	c #CC8588",
"|e.	c #C48085",
"1e.	c #C57A83",
"2e.	c #C2717B",
"3e.	c #281F1C",
"4e.	c #CDB691",
"5e.	c #AC6F74",
"6e.	c #A66971",
"7e.	c #A86B72",
"8e.	c #B47379",
"9e.	c #A96666",
"0e.	c #9D6262",
"ae.	c #A0626C",
"be.	c #3C3229",
"ce.	c #A9565F",
"de.	c #AC555C",
"ee.	c #B35760",
"fe.	c #B75C64",
"ge.	c #B97074",
"he.	c #D36E79",
"ie.	c #BD7174",
"je.	c #D58385",
"ke.	c #C17478",
"le.	c #D88A88",
"me.	c #C5747C",
"ne.	c #CF8688",
"oe.	c #C88784",
"pe.	c #CC8B87",
"qe.	c #C88184",
"re.	c #C57F82",
"se.	c #D0868A",
"te.	c #C07F82",
"ue.	c #CA8587",
"ve.	c #D1898B",
"we.	c #CA8687",
"xe.	c #C88384",
"ye.	c #B37273",
"ze.	c #B07274",
"Ae.	c #AF6F70",
"Be.	c #BB6E78",
"Ce.	c #AE676E",
"De.	c #B76771",
"Ee.	c #A58573",
"Fe.	c #9A6067",
"Ge.	c #A96C71",
"He.	c #B07477",
"Ie.	c #B07478",
"Je.	c #C28786",
"Ke.	c #977068",
"Le.	c #A18F72",
"Me.	c #8B5154",
"Ne.	c #A15357",
"Oe.	c #B75761",
"Pe.	c #BB5A64",
"Qe.	c #C7636D",
"Re.	c #B76069",
"Se.	c #B86D6F",
"Te.	c #B36C74",
"Ue.	c #C17578",
"Ve.	c #B77776",
"We.	c #B26C6F",
"Xe.	c #C47C80",
"Ye.	c #BD777B",
"Ze.	c #DE8F95",
"`e.	c #D18089",
" f.	c #D5868F",
".f.	c #E09697",
"+f.	c #E89F96",
"@f.	c #FBA9A7",
"#f.	c #EA9EA1",
"$f.	c #E7959C",
"%f.	c #D38B90",
"&f.	c #E49592",
"*f.	c #E49A9D",
"=f.	c #DD8F96",
"-f.	c #DE9097",
";f.	c #E49B9B",
">f.	c #D78E8F",
",f.	c #D58A8F",
"'f.	c #D2848F",
")f.	c #C67C84",
"!f.	c #BA7378",
"~f.	c #382725",
"{f.	c #CDB08E",
"]f.	c #9E676A",
"^f.	c #9D6069",
"/f.	c #A76870",
"(f.	c #B06F6B",
"_f.	c #9F6167",
":f.	c #9A5D63",
"<f.	c #2F2620",
"[f.	c #A5545E",
"}f.	c #9D5358",
"|f.	c #B0565F",
"1f.	c #B5555D",
"2f.	c #C65F6A",
"3f.	c #C4666F",
"4f.	c #CC7E7E",
"5f.	c #CC6E79",
"6f.	c #D78685",
"7f.	c #CA7C7E",
"8f.	c #C5817C",
"9f.	c #CC7D82",
"0f.	c #C47C7D",
"af.	c #D08484",
"bf.	c #D8918F",
"cf.	c #C98186",
"df.	c #D18888",
"ef.	c #C68482",
"ff.	c #D6888E",
"gf.	c #DD9392",
"hf.	c #D2848A",
"if.	c #C57D82",
"jf.	c #C48284",
"kf.	c #CC898B",
"lf.	c #D08B89",
"mf.	c #C87B84",
"nf.	c #B57077",
"of.	c #AE6A6D",
"pf.	c #AD676A",
"qf.	c #9F545B",
"rf.	c #958769",
"sf.	c #996565",
"tf.	c #A2656B",
"uf.	c #A1656A",
"vf.	c #9F646A",
"wf.	c #AA6A72",
"xf.	c #946F66",
"yf.	c #BF9686",
"zf.	c #804A4D",
"Af.	c #A5525C",
"Bf.	c #AE555E",
"Cf.	c #A6565C",
"Df.	c #B55760",
"Ef.	c #B76D72",
"Ff.	c #BA7478",
"Gf.	c #BB7678",
"Hf.	c #C57C7F",
"If.	c #C27C7F",
"Jf.	c #CE8085",
"Kf.	c #DC8B8E",
"Lf.	c #D78B88",
"Mf.	c #DC8A8A",
"Nf.	c #D99188",
"Of.	c #F1A398",
"Pf.	c #E49698",
"Qf.	c #E1938C",
"Rf.	c #D48E87",
"Sf.	c #E19194",
"Tf.	c #CC868A",
"Uf.	c #DD8B93",
"Vf.	c #D68D93",
"Wf.	c #E49499",
"Xf.	c #E09298",
"Yf.	c #D58C8F",
"Zf.	c #DB9394",
"`f.	c #D1878C",
" g.	c #C77C83",
".g.	c #C98285",
"+g.	c #B77075",
"@g.	c #B87074",
"#g.	c #B6656F",
"$g.	c #45292A",
"%g.	c #B2A27E",
"&g.	c #9C7169",
"*g.	c #9D5E69",
"=g.	c #A76C6D",
"-g.	c #97636B",
";g.	c #C2A38A",
">g.	c #3B2A28",
",g.	c #9D555E",
"'g.	c #AC5862",
")g.	c #A45358",
"!g.	c #B0565D",
"~g.	c #B55D64",
"{g.	c #B46169",
"]g.	c #B7646B",
"^g.	c #C47677",
"/g.	c #CB777E",
"(g.	c #C57B79",
"_g.	c #C27177",
":g.	c #B96D77",
"<g.	c #BF757B",
"[g.	c #B77874",
"}g.	c #D38C87",
"|g.	c #CB8483",
"1g.	c #CF8B87",
"2g.	c #CA8C86",
"3g.	c #BB717E",
"4g.	c #CA7F87",
"5g.	c #C77D81",
"6g.	c #CC8986",
"7g.	c #C37A7F",
"8g.	c #C87D84",
"9g.	c #BE777F",
"0g.	c #BD767B",
"ag.	c #B97075",
"bg.	c #AF6D70",
"cg.	c #B35E67",
"dg.	c #804146",
"eg.	c #935861",
"fg.	c #93626D",
"gg.	c #B07475",
"hg.	c #9D756C",
"ig.	c #AF907C",
"jg.	c #945A5D",
"kg.	c #A0535B",
"lg.	c #B2555F",
"mg.	c #B6555E",
"ng.	c #C15A63",
"og.	c #B4585E",
"pg.	c #C15E68",
"qg.	c #C07775",
"rg.	c #BC6C70",
"sg.	c #BF7B76",
"tg.	c #B56B74",
"ug.	c #B66877",
"vg.	c #CE8483",
"wg.	c #CC7F84",
"xg.	c #C77B81",
"yg.	c #D4868B",
"zg.	c #DF948F",
"Ag.	c #D5868C",
"Bg.	c #EB9B9D",
"Cg.	c #D9888C",
"Dg.	c #DC8C91",
"Eg.	c #D38787",
"Fg.	c #F0A39E",
"Gg.	c #DC8D90",
"Hg.	c #DF8C87",
"Ig.	c #D98D8D",
"Jg.	c #D3858B",
"Kg.	c #DA8991",
"Lg.	c #C28283",
"Mg.	c #E09294",
"Ng.	c #E39B99",
"Og.	c #DE8F94",
"Pg.	c #CB8085",
"Qg.	c #CC8485",
"Rg.	c #CC8987",
"Sg.	c #BB6E74",
"Tg.	c #B76770",
"Ug.	c #A85B62",
"Vg.	c #713C3F",
"Wg.	c #9E8F71",
"Xg.	c #A58272",
"Yg.	c #866575",
"Zg.	c #916D7C",
"`g.	c #8B6F80",
" h.	c #8B666D",
".h.	c #97575F",
"+h.	c #9A545D",
"@h.	c #A1585F",
"#h.	c #A25760",
"$h.	c #A75B60",
"%h.	c #AD545B",
"&h.	c #B76262",
"*h.	c #AB545A",
"=h.	c #B17168",
"-h.	c #CA777A",
";h.	c #C96F79",
">h.	c #CB7981",
",h.	c #C47F7D",
"'h.	c #C1797E",
")h.	c #C1787B",
"!h.	c #D88B87",
"~h.	c #CA7D86",
"{h.	c #C17581",
"]h.	c #B3797A",
"^h.	c #C58481",
"/h.	c #B96B5D",
"(h.	c #BD837E",
"_h.	c #C1827F",
":h.	c #CF8E89",
"<h.	c #BD7C7B",
"[h.	c #BB7378",
"}h.	c #B47377",
"|h.	c #C88A84",
"1h.	c #C17B7A",
"2h.	c #BD7B7B",
"3h.	c #B77D75",
"4h.	c #BB7579",
"5h.	c #BA727A",
"6h.	c #B47071",
"7h.	c #BA6871",
"8h.	c #A9535C",
"9h.	c #9D4F57",
"0h.	c #271617",
"ah.	c #716683",
"bh.	c #8B6F7B",
"ch.	c #A78186",
"dh.	c #A38D73",
"eh.	c #9A5F64",
"fh.	c #BF777A",
"gh.	c #A6565F",
"hh.	c #AB555D",
"ih.	c #B25660",
"jh.	c #C05D67",
"kh.	c #B4595E",
"lh.	c #B0686A",
"mh.	c #BC666E",
"nh.	c #B46B6E",
"oh.	c #B7746E",
"ph.	c #B17071",
"qh.	c #C57B7F",
"rh.	c #C47A7E",
"sh.	c #C1797C",
"th.	c #CD8383",
"uh.	c #D08285",
"vh.	c #D28986",
"wh.	c #EB9F98",
"xh.	c #D88881",
"yh.	c #EA9D96",
"zh.	c #EDA097",
"Ah.	c #F49C9A",
"Bh.	c #D6878F",
"Ch.	c #D98892",
"Dh.	c #D3898A",
"Eh.	c #D48884",
"Fh.	c #CB8488",
"Gh.	c #C17D7C",
"Hh.	c #BF7777",
"Ih.	c #BC6C76",
"Jh.	c #C46D77",
"Kh.	c #A95B62",
"Lh.	c #A8545D",
"Mh.	c #9E5359",
"Nh.	c #8E4C51",
"Oh.	c #635A75",
"Ph.	c #75667F",
"Qh.	c #7A6984",
"Rh.	c #846B7F",
"Sh.	c #8E7185",
"Th.	c #9A5A61",
"Uh.	c #9C565D",
"Vh.	c #AE585D",
"Wh.	c #B65B62",
"Xh.	c #BB6D6E",
"Yh.	c #B36561",
"Zh.	c #BE6C71",
"`h.	c #BC686C",
" i.	c #C36E74",
".i.	c #C57677",
"+i.	c #B3686E",
"@i.	c #C47277",
"#i.	c #BF7076",
"$i.	c #BD7476",
"%i.	c #B97374",
"&i.	c #BF747B",
"*i.	c #C57980",
"=i.	c #D3888B",
"-i.	c #BF7F7C",
";i.	c #C4777B",
">i.	c #BC7876",
",i.	c #B57778",
"'i.	c #C28182",
")i.	c #BE7D7C",
"!i.	c #B37474",
"~i.	c #BC7A78",
"{i.	c #B67479",
"]i.	c #B97076",
"^i.	c #BC7278",
"/i.	c #B87076",
"(i.	c #B77275",
"_i.	c #BC7374",
":i.	c #B3626A",
"<i.	c #A65C61",
"[i.	c #9D4E57",
"}i.	c #514258",
"|i.	c #695D7A",
"1i.	c #6F6685",
"2i.	c #806B80",
"3i.	c #9C7680",
"4i.	c #975960",
"5i.	c #A35F64",
"6i.	c #A45B62",
"7i.	c #AB575F",
"8i.	c #A15459",
"9i.	c #A35459",
"0i.	c #AB595D",
"ai.	c #A4595B",
"bi.	c #A9545A",
"ci.	c #BA5962",
"di.	c #B35D63",
"ei.	c #B56A6C",
"fi.	c #B66D6F",
"gi.	c #B97472",
"hi.	c #B16676",
"ii.	c #D08780",
"ji.	c #B67476",
"ki.	c #C07B79",
"li.	c #BC767A",
"mi.	c #CE8989",
"ni.	c #BF7B7C",
"oi.	c #E79095",
"pi.	c #C37F80",
"qi.	c #C58484",
"ri.	c #CB8284",
"si.	c #C88886",
"ti.	c #E0928E",
"ui.	c #D89087",
"vi.	c #E59793",
"wi.	c #DE9093",
"xi.	c #D3858C",
"yi.	c #D68F8B",
"zi.	c #D7898B",
"Ai.	c #DB9490",
"Bi.	c #C17978",
"Ci.	c #B3656D",
"Di.	c #AC5D65",
"Ei.	c #A5555D",
"Fi.	c #9E5157",
"Gi.	c #6E3F4A",
"Hi.	c #575270",
"Ii.	c #69607F",
"Ji.	c #6D6484",
"Ki.	c #816A81",
"Li.	c #7E6983",
"Mi.	c #A25F69",
"Ni.	c #A25963",
"Oi.	c #A05661",
"Pi.	c #A3565F",
"Qi.	c #A55861",
"Ri.	c #AB585F",
"Si.	c #AD5B5E",
"Ti.	c #B96968",
"Ui.	c #B35C63",
"Vi.	c #BF7772",
"Wi.	c #C56771",
"Xi.	c #C87376",
"Yi.	c #CF7B78",
"Zi.	c #BC6B6E",
"`i.	c #C6717C",
" j.	c #BC6D72",
".j.	c #CD8483",
"+j.	c #CB7782",
"@j.	c #C1767B",
"#j.	c #BD7374",
"$j.	c #C67D7B",
"%j.	c #C4787B",
"&j.	c #C67C82",
"*j.	c #C67E82",
"=j.	c #BE7B7E",
"-j.	c #BD777A",
";j.	c #BB767A",
">j.	c #CA7D80",
",j.	c #D27F84",
"'j.	c #BE7877",
")j.	c #BA7975",
"!j.	c #C17B81",
"~j.	c #B17575",
"{j.	c #B07275",
"]j.	c #BA7976",
"^j.	c #BE7476",
"/j.	c #B97778",
"(j.	c #BB7A75",
"_j.	c #B1656A",
":j.	c #AB6266",
"<j.	c #B45D66",
"[j.	c #A15059",
"}j.	c #413545",
"|j.	c #575372",
"1j.	c #656188",
"2j.	c #7A6A82",
"3j.	c #896F81",
"4j.	c #A06368",
"5j.	c #A05761",
"6j.	c #9F555D",
"7j.	c #A1595C",
"8j.	c #A95E5C",
"9j.	c #A95C5B",
"0j.	c #A75A5C",
"aj.	c #B66A69",
"bj.	c #B7665E",
"cj.	c #B86269",
"dj.	c #B46368",
"ej.	c #BB7377",
"fj.	c #BA7276",
"gj.	c #C3747B",
"hj.	c #C7787F",
"ij.	c #C78081",
"jj.	c #C68583",
"kj.	c #C97F86",
"lj.	c #DC898B",
"mj.	c #D88088",
"nj.	c #CC7D83",
"oj.	c #CC8486",
"pj.	c #C87F84",
"qj.	c #C97D79",
"rj.	c #E29693",
"sj.	c #DB8C89",
"tj.	c #E29497",
"uj.	c #DA8F8F",
"vj.	c #CD8385",
"wj.	c #C07779",
"xj.	c #B6616A",
"yj.	c #994F54",
"zj.	c #603538",
"Aj.	c #4B455F",
"Bj.	c #585474",
"Cj.	c #625E83",
"   .  +  @  #  $  %  &  *  =  -  ;  >  ,  '  )  !  ~  {  ]  ^  /  (  _  :  <  [  }  |  1  2  3  4  5  6  7  8  9  0  a  b  c  d  e  f  g  h  i  j  k  l  m  n  o  p  q  r  s  t  u  v  w  x  y  z  A  B  C  D  E  F  G  H  I  J  K  L  M  N  O  P  Q  R  S  T  U  V  W  X  Y  Z  `   . .. +. @. #. $. %. &. *. =. -. ;. >. ,. '. ). !. ~. {. ]. ^. /. (. _. :. <. [. }. |. 1. 2. 3. 4. 5. 6. 7. ",
"8. 9. 0. a. b. c. d. e. f. g. h. i. j. k. l. m. n. o. p. q. r. s. t. u. v. w. x. y. z. A. B. C. D. E. F. G. H. I. (  J. K. L. M. N. O. P. Q. R. S. T. U. V. W. X. Y. Z. `.  + .+ ++ @+ #+ $+ %+ &+ *+ =+ -+ ;+ >+ ,+ '+ )+ !+ ~+ {+ ]+ ^+ /+ (+ _+ :+ <+ [+ }+ |+ 1+ 2+ 3+ 4+ 5+ 6+ 7+ 8+ 9+ 0+ a+ b+ c+ d+ e+ f+ g+ h+ i+ j+ k+ l+ m+ n+ o+ p+ q+ r+ s+ t+ u+ v+ w+ x+ y+ z+ A+ B+ C+ D+ E+ F+ ",
"G+ H+ I+ J+ K+ L+ M+ N+ O+ P+ Q+ R+ S+ T+ U+ V+ W+ X+ Y+ Z+ `+  @ .@ +@ @@ #@ $@ %@ &@ *@ =@ -@ ;@ >@ ,@ '@ )@ !@ ~@ {@ ]@ ^@ /@ (@ _@ :@ <@ [@ 4+ }@ |@ 1@ 2@ h. 3@ 4@ 5@ 6@ 7@ 8@ 9@ 0@ a@ b@ c@ d@ e@ f@ g@ h@ i@ j@ k@ l@ m@ n@ o@ p@ q@ r@ s@ t@ u@ v@ w@ x@ y@ z@ &. A@ B@ C@ D@ E@ F@ G@ H@ I@ J@ K@ L@ M@ N@ O@ P@ Q@ R@ S@ T@ U@ V@ W@ X@ Y@ Z@ `@ /@  # .# +# @# ## $# %# &# *# =# -# ",
";# ># ,# '# )# !# ~# {# ]# ^# /# (# _# :# <# [# }# |# 1# 2# 3# 4# 5# 6# 7# 8# 9# =@ 0# a# b# c# d# e# f# g# h# i# j# k# l# m# n# o# p# q# r# s# t# u# v# w# x# y# z# A# B# C# D# E# b@ F# G# H# I# J# K# L# M# N# O# P# Q# R# S# T# U# V# W# X# p@ Y# Z# `#  $ .$ +$ @$ #$ $$ %$ &$ *$ =$ -$ ;$ >$ ,$ '$ )$ !$ ~$ {$ ]$ ^$ /$ ($ _$ :$ <$ [$ }$ |$ 1$ 2$ 3$ 4$ 5$ 6$ 7$ 8$ 9$ 0$ a$ b$ c$ d$ e$ ",
"f$ g$ h$ i$ j$ k$ l$ m$ n$ o$ p$ q$ r$ s$ t$ u$ v$ /+ w$ x$ y$ z$ A$ B$ C$ D$ E$ F$ G$ H$ I$ J$ K$ L$ g# M$ N$ O$ P$ Q$ R$ S$ T$ b# U$ V$ W$ X$ Y$ Z$ v. r@ `$  % .% +% @% #% $% %% &% *% =% -% ;% >% ,% '% )% !% ~% {% ]% ^% /% (% _% :% <% [% }% |% 1% 2% 3% 4% 5% 6% 7% 8% 9% 0% a% b% c% d% e% f% g% h% i% j% k% l% 9% m% n% o% p% q% r% s% t% u% v% w% x% y% z% {@ A% B% C% D% E% F% G% H% ",
"I% J% K% L% M% N% O% P% Q% R% S% T% U% V% W% X% Y% Z% `%  & .& +& @& #& $& %& && *& =& -& ;& >& H$ U  ,& '& )& !& ~& {& ]& ^& /& (& _& :& Z# <& [& }& |& 1& 2& 3& 4& 5& 6& 7& 8& 9& 0& a& b& c& d& e& f& g& h& i& j& k& l& m& n& o& p& q& r& s& t& u& v& w& x& y& z& A& B& C& D& E& F& G& H& I& J& K& L& 3% M& N& =& O& P& Q& R& S& T& U& V& W& X& Y& Z& `&  * .* +* @* #* $* b$ %* &* ** =* -* ",
";* >* ,* '* )* !* ~* {* ]* ^* /* (* _* :* <* [* }* |* 1* 2* 3* 4* 5* 6* 7* 8* 9* 0* K@ a* b* c# c* d* e* f* i# g* h* i* j* (% k* l* m* n* o* p* q* r* s* t* u* v* w* x* y* z* A* B* C* D* E* F* G* H* I* J* K* L* M* N* O* P* Q* R* S* T* U* V* W* X* Y* Z* `*  = .= += @= #= $= %= &= *= == -= ;= >= ,= h# '= )= != ~= {= ]= ^= /= (= _= b# := <= [= }= |= 1= 2= 3= 4= 5= 6= 7= 8= 9= 0= a= G% ",
"b= c= d= e= f= g= h= i= j= k= l= m= n= o= p= q= r= s= t= u= v= w= x= y= r+ z= A= B= c% C= D= E= F= G= H= I= J= K= L= M= N= O= P= Q= R= #= S= V& T= U= V= W= X= Y= Z= `=  - .- +- @- #- $- $- %- &- *- =- -- ;- >- ,- '- )- !- ~- {- ]- ^- /- (- _- :- <- [- }- |- 1- 2- 3- 4- 5- 6- 7- 8- 9- 0- a- b- ^= i# c- d- e- f- g- h- i- j- k- l- m- n- o- p- q- r- s- t- u- v- z* w- x- y- z- A- B- ,* ",
"C- D- E- F- G- H- I- J- K- L- M- N- O- r* P- Q- R- S- T- U- V- W- X- Y- Z- `-  ; .; +; @; #; $; %; &; *; =; -; ;; >; ,; '; ); !; ~; {; ]; ^; /; (; _; :; <; [; }; |; 1; 2; 3; 4; 5; D* 6; 7; 8; 9; 0; a; b; c; =* d; e; f; g; h; t= i; j; k; l; m; n; o; p; q; r; s; t; u; v; <  w; x; y; z; A; B; C; D; E; F; G; H; I; J; K; L; M; N; O; P; Q; R; m. S; T; U; V; W; X; Y; Z; `;  > .> +> ;* @> ",
"#> $> %> &> *> => -> ;> >> ,> '> )> !> ~> {> ]> ^> /> (> _> :> <> [> }> |> 1> 2> v. 3> 2> 4> 5> 6> 7> 8> 9> 0> a> b> c> d> e> f> g> h> i> j> k> -  l> m> n> o> p> q> r> s> t> u> v> w> x> y> z> A> B> C> D> E> F> G> H> I> J> K> L> M> N> 1% O> P> Q> R> S> T> U> V> W> X> Y> Z> `>  , ., +, @, #, $, %, &, *, =, -, ;, >, ,, ', ), !, -; ~, {, ], ^, /, (, _, :, <, [, }, |, 1, 2, 3, 4, 5, 6, ",
"7, 8, 9, 0, a, f= b, c, 7; d, e, f, g, w# h, i, j, k, l, m, n, o, p, q, r, z# s, t, u, v, E$ w, x, y, z, A, B, C, D, E, F, G, H, I, J, K, L, M, N, O, P, Q, R, S, T, U, V, W, X, Y, Z, `,  ' .' +' @' #' $' %' &' ;* >* *' =' -' ;' >' ,' }& '' )' !' d> ~' {' ]' U> ^' /' (' _' :' <' [' }' |' 1' 2' 3' 4' 5' 6' 7' 8' 9' 0' a' b' c' d' e' f' g' h' i' j' k' l' m' n' o' p' q' r' s' t' u' v' ",
"w' x' y' z' A' I- B' C' D- D' E' -* F' G' H' I' J' K' L' P- M' N' O' P' Q' R' S' T' U' V' W' X' Y' Z' `'  ) .) +) @) #) r, `% $) %) &) *) =) -) ;) >) ,) ') )) !) ~) {) ]) ^) /) () _) :) <) [) }) |) 1) 2) 3) 4) 5) 0; I% 6) 7) 8) 9) 0) a) b) c) d) e) f) g) h) i) j) k) l) m) n) o) p) q) r) s) t) u) v) w) x) y) z) A) B) C) D) E) F) G) H) I) J) K) L) M) N) O) P) Q) R) S) T) U) V) W) z' ",
"X) Y) Z) `)  ! D- D- G> .! $- K- +! @! #! $! %! d) &! *! =! -! s@ ;! >! ,! '! )! !! ~! K; {! ]! ^! /! (! _! :! <! [! }! |! 1! 2! 3! 4! 5! 6! 7! 8! 9! 0! a! b! c! d! e! f! g! h! i! j! k! l! #- m! n! o! p! q! r! s! t! s' u! v! w! x! y! z! A! B! C! D! E! _- F! w% G! [% H! I! J! K! L! M! N! e) O! P! Q! R! S! T! U! V! W! X! Y! Z! `!  ~ .~ +~ @~ #~ $~ %~ &~ *~ =~ -~ ;~ >~ ,~ '~ )~ !~ ~~ ",
"{~ ]~ ^~ /~ (~ _~ :~ <~ [~ Y) }~ |~ 1~ 2~ 3~ 4~ 5~ 6~ 7~ 8~ 9~ 0~ a~ b~ c~ d~ e~ f~ g~ h~ i~ j~ k~ l~ m~ g> n~ o~ p~ q~ r~ s~ t~ u~ v~ w~ x~ :; y~ z~ A~ B~ C~ D~ E~ F~ G~ H~ I~ J~ K~ L~ M~ N~ O~ P~ Q~ R~ S~ b; T~ U~ V~ W~ X~ Y~ Z~ `~  { .{ +{ @{ #{ ${ %{ &{ *{ ={ -{ F! ;{ >{ w~ ,{ S' '{ ){ !{ ~{ {{ ]{ ^{ /{ ({ _{ :{ <{ [{ }{ |{ .~ 1{ 2{ 3{ 4{ 5{ 6{ 7{ E~ 8{ 9{ 0{ a{ b{ c{ d{ e{ W) ",
"f{ g{ h{ i{ j{ k{ l{ m{ n{ <~ o{ e{ p{ q{ y- r{ s{ t{ u{ v{ w{ x{ y{ z{ A{ B{ C{ D{ E{ F{ G{ H{ I{ J{ K{ L{ 4* u& M{ N{ O{ P{ Q{ R{ S{ M. T{ U{ V{ W{ X{ Y{ Z{ `{  ] .] +] @] #] $] %] &] *] =] -] ;] >] ,] '] )] !] ~] {] )* ]] ^] /] (] _] :] <] [] }] /- |] 1] 2] 3] 4] 5] 6] 7] 8] 9] 0] a] b] c] x) d] e] f] g] h] i] j] k] l] m] n] -= o] p] q] r] s] t] u] v] w] x] y] z] A] B] C] d{ D] ",
"E] F] G] H] I] J] K] L] M] N] O] P] Q] R] S] T] U] V] W] X] Y] Z] `]  ^ .^ +^ @^ u) #^ $^ %^ &^ O! *^ =^ -^ ;^ >^ ,^ '^ )^ !^ ~^ {^ ]^ ^^ /^ (^ _^ :^ <^ [^ }^ |^ 1^ 2^ 3^ 4^ 5^ 6^ 7^ 8^ 9^ 0^ a^ b^ c^ d^ e^ f^ g^ h^ i^ a; j^ k^ ^] l^ m^ n^ o^ p^ q^ K{ r^ s^ t^ u^ v^ w^ x^ y^ z^ 9# A^ B^ C^ D^ E^ F^ G^ H^  # I^ J^ K^ L^ M^ N^ O^ P^ Q^ R^ S^ T^ U^ V^ W^ X^ Y^ Z^ `^  / ./ +/ @/ #/ $/ ",
"%/ &/ */ =/ -/ ;/ >/ ,/ '/ )/ !/ >* ~/ {/ ]/ ^/ // (/ _/ :/ </ [/ }/ |/ 1/ 2/ 3/ 4/ 5/ b# 6/ 7/ 8/ 9/ 0/ a/ b/ c/ d/ e/ f/ g/ h/ i/ j/ k/ l/ m/ n/ o/ p/ q/ r/ s/ t/ u/ v/ w/ x/ y/ z/ A/ B/ C/ D/ E/ F/ '] G/ H/ I/ J/ K/ L/ M/ N/ O/ P/ 0& Q/ R/ S/ T/ U/ V/ W/ X/ Y/ m- Z/ `/  ( .( +( @( #( $( %( &( @) *( =( -( ;( >( ,( <= '( )( !( ~( {( ]( ^( /( (( _( :( <( [( }( |( 1( 2( 3( 4( 5( 6( ",
"7( 8( 9( 0( a( b( c( d( e( f( g( h( i( j( k( l( R) m( n( o( p( q( r( s( t( b- u( c+ v( w( x( y( z( A( B( C( D( E( U= F( G( H( I( J( K( L( M( w( N( O( P( Q( R( S( T( U( V( W( X( Y( Z( `(  _ ._ +_ @_ #_ $_ %_ &_ *_ =_ -_ ;_ >_ ,_ '_ P/ )_ !_ ~_ {_ ]_ ^_ /_ (_ __ V  :_ <_ [_ }_ |_ 1_ _! 2_ 3_ 4_ 5_ 6_ 7_ 8_ 9_ 0_ a_ b_ c_ d_ e_ f_ g_ h_ i_ j_ k_ l_ m_ n_ o_ p_ q_ r_ s_ t_ u_ v_ w_ x_ ",
"X( y_ z_ A_ B_ C_ D_ @] E_ F_ G_ H_ I_ J_ K_ L_ M_ N_ O_ P_ Q_ R_ S_ T_ U_ V_ W_ X_ Y_ Z_ c* `_  : .: +: @: #: U= /; $: %: &: *: =: -: ;: >: ,: ': ): !: ~: {: ]: ^: d  /: (: _: :: <: [: }: |: 1: 2: `^ 3: 4: 5: 6: 7: 8: 9: 0: a: b: c: d: e: f: g: h: i: j: k: l: m: n: o: p: q: r: X% s: t: u: v: w: x:  : y: [= z: p  A, A: B: C: D: E: F: G: H: I: J: K: L: M: N: O: P: Q: R: S: T: U: V: ",
"W: X: Y: Z: `:  < .< +< @< #< $< %< &< *< =< -< ;< >< ,< '< )< !< ~< {< ]< ^< /< (< _< :< << [< }< R^ |< `# 1< 2< 3< 4< 5< 6< 7< 8< 9< 0< a< b< c< d< e< f< g< h< i< j< k< l< m< n< o< p< q< r< s< G& D_ t< u< v< w< x< y< z< A< B< C< D< E< F< G< H< I< J< K< L< M< N< O< P< Q< R< S< T< U< V< W< X< Y< Z< `<  [ }+ .[ +[ @[ #[ $[ %[ &[ *[ =[ -[ ;[ >[ ,[ '[ )[ ![ ~[ W^ {[ ][ ^[ /[ ([ _[ :[ ",
"<[ [[ }[ |[ W: 1[ 2[ 3[ 4[ 5[ 6[ |, 7[ 2^ 8[ 9[ 0[ a[ b[ c[ d[ e[ f[ g[ h[ i[ j[ k[ l[ @* A! m[ n[ o[ p[ q[ r[ s[ t[ u[ v[ w[ x[ y[ z[ A[ B[ C[ D[ E[ F[ G[ e+ H[ I[ J[ K[ L[ M[ N[ O[ P[ Q[ R[ S[ T[ U[ V[ W[ X[ Y[ Z[ `[  } .} +} @} #} $} %} &} *} =} -} ;} >} ,} '} )} c_ !} ~} {} ]} R+ ^} /} (} _} :} <} [} }} n= |} 1} 2} 3} 4} 5} ^} 6} 7} 8} 9} 0} a} b} c} d} e} f} g} h} i} j} k} l} ",
"m} n} o} p} q} r} s} t} u} v} w} x} y} z} A} B} C} D} E} F} G} H} I} J} K} L} M} N} O} w( P} Q} R} S} !% T} U} V} W} X} Y} Z} 6< `}  | .| +| @| #| $| %| &| *| =| -| ;| >| ,| '| )| !| ~| {| ]| ^| /| (| _| :| <| [| }| || 1| 2| E~ 3| *_ 4| ,< 5| M@ 6| 7| 8| 9| 0| a| b| c| d| e| f| g| h| i| j| k| l| m| n| o| p| q| r| s| t| u| v| w| x| y| z| O( A| B| C| [^ D| E| F| G| H| I| J| K| L| M| ",
"N| O| P| Q| R| S| T| U| V| W| X| Y| Z| 7{ `|  1 .1 V^ +1 @1 #1 $1 %1 &1 *1 =1 -1 ;1 >1 ,1 '1 )1 W] !1 ~1 {1 ]1 7[ ^1 /1 (1 _1 :1 <1 R- [1 }1 |1 11 21 31 41 51 61 71 81 91 01 a1 D& b1 c1 :: d1 e1 f1 g1 h1 i1 j1 k1 l1 m1 n1 o1 p1 q1 r1 s1 t1 u1 v1 w1 x1 y1 z1 A1 B1 C1 D1 E1 F1 G1 H1 I1 J1 _1 K1 L1 M1 N1 [; O1 P1 Q1 R1 S1 T1 .{ U1 V1 W1 m% X1 Y1 Z1 `1  2 .2 +2 @2 #2 $2 %2 &2 *2 =2 -2 ",
";2 >2 ,2 '2 )2 !2 ~2 {2 ]2 ^2 /2 (2 _2 :2 <2 [2 }2 |2 12 l_ 22 32 42 52 62 72 82 92 02 a2 b2 c2 d2 e2 f2 g2 h2 i2 j2 k2 <} l2 m2 n2 o2 p2 q2 r2 s2 t2 u2 v2 w2 x2 y2 z2 A2 B2 C2 D2 E2 F2 G2 H2 I2 J2 K2 L2 M2 N2 O2 P2 Q2 R2 S2 T2 U2 V2 W2 X2 Y2 Z2 M) `2  3 .3 +3 @3 #3 $3 %3 &3 *3 =3 -3 ;3 >3 R< ,3 '3 )3 !3 ~3 {3 ]3 ^3 /3 (3 _3 :3 <3 [3 }3 |3 13 23 33 43 53 63 73 83 93 03 a3 b3 c3 d3 ",
"e3 f3 g3 h3 i3 j3 k3 l3 m3 n3 o3 p3 q3 r3 s3 l' t3 u3 v3 t# w3 x3 y3 z3 A3 B3 C3 D3 E3 F3 G3 H3 I3 J3 K3 L3 M3 N3 O3 P3 Q3 R3 /# q= S3 T3 7# U3 V3 ]@ W3 X3 Y3 Z3 `3  4 .4 +4 @4 #4 $4 %4 &4 *4 =4 -4 ;4 >4 ,4 '4 )4 !4 ~4 {4 ]4 R] ^4 k< /4 (4 _4 :4 <4 w3 [4 }4 |4 14 24 34 44 54 64 74 84 94 04 a4 b4 c4 d4 e4 f4 g4 h4 i4 j4 k4 l4 m4 n4 o4 p4 q4 r4 s4 t4 u4 v4 w4 x4 y4 z4 A4 B4 A. C4 D4 ",
"E4 F4 G4 H4 I4 J4 K4 L4 M4 N4 O4 P4 %. Q4 R4 S4 T4 U4 V4 W4 X4 Y4 Z4 `4  5 .5 +5 @5 #5 $5 g+ %5 &5 *5 =5 -5 ;5 >5 P# ,5 '5 )5 !5 << ~5 {5 ]5 ^5 /5 (5 _5 :5 <5 [5 $4 }5 |5 15 25 35 45 55 65 75 85 95 05 a5 b5 c5 d5 e5 f5 g5 W^ h5 i5 j5 k5 l5 m5 n5 o5 p5 q5 r5 s5 3} t5 u5 v5 w5 x5 y5 z5 A5 B5 C5 54 D5 E5 F5 G5 H5 I5 J5 K5 [} L5 C[ %; M5 N5 O5 P5 Q5 R5 S5 T5 U5 V5 W5 X5 Y5 k} Z5 `5  6 ",
".6 +6 @6 #6 $6 %6 &6 *6 R& =6 d} -6 ;6 >6 ,6 '6 )6 !6 ~6 {6 ]6 ^6 /6 y3 (6 _6 :6 <6 [6 }6 |6 16 26 36 46 56 66 76 86 96 06 a6 b6 c6 d6 e6 f6 L$ g6 h6 i6 j6 k6 l6 &@ m6 n6 o6 /= p6 q6 r6 s6 t6 u6 v6 w6 x6 y6 z6 A6 B6 C6 D6 E6 F6 G6 H6 I6 J6 K6 :2 L6 M6 N6 O6 P6 Q6 R6 S6 T6 U6 V6 W6 X6 Y6 Z6 `6  7 .7 +7 @7 #7 $7 %7 S! &7 *7 =7 -7 ;7 >7 ,7 '7 F: )7 !7 O& ~7 {7 ]7 ^7 /7 (7 _7 :7 <7 [7 ",
"}7 |7 17 27 37 47 57 67 77 87 97 07 a7 b7 c7 d7 e7 f7 g7 h7 i7 j7 k7 l7 m7 n7 o7 p7 q7 r7 s7 t7 u7 v7 w7 x7 y7 z7 A7 B7 C7 D7 E7 F7 _+ G7 h~ H7 I7 J7 K7 L7 M7 N7 O7 P7 Q7 R7 S7 T7 J4 U7 V7 W7 X7 Y7 Z7 `7  8 .8 +8 @8 #8 $8 %8 &8 *8 =8 -8 q5 ;8 >8 ,8 V} '8 )8 I' !8 ~8 {8 ]8 ^8 /8 (8 _8 :8 <8 [8 }8 |8 18 28 38 48 58 68 G{ 78 88 98 08 B[ a8 b8 c8 d8 e8 f8 g8 h8 i8 j8 k8 l8 92 m8 ;= n8 ",
"o8 p8 q8 r8 s8 t8 u8 ^2 v8 w8 x8 y8 z8 A8 B8 C2 C8 D8 E8 F8 G8 1< H8 I8 &: J8 K8 L8 M8 N8 O8 P8 Q8 R8 S8 T8 U8 V8 W8 X8 Y8 Z8 `8  9 .9 +9 @9 #9 $9 %9 &9 v@ *9 0* =9 -9 ;9 >9 ,9 '9 r= )9 !9 ~9 {9 ]9 ^9 /9 (9 _9 :9 <9 [9 }9 |9 19 29 39 49 59 69 79 89 99 09 a9 b9 c9 d9 e9 f9 g9 h9 i9 j9 k9 l9 m9 n9 o9 p9 q9 r9 s9 t9 u9 &7 v9 w9 x9 y9 z9 A9 B9 C9 D9 E9 F9 G9 H9 I9 J9 K9 L9 M9 N9 O9 P9 ",
"Q9 R9 S9 T9 U9 V9 W9 c7 X9 Y9 h6 Z9 `9  0 .0 +0 @0 r% #0 $0 %0 n[ &0 *0 =0 -0 ]% ;0 >0 ,0 '0 )0 !0 ~0 {0 ]0 ^0 /0 (0 _0 :0 N  <0 [0 }0 |0 10 20 30 5/ 40 50 60 70 80 90 00 a0 b0 c0 d0 e0 f0 g0 d} h0 i0 j0 k0 l0 m0 n0 o0 p0 q0 r0 s0 39 t0 u0 v0 w0 x0 y0 z0 A0 B0 C0 D0 E0 F0 G0 H0 I0 J0 K0 L0 M0 N0 O0 P0 Q0 R0 S0 T0 U0 V0 W0 X0 Y0 Z0 `0  a k, .a V! )7 +a @a #a $a %a &a =, *a =a -a ;a ",
">a ,a 'a )a !a ~a {a ]a ^a O& /a (a _a :a <a [a }a |a 1a 2a 3a 4a 5a 6a 7a 8a 9a 0a aa ba ca da ea fa ga ha ia ja j@ ka la ma na i4 oa pa 39 qa ra 39 sa ta ua va wa xa ya o6 za Aa Ba Ca Da m3 Ea Fa Ga Ha 49 Ia 39 39 5{ Ja Ka La Ma 39 39 39 Na Oa Pa Qa Ra Sa Ta Ua Va Wa Xa Ya Za `a  b .b +b @b #b $b %b &b *b =b -b ;b >b 1# ,b 'b U/ )b !b ~b {b ]b ^b <_ /b (b _b :b <b [b <_ }b |b 1b ",
"2b 3b 4b 5b 6b 7b 8b 9b 0b `! ab bb cb db eb fb gb hb ib jb kb lb mb nb ob 2= pb qb rb sb tb ub vb wb xb yb zb Ab Bb Cb Db .% Eb Fb Gb Hb 39 Ib Jb Kb Lb Mb 39 Nb Ob Pb Qb Rb 39 Sb Tb Ub Vb >1 F| Wb Xb Yb 39 Zb `b  c )$ .c +c @c #c 39 $c %c &c *c =c -c ;c 2> >c E: ,c 'c )c !c ~c {c ]c ^c /c (c _c :c <c [c }c #7 |c 8! X= 1c 2c 3c 4c Z$ 5c 6c 7c 8c 9c 0c ac :b bc cc dc ec fc gc hc ic ",
"9c w2 jc kc lc mc nc oc pc R@ Z7 qc rc sc tc uc tc l[ *c vc wc y^ xc yc zc S1 H5 Ac Bc Cc Dc Ec Fc Gc Hc Ic Jc Kc Lc Mc Nc Oc Pc Qc Rc Sc Tc Uc Vc Wc Xc Yc 39 Zc `c  d .d +d 39 39 39 39 39 @d #d $d %d &d *d 39 39 =d -d ;d >d ,d i+ 39 'd )d !d ~d 3} {d ]d ^d /d (d _d :d <d [d }d |d 1d 2d 3d 4d 5d 6d 7d 8d 9d 0d ad bd cd dd ed fd gd hd id jd kd ld md nd od pd qd rd sd td ud S5 vd wd ",
"xd yd zd Ad Bd Cd Dd Ed Fd Gd Hd Id Jd Kd Ld Md Nd Od Pd Qd Rd [} Sd Td '( Ud Vd Wd Xd Yd Zd `d  e .e +e @e #e $e %e &e *e =e -e ;e >e ,e 'e )e Xc !e ~e )e {e ]e ^e /e (e _e 39 :e <e [e }e |e 1e 2e 3e 4e w2 5e 6e 39 7e 8e 9e 0e ae be ce de ee fe ge he ie je ke le me ne oe pe qe re se te ue ve we c4 xe ye ze Ae Be Ce 4_ 7_ De e. Ee Fe Ge mb He Ie Je Ke Le Me Ne Oe :b Pe Qe Re Se Te ",
"Ue Ve We Xe s4 Ye Ze `e  f .f +f r% @f #f $f %f &f *f *f =f -f M< ;f >f ,f 'f )f !f ~f {f ]f ^f /f (f _f :f <f [f }f |f =e 1f 2f 3f 4f 5f 6f 39 7f 8f 9f 39 0f af bf ;{ cf df ef ff Xc 39 39 _b gf hf if jf 39 39 kf lf mf nf of pf qf rf Ba 39 sf r& tf g) S  uf e/ vf wf xf yf zf Af Bf Cf Df Ef Ff Gf Hf If Jf Kf Lf Mf C7 Nf Of W= Pf Qf Rf Sf o, Tf Uf Vf Wf Xf Yf Zf `f  g .g +g @g #g $g ",
"%g &g *g =g -g ;g >g ,g 'g )g !g ~g {g z. ]g ^g /g (g 5% _g :g <g [g }g Ua |g 1g 2g 3g 4g 5g 6g 7g 8g 9g 0g ag bg cg ye dg eg fg gg hg ig jg kg lg mg ng og pg qg rg sg tg ug vg wg xg yg zg zg f% Ag Bg Cg Dg Eg }3 >g Fg h% Gg pc Hg s# W1 Ig Jg Kg Lg Mg Ng Og Pg Qg Rg Sg Tg Ug Vg Wg Xg Yg Zg `g  h .h +h @h #h $h  : %h &h T0 *h =h S' -h ;h y9 >h ,h 'h )h !h ~h {h ]h ^h /h (h _h :h <h ",
"[h }h |h 1h L$ 2h 3h !& +$ _< ). }& 4h 5h 6h Z# 7h 8h 8h 9h 0h ah bh ch dh eh fh gh hh ih c$ jh ,# kh lh mh nh oh ph qh rh sh th 0< 8/ uh y9 }0 vh wh xh yh zh Ah Bh Ch Dh Eh Fh Gh Hh Ih Jh Kh Lh Mh Nh Oh Ph Qh c8 Rh Sh Th Uh Vh Ta Wh Xh Yh Zh `h  i .i +i @i #i $i %i &i *i =i -i ;i >i ,i 'i )i !i ~i p( {i ]i ^i /i (i :g _i :i <i [i }i |i 1i 2i 3i 4i 5i 6i 7i 8i 9i 0i ai bi ci di ei ",
"fi gi hi ii ji ki li mi ni oi 2' pi qi ri si ti ui vi wi xi yi zi <} Ai Bi Ci Di Ei Fi Gi Hi Ii Ji Ki Li Mi Ni Oi o^ Pi Qi ~5 Ri Si Ti Ui c6 Vi Wi Xi Yi Zi `i  j `' .j +j @j #j $j %j &j *j =j -j ;j >j ,j 'j )j !j ~j {j ], ]j ^j h| /j (j _j s) :j <j [j }j |j 1j 2j 3j 4j 5j 6j 7j 8j 9j 0j ,# aj bj cj dj ej fj gj %: hj ij jj kj lj ,, mj nj oj pj qj rj sj tj uj vj Ie wj xj yj zj ya Aj ",
"Bj Cj Dj Ej Fj Gj Hj Ij Jj Kj Lj H$ Mj Nj Oj Pj Qj Rj Sj Tj Uj Vj Wj Xj Yj Zj `j  k .k +k @k #k aj i$ $k H% %k &k *k =k -k ;k 1a >k ,k 'k Ta w+ )k !k ~k {k ]k ^k /k (k _k :k <k [k }k |k 1k 2k 3k 4k 5k 6k 7k 8k 9k 0k ak e% bk ck dk ek fk gk hk ik jk kk R$ lk u; mk nk ok pk qk rk )i sk tk uk vk wk xk yk zk Ak Bk Ck Dk /i Ek Fk Gk Hk =; Ik Jk Kk Lk `* Mk Nk Ok Pk Qk Rk Sk Tk Uk Vk Wk ",
"Xk Yk Zk `k  l .l +l h> @l #l $l %l &l *l =l -l ;l n@ >l m) ,l 'l )l !l ~l {l 5g ]l ^l /l (l _l I/ :l <l [l }l |l 1l 2l j4 3l 4l 5l 6l 7l 8l f~ %, 9l 0l al bl cl dl el fl gl hl il jl kl ll ml nl ol pl ql Hh rl sl tl ul vl wl xl yl zl V* Al Bl 'k Cl Dl El Fl qh Gl Hl 3g Il ef lh Jl Kl Ll Ml Nl Ol -- Pl Ql 7) Rl x( Sl Tl Ul Vl ;: Wl Xl Yl Zl `l  m .m &f +m @m #m $m %m &m *m =m -m ;m ",
">m ,m 'm )m !m ~m {m ]m ^m /m (m _m :m <m [m }m |m 1m ;f 2m 3m 4m 5m 6m 7m $} V, 8m &* 9m 0m u! `) H* am bm cm dm em fm gm hm im jm km lm h) mm nm om pm p2 %, qm rm l- sm tm um vm wm xm ym zm Am `0 Bm Cm Dm Em Fm Gm Hm Im Jm Km Lm <j Mm Nm Om Pm Qm Rm Sm Tm Um Vm Wm Xm Ym Zm `m  n X~ }~ .n +n @n #n $n %n &n fm *n =n -n ;n >n ,n 'n )n !n ~n {n ]n O! ^n /n (n _n :n <n [n }n |n 1n 2n ",
"3n 4n 5n 6n 7n 8n 9n 0n an bn yl cn dn en `l fn gn hn Z- in jn kn ln mn nn on pn qn rn ;# Ol H% sn tn un #n vn o{ wn xn yn zn An Bn Cn Dn En Fn Gn Hn In Jn Kn Ln Mn Nn On E; Pn Qn Rn Sn Tn Un Vn Wn Xn Yn Zn `n  o .o +o @o #o P$ $o %o &o *o =o R0 -o ;o >o ,o 'o )o !o ~o {o ]o ^o /o ]] (o _o :o <o j^ C- [o }o |o 1o 2o ^> 3o 4o 5o 6o s$ 7o 8o N> 9o 0o ao bo co Q' do eo fo go ho io jo ",
"ko lo mo =7 no oo po qo ro so 7c to uo vo wo xo yo zo Ao )( Bo Co Do Eo Fo Go Ho Io Jo Ko Lo Mo No Oo Po Qo Ro E/ s' So To Uo x! Vo Wo Xo p^ Yo Zo 0h al `o  p .p +p @p #p $p %p &p *p =p -p ;p >p ,p 'p )p !p ~p {p ]p ^p /p (p _p :p <p [p }p ]^ |p 1p 2p 3p 4p 5p 6p 7p 8p ih 9p 0p ap +! bp cp D- n{ dp ep fp gp >> hp I> ip jp kp lp Bn mp s^ np E( op pp qp rp sp tp up vp wp xp yp zp Ap ",
"Bp Cp Dp Ep Fp Gp Hp Ip Jp Kp Lp Mp Np Op il Pp Qp Rp Sp Tp Up Vp k  -i Wp Xp Yp Zp `p Qo q!  q .q +q A> @q #q $q %q B- &q *q =q i[ -q ;q >q ,q 'q )q !q ~q {q ]q ^q /q (q _q :q <q [q }q |q 1q 2q 3q 4q 5q 6q 7q 8q 9q 0q aq bq cq dq eq fq gq hq &e O, iq jq kq lq mq nq oq 9& pq qq rq sq Ml w' tq u' uq vq [o $n 7, wq xq yq zq Aq Bq Cq Dq Eq Fq Gq Hq Iq Jq Kq Lq Cp Mq Nq Oq ;{ Pq Qq Rq ",
"Sq Tq Uq Vq Wq Xq Yq Zq F, `q  r .r +r @r #r $r %r g] &r *r L6 =r -r z} ;r >r ,r 'r )r !r ~r sq {r ]r ^r /r (r _r 3, :r A- <r [r }r M* |r 1r 2r m% 3r 4r 5r 6r 7r 8r 9r 0r ar br cr dr er fr gr hr ir jr =6 ({ kr lr mr nr or pr qr rr 1i sr y% tr ur vr wr xr yr V^ zr Ar Br Cr Dr Er Fr Gr Hr ]r Ir Jr O] Kr t' Ml >* w' Lr Mr Nr Or Pr Qr Rr Vl Sr Tr Ur Vr Wr s& Xr Yr Zr `r  s .s +s @s #s ",
"$s %s &s *s =s -s ;s >s ,s 's )s !s ~s {s Tl ]s ^s /s (s _s :s <s [s }s |s 1s 2s 3s h! 4s 5s 6s 7s 3, 8s 9s 0s as bs cs ds es fs gs hs is js ks ls ms ns :i os ps qs rs ss ts us vs ws xs ys zs As Bs Cs Nn Ds Es Fs Gs Hs Is {q Js Ks Ls Ms Ns Os w* Ps Qs Rs Ss Ts Us Vs Ws Xs Ys Zs `s  t .t +t Kr @t #t $t %t )* ;* &t 6; *t =t -t ;t y! >t Qr ,t 't )t >^ Ng n~ !t ~t g0 {t M7 ]t ^t /t (t ",
"_t :t <t [t }t |t 3- 1t 2t !{ 3t 4t O$ 5t S* 6t 7t 8t 9t 0t at bt ct r> dt et ft gt ht it jt kt lt mt J] ]r nt [o sq lt ot pt qt rt st yq tt *n ut vt wt xt yt zt |# At Bt ;; Ct Dt Et Ft ;p Gt Ht It Jt Kt Lt Mt Nt Ot Pt Qt J$ Rt :5 St 7h Tt ;b Ut Vt Wt Xt Yt Zt `t  u .u +u @u #u $u '~ %u &u *u =u *u -u ;u >u ,u 7, 'u Y) rt )u !u ~u U/ {u ]u (' |% ^u /u (u _u :u <u [u }u `' |u 1u 2u ",
"3u 4u 5u 6u 7u 8u 9u 0u au bu cu du eu fu gu hu iu ju ku lu mu nu 22 ou pu qu ru su tu uu vu wu xu +k yu zu Au Bu )* Cu ]r Du Eu Fu Gu Hu Iu Ju Ku Lu Mu 4f Nu _b Ou Pu Qu Ru Su Tu ^n Uu .o Vu Wu Xu Yu Zu `u  v .v +v @v #v $v %v #@ &v l& ]d *v =v -v ;v >v ,v 'v F~ )v 9{ !v ~v {v ]v ^v /v (v _v :v Qo <v [v }v zu |v 0= 1v 2v 3v 4v 5v 6v 7v 8v 9v R+ 0v Tj av bv cv dv ev fv  & gv hv iv ",
"jv kv rj lv mv nv ov pv qv rv ,( ]{ sv tv uv vv wv Wo xv L9 yv zv Av Bv Cv Y( Dv Ev Fv Gv Hv Iv Jv p! Kv Lv j! Mv _~ Nv Ov Pv Qv Rv Sv Tv Uv Vv %3 Wv Xv Yv Zv `v  w V$ .w +w @w #w $w %w &w *w =w -w ;w >w ,w 'w )w !w ~w {w ]w ^w /w W1 Y< (w _w :w <w [w }w |w 1w 2w 3w 4w 5w 6w 7w 8w 9w 0w T) aw bw #> v' -u cw dw ew #' Sv 8; fw gw hw iw 6v /< E0 jw /} kw lw U5 mw nw ow pw qw rw sw tw ",
"uw vw ww xw yw zw Aw Bw Cw Dw Ew Fw eg -( Gw Hw Iw :^ Jw `1 Kw Lw Mw Nw Ow Pw Qw Rw Sw Tw Uw Vw Ww Xw Yw Zw `w  x .x +x @x #x $x /o %x D* &x *x =x Oi -x ;x {u 7l R} >x ,x 'x )x !x ~x $w {x ]x ^x /x qo (x _x :x <x [x }x |x ], Gg yc 1x 2x 3x 4x 5x |4 6x 7x 8x 9x 0x ax bx cx dx &/ ex fx gx hx ix jx kx c{ lx mx E/ nx ox px ^] qx rx sx tx ux Or &: vx wx xx yx zl zx Ax Bx Cx Dx 5u Ex Fx ",
"Gx Yq Hx Ix Jx Kx Lx Mx Nx Ox l# b) /; Px Qx Rx q4 Sx Tx Ux Vx Wx Xx Yx Zx `x  y .y +y @y #y $y %y &y *y =y -y ;y >y ,y 'y )y 0&  > !y ~y l( {y ]y ^y /y (y _y :y <y [y O& Ge }y |y 1y 2y Rq Q; 3y L= e- 4y 5y 6y 7y 8y /x 9y 0y ay by cy dy ey fy gy hy iy jy ky ly my ny oy py qy ry sy ty uy vy wy xy yy zy Ay By Cy Dy k( Ey Fy Gy Hy Iy Jy Ky Ly L< My l  Ny Oy Py Qy Ry Sy Ty Uy Vy Wy Xy ",
"Yy Zy `y Ek  z +9 [3 .z Rh +z @z #z $z %z &z *z =z -z O. ;z >z 5! [  ,z c5 'z )z !z Zx ~z {z ]z ^z /z bp (z _z :z <z [z }z |z '_ 1z 2z Dy 3z 4z 5z 6z 7z 8z 9z 0z az bz cz dz ez fz gz hz iz jz kz s. lz Y0 mz yo nz oz pz qz rz sz tz uz vz wz xz yz zz Az Bz U4 Cz Dz Ez Fz Gz Hz Iz Jz Kz Lz Mz By Nz Oz Pz Qz Rz Sz Tz Dr Uz G< Vz Wz Xz Yz Zz `z  A .A +A @A #A $A Zv %A &A *A =A -A ;A h# ",
"W+ kp >A ,A 'A )A 2+ !A ~A {A ]A ^A /A (A _A :A 'g <A xv [A }A |A 1A K: 2A r3 3A 4A 5A 6A 7A 8A 9A 0A aA bA cA dA eA i! fA gA hA iA jA kA lA mA :z nA oA pA qA rA 0z sA Q4 [/ tA uA vA wA xA yA #r zA AA BA CA Ks DA EA FA GA HA IA JA KA LA MA NA OA PA QA RA SA TA UA VA WA XA YA j5 ZA `A  B .B +B @B #B $B %B &B *B =B -B ;B >B D% ,B 'B Ys )B !B ~B {B ]B ^B /B (B _B 0< @* :B )b $^ 6c <B ",
"[B }B |B 1B 2B >( 3B 4B @i 5B 6B 7B 8B 9B 0B jd aB bB cB dB eB 'A fB gB hB iB jB kB lB mB nB oB pB qB rB sB tB 0w kA uB vB wB xB yB zB AB BB CB DB EB FB GB HB IB JB KB LB MB NB OB PB 5a QB RB SB TB UB VB WB _& I( XB YB ZB `B  C c0 .C +C Jm @C #C $C Y{ %C &C *C =C -C ;C >C ,C A] s} 'C )C !C ~C {C ]C ^C /C (C _C :C <C [C }C G< |C 1C 2C 3C 4C 5C 6C 7C 8C 9C 0C aC eg bC cC !5 dC eC jw ",
"=! fC [} gC hC %, iC J' jC kC lC mC nC oC *0 pC qC rC sC tC uC vC wC xC yC zC AC =| BC CC DC ;1 EC FC  < GC HC IC JC KC Y( LC MC NC OC PC QC RC SC TC u] x1 UC VC WC XC YC 7b ZC `C 1r  D ge .D +D @D #D $D %D &D ^B *D =D -D ;D Ks >D ,D 'D 6> )D !D ~D {D ;[ Bz ]D ^D /D (D _D :D <D [D }D |D 1D 2D 3D 4D 5D 6D 7D 8D 9D 0D aD bD cD dD 4C eD fD 1; gD hD iD jD kD lD mD nD oD m= YB pD 8b v* ",
"qD rD sD tD !d uD *[ vD wD xD yD zD u| AD BD CD DD ED FD GD HD ID c0 JD KD O4 LD MD ND OD PD QD RD SD |D TD UD VD WD XD YD ZD `D  E .E +E @E #E $E %E &E w1 *E =E -E ;E >E ,E 'E )E !E ~E {E ]E ^E /E (E _E :E <E [E }E |E 1E ]u 2E v% 3E 4E 5E 6E Zk 7E 8E 9E iy 0E aE bE cE dE eE r3 fE gE hE iE jE kE lE mE nE oE pE qE rE G~ 4^ sE tE uE vE wE xE T, yE #1 zE AE BE CE DE EE FE GE HE 42 IE ",
"JE KE 9} LE ME NE OE PE QE RE 8_ SE TE UE VE WE XE YE ZE `E  F .F +F @F m3 #F #F $F K4 %F &F *F =F -F ;F >F XD ,F 'F r/ v1 )F 3A !F ~F {F ]F ^F *} l5 /F (F -F _F :F <F [F }F |F 1F 2F 3F 4F 5F 6F 7F 8F 9F 0F tD '8 aF bF cF tr dF eF fF Jj gF hF iF jF kF P6 lF %m mF nF oF pF qF rF sF tF uF vF wF xF yF zF AF BF CF DF EF CF FF GF HF ,< IF JF *~ KF LF MF $~ NF OF PF QF 54 RF SF R4 TF 6A ",
"UF g5 VF WF XF YF ZF `F  G .G ^u Fe om +G @G #G $G CD %G &G L. 9e *G A| =G -G ;G >G ,G 'G ab )G ., !G ~G {G ]G ^G /G (G _G :G <G [G }G |G 1G 2G 3G 4G 5G 6G 32 7G 8G 9G 0G aG bG cG dG eG fG gG #3 hG iG jG kG lG mG nG oG pG ed qG rG sG tG U1 n4 uG f5 vG wG xG yG Z1 zG d} AG (a g8 BG CG DG EG FG GG HG IG JG KG LG MG NG OG 9A b1 PG LG QG RG SG TG UG VG WG XG YG ZG `G lD  H .H +H @H #H ",
"$H %H &H *H =H :8 -H ;H >H ,H mv 'H h) gz )H -f !H ~H {H ]H ^H /H o0 (H _H :H <H [H }H |H 1H 2H 3H 4H 5H F} 6H :( 7H 8H 9H 0H aH bH cH dH eH fH gH A} hH iH jH kH lH mH nH oH pH qH rH sH tH uH vH wH xH yH zH AH BH CH DH EH }. FH GH HH X> IH uG JH KH LH MH NH OH PH QH RH SH TH UH VH WH XH YH ZH `H ]2  I .I i3 +I @I j} ZD ,F #I $I %I &I *I =I -I ;I >I ,I 'I )I !I ~I {I ]I ^I /I (I _I ",
":I <I [I }I |I 1I Hw 2I B^ 3I E7 -@ 4I b) 5I 6I 7I 8I 9I 0I aI bI cI dI &. [H eI fI gI hI iI K@ Y2 jI kI ky lI mI 7( nI oI pI qI rI sI tI uI vI wI xI yI zI AI BI CI DI EI FI GI 46 HI II M3 HI JI KI LI MI NI OI PI QI RI SI TI UI en VI WI XI YI m% ZI `I  J .J .g +J @J #J $J %J &J *J =J -J 15 ;J !4 ~9 >J ,J 'J )J !J oF ~J {J ]J ^J /J (J _2 _J jH :J <J |4 [J }J |J 1J 2J 3J 4J 5J 6J 7J ",
"8J 9J 0J M3 aJ bJ cJ dJ eJ fJ gJ hJ iJ jJ b! kJ lJ mJ nJ oJ pJ qJ rJ sJ e7 tJ ;z uJ vJ wJ xJ yJ zJ AJ BJ 9b .2 CJ DJ l+ EJ FJ Q  GJ HJ IJ JJ KJ LJ MJ NJ OJ PJ QJ EI RJ SJ _y TJ UJ VJ WJ v5 XJ YJ ZJ `J  K .K +K @K #K $K %K #( &K *K =K gu -K [1 ;K >K ,K 'K eI )K !K r/ ~K {K ]K ^K /K (K _K :K <K [K sd }K |K 1K :H 2K 3K 4K 5K O} 6K 7K 8K 9K 0K aK ,I &C bK ~: cK e2 dK eK <F fK gK hK iK ",
"jK kK v7 lK mK nK oK pK qK rK sK Dn tK uK  - vK wK &z xK yK 6E _  u3 zK AK BK CK DK ^$ EK FK GK q# 07 HK IK JK KK LK .2 MK et NK @2 OK PK QK RK SK TK UK VK h[ Kk WK XK YK v* ZK `K  L .L +L @L #L $L %L &L *L =L cJ -L ;L >L ,L 'L )L !L ~L ]m {L ]L ^L /L (L _L :L <L [L }L |L 1L 2L 3L 4L b* 5L =9 6L 7L 8L 9L 0L aL 8L bL s< cL dL Y7 eL fL gL hL iL jL p/ c  kL lL mL nL oL pL qL rL sL tL ",
"uL vL wL xL yL zL AL u$ BL CL DL Kx <  EL FL GL -z HL IL JL E& KL LL ML ;z NL OL PL QL RL SL TL UL VL WL XL YL ZL `L  M .M +M @M 83 c7 #M $M %M &M *M =M -M ;M >M ,M 'M )M _i !M ~M {M ]M ^M /M (M _M :M <M [M Lc }M |M 1M 2M 3M 4M 5M 6M (3 7M 8M 9M 0M aM bM cM dM eM fM gM hM iM jM kM lM mM nM oM OE pM i' qM rM I@ sM tM uM vM p5 $J wM xM yM zM AM BM CM DM EM FM GM HM IM JM KM LM MM NM ",
"OM PM 4v #e <c QM %) RM SM TM UM VM (. Y] WM 5F XM YM ID ZM `M  N .N +N gI @N #N $N WL %N &N o% *N =N -N *I XH ;N >N ,N 'N ;. )N 9} !N ~N {N ]N A0 -@ A; ^N /N (N _N :N <N Ce [N }N |N 1N 2N 3N 4N 5N 6N 7N u* 8N 9N 0N aN bN cN >H dN '^ eN fN gN hN iN jN kN lN cM mN nN oN IF WF C5 pN qN e  rN sN tN A| VL uN vN wN xN yN zN AN BN =| CN DN EN FN GN HN z. m# CD IN JN KN LN MN NN ON PN QN ",
"RN SN TN UN 6t VN WN XN YN :0 ZN J5 `N +|  O .O 'D Pd 8% if +O $m @O G. #O $O %O F8 &O *O =O -O ;O >O ,O 'O )O !O #: @J ~O `1 {O ]O ^O /O (O _O :O >@ <O [O }O |O 1O 2O Ae 3O 4O 5O 6O 7O 8O 9O 0O aO bO cO dO eO 3. fO gO hO iO jO kO lO vj mO El nO oO pO 82 qO rO sO tO uO vO wO xO yO zO AO BO CO DO EO FO zJ GO HO IO JO KO LO eM MO NO OO PO QO RO SO TO 3' UO O^ KN VO #K WO XO YO ZO `O ",
" P .P +P @P V8 #P zL $P %P &P *P =P -P ;P >P ,P 'P )P rD !P C$ ~P ID {P ]P ^P /P (P _P :P <P (O [P }P |P 1P 2P 5F 5x fn *C &l 3P 4P =9 rD 5P 6+ 6P 7P 8P 9P 0P aP bP cP dP >H eP fP gP hP iP jP kP lP e@ mP nP oP pP qP rP @K sP S0 =P tP uP vP wP xP [E yP zP AP BP CP DP EP FP GP HP IP JP KP LP MP ^O NP 2b OP PP QP RP SP pc TP UP R@ &I VP WP XP YP 9t QP ZP `P  Q .Q j; +Q @Q #Q $Q %Q &Q ",
"*Q =Q -Q ;Q >Q 7N ,Q 'Q )Q !Q ~Q {Q ]Q ^p ]b ^Q /Q +C (Q _Q :Q (E <Q [Q }Q |Q 1Q 2Q 3Q 4% 4Q 5Q mF 6Q 7Q 8Q tN z4 a0 9Q 0Q i% aQ bQ cQ O& dQ eQ fQ gQ hQ iQ jQ kQ lQ mQ nQ oQ pQ qQ rQ sQ tQ uQ vQ wQ xQ L# J> yQ zQ _0 AQ AL BQ S# CQ =o Rc DQ EQ FQ GQ !; HQ IQ JQ sz KQ LQ MQ NQ OQ PQ QQ Ea RQ SQ TQ UQ VQ WQ XQ YQ ZQ `Q  R .R +R @R #R $R %R ~9 &R r[ *R =R Gg DA -R ;R NN YN >R ,R 'R )R ",
"!R ~R I> {R ]R ^R /R (R _R :R <R [R R> RI }R h# |R 1R 2R 3R G! &l C$ 0~ 4R Z@ 5R >9 6R 7R 8R 9R 0R aR o+ bR cR dR eR >( (@ Og fR gR hR jJ iR jR kR lR 13 mR nR oR pR qR rR sR tR uR !o vR Yp wR xR H+ yR zR AR BR $e XN CR WN DR ER FR ~+ O{ GR HR IR uh JR KR LR MR NR OR PR QR JP RR SR TR UR VR WR 9- XR YR ZR `R  S .f .c .S &M +S PR @S #S $S %S &S *S =S -S o$ ;S >S 58 ,S 'S )S !S ~S {S ",
"]S ^S iD /S (S _S :S <S [S }S W= Cn |S 1S 2S 3S /n 4S 5S 6S 7S 8S 9S 0S aS B= bS cS dS eS fS 2' gS ^D hS iS jS kS lS mS nS oS }1 pS qS rS I; sS ;h ld tS uS vS *h wS xS yS zS AS BS BB CS DS ES Kl Kl FS GS V] HS IS }< JS KS LS MS NS t^ OS PS k| QS RS {s SS TS US 8l VS WS =. XS YS ZS `S  T _m .T 47 +T @T #T hR +S $T %T 8- &T Yh *T =T -T ;T R& (  Z_ >T ,T 'T )T !T aN ~T {T ]T ^T /T (T ",
"_T :T <T [T }T |T Pr k& 1T sP 2T 3T :p 4T [< 5T 6T 7T 8T 9T 0T aT Q= bT cT dT eT 4k fT gT hT iT jT kT lT mT nT oT pT qT N$ rT s@ sT O; tT uT vT wT xT yT zT AT BT CT M{ DT ET FT E% GT HT IT +> i= <r JT I% KT LT M* MT NT ;+ OT PT QT RT ST TT UT VT WT XT YT 9_ ZT `T  U .U +U M! @U #U $U %U Eg &U *U =U 1+ -U *S ;U >U 4' *G `y ,U 'U )U !U ~U {U ]U tv ^U Og /U (U _U A+ :U <U [U z* }U |U ",
"1U Li Oo 2U 3U 4U 5U 6U 7U 8U 9U 0U H^ aU bU cU dU [- Fp 1u eU fU gU hU iU jU kU d~ lU mU l% nU oU t^ pU qU &l rU J. sU tU uU vU wU Zn xU yU <. zU AU BU CU DU EU FU GU HU 5| IU JU C* 1v KU Li >> }o LU MU xk NU OU ~u PU %: +: QU Ek RU SU Y0 TU UU VU }- WU XU YU ]u ZU `U  V .V +V @V #V $V %V &V hi *V %l =V -V p4 Oj ;V >V ,V 'V )V !V ~V {V ]V ^V /V (V oa me t  _V :V +7 <V pn Ym [V }V ",
"<r <r >> |V {r 1V 2V M* z! 3V V. #{ 4V 5V 6V $T 7V 8V 9V 0V aV bV cV dV eV fV Ct gV hV iR iV jV kV lV mV nV oV pV qV rV sV tV uV vV wV (# xV HO yV M} zV AV BV CV DV EV 3^ FV GT GV rt /o X~ HV .n IV JV KV Ml LV MV NV OV PV QV RV B! SV TV UV VV O{ WV XV YV ZV xT `V  W .W +W @W #W $W qJ J. %W n4 &W *W iU =W -W ;W >W ,W 'W )W !W ~W Jg {W ]W ^W /W (W _W :W <W 3. [W }W |W F# 1W 2W 3W sq ",
"4W h= Oo |V <r J* 5W 6W 7W )- 8W MA b/ 9W 0W aW bW cW dW eW Xu fW gW hW iW jW kW lW [= mW nW oW 7# iT pW +J qW rW sW tW +D gq uW <N vW Si wW xW ~L yW zW AW BW CW DW Z2 EW FW GW HW IW JW +> KW am Po LW MW NW OW $n PW QW RW SW TW e9 UW VW WW XW 4B YW ZW ;R `W  X .X +X @X #X $X *A ]' 8V %X &X *X =X -X ;X >X ,X Fe 'X )X v# !X RT ~X {X wK ]X ^X /X (X _X :X mk <X [X ^f }X k( |X 1X 2X G* ",
"am %q 3X 4X 5X 6X 7X 8X 9X Wo 0X De $h aX 96 Z> bX +@ cX  & dX eX fX gX hX iX jX kX lX mX nX oX pX qX rX $R sX Le tX uX vX wX cF xX yX l> zX 'b AX BX CX DX EX FX 4G GX HX IX JX KX LX MX NX !] tk HV OW OX PX QX RX Pl SX TX UX VX WX 0) XX YX mC ZX `X  Y .Y +Y @Y #Y c) $Y %Y &Y *Y =Y A& t) -Y ;Y d6 >Y ,Y 'Y )Y !Y ~Y {Y ]Y ^Y /Y /Y (Y _Y :Y *  <Y ~' [Y }Y |Y 1Y zr 2Y 3Y 4Y 5Y 6Y 7Y 8Y ",
"9Y 0Y aY bY cY dY eY K- fY gY hY iY jY RV kY lY r^ mY .% [m :- nY *o vU oY pY ,^ qY ;& rY sY tY uY vY wY Gn 4r =m EQ B; xY yY zY AY BY ka Pg CY DY EY FY GY HY IY JY KY 3^ LY MY 4Y z< NY OY PY <) QY RY b= SY TY UY VY WY XY YY ZY `Y  Z XX .Z +Z @Z #Z gJ ;( ;! $Z lk %Z &Z Z> *Z =Z -Z ;Z >Z ,Z 'Z  | )Z !Z ~Z $Z {{ {Z 9_ ]Z ^Z /Z lO `l U= (Z _Z :Z <Z [Z }Z |Z 1Z 2Z 3Z 4Z 5Z 6Z a; UY D' ",
"7Z >* 8Z 9Z 0Z a; aZ J- bZ cZ dZ eZ fZ gZ D0 hZ iZ jZ kZ lZ mZ nZ ;Y sr oZ pZ qZ rZ sZ tZ uZ vZ wZ lX 2t xZ yZ 2y zZ 3$ AZ BZ Sc CZ DZ EZ *( /Z FZ GZ HZ IZ JZ KZ LZ MZ NZ g! /) OZ PZ QZ RZ A/ SZ o{ TZ $n b= IV UZ z' pt VZ WZ XZ YZ ZZ `Z XX  ` .` Kx K, +` v+ @` #` $` %` &` tW *` !^ =` TS *7 -` ;n ;` >` ,` '` }* )` (' !` >x ~` {` H{ ]` mD ^` /` (` _` :` <` [` }` |` 1` 2` 3` *u 4` TZ ",
"5` 7Z PY n{ 6` 7` TZ No 8` 9` 0` a` b` c` d` e` f` KN g` h` i` j` k` Qn l` m` n` o` p` q` Em r` s` t` u` v` w` }% x` y` z` A` B` Cl C` D` E` VQ F` G` H` I` J` K` L` v] M` N` O` P` Q` R` S` T` U` vk tq I- V` [~ W` VZ X` Y` g= KU Z` ``   .. .+ .8_ @ .# .$ .% .& .Bw * .V* *^ = .- .jZ }. F^ ; .> ., .' .j* ) .! .~ .jZ { .] .^ .Yr / .84 ( ._ .: .< .[ .} .| .1 .2 .3 .4 .MW 5 .6 .7 .X) 8 .",
"9 .0 .a .JW cm 5) b .c .d .bs e .f .g .'- N* >' |] h .4/ i .<% j .[0 k .l .m .n .o .p .q .r .s .t .u .CU v .w .x .y .z .A .B .C .D .E .F .G .H .I .J .K .L .M .T4 N .O .P .Q .R .S . E T .U .V .W .X .Y .b= _~ Z .` .[~  ..j^ ...HT +..@..#..~1 $...{ e` %..&..*..R{ &b =..-..;..>..t: ,..'..5M )..!..~..{..]..^../..(..%.._..:..<..[..}..|..O{ 1..2..3..4..5..6..7..8..9..=B 0..a..$' 5) b..c..",
".n 0Z d..e..f..g..h..i..%- j..k..a& l..m..n..o..jY p..q..W_ r..s..t..u..v..G; w..x..y..z..A..B..C..D..E..s..F..n; *e G..H..I..,t J..K..}i U= L..M..N..O..P..Q..R..%~ S..T..U..V..W..X..Y..Z..b( `.. +.Io .+.++.@+. > #+.$+.8Z 3, S] %+.&+.*+.=+.L1 -+.;+.>+.T1 ,+.'+.)+.!+.r  `< ~+.{+.]+..* Hq  : ;e ^+./+.(+.0_ _+.:+.<+.[+.U$ }+.0U |+.1+.2+.3+.4+.5+.6+.7+.]G 8+.9+.q_ 0+.a+.b+.ex c+.d+.e+.",
"f+.g+.h+.fw _r i+.7 .j+.;* %- Y) 0j ^] k+.l+.zq m+.n+.o+.p+.q+.r+.s+.t+.u+.v+.w+.x+.y+.z+.A+.B+.G^ C+.C+.D+.E+.#K F+.;f G+.H+.Oc I+.J+.K+.L+.M+.N+.O+.*G P+.Q+.R+.S+.T+.U+.V+.W+.X+.Y+.Z+.`+. @..@.+@.@@.#@.$@.%@.&@.*@.=@.9w @< q{ '_ -@.]o ;@.pA .A >@.,@.'@.)@.!@.,+.X! ~@.[! Fl t% {@.]@.^@.:< fv /@.9M (@._@.y[ :@.<@.[@.}@.H1 |@.{X 1@.2@.3@.4@.5@.6@.7@.KF 8@.9@.0@.a..ry a@.b@.c@.d@.e@.",
"=@.f@.3z g@.h@.]C i@.j@.0j ot k@..> l@.m@.n@.o@.L1 hm p@.q@.r@.s@.EU t@.A@ u@.$. v@.w@.x@.y@.z@.A@.B@.9u C@. # D@.E@.F@.G@.H@.I@.J@.K@.L@.M@.N@.O@.P@.Q@.R@.S@.Q( T@.U@.V@.U+.W@.Y..X@.Y@.Z@.`@. #..#.+#.@#.##..#.$#.%#.&#.*#.=#.-#.;#.GT >#.,#.'#.)#.!#.~#.{#.]#.^#.)' f~ /#.Tf (#._#.om :#.<#.2@ [#.}#.|#.1#.2#.3#.4#.5#.|O 6#.7#.8#.9#.0#.a#.b#.C. Z{ Ss 7| c#.d#.+; Z( e#.f#.g#.h#.i#.+< j#.",
"k#.T) u' l#.m#.n#.o#.p#.q#.r#.as n#.~y s#.t#.u#.v#.w#.x#.y#.z#.n- A#.B#.)h C#.D#.&R f% E#.F#.G#.H#._W `} I#.J#.'M ~- K#.L#.M#.N#.O#.P#.Q#.R#.S#.sh T#.U#.F. V#.W#.X#.k_ T4 G2 Y#.M| Z#.`#. $..$.+$.@$.#$.$$.%$.&$.*$.=$.*#.-$.@E ;$.>$.,$.'$.)$.!$.~$.v#.{$.]$.^$./$.IB ($._$.:$.YC <$.V& D$ [$.}$.|$.1$.2$.@Y 3$.4$.r; 5$.%r 6$.7$.8$.9$.0$.w& lF a$.b$.c$.2A d$.e$.f$.g$.h$.i$.j$.k$.l$.m$.n$.",
"o$.p$.q$.r$.s$.t$.u$.,] v$.w$.IX z< x$.y$.z$.A$.B$.C$.D$.E$.F$.G$.H$.I$.J$.AO K$.L$.X0 M$.N$.O$.P$.Q$.g; a) R$.I+.S$.T$.bg U$.V$.W$.X$.Y$.Z$.`$. %.x| .%.+%.Kw @%.&. #%.8L $%.%%.&%.*%.=%.-%.;%.>%.,%.,%.'%.)%.!%.~%.{%.]%.&B ^%./%.(%._%.:%.yB <%.[%.}%.1o |%.1%.2%.3%.4%.5%.6%.7%.8%.9%.)M 5} e9 0%.a%.b%.m- u{ c%.ju d%.e%.f%.g%.h%.i%.<E j%.]( )N k%.l%.m%.9H n%.o%.p%.q%.r%.s%.t%.u%.v%.w%.",
"x%.$$.y%.z%.A%.c{ B%.C%.:z D%.E%.F%.G%.L_ H%.I%.J%.K%.L%.M%.N%.O%.V  %f P%.Q%.R%.S%.T%.n%.U%.V%.>' }# J{ w; W%.X%.Y%.tH Z%.`%. &..&.+&.@&.Rr ;: c9 #&.$&.%&.nc &&.*&.=&.|K -&.;&.>&.,&.'&.)&.!&.~&.{&.]&.^&.W@.PG /&.z] WD (&.P ._&.:&.<&.[&.}&.yB |&.7{ 1&.2&.3&.4&.5&.6&.c7 7&.8&.nJ Fj 9&.0&.I(  D YK a&.b&.c&.d&.e&.f&.g&.h&.i&.j&. 4 k&.9# l&.m&.n&.jH UL o&.p&.R2 q&.r&.s&.t&.u&.v&.^~ w&.",
"x&.y&.z&.A&.B&.C&.D&.E&.Z[ yB F&.G&.+u H&.Yz I&.J&.K&.L&.M&.N&.O&.P&.Q&.R&.S&.T&.U&.C= V&.W&.X&.Y&.0v a! 4} Z&.`&.!1  *..*.+*.@*.#*.$*.A! %*.&*.**.=*.-*.;*.8b >*.,*.'*.)*.v4 !*.~*.{*.]*.^*.Z: j} /*.(*._*.:*.<*.[*.}*.|*.k1 1*.2*.3*.|, Go `D 4*.5*.6*.<s 7*.8*.9*.qH 0*.a*.b*.c*.d*.e*.Qc f*.FM g*.h*.i*.j*.p| [E k*.l*.m*.n*.oL /3 6M 5l u& o*.p*.q*.r*.X#.s*.{J t*.u*.d$.v*.w*.x*.y*.z*.A*.",
"B*.rM C*.D*.IC E*.F*.G*.H*.I*.J*.4*.K*.+] 9..L*.M*.N*.d$.-r O*.P*.Q*.R*.N%.AT S*.T*.U*.9] V*.ML n+.W*.4+ X*.Y*.>| YF Z*.`*. =..=.+=.;n z[ @=.b< xz #=.~O h7 $=.W9 %=.&=.*=.==.-=.;=.>=.,=..2 !N '=.oF )=.!=.~=.{=.]=.^=./=.aR (=._=.J&.:=.<=.[=.zr WD }=.|=.(( 1=.2=.3=.4=.l= 5=.6=.C5 7=.8=.En 9=.N+ 0=.a=.Q< b=.c=.d=.e=.f=.g=.@ .yo h=.i=.:w gC `I j=.k=.l=.m=.n=.o=.Cz p=.q=.r=.p_ W[ s=.t=.",
"u=.QH v=.w=.x=.y=.'=.z=.A=.B=.C=.D=.E=.F=.2; G=.H=.KF EK NK I=.J=.K=.L=.M=.@5 N=.O=.P=.Q=.b- R=.0=.S=.T=.U=.V=.W=.X=.Y=.Z=.`=. -..-.+-. | @-.#-.$-.%-.&-.*-.>G Ux =-.--.;-.>-.,-.'-.AG )-.!-.~-.{-.]-.^-./-.)&.(-._-.65 :-.<-./2 [-.}-.M` F2 9H }2 |-.1-.2-.3-.4-.5-.6-.7-.8-.}^ 9-.[E 0-.y3 a-.b-.c-.d-.e-.f-.g-.h-.i-.j-.k-.:g j& l-.Xh m-.n-.o-.p-.q-.r-.s-.t-.u-.v-.w-.F@ x-.y-.z-.A-.B-.C-.",
"D-.E-.F-.==.G-.H-.I-.{2 J-.K-.L-.M-.N-.O-.P-.Q-.2 .M) R-.y6 Vx x0 S-.T-.U-.V-.W-.X-.K< n  Y-.Z-.`-. ;..;.+;.@;.#;.$;.%;.&;.*;.=;.-;.-R P; ;;.>;.,;.f% ';.);.!;.~;.{;.];.2e ^;./;.(;._;.:;.<;.[;.};.x8 |;.1;.2;.3;.4;.yG 5;.6;.7;./D 8;.9;.0;.a;.b;.c;.~) d;.(( e;.f;.g;.M- h;.Q*.i;.U#.j;.k;.l;.)3 m;.n;.o;.p;.q;.r;.s;.t;.[} u;.4_  | v;.B[ w;.x;.y;.LH z;.A;.B;.C;.D;.E;.F;.G;.H;.I;.J;.K;.L;.",
"M;.N;.O;.P;.Q;.R;.S;.T;.(G U;.V;.K6 W;.X;.Y;.Z;.fH :2  8 `;. >.W#..>.+>. =.@>.#>.$>.%>.O} Z-.Q  xH &>.*>.=>.aG ->.;>.>>.s  ,>.'>.)>.!>.~>.`0 {>.]>.^>.<5 %U />.(>._>.:>.<>.[>.}>.|>.1>.2>.3>.4>.5>.6>.7>.8>.9>.0>.a>.b>.+/ /v dS c>.d>.;%.e>.f>.[y g>.h>.i>.j>.k>.l>.m>.n>.o>.p>.q>.r>.s>.v5 t>.u>.v>.w>.x>.y>.z>.A>.+=.AQ @Z Z* B>./u C>.,7 D>.E>.F>.G>.H>.I>.J>.K>.L>.M>.N>.~2 /;.O>.P>.Q>.;2 ",
"R>.S>.T>.U>.V>.W>.C;.X>.Y>.Z>.`>.s3  ,..,.+,.@,.y} #,.$,.%,.&,.*,.f;.Qa =,.-,.;,.>,.,,.',.),.!,.~,.{,.],.:$ ^,./,.(,.## H5 _,.s9 :,.<,.[,.},.|,.1,.yK 2,.3,.4,._b 5,.6,.%G 7,.8,.9,.0,.U*.a,.b,.C4 c,.)O d,.e,.f,.g,.h,.i,.j,.LD k,.l,.)*.m,.n,.o,.p,.qN ,I q,.;v r,.s,.t,.u,.v,.w,.x,.4J y,.x,.z,.A,.B,.C,.D,.E,.F,.28 G,.H,.I,.J,.K,.L,.M,.N,.O,.#S S- P,.Q,.R,.S,._h $6 T,.U,.#J V,.W,.tT ^2 ",
"X,.Y,.q} Z,.`,. '.;G .'.+'.@'.#'.$'.%'.&'.*'.='.{N fB -'.;'.>'.,'.ib cK ''.oL )'.!'.~'.{'.]'.-Q n_ ^'./'.('._'.:'.<'.['.-b }'.|'.1'.H,.2'.3'.4'.5'.bT 6'.7'.e8 8'.9'.F;.0'.a'.b'.|9 c'.d'.e'.f'.g'.h'.k+ i'.j'.k'.a5 l'.m'.n'.o'.d} p'.q'.r'.,[ s'.t'.u'.v'.b#.w'.yz x'.y'.5B z'.A'.B'.C'.D'.E'.F'.%1 G'.H'.I'.Za J'.[N K'.J5 Lx L'.M'.N'.O'.Jq P'.Q'.ED R'.S'.T'.U'.V'.W'./b X'.5P Y'.Z'.`'. ).",
".).+).~O @).#).$).%).&).*)./: +< SD n'.=).-).;).>).,).').)).!).M .~).v{ XM g*.{).]).^)./).()._).:).<).[).}).ZZ |).1).2).s9 F, |'.Jx 3).4).,..5).Jj 6).7).*@ 8).2;.dR 9).6H 0).a).b).c).d).e).f).g).@. zM _>.h).PL z2 ^K i)./| j).t-.k).>*.l).m).m0 n).qJ `b o).p).q).y^ T/ r).s).t).u).v).w).x).y).z).A).B).:U C).D).E).F).1'.G).H).I).J).K).L).M).N)./w O).P).Q).R).S).T).U).V).W).X).Y).+T Z).",
"`). !..!.+!.@!.c1 #!.v4 $!.%!.&!.*!.=!.G| X9 -!.;!.>!.,!.4  '!.)!.!!.|< ~!..Q {!.]!.^!./!.(!._!.:!.<!.[!.}!.|!.P0 1f 1!.=b 2).!..2!.3!.4!.5!.6!.7!.8!.9!.0!.a!.b!.c!.XM d!.e!.h6 f!.`b g!.h!.i!.30 j!.k!.l!.m!.n!.<B o!.tN p!.q!.r!.q'.s!.s'.t!.u!.j) /> 3a Sf v, v!.p@.w!.=e x!.y!.z!.A!.B!.C!.D!.N&.E!.F!.sP G!.H!.I!.J!.K!.L!.z) M!.2'.N!.O!.P!.';.`M Q!.R!.S!.T!.qF U!.J4 &&.e# U| v6 V!.W!.",
"X!.Y!.Z!.%6 `!. ~.{N .~.+~.@~.n'.#~.]9 BK R@.$~.xJ S@.%~.&~.*~.EI =~.-~.b) ;~.>~.,~.'~.)~.!~.~~.{~.]~.^~./~.(~._~.:~.<~.[~.}~.9V |~.1~.2~.3~.4~..@ 5~.6~.7~.8~.9~.#f L).0~.a~.7>.b~.PK c~.d~.e~.f~.g~.h~.i~.j~.k~.8,.&N !9 l~.6+ 0'.m~.n~.o~.p~.q~.r~.s~.i, t~.u~.Zv << v~.Nx w~.x~.y~.z~.A~.B~.C~.D~.E~.F~.G~.H~.G,.I~.K  J~.K~.L~.M~.,..N~.O~.>( P~.Q~.R~.S~.T~.Ze Q7 U~.V~.*a W~.X~.Y~.n+ *U ",
"Z~.`~. {..{.i!. !.V9 +{.@{.h+ %f !4 #{.${.%{.p~.4$ &{.*{.M. !8 ={.-{.;{.>{.,{.'{.!M ){.!{.~{.{{.]{.^{./{.({._{.^i /i t~ 8N :{.<{.Of [{.}{.|{.1{.2{.3{.4{.5{.6{.7{.8{.9{.0{.v~ {= a{.b{.RO ~p c{.O& d{.e{.U'.0# :: f{.&. g{.h{.i{.*J j{.k{.l{.90 m{.n{.=. o{.p{.q{.r).r{.+=.s{.@Q t{.u{.v{.w{.x{.y{.z{.A{.B{.u* C{.D{.E{.48 F{.G{.u= rV H{.E= I{.J{.K{.o~.L{.s( M{.N{.xG O{./a P{.~| Q{.R{.S{.T{.",
"mE U{.V{.W{.X{.Y{.Z{.g6 Dd `{.oB  ]..].+].@].#].$].t2 %].&].0%.76 *].=].-].;].>].,].'].)].!].~].{].]].^]./].(].Jc /R _].1f !M u9 ,  :].<].&( [].|n oW O! }].|].i* ], 1].2].3].21 4].5].6].7].8].9].0].a].b].c].d].e].f].uN g].h].j*.i].c~ Qh j].k].l].M( m].n].M{ :X o].p].0a q].t;.r].s].t].u].v].w].x].y].z].E  ;0 A+ A].Db B].C].D].sG yp E].F].Tu c* G].H].xC I].Lj J].)%.K].L].M].N].O].P].",
"Q].R].S].T].yA U].8} V].W].X].^N Y].Z].O{.`]. ^..^.+^.@^.ut #^.A= 4_ $^.%^.I  &^.*^.=^.-^.;^.>^.,^.'^.)^..h !^.~^.{^.Wd ]^.^^./^.(^.y# _^.:^.Hg t= <^.[^.u: 7#.qT }^.|^.oz 1^.2^.3^.4^.ev 5^.6^.7^.r2 8^.cn 9^.X3 Fg 0^.a^.b^.c^.|e d^.e^.f^.g^.90 h^.cV i^.j^./ .k^.l^.m^.n^.>0 o^.p^.q^.r^.s^.t^.+e u^.v^.w^.x^.y^.z^.A^._0 B^.:1 C^.D^.E^.G! Ms F^.G^.)g A^ H^.I^.J^.K^.L^.M^.N^.O^.r< #9 P^.",
"b1 Q^.R^.S^.T^.U^.V^.'9 W^.X^.Y^.S5 Z^.';.`^. /../.+/.@/.#/.$/.%/.&/.*/.=/.!M -/.;/.>/.,/.'/.)/.!/.~/.{/.]/.^/.//.(/._/.:/.yD </.&L [/.k^.}/.|/.1/.2/.3/.4/.%Y 5/.6/.7/.8/.9/.0/.a/.b/.c/.d/.e/.q6 f/.g/.S+ h/.i/.4$ j/.k/._b l/.hb m/.^K E@ >N 6% n/.o/.8#.p/.q/.*Z M, r/.s/.t/.u/.cZ v/.w/.x/.y/.z/.A/.B/.C/.;+ D/.E/.F/.G/.H/.I/.J/.K/.L/.% .M/.N/.O/.<3 lU g_ P/.Q/.R/.S/.T/.U/.V/.W/.X/.C*.",
"Y/.Z/.`/.oJ ,9  (..(.], +(.Jd @(.rS iv #(.$(.%(.|R @6 xg V  5a Q! &(.~n *(.=(.-(.;(.>(.,(.'(.)(.!(.~(.{(.](.^(./(.((._(.:(.<(.Lx [(.}(.|(.4I kk 1(.5T 2(.3(.4(.5(.r; 6(.7(.8(.Sk ya 9(.0(.b%.a(.b(.c(.d(.Jn e(.f(.g(.h(.i(.j(.k(.l(.@J l% m(.n(.o(.p(.q(.r(.s(.t(.u(.v(.w(.x(.66 y(.z(.A(.D% B(.C(.D(.E(.F(.G(.M#.H(.I(.J(.;0 q* zw K(.L(.}R M(.N(.O(.P(.Q(.R(.i, ^E e% S(.T(.U(.V(.W(.X(.Y(.0~.",
"4% Z(.}h `(.@R  _.._.+_.^E @_.#_.$_.%_.=m &_.ak *_.=_.nZ -_.t= ;_.>_.,_.'_.)_.!_.~_.{_.]_.^_./_.(_.__.:_.bj <_.[_./(.}_.|_.1_.@& ;R pG 2_.3_.4_.5_.6_.7_.=X 8_.9_.0_.d/.a_.E>.b_.c_.d_.e_.f_.N& 8' IQ {b g_.lU h_.4$ i_.j_.j^.#$ k_.l_.m_.n_.J).o_.p_.q_.r_.s_.t_.u_.v_.w_.x_.y_.z_.A_.Yp B_.C_.D_.E_.F_.G_.)% )- p| H_.I_.J_.K_.L_.M_.N_.O_.P_.Q_.R_.4' S_.T_.U_.V_.%| W_.X_.x^ Y_.Z_.`_. :.uK ",
"P/..:.+:.-, @:.'N #F #:.RO $:.%:.&:.*:.lU =:.Cn -:.;:..c =! =! >:.,:.':.):.6& !:.~:.{:.]:.^:./:.2U (:.M% i$ _:.::.I} <:.,3 [:.}:.|:.1:.2:.#z 3:.Qj *A 4:.5:.6:.7:.8:.9:.0:.y. +j a:.b:.c:.c* d:.e:.f:.g:.h:.i:.j:.hi k:.L& 4] -8 l:.m:.n:.a5 o:.p:.q:.ed r:.s:.t:.u:.v:.eh w:.x:.y:.z:.A:.DS B:.C:.D:.E:.F:.4%.G:.]i H:.I:.J:.I(.UU Qd K:.L:.M:.N:.O:.P:.jz C>.Q:.R:.S:.T:.o* U:.0* V:.W:.X:.Y:.",
"], wm Z:.`:.@C  <..<. ^ +<.@<.#<.$<.%<.ZE Qk &<.*<.=<.-<.TB s$ ;<.><.,<.'<.)<.!<.~<.{<.]<.(_.aj 0m ^<./<.(<.c& _<.:<.<<.oh k-.[<.}<..-.:R yo |<.z, 68 1<.:5 2<.3<.4<.5<.,n 6<.7<.iS 8<.9<.0<.a<.b<.c<.d<.e<.Y^.pv  w f<.2& g<.h<.i<.j<.k<.l<.m<.n<.$Z o<.p<.2c q<.r<.s<.t<.u<.v<.w<.x<.sk y<.z<.|V (:.A<.B<.0. C<.M* D<.E<.F<.G<.H<.I<.J<.K<.L<.t, M<.N<.[<.R- O<.;7 w, 9Q P<.Q<.C5 R<.S<.T<.55 ",
"U<.V<.W<.X<.IH Y<.C^.Z<.^e `<. [..[.~h ;!.S& +[.@[.sC #[.$[.&X R_.%[.&[.*[.=[.pn -[.;[.1z >[.qt _l Ol ,[.Oo 6X i= '[.)[.![.~[.!% $*.Tl {[.uU V& ][.^[.1* /[.][.([._[.gV 3# :[.@z <[.[[.}[.|[.o_.P~.qj 1[.2[.3[.4[.5[.6[.7[.8[.9[.0[.a[.e% eR b[.&{ {V c[.d[.e[.f[.g[.h[.i[.j[.k[.l[.7g m[.n[.o[.p[.}l /<.H% q[.r[.+A s[.t[.u[.v[.j; w[.x[.y[.z[.C` A[.O! B[.C[.D[.Y0 E[.F[.G[.oz H[.I[.J[.K[.L[.",
"M[.N[.~  O[.V> T:.P[.Q[.R[.S[.b&.FA T[.bM U[.V[.M<.W[.V& X[.Y[.Z[.`[. }..}.A(.+}.@}.#}.$}.%}.&}.sn *}.[o 4) =}.Ml A- <r -}.;}.>}.,}.K#.-! '}.^u )}.Hn !}.~}.{}.]}.^}.SI /}.bX (}._}.:}.<}.[}.}}.|}.1}.2}.3}.4}.5}.6}.7}.(#.8}.9}.0}.a}.b}.&l a{.$X m- C! 5_.c}.d}.e}.f}.g}.ef ]l h}.i}.}o j}.k}.l}.h= m}.So }l n}.o}.p}.q}.yQ r}.S1 @| ;+.s}.t}.;V u}.v}.w}.x}.y}.,q 2O z}.lv {j A}.B}.C}.D}.E}.",
"ul F}.-; G}.en 6k T9 H}.I}.v@.J}.!@ K}.=( L}.M}.N}.O}.P}.>( *(.Q}.R}.S}.T}.U}.V}.W}.X}. n Y}.Z}. ..`}.Y)  |.d= .|.f= h= 6X +|.(] '- @|.#|.$|.%|.0h R! &|.Lg *|.ig =|.-|.;|.w[.>|.A}.O~.,|.*Y '|.)|.!|.~|.{|.1n ]|.^|./|.(|._|.:|.<|.[|.}|.j- ||.q) - .1|.2|.3|.4|.]} 5|.Ib 6|.7|.8|.h$ z<.qt l@.,u 9|.0|.cm  ..a|.b|.I> Or jp Ck c|._X d|.e|.f|.g|.h|.i|.j|.); k|.l|.m|.n|.;W o|.&M p|.q|.r|.s|.",
"t|.u|.7T 3E 9T v|.Cx i% w|.x|.c_.y|.z|.A|.B|.|* 2% h<.C|.W_ D|.E|.F|.G|.H|.IX I|.CS J|.K|.L|.M|.h= &t N|.bs O|.P|.Q|.s! >> /<.R|.2x qD [:.*D d< S|.T|.Lx U|.V|.S! W|.X|.'{.Y|.NL Z|.`|. 1.bu xz =V .1.+1.@1.3y #1.$1.%1.&1.*1.=1.-1.;1.>1.~  ,1.'1.)1.F!.!1.~1.{1.]1.C6 ^1.E_.%* /1.(1.tn #n _1.` .cm vq Kr ,* :1.<1.[1.zk }1.~E S#.jZ |1.11.76 21.31.41.5l `< i# ,b 51.61.71.L[ 81.91.uU 01.a1.",
"O! b1.c1.d1.F7 !  Ou e1.f1.bM g1.h1.i1.j1.t& k1.l1.61.8v m1.n1.Vp I6 o1.2; p1.k( q1.Z; r1.s1.t1.u1.v1.w1.C- =}.<~ x1.y1..n 8` F* z1.A1.B1.C1.p{.D1.E1.F1.G1.H1.MS I1.8_.J1.K1.L1.M1.N1.O1.P1.Q1.R1.S1.Vq T1.Gp U1.k:.V1.W1.X1.Y1.Z1.`1. 2..2. D la +2.@2.#2.$2.dI ~,.cD %2.&2.*2.=2.^o -2.;2.sq 9|.0; $n >2.,2.;> ,u G> '2.)2.!2.~2.v| {2.]2.L> ^2.i. /2.q{.(2._2.:2.<2.[2.}2.|2.12.22.32.(N rs ",
"s: |'.(! 42.52.62.&^ J{.72.82.92.02.a2.g> 4T W& b2.[% c2.d2.e2.f2.~[ 6| g2.h2.GW i2.{y X}.j2.k2.l2.|v WZ /o U` T~ m2.f= Y) '* vk  n n2.o2.p2.q2.r2.I+.V< s2.r^ Ul t2.u2.v2.yw w2.x2.; .y2.z2.A2.B2.C2.[].D2.E2.F2.G2.H2.I2.J2.K2.L2.M2.N2.O2.i% {> P2.Q2.XG R2.S2.[, T2.FW U2.V2.Dy ~'.wF D' W2.$- X2.Y2.Z2.`2. 3.o{ 7Z .3.+3.@3.,3 #3.$3.%3.&3.#z *3.4r kd .2.`1.=3.-3.;3.>3.,3._@ qX '3.lX )3.",
"!3.~3.{3.]3.l> XV P~..@ Xq ^3./3.(3.Q(.%h Dq _3.:3.<3.[3.y0 }3.|3.13.23.33.0A E% 43.53.GV c .px 63.73.83.;* 93.So VZ T~ 03.b ._o k{ l2.a3.Ut }1.b3.D$ c3.d3.e3.f3.q* g3.t..h3.i3.j3.k3.l3.m3.n3.o3.p3.2n q3.r3.5u s3.t3.q .u3.v3.3E VW w3.x3.y3.z3.A3.B3.C3.D3.E3.F3.G3.H3.I3.J3.K3.yy L3.M3.N3.,[.VY b; RX U` Kr !r O3.%n j}.P3.Q3.R3.S3.4} @* T3.U3.V3.!@ <> W3.&) X3.Y3.Z3.`3. 4..4.+4.#) @4.",
"#4.I).$4.%4.,e d1.F) &4.SM o/.*4.=4.-4.s3.B|.;4.>4.,4.'4.J` )4.!4.~4.{4.L*.]4.^4.F&./4.(4._4.U2.:4.0..~<.<4.`m [4.`m LV T~ }4.&t |4.14.M/ 24.34.Ak 44.d`  i 54.64.74.Q{ 84.+r 94.3> 9n 04.a4.Cs b4.Mt c4.d4.e4.f4.g4.h4.i4. r j4.-h f- k4.iC l4.m4.c  n4.'[ N*.o4.p4.q4.r4.s4.t4.u4.v4.w4.x4.y4.m#.z4.D' >* VY i@.JW A4.,[.D* B4.C4.-t D4.E4.j, F4.J& M^ G4.Dq H4.lj I4.J4.K4.2h L4.M4.]x N4.O4.",
"TI P4.Q4.%A R4.,b V. S4.T4.U4.V4.W4.PT && X4.Y4.Z4.`4.F.  5..5.+5.oI @5..] #5.$5.%5.&5.$} G< *5.8= =5.-5.;5.>5.,5.c; %q Y2.'5.)5.^] !5. n ~5.{5.]5.^5./5.z! T3.n(.(5._5.a_ 8] |R :5.<5.[5.}5.|5.15.z) 25.35.45.55.G{ 65.75.85.o& 95.05.a5.b5.c5.d5.e5.f5.g5.h5.:2 i5.j5.k5.l5.m5.n5.o5.&x JU p5.0p J- q5.KW c, es r5.y' s5.5` 4W &+.t5.u5.e4 VX v5.b< -~.*O `h S* b] w5.0^.x5.|{ y5.tZ z5.A5.x) ",
"qS }=  : 5o 3_ d/ x% f-.B5.Y/ AT J. O:.}f C5.D5.E5.SO F5.(>.b$.c! G5.H5.I5.J5.G&.K5.L5.M5.N5.]S O5.P5.Q5.R5.S5.T5.U5.N] #k V5.W5..+.@+.a&  > lA X5.Y5.Z5.Ku `5. 6.C0 .6.+6.7* E}.0{./}.c6 @6.#6.$6. | %6.jU &6.*6.`] =6.-6.;6.qT >6.8> ,6.'6.4@.)6.!6.~6.{6.]6.`>.^6.}, /6.(6.CF )$._6.:6.<6.[6.B> }6.|6.]C >y 16.v' n#.sq 26.B4.36.26.46.56.66.76.86.p^ X> !g 96.[  06.Ln a6.b6.c6.d6.6T e6.rz ",
"f6.jz g6.h6. ~ V|.i6.Py Uk j6.k6.XM l6.m6.n6.]> o6.5x `1 p6.q6.r6.s6.J@ t6.u6.Z[ v6.w6.2^ x6.HX 4*.y6.z6.LJ -5.A6.4s B6.aY ~v C6.D6.E6.F6.G6.H6.I6.J6.K6.L6.l7 (` M6.*A N6.2= O6.iR P6.u; Q6.`/ F].Ks R6.S6.T6.U6.V6.W6.]> X6.XT H( Y6.Z6.M6.`6.'4.B|  7.(( .7.`>.c[ +7.@7.#7.sc $7.%7.&7.*7.=7.-7.;7.+7.>7.'u ,7.'7.)7.!7.~7.;5.2, {7.]7.^7./7.(7._7.:7.<7.H( -k [7.H( }7.|7.a6.17.27.L  37.47.",
"y9 57.67.gz * .77.zw 87.c< G= |{ 97.07.a7.`P b7.c7.d7.e7.f7.L9 +2 g7.h7.i7.j7.8..k7.l7.m7.n7.o7.p7.q7.r7.`[ s7.-5.t7.u7.v7.w7.x7.&x y7.14.z7.A7.]l B7.C7.D7.E7.F7.G7.B( /, H7.I7.J7.,( K7.L7.M7.;= N7.O7.P7.@[.Q7.R7.S7.o..T7.U7.V7.W7.X7.Y7.Z7.33 `7. 8..8.+8.@8.#8.$8.%8.&8.*8.=8.-8.;8.>8.;8.,8.'8. x )8.aw !8.~8.{8.]8.^8.+..IW /8.(8._8.:8.<8.[8.}8._N |8.|} 9-.18.28.38.48.p+ 58.6] B7 68.",
"8l X0 <S 78.5/.88.9=.98.Gg Rr 08.a8.b8.|M c8.1O :A d8.e8.f8.g8.h8.i8.j8.k8.Z;.o1 l8.m8.n8.l8.o8.p8.y6.q8.r8.s8.t8.K5.u8.v8.w8.x8.// ;#.y8.3Z z8.O5.A8.B8.C8.D8.E8.Ak F8.G8.H8.I8.J8.i4 K8./} ><.L8.M8.N8.c~ tc y#.5_.h' O8.10 P8.Q8.6o R8.S8.`6.=*.T8.U8.>v V8.W8.X8.$E Y8.Z8.`8.3[  9..9.+9.@9.#9.$9.%9.&9.*9.=9.-9.;9.>9.,9.q1.'9.Dy )9.Iy !9.~9.{9.]9.t~.b-.R6 -z ^9./9.(9._9.:9.zJ 84 B7 <9.",
"]E [9.A, X|.}9.|9.19.29.V4 `5.39.49.59.,: 69.79.o6.89.99.09.a9.b9.c9.5{ d9. B e9.f9.@} g9.h9.i9.j9.s8.k9.l9.[>.m9.n9.o9.p9.x6.q9.U}.r9.qu p' s9.t9.A8.u9.v9.w9.x9.g2 A5 hY t[.y9.z9.A9.8' A, B9.C9.(}.D9.E9.F9.G9.H9.tU I9.J9.K9.L9.M9.q).vx o-.$C N9.O9.P9.w3 Q9.O-.R9.+} */ S9.T9.H*.U9.v=.D&.V9.W9.sB ;8.X9.Y9.Z9.`9. 0.z$.4s )] u7.p' E% NC Zz .0.+0.@0.#0.$0.%0.69.&0.*0.=0.-0.;0..%.>0.`5.",
"q@.U$.E<.-q M} 6a >K !d ,0.'0.)0.kw !0.~0./  {0.]0.^0./0.(0.T%.AK s>._0.:0.<0.[0.}0.|0.HP 10.20.p4.30.40.3*.50.60.r% 70.z* Z8.80.90.00.a0.b0.c0.BB d0.e0.f0.g0.h0.i0.PE j0.k0.l0.m0.n0.o0.l;.p0.q0.r0.s0.~7 t[ t0.u0.9] v0.w0.x0.y0.s@ 8W EA z0.A0.m~.B0.Bz C0.D0.E3.E0.8;.F0.B_ G0.C_ H0.I0.J0.K0.L0.M0.N0.O0.P0.Q0.R0.i+ FJ S0.KX T0.U0.V0.W0.X0.Y0.Z0.`0. a..a.+a.@a.#a.$a.w: %a.&a.*a.=a.-a.",
";a.>a.,a.'a.)a.!a.+. ZH ~a.{a.K_.;{.;P 37.]a.^a.e-./a.(a._a.t'.i< n&.:a.<a.E8 [a.}a.|a.m0 1a.2a.3a.4a.5a..< 6a.7a.8a.9a.0a.+7.aa.ba.ca.ca.da.3( Zz ea.fa.~) (*.ga.ha.ia.k9 ja.kb ka.la.T% ma.c*.na.hG oa.a9.pa.i[ P%.qa.ra. Z sa.PU ta.ua.-U va.A0.r-.wa.xa.KK ya.za.t*.Aa.Ba.Ca.Da.Ea.y&.Fa.Ga.Ha.Ia.Ja.Ka.La.Ma.Na.Oa.Pa.Qa.q% Ra.]) Xs V, Sa.X2 Eo d[ V^ Ta.Ua.Va.Wa.Xa.Ya.Za.`a.89  b..b.+b.",
"Z[.9I @b.EE #b.$b.%b.&b.*b.`X =b.Q- -b.m4 79.;b.>b.,b.'b..;.a,.)b.S^ !b.~b.{b.#;.]b.n7.^b.e< /b.(b._b.:b.<b.[b.L@ Fa.^6.}b.|b.1b.2b.3b.|s d0.v6.4b.5b.Z;.6b.%~ Y4 7b.8b.9b..H 0b.'$ g1.ab.bb.cb.db.eb.+R fb.gb.hb.!< ib.jb.|O +6.ks u) I^.T3.98.kb.K^.lb.Q@.!-.k_ n'.mb.nb.ob. ,.pb.qb.o$.rb.;C sb.tb.ub.vb.wb.xb.yb.zb.Ab.Bb.Cb.t4.Db.Eb./4 Sa.N: Fb.7{ Gb.7+.Hb.Z~ Ib.Jb.Kb.i3.^9.U_.Lb.Mb.m> ",
"Nb.n{.Ob.Pb.Qb.Rb.Sb.Tb.</.Ub.r  -R Vb.ul Wb.~Q _I Xb.lL h=.X~.t}.Yb.Zb.;O ky b9.5F `b.F&  c..c.+c.^=.@c.#c.$c.%c.&c.t3 |=.*c.=c.-c.;c.>c.J;.,c.'c.)c.s6.+c.!c.x3 ~c.{c.]c.^c.U-./c.(c.4=._c.:c.<c.[c.}c.|c.1c.2c.3c.4c.+{ (- h .9l :3 5c.6c.7c.y;.QA 31 8c.9c.l%.`].0c.ac.bc.cc.dc.}*.ec.fc.gc.hc.ic.jc.kc.lc.mc.nc.2*.oc.pc.5D qc.v6.rc.sc.tc.k8.*~ uc.vc.C~  c wc.xc.yc.zc.Ac.Bc.Cc.LQ '$ Dc.",
"Ec.}+ Fc.Gc.Hc.u5 Ic.Jc.3r Kc.^@.Lc.0> Mc.>0.n0.;-.6m Nc.A0 Oc.Pc.'$ gb (}.yW W3 ,I s~.Qc.Rc.Sc.Tc.LG Uc.07 ![ Vc.U^ @'.Wc./G Xc.Yc.Zc.`c.v1  d.s6.D| .d.+d.(( OJ @d.#d.$d.%d.&d.*d.=d..;.-d.;d.>d.,d.'d.D3 )d.!d.~d.{d.]d.78 -;.z) ^d.nb /d.1O z| !d (d.9e +~.}F _d.[^ :d.<d.[d.}d.0L |d.1d.2d.3d.4d.5d.6d.7d.m).Kz 8d.9d.EG @E 0d.:9 ad.$< S2 bd.'c.cd.!) 69 A~ S^ dd.ed.fd.gd.hd.id.jd.kd.ld.",
"Yx md.}8 nd.od.pd.qd.rd.s  sd.g3.td.Sd _g ud.,V vd.-~.wd._< xd.^Z 8Q yd.>z ;9 47 zd.:9 Ad.HF ~[ Bd.&8 ,!.Cd.Dd.Ed.Fd.2A Gd.p} Hd.Id.Jd.Kd.I6 Ld.KY Md.Nd.Od.Pd.CP Qd.e2 R6 Rd.Sd.Td.Ud.Vd.Wd.Xd.Yd.Zd.`d. e..e.+e.@e.qR 68 L'.!>.#e.$e.%e.ae R=.]b &e.*e.=e.-e.`E ;e.>e.V| j9.,e.'e.)e.L$.!e.~e.{e.]e.:E ^e.hB /e.(e.T| 4K _e.:e.4K <e.VD RG c#.h8.[e.}e.|e.1e.*,.i_ 2e.3e.4e.ZJ 5e.6e.7e.8e.9e.",
"R4 0e.ae.Ly be.8U ce.<'._,.de.ee.fe.R{ ge.he.Cn ie.y@ je.,+.ke.le.me.RO m/ I@ V^.8).ne.oe.pe.Cc.qe.et re.$4 71 )b.se.a;.$F /*.te.ue.ve.we.xe.$I o7.=>.ye.ze.Ae.U#.Be.Ce.De.j, +|.Ee.Fe.Ge.He.Ie.66.Je.Ke.Le.Me.Ne.Oe.f3.Pe.Qe.Re.D! K,.Se.Te.3T Ue.!!.Ve.We.Xe.Ye.Ze.`e.+2 KD  f..f.x8 ^J +f.k_.@f.#f.{G $f.4,.%f.&f.*f.=f.-f.;f.$I >f.,f.T;.'f.)f.k_ ;-.uN J` O..!f.G7.b-.~f.{f.]f.^f.6e./f.(f.",
"_f.:f.D7.<f.[f.}f.## |f._> CL 1f.2f.3r ,k 3f.Cn 4f.5f.6f.S- 7f.9c.1% `b 8f.r/ 9f./a.0f.af.bf.cf.'e.df.ef.8% ff.gf.&,.hf.1A a).if.V@.I6 jf.kf.lf.R4 )o N$.mf.nf.of.pf.D@.P} }/.qf.rf.sf.tf.uf.vf.wf.xf.yf.zf.Af.Bf.Cf.{Q Df.:,.5M /' &` o .LQ Ef.Ff.Gf. 6.E5.Hf.If.F8 Jf.Kf.Lf.DJ R+.Mf.Nf.Of.Pf.Qf.Rf.d1 eo Sf.Tf.Uf.)*.Vf.Wf.Xf.Yf.^-.Zf.`f.]a 73  g..g.[b.+g.!!.@g.R6 #g.*: $g.%g.&g.().*g.=g.",
"-g.;g.>g.,g.'g.>f {8 hO )g.]3.!g.yX ~g.{g.]g.tv ^g.<. /g.(+ (g.#. _g.=e.:g.<g.[g.97 }g.|g.1g.MK U^ 2g. B 3g.4g.5g.6g.],.7g.99 8g.TC 8} xO 9g.q7.AJ p=.}3.0g.ag.bg.q).p{.)M cg..+ dg.2=.eg.fg.gg.hg.ig.jg.kg.nK oQ lg.mg.ng.og.pg.qg.rg.!5 g_ sg.ee Q  tg.ug.vg.@$ w| wg.xg.yg.zg.Ag..M F8 Bg.Cg.Dg.Eg.Fg.Gg.Hg.Ig.Jg.Kg.Lg.Mg.Ng.*$.W| SD WL Og.Pg.Z{ Qg.Rg.I9.m>.Sg.Tg.T1 Ug.ce.Vg.Wg.Xg.Yg.Zg.",
"`g. h..h.+h.@h.#h.Af.$h.%h.&h.*h.ij @) X% |]  # =h.(' -h.dC ;h.>h.Lg ,h.'h.)h.X6 ZS !h.Q).~h.R@.{h.]h.^h.a~./h.(h._h.:h.<h.[h.}h.V#.QK |h.If.1h.2h.3h.4h.5h.N%.6h.7h.g*.h@ OT 8h.9h.0h.ah.bh.ch.dh.eh.fh.gh.]^.hh.ih.58 DH jh.kh._W lh.mh.nh.p= zP oh.ph.ke qh.ku rh.sh.q0 8% th.uh.vh.DO wh.xh.yh.0;.zh._. hf.)h e_.WR m).Ah.Bh.Ch.Dh.:>.Eh.(7 Q,.Fh.$=.Gh.Hh.ut Ih.Jh.%[ Kh.Lh.Mh.Nh.Oh.Ph.Qh.",
"Rh.Sh.Th.6d Uh.gh. i 1c #& =/.Vh.Oc J!.Wh.Xh.Yh.Zh.`h. i..i.+i.k3.@i.#i.@: k=.$i.%i.&i.'[ a9.vG n4.o,.*i.=i.9[.%T -i.;i.>i.,i.'i.u[ }L )i.!i.~i.{i.]i.^i./i.(i._i.8~ :i.<i.1:.*;.[i.}i.|i.1i.2i.3i.4i.5i.6i.7i.8i.9i.0i.ai.bi.ci.di.ei.O$.fi.gi.hi.ii.`c ji.ki.7  &. li.N. }e mi.ni.(;.c% 73 oi. J pi.qi.ri.si.ti.ui.Z3 s< vi.Z3 wi.xi.;N R&.yi.zi.1A Ai.U@ Bi._6 !@.Ci.Di.=b.Ei.Fi.Gi.Hi.Ii.Ji.",
"Ki.Li.Mi.Ni.Oi.Pi.|} Qi.j@ Ri.Si.Ti.<2.Ui.^u Vi.M!.Wi.Xi.Yi.Zi.`i. j..j.+j.@j.#j.$j._h.%j.&j.*j.s6 =j.-j.;j.>j.A= .V ,j.'j.)j.SK !j.vM ~j.{j.]j.+S $2.^j./j.+g.(j._j.:j.<j._U NN [j.}j.|j.1j.2j.3j.4j.5j.6j.F!.Nx 7j.8j.9j.0j.Sc aj.bj.cj.dj.&: ej.6h fj.Rx `b gj.xJ hj.rU ij.jj.=6.kj.hV uA lj.m[ mj.nj.oj.NL pj.qj.rj.sj.tj.). ,N >9 r|.uj.:D #4 vj.^e NL wj.8W $/.xj.ei.Y< |:.yj.zj.Aj.Bj.Cj."};
