/* XPM */
static char * left_xpm[] = {
"301 350 31394 3",
"   	c #FD0007",
".  	c #FC0108",
"+  	c #FB0208",
"@  	c #F70408",
"#  	c #F10509",
"$  	c #EB0708",
"%  	c #E50607",
"&  	c #DE0806",
"*  	c #D20703",
"=  	c #CD0802",
"-  	c #C50802",
";  	c #C00901",
">  	c #BE0C02",
",  	c #BB0D02",
"'  	c #BA0E04",
")  	c #B90D01",
"!  	c #BC0E03",
"~  	c #BD0F04",
"{  	c #BD1107",
"]  	c #BE110A",
"^  	c #BD1009",
"/  	c #BE1009",
"(  	c #BB0A04",
"_  	c #C00B04",
":  	c #C40C04",
"<  	c #CB0C04",
"[  	c #CD0A04",
"}  	c #D10A03",
"|  	c #D30A02",
"1  	c #D80804",
"2  	c #DE0607",
"3  	c #E3060B",
"4  	c #E9060D",
"5  	c #EE0910",
"6  	c #F00911",
"7  	c #EE070D",
"8  	c #E80308",
"9  	c #E00104",
"0  	c #DA0203",
"a  	c #D70300",
"b  	c #D30300",
"c  	c #D00400",
"d  	c #D10400",
"e  	c #D30700",
"f  	c #DA0B05",
"g  	c #DC0B06",
"h  	c #DB0C04",
"i  	c #D90F05",
"j  	c #D61005",
"k  	c #D31107",
"l  	c #CF0F04",
"m  	c #CE0901",
"n  	c #CE0500",
"o  	c #D60501",
"p  	c #DF0503",
"q  	c #E80607",
"r  	c #F00808",
"s  	c #F30707",
"t  	c #F50504",
"u  	c #F40403",
"v  	c #F50302",
"w  	c #F60204",
"x  	c #F70104",
"y  	c #F70102",
"z  	c #F90102",
"A  	c #FB0304",
"B  	c #FB0303",
"C  	c #FC0203",
"D  	c #FD0304",
"E  	c #FC0301",
"F  	c #FB0200",
"G  	c #F90100",
"H  	c #F70200",
"I  	c #F80300",
"J  	c #F90602",
"K  	c #FD0A06",
"L  	c #FC0704",
"M  	c #FD0503",
"N  	c #FE0201",
"O  	c #FF0303",
"P  	c #FF0506",
"Q  	c #F80605",
"R  	c #F20606",
"S  	c #EF0707",
"T  	c #E90806",
"U  	c #E20703",
"V  	c #DB0801",
"W  	c #D50902",
"X  	c #CF0A01",
"Y  	c #CC0D03",
"Z  	c #C50D01",
"`  	c #C30D02",
" . 	c #C10F03",
".. 	c #C31208",
"+. 	c #C21409",
"@. 	c #BE1407",
"#. 	c #B61206",
"$. 	c #B51509",
"%. 	c #B11509",
"&. 	c #AE1408",
"*. 	c #A91207",
"=. 	c #A41205",
"-. 	c #A21305",
";. 	c #A21406",
">. 	c #A81909",
",. 	c #A91708",
"'. 	c #A91606",
"). 	c #AD1605",
"!. 	c #B31605",
"~. 	c #B91708",
"{. 	c #BF1909",
"]. 	c #C51B0A",
"^. 	c #CB1C0B",
"/. 	c #CD1C0A",
"(. 	c #CB1C09",
"_. 	c #C61A04",
":. 	c #C51B04",
"<. 	c #C61D06",
"[. 	c #C61B07",
"}. 	c #C21703",
"|. 	c #C11403",
"1. 	c #C11605",
"2. 	c #BD1606",
"3. 	c #B61405",
"4. 	c #AD1406",
"5. 	c #A51403",
"6. 	c #9F1304",
"7. 	c #9A1504",
"8. 	c #971805",
"9. 	c #941B06",
"0. 	c #951E0A",
"a. 	c #921F0C",
"b. 	c #8E1F0C",
"c. 	c #8D1F0E",
"d. 	c #8B2111",
"e. 	c #892314",
"f. 	c #8C2618",
"g. 	c #8B2517",
"h. 	c #892315",
"i. 	c #8A2416",
"j. 	c #8D2617",
"k. 	c #902618",
"l. 	c #902417",
"m. 	c #912314",
"n. 	c #8F200D",
"o. 	c #901F0D",
"p. 	c #90200C",
"q. 	c #8F200C",
"r. 	c #8F210A",
"s. 	c #912109",
"t. 	c #932109",
"u. 	c #942007",
"v. 	c #952108",
"w. 	c #982007",
"x. 	c #9B1F07",
"y. 	c #9C1E05",
"z. 	c #A22006",
"A. 	c #9F1F04",
"B. 	c #9C2306",
"C. 	c #992609",
"D. 	c #932A0C",
"E. 	c #923317",
"F. 	c #853119",
"G. 	c #6B2211",
"H. 	c #4E0F06",
"I. 	c #4C1915",
"J. 	c #431716",
"K. 	c #3E1C1B",
"L. 	c #402723",
"M. 	c #2F1C16",
"N. 	c #211009",
"O. 	c #271811",
"P. 	c #31221F",
"Q. 	c #312121",
"R. 	c #281A19",
"S. 	c #221715",
"T. 	c #211614",
"U. 	c #160C0A",
"V. 	c #0A0200",
"W. 	c #0B0300",
"X. 	c #0C0401",
"Y. 	c #0E0402",
"Z. 	c #100604",
"`. 	c #160807",
" + 	c #1B0D0C",
".+ 	c #201010",
"++ 	c #241212",
"@+ 	c #24100F",
"#+ 	c #240F0E",
"$+ 	c #290F10",
"%+ 	c #2E1012",
"&+ 	c #2E0E0F",
"*+ 	c #280809",
"=+ 	c #230503",
"-+ 	c #200703",
";+ 	c #1D0902",
">+ 	c #1F0C05",
",+ 	c #1A0901",
"'+ 	c #1E0D05",
")+ 	c #301E14",
"!+ 	c #3A231B",
"~+ 	c #341910",
"{+ 	c #2F1107",
"]+ 	c #3B160E",
"^+ 	c #390700",
"/+ 	c #561205",
"(+ 	c #7F2314",
"_+ 	c #982012",
":+ 	c #A81A0C",
"<+ 	c #BD1B0E",
"[+ 	c #C5170C",
"}+ 	c #CD1B11",
"|+ 	c #CF1D13",
"1+ 	c #C81A11",
"2+ 	c #BB140B",
"3+ 	c #AF1307",
"4+ 	c #AC1607",
"5+ 	c #A91A09",
"6+ 	c #A51D07",
"7+ 	c #9C1C00",
"8+ 	c #9A1F00",
"9+ 	c #9B1E00",
"0+ 	c #9B1E02",
"a+ 	c #9B1D04",
"b+ 	c #9B1D06",
"c+ 	c #9E1D08",
"d+ 	c #9E1D0A",
"e+ 	c #9F1C0A",
"f+ 	c #9F1A09",
"g+ 	c #A01906",
"h+ 	c #A11805",
"i+ 	c #A31805",
"j+ 	c #A71402",
"k+ 	c #AA1302",
"l+ 	c #A91400",
"m+ 	c #A81300",
"n+ 	c #A61300",
"o+ 	c #A31500",
"p+ 	c #A11700",
"q+ 	c #A01800",
"r+ 	c #9E1A01",
"s+ 	c #9D1D04",
"t+ 	c #9B1F05",
"u+ 	c #9A2008",
"v+ 	c #982008",
"w+ 	c #971E09",
"x+ 	c #961F09",
"y+ 	c #95220D",
"z+ 	c #97240F",
"A+ 	c #992110",
"B+ 	c #951C0B",
"C+ 	c #961B0C",
"D+ 	c #991F10",
"E+ 	c #9B2313",
"F+ 	c #9A2514",
"G+ 	c #992816",
"H+ 	c #972713",
"I+ 	c #972210",
"J+ 	c #9C210F",
"K+ 	c #A5200F",
"L+ 	c #AC1F0E",
"M+ 	c #B21A0D",
"N+ 	c #B3170A",
"O+ 	c #AE1507",
"P+ 	c #AE1706",
"Q+ 	c #AD1A0A",
"R+ 	c #AA1D09",
"S+ 	c #A61F0B",
"T+ 	c #A22209",
"U+ 	c #9C220A",
"V+ 	c #992309",
"W+ 	c #97230A",
"X+ 	c #96240C",
"Y+ 	c #96210F",
"Z+ 	c #971F11",
"`+ 	c #FE0008",
" @ 	c #F90308",
".@ 	c #F50508",
"+@ 	c #F00609",
"@@ 	c #E70506",
"#@ 	c #DE0705",
"$@ 	c #D10703",
"%@ 	c #CA0902",
"&@ 	c #C60A01",
"*@ 	c #C20C01",
"=@ 	c #C00E04",
"-@ 	c #C00F05",
";@ 	c #BF0E04",
">@ 	c #BE0D03",
",@ 	c #BF0D03",
"'@ 	c #C00E02",
")@ 	c #C00F07",
"!@ 	c #C10E09",
"~@ 	c #C30D09",
"{@ 	c #C20904",
"]@ 	c #C80B07",
"^@ 	c #CF0C08",
"/@ 	c #D50B07",
"(@ 	c #D80806",
"_@ 	c #DB0503",
":@ 	c #DD0603",
"<@ 	c #E00503",
"[@ 	c #E60607",
"}@ 	c #E8060A",
"|@ 	c #EF060C",
"1@ 	c #F2070E",
"2@ 	c #F70710",
"3@ 	c #F3060C",
"4@ 	c #EF0409",
"5@ 	c #E90306",
"6@ 	c #E50506",
"7@ 	c #E10604",
"8@ 	c #DC0502",
"9@ 	c #D90400",
"0@ 	c #DB0600",
"a@ 	c #DE0704",
"b@ 	c #E00906",
"c@ 	c #E00C08",
"d@ 	c #DC0D07",
"e@ 	c #D90E07",
"f@ 	c #D50F06",
"g@ 	c #D21007",
"h@ 	c #CE0D04",
"i@ 	c #CC0701",
"j@ 	c #CC0300",
"k@ 	c #D40300",
"l@ 	c #DC0200",
"m@ 	c #E40404",
"n@ 	c #EC0606",
"o@ 	c #F10706",
"p@ 	c #F40604",
"q@ 	c #F20402",
"r@ 	c #F20201",
"s@ 	c #F80205",
"t@ 	c #FA0105",
"u@ 	c #FA0203",
"v@ 	c #FB0103",
"w@ 	c #FE0103",
"x@ 	c #FF0204",
"y@ 	c #FF0302",
"z@ 	c #F90401",
"A@ 	c #FA0502",
"B@ 	c #FE0906",
"C@ 	c #F90505",
"D@ 	c #F60607",
"E@ 	c #F00806",
"F@ 	c #EB0706",
"G@ 	c #E50704",
"H@ 	c #D90803",
"I@ 	c #CC0A00",
"J@ 	c #C50900",
"K@ 	c #C20C00",
"L@ 	c #C21004",
"M@ 	c #C01305",
"N@ 	c #BE1204",
"O@ 	c #BA1205",
"P@ 	c #B41205",
"Q@ 	c #B21506",
"R@ 	c #B11508",
"S@ 	c #AD1507",
"T@ 	c #A81406",
"U@ 	c #A51304",
"V@ 	c #A31404",
"W@ 	c #A21504",
"X@ 	c #A61908",
"Y@ 	c #A61707",
"Z@ 	c #A71605",
"`@ 	c #AB1504",
" # 	c #AF1604",
".# 	c #B51807",
"+# 	c #BB1C09",
"@# 	c #BF1C09",
"## 	c #C7200D",
"$# 	c #CA1F0B",
"%# 	c #C71E09",
"&# 	c #C41B06",
"*# 	c #C41905",
"=# 	c #C51A06",
"-# 	c #C61704",
";# 	c #C31200",
"># 	c #C51102",
",# 	c #C31103",
"'# 	c #B91305",
")# 	c #AF1105",
"!# 	c #A51202",
"~# 	c #9F1103",
"{# 	c #991403",
"]# 	c #971903",
"^# 	c #941D07",
"/# 	c #921D09",
"(# 	c #8E1E0A",
"_# 	c #8D1E0B",
":# 	c #8C210F",
"<# 	c #8C2310",
"[# 	c #8B2413",
"}# 	c #8D2615",
"|# 	c #902616",
"1# 	c #912616",
"2# 	c #902513",
"3# 	c #902211",
"4# 	c #91200E",
"5# 	c #93200D",
"6# 	c #91210D",
"7# 	c #91210B",
"8# 	c #94220A",
"9# 	c #992108",
"0# 	c #9C2008",
"a# 	c #9D1F06",
"b# 	c #A12106",
"c# 	c #9D2002",
"d# 	c #9C2507",
"e# 	c #98290B",
"f# 	c #912C0E",
"g# 	c #8D3318",
"h# 	c #7D2F18",
"i# 	c #601F0D",
"j# 	c #481208",
"k# 	c #471C16",
"l# 	c #3E1A1A",
"m# 	c #381E1D",
"n# 	c #382521",
"o# 	c #241711",
"p# 	c #180E05",
"q# 	c #251A14",
"r# 	c #2F211E",
"s# 	c #2F1F1F",
"t# 	c #271918",
"u# 	c #140A08",
"v# 	c #090100",
"w# 	c #0D0502",
"x# 	c #260E0E",
"y# 	c #280E0F",
"z# 	c #2D0D0E",
"A# 	c #1F0E06",
"B# 	c #311F15",
"C# 	c #362219",
"D# 	c #30180E",
"E# 	c #2E1207",
"F# 	c #38130B",
"G# 	c #370500",
"H# 	c #591307",
"I# 	c #822617",
"J# 	c #941C0E",
"K# 	c #A7180A",
"L# 	c #BF1B0F",
"M# 	c #C51307",
"N# 	c #CD150B",
"O# 	c #D31811",
"P# 	c #D11A14",
"Q# 	c #C7160E",
"R# 	c #BB130A",
"S# 	c #B51308",
"T# 	c #B11307",
"U# 	c #A91602",
"V# 	c #A11B00",
"W# 	c #9D1E00",
"X# 	c #9D1D00",
"Y# 	c #9E1C02",
"Z# 	c #9F1D05",
"`# 	c #A01C07",
" $ 	c #A01B08",
".$ 	c #A31C09",
"+$ 	c #A31B0B",
"@$ 	c #A41B0B",
"#$ 	c #A31A0A",
"$$ 	c #A51908",
"%$ 	c #A41807",
"&$ 	c #A61706",
"*$ 	c #AB1202",
"=$ 	c #AD1102",
"-$ 	c #AD1200",
";$ 	c #AB1200",
">$ 	c #AA1300",
",$ 	c #A71500",
"'$ 	c #A41600",
")$ 	c #A31801",
"!$ 	c #9F1B04",
"~$ 	c #9E1E05",
"{$ 	c #942009",
"]$ 	c #97200A",
"^$ 	c #9A210C",
"/$ 	c #991E0C",
"($ 	c #971A08",
"_$ 	c #971809",
":$ 	c #9B1D0E",
"<$ 	c #9D2212",
"[$ 	c #9D2413",
"}$ 	c #A02311",
"|$ 	c #A2210E",
"1$ 	c #A61A0B",
"2$ 	c #AC180A",
"3$ 	c #B5190D",
"4$ 	c #BA1C10",
"5$ 	c #B21607",
"6$ 	c #B01906",
"7$ 	c #AE1B09",
"8$ 	c #AB1D07",
"9$ 	c #A71F09",
"0$ 	c #A32107",
"a$ 	c #9F2108",
"b$ 	c #9B2308",
"c$ 	c #992307",
"d$ 	c #972409",
"e$ 	c #96220B",
"f$ 	c #98210D",
"g$ 	c #99200F",
"h$ 	c #F40407",
"i$ 	c #EE0508",
"j$ 	c #E40605",
"k$ 	c #DA0402",
"l$ 	c #D30601",
"m$ 	c #C70800",
"n$ 	c #C40900",
"o$ 	c #C10B00",
"p$ 	c #C20D04",
"q$ 	c #C30E05",
"r$ 	c #C10C03",
"s$ 	c #C10C01",
"t$ 	c #C20D02",
"u$ 	c #C10F05",
"v$ 	c #C10E07",
"w$ 	c #C40D09",
"x$ 	c #C50C09",
"y$ 	c #C90906",
"z$ 	c #CF0C0A",
"A$ 	c #D80C0B",
"B$ 	c #DD0B0A",
"C$ 	c #E10706",
"D$ 	c #E30304",
"E$ 	c #E60203",
"F$ 	c #E90305",
"G$ 	c #EA0406",
"H$ 	c #EC0306",
"I$ 	c #F10207",
"J$ 	c #F40309",
"K$ 	c #F9040B",
"L$ 	c #EF0305",
"M$ 	c #EF0609",
"N$ 	c #E60604",
"O$ 	c #E30500",
"P$ 	c #E30502",
"Q$ 	c #E70604",
"R$ 	c #E60805",
"S$ 	c #E20D09",
"T$ 	c #D80D06",
"U$ 	c #D40E05",
"V$ 	c #CF0D04",
"W$ 	c #CD0B02",
"X$ 	c #CC0200",
"Y$ 	c #D30200",
"Z$ 	c #DA0000",
"`$ 	c #E10101",
" % 	c #EF0506",
".% 	c #F10505",
"+% 	c #F00404",
"@% 	c #F10100",
"#% 	c #FB0005",
"$% 	c #FB0102",
"%% 	c #FD0002",
"&% 	c #FA0100",
"*% 	c #FD0402",
"=% 	c #FF0202",
"-% 	c #FF0305",
";% 	c #FA0405",
">% 	c #F80507",
",% 	c #F50707",
"'% 	c #F20608",
")% 	c #EE0606",
"!% 	c #E30806",
"~% 	c #DB0602",
"{% 	c #D20600",
"]% 	c #CA0500",
"^% 	c #C40800",
"/% 	c #BF0F02",
"(% 	c #BB0F01",
"_% 	c #B71000",
":% 	c #B31102",
"<% 	c #B11405",
"[% 	c #B11506",
"}% 	c #AA1405",
"|% 	c #A61405",
"1% 	c #A31605",
"2% 	c #A51703",
"3% 	c #A81503",
"4% 	c #AB1602",
"5% 	c #AF1803",
"6% 	c #B31B06",
"7% 	c #B81C06",
"8% 	c #C2210D",
"9% 	c #C4220D",
"0% 	c #C41F0B",
"a% 	c #C01B05",
"b% 	c #C31A05",
"c% 	c #C71B07",
"d% 	c #CA1605",
"e% 	c #C71103",
"f% 	c #CA1206",
"g% 	c #C51309",
"h% 	c #B31307",
"i% 	c #A91103",
"j% 	c #A01302",
"k% 	c #9A1502",
"l% 	c #951B04",
"m% 	c #941C04",
"n% 	c #931C06",
"o% 	c #8F1C07",
"p% 	c #8E1E08",
"q% 	c #8E210C",
"r% 	c #8E240E",
"s% 	c #8E230F",
"t% 	c #8D220E",
"u% 	c #8C210D",
"v% 	c #8B200C",
"w% 	c #8D200C",
"x% 	c #92210F",
"y% 	c #93230F",
"z% 	c #962209",
"A% 	c #9A2209",
"B% 	c #9B2109",
"C% 	c #9D2107",
"D% 	c #9C2608",
"E% 	c #982B0C",
"F% 	c #902F0F",
"G% 	c #893318",
"H% 	c #772C15",
"I% 	c #571A08",
"J% 	c #44140A",
"K% 	c #441F19",
"L% 	c #3B1D1D",
"M% 	c #331F1E",
"N% 	c #2F2120",
"O% 	c #1B120D",
"P% 	c #120E05",
"Q% 	c #261F17",
"R% 	c #2E201D",
"S% 	c #2D1D1D",
"T% 	c #261817",
"U% 	c #231816",
"V% 	c #130907",
"W% 	c #0E0603",
"X% 	c #2D0F11",
"Y% 	c #2C0C0D",
"Z% 	c #270708",
"`% 	c #1E0A03",
" & 	c #190B02",
".& 	c #1F1108",
"+& 	c #301F15",
"@& 	c #332117",
"#& 	c #2C160B",
"$& 	c #2D1106",
"%& 	c #37120A",
"&& 	c #360400",
"*& 	c #5D170B",
"=& 	c #872A1B",
"-& 	c #941A0B",
";& 	c #C21C0E",
">& 	c #C40F04",
",& 	c #CB0F06",
"'& 	c #D4130C",
")& 	c #D41711",
"!& 	c #CD140F",
"~& 	c #C4110A",
"{& 	c #BE1007",
"]& 	c #B90E04",
"^& 	c #AE0E00",
"/& 	c #AA1A00",
"(& 	c #A41D00",
"_& 	c #A31C00",
":& 	c #A51B01",
"<& 	c #A41902",
"[& 	c #A51804",
"}& 	c #A51806",
"|& 	c #A71A08",
"1& 	c #A71808",
"2& 	c #A91807",
"3& 	c #AC1305",
"4& 	c #AF1203",
"5& 	c #B11103",
"6& 	c #B11101",
"7& 	c #B21202",
"8& 	c #B01300",
"9& 	c #B01501",
"0& 	c #AB1401",
"a& 	c #A71601",
"b& 	c #A41904",
"c& 	c #972008",
"d& 	c #95210A",
"e& 	c #9A200B",
"f& 	c #9B1E0A",
"g& 	c #981908",
"h& 	c #9C1D0E",
"i& 	c #A02112",
"j& 	c #A12213",
"k& 	c #A52313",
"l& 	c #A72211",
"m& 	c #A71E0C",
"n& 	c #AF1608",
"o& 	c #BB190E",
"p& 	c #C22013",
"q& 	c #B51A08",
"r& 	c #B21B08",
"s& 	c #AE1B07",
"t& 	c #AB1D05",
"u& 	c #A71F07",
"v& 	c #A32004",
"w& 	c #9F2206",
"x& 	c #9A2305",
"y& 	c #99220A",
"z& 	c #99220C",
"A& 	c #9A210E",
"B& 	c #FC0004",
"C& 	c #F70207",
"D& 	c #F30407",
"E& 	c #EA0404",
"F& 	c #E00501",
"G& 	c #CF0400",
"H& 	c #C70500",
"I& 	c #C40500",
"J& 	c #C10600",
"K& 	c #C00800",
"L& 	c #C10A02",
"M& 	c #C20B03",
"N& 	c #C21006",
"O& 	c #C20F08",
"P& 	c #C50E08",
"Q& 	c #C70C07",
"R& 	c #CA0806",
"S& 	c #D30B0B",
"T& 	c #DD0D0D",
"U& 	c #E50B0C",
"V& 	c #E80608",
"W& 	c #EB0206",
"X& 	c #EF0005",
"Y& 	c #F20306",
"Z& 	c #F50005",
"`& 	c #F70106",
" * 	c #FD0209",
".* 	c #F80406",
"+* 	c #F00605",
"@* 	c #EC0704",
"#* 	c #EA0701",
"$* 	c #EB0603",
"%* 	c #EB0601",
"&* 	c #EF0504",
"** 	c #EB0704",
"=* 	c #E60D08",
"-* 	c #DE0D08",
";* 	c #D80B06",
">* 	c #D40B04",
",* 	c #D00B05",
"'* 	c #CE0903",
")* 	c #CD0601",
"!* 	c #CE0300",
"~* 	c #D50100",
"{* 	c #D90000",
"]* 	c #DF0000",
"^* 	c #E70103",
"/* 	c #ED0505",
"(* 	c #F10303",
"_* 	c #FD0003",
":* 	c #FC0001",
"<* 	c #FD0100",
"[* 	c #F90000",
"}* 	c #FA0200",
"|* 	c #FB0301",
"1* 	c #FD0506",
"2* 	c #FB0506",
"3* 	c #F70406",
"4* 	c #F50506",
"5* 	c #EE0808",
"6* 	c #E60606",
"7* 	c #D10500",
"8* 	c #CB0600",
"9* 	c #C50B00",
"0* 	c #C30F01",
"a* 	c #BD1002",
"b* 	c #B20F00",
"c* 	c #B11403",
"d* 	c #B01405",
"e* 	c #AC1504",
"f* 	c #A61504",
"g* 	c #A51605",
"h* 	c #A81908",
"i* 	c #A71807",
"j* 	c #A61502",
"k* 	c #A81501",
"l* 	c #AA1801",
"m* 	c #AF1A04",
"n* 	c #B21C04",
"o* 	c #B61E07",
"p* 	c #BA1E07",
"q* 	c #BC1D07",
"r* 	c #BA1A04",
"s* 	c #C01906",
"t* 	c #C71A09",
"u* 	c #CC1608",
"v* 	c #CB1104",
"w* 	c #D01409",
"x* 	c #CA130B",
"y* 	c #C11308",
"z* 	c #B51107",
"A* 	c #AB1204",
"B* 	c #9D1603",
"C* 	c #991803",
"D* 	c #951B03",
"E* 	c #931B03",
"F* 	c #901C03",
"G* 	c #901E06",
"H* 	c #90200A",
"I* 	c #91230C",
"J* 	c #93250E",
"K* 	c #90230C",
"L* 	c #962310",
"M* 	c #96230E",
"N* 	c #941F0B",
"O* 	c #93200B",
"P* 	c #942208",
"Q* 	c #9E2208",
"R* 	c #A22207",
"S* 	c #A02003",
"T* 	c #9D2608",
"U* 	c #902E11",
"V* 	c #863216",
"W* 	c #702913",
"X* 	c #4E1504",
"Y* 	c #43170E",
"Z* 	c #42211C",
"`* 	c #381E1F",
" = 	c #2E1E1E",
".= 	c #271D1C",
"+= 	c #130E0A",
"@= 	c #0F0C03",
"#= 	c #28241B",
"$= 	c #2B201C",
"%= 	c #2C1C1C",
"&= 	c #120806",
"*= 	c #100805",
"== 	c #251110",
"-= 	c #290C0E",
";= 	c #2C0E10",
">= 	c #2B0B0C",
",= 	c #260607",
"'= 	c #210804",
")= 	c #1D0A03",
"!= 	c #2F1E14",
"~= 	c #291308",
"{= 	c #2B0F04",
"]= 	c #38110A",
"^= 	c #390400",
"/= 	c #641C10",
"(= 	c #8E2E20",
"_= 	c #971C0D",
":= 	c #C61E11",
"<= 	c #C60E02",
"[= 	c #D7120C",
"}= 	c #D91310",
"|= 	c #D5140F",
"1= 	c #CF120C",
"2= 	c #CA120A",
"3= 	c #C40D05",
"4= 	c #B90C00",
"5= 	c #B51600",
"6= 	c #AF1900",
"7= 	c #AE1800",
"8= 	c #AD1700",
"9= 	c #AE1600",
"0= 	c #AD1500",
"a= 	c #AC1301",
"b= 	c #AC1303",
"c= 	c #AD1404",
"d= 	c #AC1406",
"e= 	c #AB1507",
"f= 	c #A91507",
"g= 	c #A81607",
"h= 	c #B01206",
"i= 	c #B31104",
"j= 	c #B51203",
"k= 	c #B81204",
"l= 	c #B91303",
"m= 	c #BA1404",
"n= 	c #B71604",
"o= 	c #AC1502",
"p= 	c #A61804",
"q= 	c #A11A04",
"r= 	c #971F06",
"s= 	c #961F07",
"t= 	c #9B210A",
"u= 	c #9A2009",
"v= 	c #991C08",
"w= 	c #991A07",
"x= 	c #9E1F0E",
"y= 	c #A12211",
"z= 	c #A42212",
"A= 	c #A82314",
"B= 	c #AB2212",
"C= 	c #AC1E10",
"D= 	c #AD190B",
"E= 	c #B21609",
"F= 	c #B81609",
"G= 	c #C4190F",
"H= 	c #C82013",
"I= 	c #B81D0B",
"J= 	c #B31E08",
"K= 	c #AE1E06",
"L= 	c #A91D02",
"M= 	c #A51D03",
"N= 	c #A32002",
"O= 	c #A12104",
"P= 	c #9F2405",
"Q= 	c #9C2304",
"R= 	c #9A230B",
"S= 	c #E90504",
"T= 	c #DF0400",
"U= 	c #D60200",
"V= 	c #CD0200",
"W= 	c #C80600",
"X= 	c #C50600",
"Y= 	c #C20700",
"Z= 	c #C20A00",
"`= 	c #C20A02",
" - 	c #C30E03",
".- 	c #C21107",
"+- 	c #C21109",
"@- 	c #C51009",
"#- 	c #C60D08",
"$- 	c #C80805",
"%- 	c #D20B08",
"&- 	c #DF0D0C",
"*- 	c #E70B0D",
"=- 	c #EC0609",
"-- 	c #F00106",
";- 	c #F40107",
">- 	c #FA0709",
",- 	c #FF0207",
"'- 	c #FF0206",
")- 	c #FF0409",
"!- 	c #F30302",
"~- 	c #F00502",
"{- 	c #F10603",
"]- 	c #F30503",
"^- 	c #E90B08",
"/- 	c #E10C08",
"(- 	c #D90905",
"_- 	c #D40903",
":- 	c #CE0702",
"<- 	c #D00501",
"[- 	c #D20200",
"}- 	c #D70101",
"|- 	c #E60002",
"1- 	c #EE0405",
"2- 	c #F20404",
"3- 	c #FC0000",
"4- 	c #F80000",
"5- 	c #FF0101",
"6- 	c #FD0505",
"7- 	c #FC0405",
"8- 	c #FD0305",
"9- 	c #FC0307",
"0- 	c #FA0407",
"a- 	c #FA050A",
"b- 	c #F7070A",
"c- 	c #F1070A",
"d- 	c #D20700",
"e- 	c #CC0B02",
"f- 	c #C70F03",
"g- 	c #BD1103",
"h- 	c #B40D00",
"i- 	c #B31000",
"j- 	c #B41203",
"k- 	c #B31303",
"l- 	c #B01304",
"m- 	c #A81505",
"n- 	c #AC1B0A",
"o- 	c #AA1906",
"p- 	c #A51701",
"q- 	c #A51700",
"r- 	c #A91901",
"s- 	c #AB1B01",
"t- 	c #AD1D03",
"u- 	c #AB1900",
"v- 	c #AF1A02",
"w- 	c #B11902",
"x- 	c #B41801",
"y- 	c #BC1703",
"z- 	c #C51A08",
"A- 	c #CB1708",
"B- 	c #CC1205",
"C- 	c #D3140A",
"D- 	c #D21309",
"E- 	c #CB130B",
"F- 	c #B71007",
"G- 	c #AA1103",
"H- 	c #A41203",
"I- 	c #991802",
"J- 	c #971B03",
"K- 	c #941A02",
"L- 	c #921A01",
"M- 	c #931F06",
"N- 	c #8F2005",
"O- 	c #902106",
"P- 	c #98260E",
"Q- 	c #99250E",
"R- 	c #95200C",
"S- 	c #9B230A",
"T- 	c #9F2309",
"U- 	c #A11F05",
"V- 	c #9E2508",
"W- 	c #982B0E",
"X- 	c #853117",
"Y- 	c #6B2712",
"Z- 	c #491102",
"`- 	c #431811",
" ; 	c #43211F",
".; 	c #371E21",
"+; 	c #2D1D1E",
"@; 	c #241A19",
"#; 	c #0F0A06",
"$; 	c #0E0B04",
"%; 	c #2A261D",
"&; 	c #2A1F1D",
"*; 	c #261211",
"=; 	c #2B0D0F",
"-; 	c #290B0B",
";; 	c #250707",
">; 	c #220603",
",; 	c #220905",
"'; 	c #1C0E05",
"); 	c #1F1209",
"!; 	c #2E1C12",
"~; 	c #261207",
"{; 	c #290D02",
"]; 	c #391109",
"^; 	c #3B0500",
"/; 	c #681E13",
"(; 	c #923224",
"_; 	c #981D0E",
":; 	c #CA2013",
"<; 	c #C80E02",
"[; 	c #D51008",
"}; 	c #DC130C",
"|; 	c #DE1410",
"1; 	c #DA1310",
"2; 	c #D6130F",
"3; 	c #D5140D",
"4; 	c #D01109",
"5; 	c #C11201",
"6; 	c #BD1400",
"7; 	c #BC1300",
"8; 	c #BB1200",
"9; 	c #BA1100",
"0; 	c #B80E00",
"a; 	c #B60F00",
"b; 	c #B50D00",
"c; 	c #B30D00",
"d; 	c #B20E02",
"e; 	c #B01002",
"f; 	c #AE1004",
"g; 	c #AB1306",
"h; 	c #B71103",
"i; 	c #B81003",
"j; 	c #BC1203",
"k; 	c #BF1305",
"l; 	c #C01406",
"m; 	c #B51201",
"n; 	c #AF1400",
"o; 	c #AA1501",
"p; 	c #A31803",
"q; 	c #9D1B03",
"r; 	c #981E06",
"s; 	c #962308",
"t; 	c #972107",
"u; 	c #981E07",
"v; 	c #9A1D07",
"w; 	c #9F200D",
"x; 	c #A52411",
"y; 	c #B12516",
"z; 	c #B02111",
"A; 	c #B4160A",
"B; 	c #BB1509",
"C; 	c #C4180C",
"D; 	c #CB1A10",
"E; 	c #CB1F11",
"F; 	c #BA1F0B",
"G; 	c #B22007",
"H; 	c #AC1F04",
"I; 	c #A21F01",
"J; 	c #A12202",
"K; 	c #9F2403",
"L; 	c #9C2402",
"M; 	c #9A2303",
"N; 	c #992305",
"O; 	c #9A240A",
"P; 	c #F70305",
"Q; 	c #E10602",
"R; 	c #DA0602",
"S; 	c #CF0A02",
"T; 	c #CD0C03",
"U; 	c #CC1007",
"V; 	c #CA0F06",
"W; 	c #C80D04",
"X; 	c #C60B02",
"Y; 	c #C40902",
"Z; 	c #C11102",
"`; 	c #C01408",
" > 	c #C80D06",
".> 	c #CE0805",
"+> 	c #D60604",
"@> 	c #DF0506",
"#> 	c #EA0407",
"$> 	c #F30409",
"%> 	c #F80109",
"&> 	c #FA0107",
"*> 	c #F70303",
"=> 	c #F80302",
"-> 	c #FE0003",
";> 	c #FE0002",
">> 	c #FF0004",
",> 	c #F70503",
"'> 	c #F70504",
")> 	c #EA0907",
"!> 	c #E10A07",
"~> 	c #DB0703",
"{> 	c #D40500",
"]> 	c #D00300",
"^> 	c #D60201",
"/> 	c #ED0306",
"(> 	c #FE0104",
"_> 	c #F80509",
":> 	c #F10909",
"<> 	c #EB0B0B",
"[> 	c #E20E0A",
"}> 	c #D80F07",
"|> 	c #C70D01",
"1> 	c #C10D00",
"2> 	c #BD1000",
"3> 	c #BC1201",
"4> 	c #B81202",
"5> 	c #B41102",
"6> 	c #B01000",
"7> 	c #AE1203",
"8> 	c #B01A09",
"9> 	c #AC1907",
"0> 	c #A81704",
"a> 	c #A61800",
"b> 	c #A71B02",
"c> 	c #A71B00",
"d> 	c #A61A01",
"e> 	c #A81B00",
"f> 	c #AC1A01",
"g> 	c #B71602",
"h> 	c #BE1403",
"i> 	c #C51404",
"j> 	c #CD1306",
"k> 	c #D01107",
"l> 	c #CD150D",
"m> 	c #C41309",
"n> 	c #B60F06",
"o> 	c #A80F01",
"p> 	c #A31102",
"q> 	c #9F1604",
"r> 	c #9A1802",
"s> 	c #9A1A01",
"t> 	c #991B02",
"u> 	c #981C02",
"v> 	c #961E05",
"w> 	c #951F05",
"x> 	c #952207",
"y> 	c #982109",
"z> 	c #98210B",
"A> 	c #952309",
"B> 	c #9A220A",
"C> 	c #9B230B",
"D> 	c #A0220B",
"E> 	c #A5210A",
"F> 	c #A31F08",
"G> 	c #98260C",
"H> 	c #8F2D12",
"I> 	c #7E2A12",
"J> 	c #611D0A",
"K> 	c #4A1205",
"L> 	c #451A14",
"M> 	c #452322",
"N> 	c #331A1D",
"O> 	c #2C1C1F",
"P> 	c #211515",
"Q> 	c #0F0704",
"R> 	c #19140E",
"S> 	c #2C251D",
"T> 	c #251716",
"U> 	c #261B19",
"V> 	c #180D0B",
"W> 	c #110906",
"X> 	c #0F0503",
"Y> 	c #150706",
"Z> 	c #1D0F0E",
"`> 	c #221212",
" , 	c #271312",
"., 	c #240A0B",
"+, 	c #240709",
"@, 	c #210502",
"#, 	c #1B0300",
"$, 	c #180500",
"%, 	c #23150C",
"&, 	c #1D0F06",
"*, 	c #1C0F06",
"=, 	c #332218",
"-, 	c #2F1D13",
";, 	c #1F0B00",
">, 	c #381008",
",, 	c #400700",
"', 	c #6A1D13",
"), 	c #8D2B1E",
"!, 	c #96180A",
"~, 	c #C71B0F",
"{, 	c #CD1307",
"], 	c #D61108",
"^, 	c #DE130D",
"/, 	c #E01511",
"(, 	c #DF1410",
"_, 	c #D9120D",
":, 	c #D6110B",
"<, 	c #D8130D",
"[, 	c #D9170E",
"}, 	c #CE0E01",
"|, 	c #CC0E00",
"1, 	c #CA0C00",
"2, 	c #C70C00",
"3, 	c #C70B00",
"4, 	c #C60C00",
"5, 	c #C30D00",
"6, 	c #BC0B01",
"7, 	c #B80C00",
"8, 	c #B20C00",
"9, 	c #AE0C00",
"0, 	c #AD0D01",
"a, 	c #AA0E01",
"b, 	c #AC0E02",
"c, 	c #B50F03",
"d, 	c #B90F02",
"e, 	c #BC1004",
"f, 	c #BF1204",
"g, 	c #C31306",
"h, 	c #C41204",
"i, 	c #C11404",
"j, 	c #B61503",
"k, 	c #B11602",
"l, 	c #A91803",
"m, 	c #A41C06",
"n, 	c #A11F07",
"o, 	c #9E220A",
"p, 	c #9C240B",
"q, 	c #9A2207",
"r, 	c #9A2408",
"s, 	c #A0220C",
"t, 	c #A72410",
"u, 	c #AD2412",
"v, 	c #B62415",
"w, 	c #AF1709",
"x, 	c #BD150A",
"y, 	c #C6150B",
"z, 	c #CD180D",
"A, 	c #CC140A",
"B, 	c #BB0B00",
"C, 	c #AE1300",
"D, 	c #AF2207",
"E, 	c #B12409",
"F, 	c #A81E01",
"G, 	c #A62404",
"H, 	c #A62505",
"I, 	c #9D2100",
"J, 	c #9F2402",
"K, 	c #982100",
"L, 	c #962100",
"M, 	c #E40402",
"N, 	c #D60701",
"O, 	c #D30A03",
"P, 	c #D10C04",
"Q, 	c #CF0E07",
"R, 	c #C60B04",
"S, 	c #C40E03",
"T, 	c #C21002",
"U, 	c #BF1202",
"V, 	c #BE1405",
"W, 	c #BF1309",
"X, 	c #C11008",
"Y, 	c #CB0A05",
"Z, 	c #D30804",
"`, 	c #DD0604",
" ' 	c #E90506",
".' 	c #F80207",
"+' 	c #F80203",
"@' 	c #FD0001",
"#' 	c #FF0103",
"$' 	c #F90403",
"%' 	c #F90304",
"&' 	c #F90507",
"*' 	c #D90200",
"=' 	c #DF0001",
"-' 	c #E50102",
";' 	c #EC0205",
">' 	c #F00406",
",' 	c #F40606",
"'' 	c #FE0005",
")' 	c #FD0005",
"!' 	c #FA0409",
"~' 	c #F00A0C",
"{' 	c #E80D0B",
"]' 	c #DF0E09",
"^' 	c #D70E06",
"/' 	c #CA0E03",
"(' 	c #C00E00",
"_' 	c #BE0E01",
":' 	c #BA0E00",
"<' 	c #B60E01",
"[' 	c #B41004",
"}' 	c #B31305",
"|' 	c #B41809",
"1' 	c #A51900",
"2' 	c #A61C00",
"3' 	c #A31B01",
"4' 	c #A61C02",
"5' 	c #A81A02",
"6' 	c #AC1700",
"7' 	c #AF1300",
"8' 	c #B51000",
"9' 	c #BB0E00",
"0' 	c #C90D02",
"a' 	c #C81109",
"b' 	c #A41505",
"c' 	c #A21907",
"d' 	c #9D1602",
"e' 	c #9C1801",
"f' 	c #9C1A02",
"g' 	c #9C1C03",
"h' 	c #991D03",
"i' 	c #971E03",
"j' 	c #971F04",
"k' 	c #982005",
"l' 	c #972105",
"m' 	c #982208",
"n' 	c #A7200C",
"o' 	c #9A2810",
"p' 	c #902C15",
"q' 	c #7D2813",
"r' 	c #611C0C",
"s' 	c #491307",
"t' 	c #491D1A",
"u' 	c #452526",
"v' 	c #351C20",
"w' 	c #2F1C20",
"x' 	c #1E1711",
"y' 	c #2E251E",
"z' 	c #261815",
"A' 	c #2D1F1E",
"B' 	c #241917",
"C' 	c #1E100F",
"D' 	c #241414",
"E' 	c #251515",
"F' 	c #271513",
"G' 	c #240C0C",
"H' 	c #23090A",
"I' 	c #260A09",
"J' 	c #250908",
"K' 	c #1D0501",
"L' 	c #190600",
"M' 	c #201209",
"N' 	c #342319",
"O' 	c #2D1B11",
"P' 	c #200A00",
"Q' 	c #2D0F05",
"R' 	c #390C06",
"S' 	c #420600",
"T' 	c #6C1E12",
"U' 	c #902C1D",
"V' 	c #97190A",
"W' 	c #AB1506",
"X' 	c #C71D0E",
"Y' 	c #DC130B",
"Z' 	c #DF140E",
"`' 	c #DA100C",
" ) 	c #D71009",
".) 	c #D9120B",
"+) 	c #DE150D",
"@) 	c #DB0F08",
"#) 	c #DD0C05",
"$) 	c #DA0B03",
"%) 	c #D70B02",
"&) 	c #D60C02",
"*) 	c #D50C04",
"=) 	c #D20D04",
"-) 	c #BC0C00",
";) 	c #B40C00",
">) 	c #B40E02",
",) 	c #C71104",
"') 	c #C91105",
")) 	c #CA1305",
"!) 	c #C91204",
"~) 	c #C81204",
"{) 	c #C41504",
"]) 	c #BF1504",
"^) 	c #B91603",
"/) 	c #B41905",
"() 	c #AF1A06",
"_) 	c #A91C08",
":) 	c #A61E08",
"<) 	c #A22008",
"[) 	c #9E2206",
"}) 	c #9D2407",
"|) 	c #A4230D",
"1) 	c #AC2511",
"2) 	c #B32413",
"3) 	c #B82012",
"4) 	c #B61407",
"5) 	c #BC1107",
"6) 	c #CA1208",
"7) 	c #CF1006",
"8) 	c #BE0A00",
"9) 	c #AE2106",
"0) 	c #B12408",
"a) 	c #AA1F02",
"b) 	c #A71D00",
"c) 	c #A92405",
"d) 	c #A82604",
"e) 	c #A22300",
"f) 	c #A32705",
"g) 	c #9E2301",
"h) 	c #9B2301",
"i) 	c #9C2505",
"j) 	c #9D2709",
"k) 	c #F40405",
"l) 	c #EE0403",
"m) 	c #E80401",
"n) 	c #D90A04",
"o) 	c #D60D05",
"p) 	c #D20D05",
"q) 	c #CD0E04",
"r) 	c #C90D04",
"s) 	c #C70C03",
"t) 	c #C70F05",
"u) 	c #C71106",
"v) 	c #C01303",
"w) 	c #BB1507",
"x) 	c #BA1406",
"y) 	c #BD1105",
"z) 	c #C80B05",
"A) 	c #DC0604",
"B) 	c #F70302",
"C) 	c #FD0000",
"D) 	c #FE0000",
"E) 	c #FC0204",
"F) 	c #FF0205",
"G) 	c #E20401",
"H) 	c #DD0400",
"I) 	c #DA0300",
"J) 	c #DD0301",
"K) 	c #E10302",
"L) 	c #E80405",
"M) 	c #F20308",
"N) 	c #F60605",
"O) 	c #F80604",
"P) 	c #FA0300",
"Q) 	c #FE0308",
"R) 	c #FA0608",
"S) 	c #F4080A",
"T) 	c #ED0C0A",
"U) 	c #E70E09",
"V) 	c #DF0E07",
"W) 	c #DA0E07",
"X) 	c #CB0D01",
"Y) 	c #CA0E02",
"Z) 	c #BE1206",
"`) 	c #BD1508",
" ! 	c #B71506",
".! 	c #B11604",
"+! 	c #A31D00",
"@! 	c #A21A00",
"#! 	c #A81800",
"$! 	c #AA1400",
"%! 	c #B01100",
"&! 	c #BE0E00",
"*! 	c #C40E01",
"=! 	c #C61108",
"-! 	c #B61409",
";! 	c #9E1502",
">! 	c #9F1603",
",! 	c #A01903",
"'! 	c #A01C03",
")! 	c #9D1D02",
"!! 	c #9A1D01",
"~! 	c #991D01",
"{! 	c #981F02",
"]! 	c #972002",
"^! 	c #9D230C",
"/! 	c #A81F0D",
"(! 	c #A22310",
"_! 	c #9C2914",
":! 	c #8F2C17",
"<! 	c #792614",
"[! 	c #5F1B0E",
"}! 	c #4A130C",
"|! 	c #4B2220",
"1! 	c #452729",
"2! 	c #331D20",
"3! 	c #201212",
"4! 	c #120904",
"5! 	c #221912",
"6! 	c #281A17",
"7! 	c #2B1B1B",
"8! 	c #291B1A",
"9! 	c #170C0A",
"0! 	c #170908",
"a! 	c #201211",
"b! 	c #261616",
"c! 	c #271717",
"d! 	c #261714",
"e! 	c #251311",
"f! 	c #230E0D",
"g! 	c #230B0B",
"h! 	c #1F0703",
"i! 	c #1B0801",
"j! 	c #1A0C03",
"k! 	c #25170E",
"l! 	c #36251B",
"m! 	c #2B170E",
"n! 	c #210900",
"o! 	c #321108",
"p! 	c #380903",
"q! 	c #450600",
"r! 	c #6F1F14",
"s! 	c #922C1E",
"t! 	c #98190A",
"u! 	c #AD1708",
"v! 	c #C91F10",
"w! 	c #CB1406",
"x! 	c #D31308",
"y! 	c #D9130A",
"z! 	c #D81209",
"A! 	c #D60F08",
"B! 	c #D51007",
"C! 	c #D8130A",
"D! 	c #E40F0B",
"E! 	c #E70C0A",
"F! 	c #E60B09",
"G! 	c #E50C07",
"H! 	c #E20B06",
"I! 	c #E10C06",
"J! 	c #E00D06",
"K! 	c #DD110A",
"L! 	c #D91008",
"M! 	c #D10F06",
"N! 	c #C50F04",
"O! 	c #BF1106",
"P! 	c #C11104",
"Q! 	c #D11106",
"R! 	c #D21207",
"S! 	c #D31105",
"T! 	c #D11104",
"U! 	c #D01204",
"V! 	c #CF1506",
"W! 	c #CB1706",
"X! 	c #C51807",
"Y! 	c #C21807",
"Z! 	c #BC1908",
"`! 	c #B61908",
" ~ 	c #B21907",
".~ 	c #AD1A06",
"+~ 	c #A91E07",
"@~ 	c #A72106",
"#~ 	c #A52206",
"$~ 	c #A52108",
"%~ 	c #AA220C",
"&~ 	c #B1230F",
"*~ 	c #B92211",
"=~ 	c #BA180B",
"-~ 	c #CE130A",
";~ 	c #CE0F05",
">~ 	c #D10F05",
",~ 	c #B31701",
"'~ 	c #B02006",
")~ 	c #B12107",
"!~ 	c #AB1E03",
"~~ 	c #A91E01",
"{~ 	c #AC2205",
"]~ 	c #AB2404",
"^~ 	c #A82302",
"/~ 	c #A82606",
"(~ 	c #A32403",
"_~ 	c #A02303",
":~ 	c #A02708",
"<~ 	c #A0290B",
"[~ 	c #EC0402",
"}~ 	c #E60503",
"|~ 	c #E00B07",
"1~ 	c #DB0C06",
"2~ 	c #D40D06",
"3~ 	c #C60E04",
"4~ 	c #C91409",
"5~ 	c #C31304",
"6~ 	c #B71405",
"7~ 	c #C40C02",
"8~ 	c #CF0801",
"9~ 	c #DA0603",
"0~ 	c #F00607",
"a~ 	c #F60307",
"b~ 	c #FF0105",
"c~ 	c #F30505",
"d~ 	c #E90502",
"e~ 	c #E30504",
"f~ 	c #E50505",
"g~ 	c #EE0407",
"h~ 	c #F90504",
"i~ 	c #F80403",
"j~ 	c #F20A0A",
"k~ 	c #EC0B09",
"l~ 	c #E70C08",
"m~ 	c #E30C09",
"n~ 	c #DA0E05",
"o~ 	c #D80F05",
"p~ 	c #D61007",
"q~ 	c #D21006",
"r~ 	c #CF0E05",
"s~ 	c #CB1007",
"t~ 	c #C9120A",
"u~ 	c #C7160C",
"v~ 	c #BB1306",
"w~ 	c #B51304",
"x~ 	c #AF1402",
"y~ 	c #A11E02",
"z~ 	c #9D1900",
"A~ 	c #A31B03",
"B~ 	c #AB1902",
"C~ 	c #B91804",
"D~ 	c #C61607",
"E~ 	c #C7170A",
"F~ 	c #BE1609",
"G~ 	c #A31706",
"H~ 	c #A21503",
"I~ 	c #A31604",
"J~ 	c #A41906",
"K~ 	c #A31B05",
"L~ 	c #A41C04",
"M~ 	c #982103",
"N~ 	c #982206",
"O~ 	c #992109",
"P~ 	c #96240A",
"Q~ 	c #98240B",
"R~ 	c #9C240C",
"S~ 	c #A81F0F",
"T~ 	c #A42514",
"U~ 	c #9C2B19",
"V~ 	c #8D2C19",
"W~ 	c #752413",
"X~ 	c #5D1B0F",
"Y~ 	c #491710",
"Z~ 	c #4A2423",
"`~ 	c #412426",
" { 	c #301C1E",
".{ 	c #29191A",
"+{ 	c #110602",
"@{ 	c #241B12",
"#{ 	c #2D231A",
"${ 	c #2A1C19",
"%{ 	c #2A1A1A",
"&{ 	c #1D1210",
"*{ 	c #160B09",
"={ 	c #291919",
"-{ 	c #251714",
";{ 	c #221310",
">{ 	c #210D0C",
",{ 	c #200B0A",
"'{ 	c #240A09",
"){ 	c #1C0902",
"!{ 	c #1B0D04",
"~{ 	c #2B1D14",
"{{ 	c #38261C",
"]{ 	c #28140B",
"^{ 	c #240900",
"/{ 	c #36140B",
"({ 	c #380501",
"_{ 	c #490600",
":{ 	c #732116",
"<{ 	c #932B1E",
"[{ 	c #AD1A08",
"}{ 	c #C92210",
"|{ 	c #C91504",
"1{ 	c #D31507",
"2{ 	c #D51307",
"3{ 	c #D71209",
"4{ 	c #D41407",
"5{ 	c #DB150A",
"6{ 	c #EA0A0A",
"7{ 	c #EB090A",
"8{ 	c #EB0A08",
"9{ 	c #E90907",
"0{ 	c #E50A04",
"a{ 	c #E8110C",
"b{ 	c #E4110A",
"c{ 	c #DD1108",
"d{ 	c #D71108",
"e{ 	c #CF1308",
"f{ 	c #CE1408",
"g{ 	c #D40F06",
"h{ 	c #DA1006",
"i{ 	c #DB1107",
"j{ 	c #DC1208",
"k{ 	c #DB1105",
"l{ 	c #DA1004",
"m{ 	c #D81001",
"n{ 	c #D81406",
"o{ 	c #D51506",
"p{ 	c #D21708",
"q{ 	c #CF180A",
"r{ 	c #CC180A",
"s{ 	c #C71708",
"t{ 	c #C31608",
"u{ 	c #BE1707",
"v{ 	c #B71A07",
"w{ 	c #B31C07",
"x{ 	c #B21D07",
"y{ 	c #AF1F07",
"z{ 	c #AE1D08",
"A{ 	c #AF1C08",
"B{ 	c #B51C0C",
"C{ 	c #BC1A0B",
"D{ 	c #CD1108",
"E{ 	c #D5140B",
"F{ 	c #D30E05",
"G{ 	c #D41004",
"H{ 	c #D61206",
"I{ 	c #C71000",
"J{ 	c #B21D05",
"K{ 	c #B11C04",
"L{ 	c #AE1D02",
"M{ 	c #AF1E03",
"N{ 	c #AF2002",
"O{ 	c #AB2001",
"P{ 	c #AB2104",
"Q{ 	c #A52001",
"R{ 	c #A52606",
"S{ 	c #A4270B",
"T{ 	c #F80404",
"U{ 	c #EC0404",
"V{ 	c #E80403",
"W{ 	c #E50A08",
"X{ 	c #D70C06",
"Y{ 	c #C50F02",
"Z{ 	c #C71509",
"`{ 	c #C61204",
" ] 	c #BF1403",
".] 	c #BB1404",
"+] 	c #B70F02",
"@] 	c #BC0F01",
"#] 	c #CD0800",
"$] 	c #D80703",
"%] 	c #E50706",
"&] 	c #F60402",
"*] 	c #F70400",
"=] 	c #FC0106",
"-] 	c #FF0107",
";] 	c #FD0207",
">] 	c #F20704",
",] 	c #F00703",
"'] 	c #E90804",
")] 	c #EC0807",
"!] 	c #FA0202",
"~] 	c #F10708",
"{] 	c #E60F0A",
"]] 	c #E41108",
"^] 	c #E00F08",
"/] 	c #A11E00",
"(] 	c #A01F02",
"_] 	c #9C1A00",
":] 	c #9F1B02",
"<] 	c #A11D04",
"[] 	c #AA1E05",
"}] 	c #B01E07",
"|] 	c #B91E08",
"1] 	c #BF1E0A",
"2] 	c #C61F0F",
"3] 	c #C61C0D",
"4] 	c #C0180B",
"5] 	c #B91607",
"6] 	c #AF1306",
"7] 	c #A81203",
"8] 	c #A11504",
"9] 	c #A61A03",
"0] 	c #9F1C00",
"a] 	c #992003",
"b] 	c #A1220F",
"c] 	c #A82012",
"d] 	c #A62014",
"e] 	c #A22717",
"f] 	c #9C2D1C",
"g] 	c #872A19",
"h] 	c #6E2013",
"i] 	c #561A0F",
"j] 	c #4A1B15",
"k] 	c #462422",
"l] 	c #3A2124",
"m] 	c #2D1A1C",
"n] 	c #271919",
"o] 	c #150A08",
"p] 	c #110801",
"q] 	c #292116",
"r] 	c #2B1D1A",
"s] 	c #241615",
"t] 	c #1B100E",
"u] 	c #211612",
"v] 	c #1F110E",
"w] 	c #1D0B09",
"x] 	c #1C0807",
"y] 	c #200806",
"z] 	c #210907",
"A] 	c #200804",
"B] 	c #1D0803",
"C] 	c #180700",
"D] 	c #322119",
"E] 	c #38241B",
"F] 	c #29120A",
"G] 	c #260901",
"H] 	c #3A130C",
"I] 	c #390200",
"J] 	c #4D0602",
"K] 	c #792219",
"L] 	c #C82512",
"M] 	c #C71604",
"N] 	c #CF1808",
"O] 	c #D21706",
"P] 	c #D21406",
"Q] 	c #D11305",
"R] 	c #CE1304",
"S] 	c #CD1304",
"T] 	c #D61408",
"U] 	c #DF0B08",
"V] 	c #E70809",
"W] 	c #E9090A",
"X] 	c #EC0805",
"Y] 	c #E90802",
"Z] 	c #EA0B06",
"`] 	c #E70C06",
" ^ 	c #E30D05",
".^ 	c #E10E05",
"+^ 	c #DE0F07",
"@^ 	c #DB1009",
"#^ 	c #DB120A",
"$^ 	c #DC110A",
"%^ 	c #E10E07",
"&^ 	c #E50C05",
"*^ 	c #E60D06",
"=^ 	c #E50F05",
"-^ 	c #E30F04",
";^ 	c #E20E03",
">^ 	c #E10F02",
",^ 	c #DF0F03",
"'^ 	c #DD1204",
")^ 	c #DE1305",
"!^ 	c #DC1407",
"~^ 	c #DC1309",
"{^ 	c #D7120A",
"]^ 	c #D31209",
"^^ 	c #C91306",
"/^ 	c #C41707",
"(^ 	c #BB1805",
"_^ 	c #B81705",
":^ 	c #C01207",
"<^ 	c #C80901",
"[^ 	c #D5100A",
"}^ 	c #DB140D",
"|^ 	c #D71307",
"1^ 	c #D8160A",
"2^ 	c #CD1807",
"3^ 	c #BF1A07",
"4^ 	c #B61B07",
"5^ 	c #B51A04",
"6^ 	c #B61B05",
"7^ 	c #B61C04",
"8^ 	c #B31901",
"9^ 	c #B01800",
"0^ 	c #B01A01",
"a^ 	c #AE1A00",
"b^ 	c #A91900",
"c^ 	c #A61A00",
"d^ 	c #A82104",
"e^ 	c #A62209",
"f^ 	c #F60305",
"g^ 	c #EA0809",
"h^ 	c #E40A08",
"i^ 	c #DB0B07",
"j^ 	c #C41002",
"k^ 	c #C51508",
"l^ 	c #C61003",
"m^ 	c #BD1304",
"n^ 	c #CB0900",
"o^ 	c #D70802",
"p^ 	c #F40502",
"q^ 	c #F60400",
"r^ 	c #FB0206",
"s^ 	c #F50705",
"t^ 	c #F10804",
"u^ 	c #EE0906",
"v^ 	c #F20809",
"w^ 	c #FC0002",
"x^ 	c #FA0002",
"y^ 	c #F90004",
"z^ 	c #F40508",
"A^ 	c #ED0E09",
"B^ 	c #E90E08",
"C^ 	c #E00904",
"D^ 	c #D50803",
"E^ 	c #D30C07",
"F^ 	c #CF1008",
"G^ 	c #AE1503",
"H^ 	c #9F1E01",
"I^ 	c #9F1D03",
"J^ 	c #A01E06",
"K^ 	c #A41C02",
"L^ 	c #A91B03",
"M^ 	c #BC1B09",
"N^ 	c #BB1807",
"O^ 	c #A71404",
"P^ 	c #A21605",
"Q^ 	c #A71305",
"R^ 	c #A51902",
"S^ 	c #A21C01",
"T^ 	c #9C2004",
"U^ 	c #9B2205",
"V^ 	c #992106",
"W^ 	c #9E240D",
"X^ 	c #A0230F",
"Y^ 	c #A42215",
"Z^ 	c #A22819",
"`^ 	c #992E1E",
" / 	c #812818",
"./ 	c #661D0E",
"+/ 	c #52190E",
"@/ 	c #491E17",
"#/ 	c #422422",
"$/ 	c #351F21",
"%/ 	c #2A1A1B",
"&/ 	c #251919",
"*/ 	c #130C04",
"=/ 	c #2F271C",
"-/ 	c #2D251A",
";/ 	c #2C1E1B",
">/ 	c #130806",
",/ 	c #0D0301",
"'/ 	c #110705",
")/ 	c #190B0A",
"!/ 	c #1E1510",
"~/ 	c #1A110C",
"{/ 	c #190A07",
"]/ 	c #190705",
"^/ 	c #1C0704",
"// 	c #1F0705",
"(/ 	c #1C0702",
"_/ 	c #23120A",
":/ 	c #36231C",
"</ 	c #291009",
"[/ 	c #290C04",
"}/ 	c #3A110B",
"|/ 	c #3B0100",
"1/ 	c #520805",
"2/ 	c #7D241C",
"3/ 	c #942A1D",
"4/ 	c #951607",
"5/ 	c #AE1D0A",
"6/ 	c #C82713",
"7/ 	c #C41804",
"8/ 	c #D01B08",
"9/ 	c #D01907",
"0/ 	c #D01607",
"a/ 	c #CD1606",
"b/ 	c #CB1605",
"c/ 	c #CB1603",
"d/ 	c #CA1703",
"e/ 	c #CF1405",
"f/ 	c #E3090A",
"g/ 	c #E60A0C",
"h/ 	c #E90A0B",
"i/ 	c #EB0A06",
"j/ 	c #ED0803",
"k/ 	c #E90600",
"l/ 	c #E70600",
"m/ 	c #E80902",
"n/ 	c #E80B03",
"o/ 	c #E40D08",
"p/ 	c #E30C07",
"q/ 	c #E90A05",
"r/ 	c #EE0904",
"s/ 	c #EE0B05",
"t/ 	c #EF0C05",
"u/ 	c #ED0D05",
"v/ 	c #EB0C04",
"w/ 	c #E90C03",
"x/ 	c #E60C02",
"y/ 	c #E60E03",
"z/ 	c #E60D04",
"A/ 	c #E70E05",
"B/ 	c #E80F08",
"C/ 	c #E80F0A",
"D/ 	c #E80E0C",
"E/ 	c #DA0F08",
"F/ 	c #D41208",
"G/ 	c #CA1407",
"H/ 	c #C41206",
"I/ 	c #C40F06",
"J/ 	c #C90801",
"K/ 	c #CE0700",
"L/ 	c #DA0F09",
"M/ 	c #DF140D",
"N/ 	c #D91006",
"O/ 	c #D91B0B",
"P/ 	c #D11C0B",
"Q/ 	c #C31908",
"R/ 	c #B91806",
"S/ 	c #B91605",
"T/ 	c #BE1B08",
"U/ 	c #B81802",
"V/ 	c #B51500",
"W/ 	c #B61701",
"X/ 	c #B21600",
"Y/ 	c #AC1400",
"Z/ 	c #AA1500",
"`/ 	c #AA1E07",
" ( 	c #F60202",
".( 	c #EE080A",
"+( 	c #DD0C08",
"@( 	c #D30C05",
"#( 	c #C11406",
"$( 	c #C90F02",
"%( 	c #C51103",
"&( 	c #B91202",
"*( 	c #CA0800",
"=( 	c #F40500",
"-( 	c #F90306",
";( 	c #FF0109",
">( 	c #FC0404",
",( 	c #F60704",
"'( 	c #F40603",
")( 	c #FC0300",
"!( 	c #F60500",
"~( 	c #FA0004",
"{( 	c #F50609",
"]( 	c #F20A08",
"^( 	c #EA0905",
"/( 	c #DB0704",
"(( 	c #D70C08",
"_( 	c #D0150E",
":( 	c #BB1505",
"<( 	c #B21703",
"[( 	c #A01E04",
"}( 	c #9E1B00",
"|( 	c #A21800",
"1( 	c #A71700",
"2( 	c #AB1600",
"3( 	c #B01503",
"4( 	c #A91805",
"5( 	c #A41706",
"6( 	c #A91305",
"7( 	c #A81204",
"8( 	c #A51401",
"9( 	c #A41A00",
"0( 	c #98250A",
"a( 	c #9D250D",
"b( 	c #A52315",
"c( 	c #A22418",
"d( 	c #9F291B",
"e( 	c #942D1E",
"f( 	c #7B2514",
"g( 	c #5E190A",
"h( 	c #4D190E",
"i( 	c #48211A",
"j( 	c #3D2120",
"k( 	c #2D1B1B",
"l( 	c #241818",
"m( 	c #221A18",
"n( 	c #100903",
"o( 	c #130F04",
"p( 	c #312B1D",
"q( 	c #2D2518",
"r( 	c #2D201A",
"s( 	c #120705",
"t( 	c #0C0200",
"u( 	c #221413",
"v( 	c #18110B",
"w( 	c #170906",
"x( 	c #160704",
"y( 	c #1A0703",
"z( 	c #1D0805",
"A( 	c #190800",
"B( 	c #27160E",
"C( 	c #37241D",
"D( 	c #351E16",
"E( 	c #2C110A",
"F( 	c #2C0E06",
"G( 	c #370E08",
"H( 	c #3E0201",
"I( 	c #560B08",
"J( 	c #80261E",
"K( 	c #94281C",
"L( 	c #931405",
"M( 	c #C92814",
"N( 	c #C31804",
"O( 	c #CE1D09",
"P( 	c #CD1908",
"Q( 	c #CC1807",
"R( 	c #C91804",
"S( 	c #C81703",
"T( 	c #C61702",
"U( 	c #CA1303",
"V( 	c #DB090A",
"W( 	c #E10B0B",
"X( 	c #E30C0A",
"Y( 	c #EC0702",
"Z( 	c #EC0500",
"`( 	c #EE0701",
" _ 	c #EE0903",
"._ 	c #F00B06",
"+_ 	c #EE0D07",
"@_ 	c #EB0C07",
"#_ 	c #E80A05",
"$_ 	c #F30804",
"%_ 	c #F20904",
"&_ 	c #F10A02",
"*_ 	c #EE0A01",
"=_ 	c #EC0900",
"-_ 	c #ED0A01",
";_ 	c #F20807",
">_ 	c #F3090A",
",_ 	c #E40F09",
"'_ 	c #E1120C",
")_ 	c #DA140B",
"!_ 	c #D20F09",
"~_ 	c #D20804",
"{_ 	c #DC0C08",
"]_ 	c #DE120B",
"^_ 	c #D61506",
"/_ 	c #D71C0B",
"(_ 	c #D01B0A",
"__ 	c #C51808",
":_ 	c #C71D0C",
"<_ 	c #C91F0E",
"[_ 	c #BE1502",
"}_ 	c #BD1804",
"|_ 	c #B81601",
"1_ 	c #B21300",
"2_ 	c #AC1905",
"3_ 	c #E30A05",
"4_ 	c #D90A02",
"5_ 	c #C40E00",
"6_ 	c #C41001",
"7_ 	c #C80E00",
"8_ 	c #C50F01",
"9_ 	c #C01001",
"0_ 	c #BC1002",
"a_ 	c #C00B00",
"b_ 	c #CD0600",
"c_ 	c #D70601",
"d_ 	c #F60403",
"e_ 	c #FF0100",
"f_ 	c #FF0300",
"g_ 	c #FE0501",
"h_ 	c #F90608",
"i_ 	c #F30A06",
"j_ 	c #EF0A05",
"k_ 	c #E70602",
"l_ 	c #DF0805",
"m_ 	c #D5160E",
"n_ 	c #CB160B",
"o_ 	c #C01607",
"p_ 	c #B61704",
"q_ 	c #AE1903",
"r_ 	c #A01D01",
"s_ 	c #9D1B01",
"t_ 	c #9C1800",
"u_ 	c #9E1800",
"v_ 	c #A61400",
"w_ 	c #AD1603",
"x_ 	c #AF1C0A",
"y_ 	c #AB1D09",
"z_ 	c #AB1105",
"A_ 	c #A91002",
"B_ 	c #A70F01",
"C_ 	c #A61000",
"D_ 	c #A61301",
"E_ 	c #A61802",
"F_ 	c #A42007",
"G_ 	c #A02209",
"H_ 	c #9C2308",
"I_ 	c #9B240C",
"J_ 	c #9C250D",
"K_ 	c #9D240F",
"L_ 	c #A02515",
"M_ 	c #9E2618",
"N_ 	c #992B1C",
"O_ 	c #732518",
"P_ 	c #57190E",
"Q_ 	c #481911",
"R_ 	c #46231F",
"S_ 	c #371D1C",
"T_ 	c #281616",
"U_ 	c #201815",
"V_ 	c #0B0600",
"W_ 	c #120E03",
"X_ 	c #2E2C1D",
"Y_ 	c #2A2418",
"Z_ 	c #1C110F",
"`_ 	c #110604",
" : 	c #0B0100",
".: 	c #150B09",
"+: 	c #170D0B",
"@: 	c #231514",
"#: 	c #231512",
"$: 	c #150A06",
"%: 	c #160702",
"&: 	c #1C0903",
"*: 	c #1B0A02",
"=: 	c #2A1911",
"-: 	c #37251B",
";: 	c #331C14",
">: 	c #2D1008",
",: 	c #300F08",
"': 	c #380D07",
"): 	c #580D0A",
"!: 	c #83261F",
"~: 	c #95261B",
"{: 	c #941202",
"]: 	c #CA2A14",
"^: 	c #C31902",
"/: 	c #D11E0A",
"(: 	c #D21B09",
"_: 	c #D11A0A",
":: 	c #CE1908",
"<: 	c #CB1A08",
"[: 	c #BC1A01",
"}: 	c #BD1701",
"|: 	c #CE0D08",
"1: 	c #D40D08",
"2: 	c #D90E08",
"3: 	c #DD0E08",
"4: 	c #E30A03",
"5: 	c #E50800",
"6: 	c #E90A03",
"7: 	c #ED0C06",
"8: 	c #F00F09",
"9: 	c #F2110B",
"0: 	c #F1120B",
"a: 	c #EE0F08",
"b: 	c #EA0C07",
"c: 	c #EF0802",
"d: 	c #F00903",
"e: 	c #F20902",
"f: 	c #F10801",
"g: 	c #F10700",
"h: 	c #F30902",
"i: 	c #F50802",
"j: 	c #F50603",
"k: 	c #F70708",
"l: 	c #F30908",
"m: 	c #F00C09",
"n: 	c #EE100D",
"o: 	c #E3120D",
"p: 	c #DD120C",
"q: 	c #DF100A",
"r: 	c #D70E04",
"s: 	c #D81809",
"t: 	c #CE1707",
"u: 	c #CD1D10",
"v: 	c #D22012",
"w: 	c #C61406",
"x: 	c #C61909",
"y: 	c #B61300",
"z: 	c #AF1805",
"A: 	c #F00501",
"B: 	c #EA0500",
"C: 	c #E00C01",
"D: 	c #DC0E01",
"E: 	c #D60E00",
"F: 	c #CF0E00",
"G: 	c #CA0F00",
"H: 	c #C71100",
"I: 	c #C60F00",
"J: 	c #C40F00",
"K: 	c #C90A02",
"L: 	c #D60602",
"M: 	c #EB0505",
"N: 	c #F60300",
"O: 	c #FE0200",
"P: 	c #F90200",
"Q: 	c #FD0400",
"R: 	c #F90500",
"S: 	c #F80500",
"T: 	c #F70600",
"U: 	c #F40600",
"V: 	c #F30600",
"W: 	c #EF0602",
"X: 	c #EB0802",
"Y: 	c #E70803",
"Z: 	c #E60803",
"`: 	c #E10A05",
" < 	c #D8160D",
".< 	c #CE160A",
"+< 	c #C31606",
"@< 	c #B71401",
"#< 	c #A31900",
"$< 	c #A31D04",
"%< 	c #A21E05",
"&< 	c #A61B06",
"*< 	c #AD1F0B",
"=< 	c #AC1B08",
"-< 	c #AC1605",
";< 	c #AB0E00",
">< 	c #AF0D00",
",< 	c #B00E01",
"'< 	c #AA0E00",
")< 	c #A91000",
"!< 	c #AB1A05",
"~< 	c #A91E09",
"{< 	c #A61F09",
"]< 	c #A31F0A",
"^< 	c #A1200A",
"/< 	c #9E2009",
"(< 	c #9C2409",
"_< 	c #9B250B",
":< 	c #9D250C",
"<< 	c #99250C",
"[< 	c #9B270E",
"}< 	c #9C2A10",
"|< 	c #9D2B11",
"1< 	c #9D2D17",
"2< 	c #992E1A",
"3< 	c #923120",
"4< 	c #7E2A1F",
"5< 	c #621D16",
"6< 	c #521D19",
"7< 	c #4A211F",
"8< 	c #3E1E1F",
"9< 	c #321A1A",
"0< 	c #241210",
"a< 	c #1D140F",
"b< 	c #060000",
"c< 	c #110F03",
"d< 	c #28281C",
"e< 	c #231F14",
"f< 	c #281D19",
"g< 	c #2B1C19",
"h< 	c #1C110D",
"i< 	c #140905",
"j< 	c #0F0601",
"k< 	c #0D0600",
"l< 	c #0E0701",
"m< 	c #150C07",
"n< 	c #19100B",
"o< 	c #271815",
"p< 	c #291B18",
"q< 	c #261B17",
"r< 	c #1D120C",
"s< 	c #160903",
"t< 	c #130400",
"u< 	c #170900",
"v< 	c #180B02",
"w< 	c #150900",
"x< 	c #26180D",
"y< 	c #3A281C",
"z< 	c #351D13",
"A< 	c #2A0C02",
"B< 	c #300B03",
"C< 	c #3C0F0A",
"D< 	c #3A0300",
"E< 	c #5C1511",
"F< 	c #892C25",
"G< 	c #8C1A10",
"H< 	c #900B00",
"I< 	c #B11A07",
"J< 	c #C11F08",
"K< 	c #CA1C04",
"L< 	c #DB220E",
"M< 	c #DD1E0C",
"N< 	c #DE1A0C",
"O< 	c #D8180B",
"P< 	c #CE1A09",
"Q< 	c #C01E09",
"R< 	c #B22207",
"S< 	c #B02308",
"T< 	c #B81906",
"U< 	c #C21205",
"V< 	c #C71305",
"W< 	c #D80E04",
"X< 	c #DF0F05",
"Y< 	c #E6130A",
"Z< 	c #E21208",
"`< 	c #DD0F02",
" [ 	c #DA0F01",
".[ 	c #DE1002",
"+[ 	c #E51306",
"@[ 	c #E81207",
"#[ 	c #ED0E06",
"$[ 	c #EF0A04",
"%[ 	c #F20703",
"&[ 	c #FA0504",
"*[ 	c #F90706",
"=[ 	c #F10803",
"-[ 	c #ED0802",
";[ 	c #E80E05",
">[ 	c #EA140C",
",[ 	c #EE1913",
"'[ 	c #E5100A",
")[ 	c #D90501",
"![ 	c #D60500",
"~[ 	c #E51912",
"{[ 	c #DD140C",
"][ 	c #DE1E13",
"^[ 	c #F03E30",
"/[ 	c #E83B2B",
"([ 	c #E02C1E",
"_[ 	c #D1190D",
":[ 	c #D21108",
"<[ 	c #D4150B",
"[[ 	c #CF170D",
"}[ 	c #CC1C0F",
"|[ 	c #BD1707",
"1[ 	c #B41502",
"2[ 	c #B21705",
"3[ 	c #B11806",
"4[ 	c #F50300",
"5[ 	c #EF0500",
"6[ 	c #EB0700",
"7[ 	c #E80A00",
"8[ 	c #E40C00",
"9[ 	c #DF0B00",
"0[ 	c #D90C00",
"a[ 	c #D20D00",
"b[ 	c #CE0D00",
"c[ 	c #CD0C00",
"d[ 	c #D10602",
"e[ 	c #D60403",
"f[ 	c #DC0503",
"g[ 	c #EA0607",
"h[ 	c #F80400",
"i[ 	c #FB0400",
"j[ 	c #E80703",
"k[ 	c #E40903",
"l[ 	c #DE0D06",
"m[ 	c #D10B02",
"n[ 	c #B61501",
"o[ 	c #B01801",
"p[ 	c #AC1A03",
"q[ 	c #AC1C04",
"r[ 	c #A41E03",
"s[ 	c #A31F06",
"t[ 	c #A21A04",
"u[ 	c #A91B07",
"v[ 	c #AB1A07",
"w[ 	c #AC1001",
"x[ 	c #B10E00",
"y[ 	c #B61002",
"z[ 	c #B31001",
"A[ 	c #B10F02",
"B[ 	c #B01908",
"C[ 	c #AA1D0B",
"D[ 	c #A61D0A",
"E[ 	c #A51E0A",
"F[ 	c #A21E09",
"G[ 	c #A11F09",
"H[ 	c #A01F09",
"I[ 	c #9B2207",
"J[ 	c #9D2409",
"K[ 	c #9D230B",
"L[ 	c #9B290F",
"M[ 	c #9A2B10",
"N[ 	c #992D13",
"O[ 	c #943018",
"P[ 	c #8E3321",
"Q[ 	c #7A2C20",
"R[ 	c #5F201B",
"S[ 	c #4D1D1B",
"T[ 	c #411D1D",
"U[ 	c #36191B",
"V[ 	c #281312",
"W[ 	c #2A1816",
"X[ 	c #22150F",
"Y[ 	c #130802",
"Z[ 	c #0E0700",
"`[ 	c #1C180D",
" } 	c #24241A",
".} 	c #242017",
"+} 	c #271C18",
"@} 	c #281916",
"#} 	c #211310",
"$} 	c #190E0A",
"%} 	c #130804",
"&} 	c #0E0500",
"*} 	c #0C0500",
"=} 	c #0B0400",
"-} 	c #0F0802",
";} 	c #110A04",
">} 	c #180F0A",
",} 	c #1E100D",
"'} 	c #221411",
")} 	c #281B15",
"!} 	c #1E130D",
"~} 	c #180902",
"{} 	c #140500",
"]} 	c #170A01",
"^} 	c #190D01",
"/} 	c #160C00",
"(} 	c #291B0E",
"_} 	c #3B291D",
":} 	c #341C10",
"<} 	c #310A03",
"[} 	c #3A0D08",
"}} 	c #3D0603",
"|} 	c #601613",
"1} 	c #8B2C26",
"2} 	c #911B11",
"3} 	c #960A00",
"4} 	c #C51F07",
"5} 	c #CF1C05",
"6} 	c #DA1D09",
"7} 	c #DE1908",
"8} 	c #E01409",
"9} 	c #DA1409",
"0} 	c #CE1709",
"a} 	c #BF1D08",
"b} 	c #AE2407",
"c} 	c #AB2508",
"d} 	c #AE1901",
"e} 	c #B51603",
"f} 	c #BE1705",
"g} 	c #C91507",
"h} 	c #CC0E02",
"i} 	c #D10F03",
"j} 	c #D81207",
"k} 	c #DB1208",
"l} 	c #DE1609",
"m} 	c #DD1508",
"n} 	c #D71303",
"o} 	c #D41503",
"p} 	c #D71805",
"q} 	c #DD1807",
"r} 	c #E41608",
"s} 	c #EE0E06",
"t} 	c #F40B06",
"u} 	c #F80906",
"v} 	c #F90705",
"w} 	c #F70501",
"x} 	c #F60702",
"y} 	c #F40701",
"z} 	c #EE0B04",
"A} 	c #ED1008",
"B} 	c #EE150C",
"C} 	c #E40E06",
"D} 	c #DC0701",
"E} 	c #E61612",
"F} 	c #E3130F",
"G} 	c #E0100C",
"H} 	c #DB160E",
"I} 	c #DF2E1E",
"J} 	c #DA2D1C",
"K} 	c #DA2417",
"L} 	c #D5190E",
"M} 	c #D7150C",
"N} 	c #DC170F",
"O} 	c #D91610",
"P} 	c #D2160D",
"Q} 	c #CB190F",
"R} 	c #B51505",
"S} 	c #B31806",
"T} 	c #B31708",
"U} 	c #F20300",
"V} 	c #EF0600",
"W} 	c #E90B00",
"X} 	c #E50B00",
"Y} 	c #E30B00",
"Z} 	c #DF0900",
"`} 	c #DE0800",
" | 	c #DC0700",
".| 	c #DA0500",
"+| 	c #D80300",
"@| 	c #D70100",
"#| 	c #D80001",
"$| 	c #DC0203",
"%| 	c #E10205",
"&| 	c #E70205",
"*| 	c #ED0407",
"=| 	c #F60201",
"-| 	c #F70201",
";| 	c #EE0500",
">| 	c #ED0501",
",| 	c #E80904",
"'| 	c #D00A00",
")| 	c #CB0F03",
"!| 	c #C71304",
"~| 	c #C21705",
"{| 	c #BC1A05",
"]| 	c #BA1B06",
"^| 	c #A91C01",
"/| 	c #A81C03",
"(| 	c #A81E04",
"_| 	c #A91F05",
":| 	c #A91D04",
"<| 	c #AC1B06",
"[| 	c #B01705",
"}| 	c #AF0F00",
"|| 	c #BC1205",
"1| 	c #B61608",
"2| 	c #A91C0A",
"3| 	c #A81D0A",
"4| 	c #A51C09",
"5| 	c #A41D09",
"6| 	c #A02007",
"7| 	c #9D260E",
"8| 	c #9A2C13",
"9| 	c #97311A",
"0| 	c #8B3220",
"a| 	c #762A1D",
"b| 	c #5C2018",
"c| 	c #481B18",
"d| 	c #3A1817",
"e| 	c #2E1616",
"f| 	c #291715",
"g| 	c #1D100A",
"h| 	c #0A0000",
"i| 	c #170E07",
"j| 	c #241D15",
"k| 	c #231E18",
"l| 	c #29221C",
"m| 	c #1D0F0C",
"n| 	c #160B07",
"o| 	c #100702",
"p| 	c #140B06",
"q| 	c #170E09",
"r| 	c #190A03",
"s| 	c #150600",
"t| 	c #1C0B03",
"u| 	c #1A0E02",
"v| 	c #1A1004",
"w| 	c #2D1F12",
"x| 	c #331B0F",
"y| 	c #2B0D03",
"z| 	c #320B04",
"A| 	c #3A0B05",
"B| 	c #420804",
"C| 	c #621712",
"D| 	c #8F2C26",
"E| 	c #951B10",
"F| 	c #990A00",
"G| 	c #B81703",
"H| 	c #CA1E08",
"I| 	c #D41E08",
"J| 	c #DB1B06",
"K| 	c #E01707",
"L| 	c #DC1005",
"M| 	c #B21E02",
"N| 	c #AD2004",
"O| 	c #B31400",
"P| 	c #BC1704",
"Q| 	c #C11706",
"R| 	c #C21505",
"S| 	c #C40D00",
"T| 	c #CB1001",
"U| 	c #D31306",
"V| 	c #D21004",
"W| 	c #D41304",
"X| 	c #D71607",
"Y| 	c #D81708",
"Z| 	c #D51604",
"`| 	c #D41704",
" 1 	c #D61905",
".1 	c #DC1907",
"+1 	c #EA1006",
"@1 	c #F00D06",
"#1 	c #F50C07",
"$1 	c #FA0605",
"%1 	c #FA0806",
"&1 	c #F80501",
"*1 	c #F80602",
"=1 	c #ED0A03",
"-1 	c #EC0D06",
";1 	c #EA1007",
">1 	c #E10801",
",1 	c #DF0A04",
"'1 	c #E1100B",
")1 	c #E5140F",
"!1 	c #E1100C",
"~1 	c #D50E07",
"{1 	c #C31605",
"]1 	c #C91506",
"^1 	c #D11509",
"/1 	c #DB1910",
"(1 	c #E21D15",
"_1 	c #DE1D14",
":1 	c #D51B0F",
"<1 	c #CB190D",
"[1 	c #C21809",
"}1 	c #BA1809",
"|1 	c #B81B0A",
"11 	c #ED0503",
"21 	c #E90303",
"31 	c #E70101",
"41 	c #E10001",
"51 	c #E10003",
"61 	c #E20002",
"71 	c #E40004",
"81 	c #E90004",
"91 	c #EE0107",
"01 	c #F80308",
"a1 	c #F50301",
"b1 	c #FA0001",
"c1 	c #F90101",
"d1 	c #ED0805",
"e1 	c #D91308",
"f1 	c #D4160A",
"g1 	c #CD1709",
"h1 	c #C81908",
"i1 	c #C31807",
"j1 	c #BE1906",
"k1 	c #B71803",
"l1 	c #B41A02",
"m1 	c #AF1901",
"n1 	c #AB1B03",
"o1 	c #AE1C05",
"p1 	c #B01B05",
"q1 	c #B01904",
"r1 	c #B31804",
"s1 	c #B41706",
"t1 	c #B41404",
"u1 	c #B50F01",
"v1 	c #BF1307",
"w1 	c #BC1407",
"x1 	c #B91509",
"y1 	c #B71709",
"z1 	c #AF190A",
"A1 	c #AB1A09",
"B1 	c #A81B09",
"C1 	c #A71C09",
"D1 	c #A21E07",
"E1 	c #9E240C",
"F1 	c #9D2D15",
"G1 	c #9A341D",
"H1 	c #882F1D",
"I1 	c #6E2417",
"J1 	c #581F16",
"K1 	c #441815",
"L1 	c #331513",
"M1 	c #2A1615",
"N1 	c #332522",
"O1 	c #2C211D",
"P1 	c #1C110B",
"Q1 	c #120902",
"R1 	c #180F08",
"S1 	c #211813",
"T1 	c #251E18",
"U1 	c #2B221D",
"V1 	c #251613",
"W1 	c #1A0C09",
"X1 	c #130A05",
"Y1 	c #160D08",
"Z1 	c #271A14",
"`1 	c #20130D",
" 2 	c #1A0B04",
".2 	c #190801",
"+2 	c #1D0C04",
"@2 	c #1C1004",
"#2 	c #211509",
"$2 	c #322417",
"%2 	c #33180D",
"&2 	c #2D0C03",
"*2 	c #450A04",
"=2 	c #651611",
"-2 	c #912A23",
";2 	c #981A0E",
">2 	c #9D0900",
",2 	c #CE1E07",
"'2 	c #D91F08",
")2 	c #E11C09",
"!2 	c #E61908",
"~2 	c #E81208",
"{2 	c #E20F06",
"]2 	c #D50F04",
"^2 	c #C61201",
"/2 	c #B61800",
"(2 	c #B41500",
"_2 	c #B51400",
":2 	c #BC1503",
"<2 	c #BE1100",
"[2 	c #BF1000",
"}2 	c #C41000",
"|2 	c #C81302",
"12 	c #C91202",
"22 	c #CA1001",
"32 	c #CC1100",
"42 	c #D31505",
"52 	c #D51707",
"62 	c #D11603",
"72 	c #D01502",
"82 	c #D21803",
"92 	c #D61704",
"02 	c #D91604",
"a2 	c #DD1203",
"b2 	c #E21003",
"c2 	c #E70F04",
"d2 	c #EC0D05",
"e2 	c #F00702",
"f2 	c #F70803",
"g2 	c #F40A03",
"h2 	c #F10A04",
"i2 	c #E70A02",
"j2 	c #DC0300",
"k2 	c #E10B03",
"l2 	c #E30E08",
"m2 	c #E30F0B",
"n2 	c #E5110D",
"o2 	c #E61510",
"p2 	c #E4100D",
"q2 	c #BF0B00",
"r2 	c #B80B00",
"s2 	c #C80E01",
"t2 	c #D7180E",
"u2 	c #CF1509",
"v2 	c #C8160A",
"w2 	c #BA1A0A",
"x2 	c #B91909",
"y2 	c #F50601",
"z2 	c #F50206",
"A2 	c #F20205",
"B2 	c #EC0004",
"C2 	c #EB0004",
"D2 	c #EC0005",
"E2 	c #EF0006",
"F2 	c #F30209",
"G2 	c #F30F0C",
"H2 	c #EC110B",
"I2 	c #D51105",
"J2 	c #CF1103",
"K2 	c #C21906",
"L2 	c #BC1A03",
"M2 	c #B91903",
"N2 	c #B11700",
"O2 	c #B11600",
"P2 	c #B01400",
"Q2 	c #B51200",
"R2 	c #B71101",
"S2 	c #B51507",
"T2 	c #B01707",
"U2 	c #AE1807",
"V2 	c #AC1909",
"W2 	c #A71C07",
"X2 	c #A41D07",
"Y2 	c #9D2109",
"Z2 	c #9F230B",
"`2 	c #A0240C",
" 3 	c #A0230D",
".3 	c #A1230D",
"+3 	c #A13119",
"@3 	c #9C3820",
"#3 	c #832C19",
"$3 	c #651D0F",
"%3 	c #521C12",
"&3 	c #3F1813",
"*3 	c #2F1612",
"=3 	c #2C1D18",
"-3 	c #362D28",
";3 	c #221B15",
">3 	c #1D120E",
",3 	c #2B201E",
"'3 	c #2F201D",
")3 	c #160805",
"!3 	c #120B05",
"~3 	c #241613",
"{3 	c #271916",
"]3 	c #251812",
"^3 	c #1B0C05",
"/3 	c #1A0902",
"(3 	c #1D1105",
"_3 	c #261A0E",
":3 	c #35271A",
"<3 	c #372519",
"[3 	c #2E1308",
"}3 	c #340D06",
"|3 	c #380702",
"13 	c #480C04",
"23 	c #64140B",
"33 	c #90251D",
"43 	c #9A180B",
"53 	c #A20A00",
"63 	c #C11805",
"73 	c #D01D06",
"83 	c #DB1D05",
"93 	c #E51C08",
"03 	c #EA1809",
"a3 	c #EC1209",
"b3 	c #DD0E04",
"c3 	c #D01202",
"d3 	c #C11700",
"e3 	c #B91901",
"f3 	c #B61400",
"g3 	c #B51300",
"h3 	c #B81300",
"i3 	c #B91400",
"j3 	c #BB1401",
"k3 	c #BC1502",
"l3 	c #BD1200",
"m3 	c #C11501",
"n3 	c #C21300",
"o3 	c #C30F00",
"p3 	c #C61100",
"q3 	c #CC1503",
"r3 	c #CE1705",
"s3 	c #CD1702",
"t3 	c #D01702",
"u3 	c #D51603",
"v3 	c #D61301",
"w3 	c #D91101",
"x3 	c #E50D02",
"y3 	c #E90A02",
"z3 	c #F60805",
"A3 	c #F70805",
"B3 	c #F40905",
"C3 	c #F30A05",
"D3 	c #E80701",
"E3 	c #E40500",
"F3 	c #E20902",
"G3 	c #E50E09",
"H3 	c #E5100C",
"I3 	c #E91511",
"J3 	c #E7120E",
"K3 	c #D70C05",
"L3 	c #C31403",
"M3 	c #CD0F03",
"N3 	c #CF1105",
"O3 	c #C50E00",
"P3 	c #BD1805",
"Q3 	c #FB0508",
"R3 	c #F20107",
"S3 	c #F10006",
"T3 	c #F30208",
"U3 	c #F90409",
"V3 	c #FD0408",
"W3 	c #EE0A07",
"X3 	c #DF0A02",
"Y3 	c #D40B01",
"Z3 	c #D10C03",
"`3 	c #C71805",
" 4 	c #C21904",
".4 	c #BE1802",
"+4 	c #BC1600",
"@4 	c #B71500",
"#4 	c #B71701",
"$4 	c #BB1603",
"%4 	c #BE1302",
"&4 	c #C61408",
"*4 	c #C31105",
"=4 	c #BD1306",
"-4 	c #B61304",
";4 	c #B51306",
">4 	c #AF1807",
",4 	c #AE1809",
"'4 	c #A81B07",
")4 	c #9F1F06",
"!4 	c #9D1F08",
"~4 	c #9F220C",
"{4 	c #A4230E",
"]4 	c #A1240E",
"^4 	c #9B3920",
"/4 	c #7C2713",
"(4 	c #5A1707",
"_4 	c #4C1A0F",
":4 	c #3B1A11",
"<4 	c #2C1712",
"[4 	c #2E231D",
"}4 	c #2C2721",
"|4 	c #17120C",
"14 	c #28231D",
"24 	c #3A332D",
"34 	c #251A16",
"44 	c #2F2121",
"54 	c #281819",
"64 	c #1E0F0C",
"74 	c #120401",
"84 	c #100501",
"94 	c #20120F",
"04 	c #231610",
"a4 	c #1F120C",
"b4 	c #1E1206",
"c4 	c #2A1E12",
"d4 	c #39291C",
"e4 	c #352116",
"f4 	c #290E03",
"g4 	c #360D07",
"h4 	c #370600",
"i4 	c #4B0C03",
"j4 	c #641207",
"k4 	c #8D2117",
"l4 	c #9A1609",
"m4 	c #A90D00",
"n4 	c #D31F08",
"o4 	c #DA1C04",
"p4 	c #E21905",
"q4 	c #E81406",
"r4 	c #ED1007",
"s4 	c #E31007",
"t4 	c #D91507",
"u4 	c #CE1B07",
"v4 	c #C31D07",
"w4 	c #BF1A06",
"x4 	c #BA1501",
"y4 	c #B71200",
"z4 	c #B91702",
"A4 	c #BB1904",
"B4 	c #BB1600",
"C4 	c #C11602",
"D4 	c #C01400",
"E4 	c #C41300",
"F4 	c #CB1804",
"G4 	c #CD1A06",
"H4 	c #CC1704",
"I4 	c #CF1A05",
"J4 	c #D11B05",
"K4 	c #D21C06",
"L4 	c #D41B06",
"M4 	c #D31904",
"N4 	c #D41502",
"O4 	c #D71402",
"P4 	c #DA1202",
"Q4 	c #DF1103",
"R4 	c #E30F03",
"S4 	c #E70D03",
"T4 	c #EC0C04",
"U4 	c #F50704",
"V4 	c #E80500",
"W4 	c #E30200",
"X4 	c #DE0000",
"Y4 	c #E30802",
"Z4 	c #EA1310",
"`4 	c #E8110E",
" 5 	c #D51B0E",
".5 	c #C70D00",
"+5 	c #CD1105",
"@5 	c #CE1407",
"#5 	c #C91808",
"$5 	c #C71C0B",
"%5 	c #C31C0A",
"&5 	c #FC0402",
"*5 	c #EF0703",
"=5 	c #EA0903",
"-5 	c #E60C03",
";5 	c #E10C04",
">5 	c #DD0D03",
",5 	c #D30F03",
"'5 	c #C91403",
")5 	c #C21600",
"!5 	c #C01600",
"~5 	c #BE1400",
"{5 	c #BF1903",
"]5 	c #C11A07",
"^5 	c #C51C09",
"/5 	c #C61908",
"(5 	c #C71807",
"_5 	c #C81707",
":5 	c #CB1A0A",
"<5 	c #CD1B0D",
"[5 	c #BE1005",
"}5 	c #B21504",
"|5 	c #991F07",
"15 	c #9E210B",
"25 	c #A5240F",
"35 	c #A22811",
"45 	c #9C2E15",
"55 	c #97371F",
"65 	c #752210",
"75 	c #531101",
"85 	c #491B0E",
"95 	c #371B10",
"05 	c #291811",
"a5 	c #2F2820",
"b5 	c #28251E",
"c5 	c #22221A",
"d5 	c #2F2822",
"e5 	c #301D1F",
"f5 	c #2A1719",
"g5 	c #1C0D0A",
"h5 	c #110300",
"i5 	c #0F0400",
"j5 	c #0C0300",
"k5 	c #231411",
"l5 	c #21140E",
"m5 	c #1E110B",
"n5 	c #1A0700",
"o5 	c #2C2014",
"p5 	c #3A2A1D",
"q5 	c #311D12",
"r5 	c #250A00",
"s5 	c #2C0B02",
"t5 	c #380F09",
"u5 	c #4E1005",
"v5 	c #621002",
"w5 	c #8A1E11",
"x5 	c #9C1708",
"y5 	c #AF1201",
"z5 	c #CD210D",
"A5 	c #D7210B",
"B5 	c #E01904",
"C5 	c #E71506",
"D5 	c #EB1107",
"E5 	c #E61207",
"F5 	c #DF1708",
"G5 	c #D51C08",
"H5 	c #CF1F08",
"I5 	c #CA1E0A",
"J5 	c #C11803",
"K5 	c #BC1701",
"L5 	c #BB1902",
"M5 	c #BD1B04",
"N5 	c #C11C06",
"O5 	c #C21C06",
"P5 	c #C51905",
"Q5 	c #CA1B08",
"R5 	c #CC1B07",
"S5 	c #D01D07",
"T5 	c #D21F09",
"U5 	c #D3200A",
"V5 	c #D11C07",
"W5 	c #CF1904",
"X5 	c #D01703",
"Y5 	c #D21502",
"Z5 	c #D81706",
"`5 	c #DD1305",
" 6 	c #E11105",
".6 	c #EC0B05",
"+6 	c #F00804",
"@6 	c #E90400",
"#6 	c #E40100",
"$6 	c #E60500",
"%6 	c #E90B06",
"&6 	c #E90E0A",
"*6 	c #E2110A",
"=6 	c #CC1203",
"-6 	c #D11607",
";6 	c #D41A0B",
">6 	c #D62110",
",6 	c #CE1D0B",
"'6 	c #D02110",
")6 	c #CC210F",
"!6 	c #BF1805",
"~6 	c #FB0603",
"{6 	c #FF0401",
"]6 	c #FF0301",
"^6 	c #FF0403",
"/6 	c #F90400",
"(6 	c #F10E08",
"_6 	c #F0110A",
":6 	c #EB120B",
"<6 	c #E71109",
"[6 	c #E20F08",
"}6 	c #CA1100",
"|6 	c #C11200",
"16 	c #C81B0A",
"26 	c #C91A09",
"36 	c #CD190A",
"46 	c #CD1C0C",
"56 	c #C01003",
"66 	c #AF1606",
"76 	c #9C220B",
"86 	c #A32610",
"96 	c #A12A14",
"06 	c #942A12",
"a6 	c #91351E",
"b6 	c #6E210D",
"c6 	c #4D0F00",
"d6 	c #451B0F",
"e6 	c #361B12",
"f6 	c #251810",
"g6 	c #2D2920",
"h6 	c #2A2A22",
"i6 	c #36362E",
"j6 	c #2C2922",
"k6 	c #1A130D",
"l6 	c #2D181D",
"m6 	c #2E1A1C",
"n6 	c #1D0E0B",
"o6 	c #130502",
"p6 	c #150E08",
"q6 	c #1E0F0A",
"r6 	c #1C0B04",
"s6 	c #1F1106",
"t6 	c #2E2015",
"u6 	c #2E1A0F",
"v6 	c #220700",
"w6 	c #2C0A01",
"x6 	c #380700",
"y6 	c #501205",
"z6 	c #621100",
"A6 	c #891E0E",
"B6 	c #9D1807",
"C6 	c #B31603",
"D6 	c #D1250F",
"E6 	c #D8240B",
"F6 	c #D91D04",
"G6 	c #E01C06",
"H6 	c #E51805",
"I6 	c #E91308",
"J6 	c #EA1207",
"K6 	c #DF1507",
"L6 	c #D71A06",
"M6 	c #D11D06",
"N6 	c #D01D09",
"O6 	c #C81906",
"P6 	c #C11B05",
"Q6 	c #C41F09",
"R6 	c #C51F09",
"S6 	c #C51C07",
"T6 	c #C71C08",
"U6 	c #CB1F0B",
"V6 	c #CD1E09",
"W6 	c #D02009",
"X6 	c #D2220B",
"Y6 	c #D1230B",
"Z6 	c #CE2008",
"`6 	c #C91902",
" 7 	c #CA1701",
".7 	c #D31A06",
"+7 	c #D71806",
"@7 	c #DD1506",
"#7 	c #E31005",
"$7 	c #E70D04",
"%7 	c #ED0A04",
"&7 	c #F30502",
"*7 	c #EB0300",
"=7 	c #E50000",
"-7 	c #EB0A04",
";7 	c #EC0B07",
">7 	c #EC0D08",
",7 	c #E6110B",
"'7 	c #D91509",
")7 	c #D01506",
"!7 	c #D31809",
"~7 	c #CF1B0A",
"{7 	c #D01F0D",
"]7 	c #CD1E0B",
"^7 	c #BF1402",
"/7 	c #F60100",
"(7 	c #F40300",
"_7 	c #F50400",
":7 	c #F30400",
"<7 	c #F10400",
"[7 	c #F50600",
"}7 	c #FF0604",
"|7 	c #FF0504",
"17 	c #FE0405",
"27 	c #FE0607",
"37 	c #F80904",
"47 	c #F60C03",
"57 	c #F20A00",
"67 	c #EF0700",
"77 	c #EE0600",
"87 	c #F00600",
"97 	c #F20600",
"07 	c #FB0000",
"a7 	c #FA0000",
"b7 	c #F70907",
"c7 	c #F30B07",
"d7 	c #F00D07",
"e7 	c #E0140B",
"f7 	c #C81500",
"g7 	c #C61300",
"h7 	c #C51400",
"i7 	c #C81904",
"j7 	c #BF1300",
"k7 	c #C51605",
"l7 	c #C71606",
"m7 	c #B81506",
"n7 	c #B81607",
"o7 	c #AD1000",
"p7 	c #AE1704",
"q7 	c #AE1905",
"r7 	c #AE200C",
"s7 	c #A61905",
"t7 	c #A51E08",
"u7 	c #A32109",
"v7 	c #9E260E",
"w7 	c #9F2D15",
"x7 	c #98341C",
"y7 	c #7E2811",
"z7 	c #651C09",
"A7 	c #4E1607",
"B7 	c #3C1609",
"C7 	c #3B251A",
"D7 	c #392F26",
"E7 	c #2E2B22",
"F7 	c #27271D",
"G7 	c #313127",
"H7 	c #231F16",
"I7 	c #2B161B",
"J7 	c #2B1719",
"K7 	c #271515",
"L7 	c #1B0C09",
"M7 	c #160F09",
"N7 	c #241512",
"O7 	c #1F100D",
"P7 	c #1D0E09",
"Q7 	c #1D0C05",
"R7 	c #1E0B05",
"S7 	c #1E1007",
"T7 	c #211308",
"U7 	c #33251A",
"V7 	c #342417",
"W7 	c #260B00",
"X7 	c #2E0C03",
"Y7 	c #340B05",
"Z7 	c #3E0C03",
"`7 	c #531506",
" 8 	c #6B1A07",
".8 	c #871C0A",
"+8 	c #A11C0B",
"@8 	c #BA1D0A",
"#8 	c #CD210B",
"$8 	c #D7250B",
"%8 	c #DA2208",
"&8 	c #E0220A",
"*8 	c #E51E09",
"=8 	c #E9190C",
"-8 	c #EB170B",
";8 	c #E9160B",
">8 	c #E3190B",
",8 	c #DC1D0A",
"'8 	c #D81F0A",
")8 	c #D41D0B",
"!8 	c #CD1805",
"~8 	c #CC1905",
"{8 	c #CA1B06",
"]8 	c #C81C06",
"^8 	c #C41B04",
"/8 	c #C21902",
"(8 	c #C31D05",
"_8 	c #C51C05",
":8 	c #C61D08",
"<8 	c #C91E0A",
"[8 	c #C91D09",
"}8 	c #CB1F07",
"|8 	c #C81E05",
"18 	c #C51B02",
"28 	c #C31B01",
"38 	c #C61C03",
"48 	c #C81C04",
"58 	c #CE1B05",
"68 	c #D11804",
"78 	c #D71605",
"88 	c #E11608",
"98 	c #E51106",
"08 	c #F20905",
"a8 	c #F10602",
"b8 	c #EF0C06",
"c8 	c #EA110A",
"d8 	c #E2160B",
"e8 	c #D21102",
"f8 	c #CD0F00",
"g8 	c #CE1000",
"h8 	c #CD1402",
"i8 	c #CB1402",
"j8 	c #CA1502",
"k8 	c #C81501",
"l8 	c #C21100",
"m8 	c #F80700",
"n8 	c #F90800",
"o8 	c #F80A00",
"p8 	c #F60800",
"q8 	c #F60700",
"r8 	c #F90703",
"s8 	c #F10301",
"t8 	c #F00202",
"u8 	c #EE0202",
"v8 	c #F30709",
"w8 	c #F4080C",
"x8 	c #EF0909",
"y8 	c #F00A0A",
"z8 	c #EF0B0A",
"A8 	c #F6070A",
"B8 	c #F40808",
"C8 	c #EB0B03",
"D8 	c #EF0C03",
"E8 	c #EF0B02",
"F8 	c #F00901",
"G8 	c #F30900",
"H8 	c #FE0300",
"I8 	c #DE1209",
"J8 	c #CC0C00",
"K8 	c #CA1400",
"L8 	c #CC1601",
"M8 	c #CB1500",
"N8 	c #C41502",
"O8 	c #C91A07",
"P8 	c #BF1506",
"Q8 	c #B61302",
"R8 	c #B01B07",
"S8 	c #AD1C09",
"T8 	c #AC1E0A",
"U8 	c #AB1E0A",
"V8 	c #A81D08",
"W8 	c #A31C06",
"X8 	c #9B1B02",
"Y8 	c #9A1C05",
"Z8 	c #942106",
"`8 	c #9D3117",
" 9 	c #8F301A",
".9 	c #75240F",
"+9 	c #5F1C0B",
"@9 	c #4C180A",
"#9 	c #371509",
"$9 	c #321E15",
"%9 	c #332A21",
"&9 	c #2C2C22",
"*9 	c #2E2E24",
"=9 	c #1F1B12",
"-9 	c #140B04",
";9 	c #2A1618",
">9 	c #261414",
",9 	c #120703",
"'9 	c #110803",
")9 	c #140D07",
"!9 	c #1A0600",
"~9 	c #200F07",
"{9 	c #24160B",
"]9 	c #34261B",
"^9 	c #332316",
"/9 	c #271106",
"(9 	c #270B00",
"_9 	c #511203",
":9 	c #6A1705",
"<9 	c #891B0A",
"[9 	c #BC1D0A",
"}9 	c #CC200A",
"|9 	c #D22308",
"19 	c #D52005",
"29 	c #DB2108",
"39 	c #DE1E09",
"49 	c #E21909",
"59 	c #E5170A",
"69 	c #E41A0C",
"79 	c #DE1F0C",
"89 	c #DB210C",
"99 	c #D61D09",
"09 	c #D31A08",
"a9 	c #CF1806",
"b9 	c #CE1906",
"c9 	c #CB1A06",
"d9 	c #C41802",
"e9 	c #CC1E06",
"f9 	c #C91D05",
"g9 	c #C51D03",
"h9 	c #C11B01",
"i9 	c #BF1900",
"j9 	c #C11900",
"k9 	c #D01B06",
"l9 	c #D91C09",
"m9 	c #E11C0C",
"n9 	c #E7170B",
"o9 	c #E61006",
"p9 	c #EA0B04",
"q9 	c #F60B07",
"r9 	c #F40B07",
"s9 	c #F20A06",
"t9 	c #E7140B",
"u9 	c #DD1307",
"v9 	c #D61003",
"w9 	c #D21203",
"x9 	c #D01504",
"y9 	c #CE1503",
"z9 	c #C91401",
"A9 	c #C71400",
"B9 	c #FA0600",
"C9 	c #FB0700",
"D9 	c #FB0802",
"E9 	c #FA0902",
"F9 	c #F10205",
"G9 	c #EE0204",
"H9 	c #EC0809",
"I9 	c #E80A07",
"J9 	c #E80A09",
"K9 	c #E60C0A",
"L9 	c #E40E0C",
"M9 	c #E50F0D",
"N9 	c #E6120F",
"O9 	c #E5110E",
"P9 	c #E2100F",
"Q9 	c #E10F0E",
"R9 	c #E00E0F",
"S9 	c #E10F10",
"T9 	c #E30E10",
"U9 	c #E21011",
"V9 	c #E0100E",
"W9 	c #DF120F",
"X9 	c #E11411",
"Y9 	c #E31311",
"Z9 	c #E41211",
"`9 	c #E51110",
" 0 	c #E61010",
".0 	c #E60E0F",
"+0 	c #DF0B07",
"@0 	c #E91009",
"#0 	c #F20B05",
"$0 	c #FC0100",
"%0 	c #FF0200",
"&0 	c #FF0400",
"*0 	c #FF0600",
"=0 	c #E60702",
"-0 	c #DB0F06",
";0 	c #CE0A00",
">0 	c #D11303",
",0 	c #D11605",
"'0 	c #D21907",
")0 	c #CC1706",
"!0 	c #C61503",
"~0 	c #C31202",
"{0 	c #C61706",
"]0 	c #C01605",
"^0 	c #BD1604",
"/0 	c #B31200",
"(0 	c #B11200",
"_0 	c #B01302",
":0 	c #AD1804",
"<0 	c #AA1703",
"[0 	c #AA1904",
"}0 	c #A8200A",
"|0 	c #9E1701",
"10 	c #9F1802",
"20 	c #9F1D07",
"30 	c #9C1E07",
"40 	c #9A1E06",
"50 	c #922308",
"60 	c #97280D",
"70 	c #973118",
"80 	c #842E17",
"90 	c #69200D",
"00 	c #581B09",
"a0 	c #4A1A0C",
"b0 	c #36160B",
"c0 	c #2A2118",
"d0 	c #2A271E",
"e0 	c #343226",
"f0 	c #2A281C",
"g0 	c #1A1309",
"h0 	c #160D04",
"i0 	c #261913",
"j0 	c #2A1B18",
"k0 	c #21120F",
"l0 	c #1A0B08",
"m0 	c #130C06",
"n0 	c #201712",
"o0 	c #291A17",
"p0 	c #1F100B",
"q0 	c #1C0D08",
"r0 	c #1D0A04",
"s0 	c #1C0801",
"t0 	c #291B10",
"u0 	c #35271C",
"v0 	c #322215",
"w0 	c #261005",
"x0 	c #410C04",
"y0 	c #500E00",
"z0 	c #6A1501",
"A0 	c #8B1A0A",
"B0 	c #A81C0B",
"C0 	c #BD1C0A",
"D0 	c #CF1F07",
"E0 	c #D11D04",
"F0 	c #D01A02",
"G0 	c #D11702",
"H0 	c #D51101",
"I0 	c #D90F01",
"J0 	c #DC1204",
"K0 	c #DE1607",
"L0 	c #DB1C09",
"M0 	c #D91F0A",
"N0 	c #D41B07",
"O0 	c #CA1905",
"P0 	c #CB1C07",
"Q0 	c #CC1D0A",
"R0 	c #C81C08",
"S0 	c #CC210D",
"T0 	c #CF2410",
"U0 	c #C71B05",
"V0 	c #C21C04",
"W0 	c #BF1B02",
"X0 	c #BD1900",
"Y0 	c #BD1700",
"Z0 	c #C61C05",
"`0 	c #DE1D0E",
" a 	c #E51B0F",
".a 	c #ED0E07",
"+a 	c #F60F09",
"@a 	c #F80D09",
"#a 	c #F50A06",
"$a 	c #F70906",
"%a 	c #EB100A",
"&a 	c #DF1104",
"*a 	c #DA1203",
"=a 	c #D61504",
"-a 	c #CF1602",
";a 	c #CD1400",
">a 	c #CE1500",
",a 	c #CE1802",
"'a 	c #F50200",
")a 	c #F20500",
"!a 	c #EE0A09",
"~a 	c #ED0D0D",
"{a 	c #EE0E0F",
"]a 	c #ED0E11",
"^a 	c #EA0D12",
"/a 	c #E60F14",
"(a 	c #DB1111",
"_a 	c #D61311",
":a 	c #D51210",
"<a 	c #D41210",
"[a 	c #D31312",
"}a 	c #D11513",
"|a 	c #D11816",
"1a 	c #CF1916",
"2a 	c #D01A17",
"3a 	c #CC1915",
"4a 	c #C91514",
"5a 	c #C51311",
"6a 	c #C31111",
"7a 	c #C21010",
"8a 	c #C30F10",
"9a 	c #C41210",
"0a 	c #C3110F",
"aa 	c #C0110E",
"ba 	c #BF100D",
"ca 	c #BE0F0C",
"da 	c #BD0E0B",
"ea 	c #C91715",
"fa 	c #CC1615",
"ga 	c #CE1415",
"ha 	c #D01415",
"ia 	c #D01413",
"ja 	c #CF1311",
"ka 	c #D01412",
"la 	c #D21511",
"ma 	c #D31310",
"na 	c #D3100C",
"oa 	c #D60F0A",
"pa 	c #DD100B",
"qa 	c #E4100C",
"ra 	c #E60B07",
"sa 	c #F10905",
"ta 	c #EA0603",
"ua 	c #E10600",
"va 	c #DF0601",
"wa 	c #DC0902",
"xa 	c #D30A00",
"ya 	c #D20E00",
"za 	c #D41002",
"Aa 	c #D61607",
"Ba 	c #CA1504",
"Ca 	c #BC0F00",
"Da 	c #C01504",
"Ea 	c #AB1806",
"Fa 	c #A9210B",
"Ga 	c #A41703",
"Ha 	c #AD200E",
"Ia 	c #A91E0B",
"Ja 	c #9F1804",
"Ka 	c #9D1B05",
"La 	c #9F210A",
"Ma 	c #9F270E",
"Na 	c #95260B",
"Oa 	c #95270C",
"Pa 	c #912F14",
"Qa 	c #7E2D18",
"Ra 	c #5F1E0C",
"Sa 	c #501809",
"Ta 	c #471D11",
"Ua 	c #36180E",
"Va 	c #28150E",
"Wa 	c #251B12",
"Xa 	c #373328",
"Ya 	c #231F13",
"Za 	c #150D02",
"`a 	c #1B1107",
" b 	c #261C13",
".b 	c #221914",
"+b 	c #1B0C07",
"@b 	c #1B0700",
"#b 	c #211008",
"$b 	c #37261C",
"%b 	c #301E12",
"&b 	c #250F04",
"*b 	c #280C01",
"=b 	c #300E05",
"-b 	c #370C06",
";b 	c #510C00",
">b 	c #6F1402",
",b 	c #921A0C",
"'b 	c #AC1D0F",
")b 	c #C11B0B",
"!b 	c #CD1C08",
"~b 	c #CF1B04",
"{b 	c #CA1600",
"]b 	c #D10B00",
"^b 	c #D70F02",
"/b 	c #DA1505",
"(b 	c #D91A08",
"_b 	c #D71D08",
":b 	c #D11B06",
"<b 	c #D01A05",
"[b 	c #D21905",
"}b 	c #D11806",
"|b 	c #C01501",
"1b 	c #C81E07",
"2b 	c #C31A03",
"3b 	c #BF1500",
"4b 	c #C91200",
"5b 	c #DE180B",
"6b 	c #E5150B",
"7b 	c #ED140B",
"8b 	c #F20F09",
"9b 	c #F80A07",
"0b 	c #EA0F09",
"ab 	c #E01507",
"bb 	c #DB1707",
"cb 	c #D31805",
"db 	c #D51804",
"eb 	c #D51B06",
"fb 	c #D31A05",
"gb 	c #E00F0B",
"hb 	c #DE1211",
"ib 	c #DC1414",
"jb 	c #DA1618",
"kb 	c #D8171A",
"lb 	c #D6171C",
"mb 	c #D11A1E",
"nb 	c #C01616",
"ob 	c #B91714",
"pb 	c #B31410",
"qb 	c #AF120D",
"rb 	c #AA0F0B",
"sb 	c #A60E09",
"tb 	c #A20E0A",
"ub 	c #A00F0A",
"vb 	c #A2130F",
"wb 	c #9F110D",
"xb 	c #9B100D",
"yb 	c #990E0B",
"zb 	c #970B0A",
"Ab 	c #960A09",
"Bb 	c #990E09",
"Cb 	c #980D08",
"Db 	c #960D07",
"Eb 	c #960B06",
"Fb 	c #9C0E0A",
"Gb 	c #9D0F0B",
"Hb 	c #A00F0C",
"Ib 	c #A2110E",
"Jb 	c #A71110",
"Kb 	c #A91312",
"Lb 	c #AD1514",
"Mb 	c #AF1714",
"Nb 	c #B31917",
"Ob 	c #B51A16",
"Pb 	c #B31411",
"Qb 	c #B20D0B",
"Rb 	c #B80C0A",
"Sb 	c #C4110D",
"Tb 	c #D21614",
"Ub 	c #DC0F0C",
"Vb 	c #E50E0B",
"Wb 	c #EC0C0A",
"Xb 	c #F30805",
"Yb 	c #EE0604",
"Zb 	c #E00702",
"`b 	c #DC0703",
" c 	c #DC0804",
".c 	c #DA0905",
"+c 	c #DB0A05",
"@c 	c #D71106",
"#c 	c #D4180C",
"$c 	c #D3190C",
"%c 	c #CF170B",
"&c 	c #CC1609",
"*c 	c #CA180A",
"=c 	c #CB1B0C",
"-c 	c #C81809",
";c 	c #BC1505",
">c 	c #B71403",
",c 	c #B81504",
"'c 	c #B61606",
")c 	c #B01D09",
"!c 	c #A71603",
"~c 	c #BA2413",
"{c 	c #BD2517",
"]c 	c #B72112",
"^c 	c #A61907",
"/c 	c #A21B07",
"(c 	c #94260B",
"_c 	c #8E2E15",
":c 	c #7A2F1A",
"<c 	c #571C0C",
"[c 	c #471608",
"}c 	c #441E13",
"|c 	c #391C14",
"1c 	c #2C1912",
"2c 	c #1F160F",
"3c 	c #342B22",
"4c 	c #1D150A",
"5c 	c #140A00",
"6c 	c #1F150B",
"7c 	c #271D13",
"8c 	c #241A11",
"9c 	c #1F1611",
"0c 	c #1F1410",
"ac 	c #140603",
"bc 	c #231A15",
"cc 	c #1E0B04",
"dc 	c #2D1B0F",
"ec 	c #240E03",
"fc 	c #2A0E03",
"gc 	c #321007",
"hc 	c #430C05",
"ic 	c #580C00",
"jc 	c #771304",
"kc 	c #9A1A0F",
"lc 	c #B41C11",
"mc 	c #C61A0C",
"nc 	c #D21C07",
"oc 	c #CD1803",
"pc 	c #CA1301",
"qc 	c #CD0D00",
"rc 	c #D10D01",
"sc 	c #DC1609",
"tc 	c #DC1B0A",
"uc 	c #D81D0A",
"vc 	c #CD1A03",
"wc 	c #CC1C04",
"xc 	c #D01C05",
"yc 	c #D21704",
"zc 	c #D51C0A",
"Ac 	c #CF1A07",
"Bc 	c #BF1F07",
"Cc 	c #CA2009",
"Dc 	c #C91F08",
"Ec 	c #C92009",
"Fc 	c #CA210A",
"Gc 	c #C11000",
"Hc 	c #CF1101",
"Ic 	c #EB170C",
"Jc 	c #FB0907",
"Kc 	c #FA0B08",
"Lc 	c #F90A05",
"Mc 	c #EB1108",
"Nc 	c #E41408",
"Oc 	c #DF1707",
"Pc 	c #D91806",
"Qc 	c #D81906",
"Rc 	c #D91B05",
"Sc 	c #DC1C07",
"Tc 	c #DB1D07",
"Uc 	c #D51B04",
"Vc 	c #EB0D0A",
"Wc 	c #E60F0C",
"Xc 	c #DC120E",
"Yc 	c #D91813",
"Zc 	c #D11815",
"`c 	c #C81614",
" d 	c #BF1313",
".d 	c #B50F0F",
"+d 	c #AE0B0E",
"@d 	c #A8090D",
"#d 	c #A00A0B",
"$d 	c #940A08",
"%d 	c #8F0B07",
"&d 	c #8A0904",
"*d 	c #850802",
"=d 	c #810601",
"-d 	c #7C0500",
";d 	c #780500",
">d 	c #750600",
",d 	c #720500",
"'d 	c #710600",
")d 	c #700703",
"!d 	c #6F0803",
"~d 	c #700805",
"{d 	c #710906",
"]d 	c #720906",
"^d 	c #79100C",
"/d 	c #7B100A",
"(d 	c #7C110B",
"_d 	c #7B120C",
":d 	c #7D140E",
"<d 	c #7E150F",
"[d 	c #7F1610",
"}d 	c #811610",
"|d 	c #821510",
"1d 	c #841410",
"2d 	c #84130F",
"3d 	c #85120F",
"4d 	c #87110F",
"5d 	c #870F0E",
"6d 	c #86100E",
"7d 	c #89120E",
"8d 	c #8D110F",
"9d 	c #8C0C09",
"0d 	c #8C0603",
"ad 	c #930501",
"bd 	c #A10C08",
"cd 	c #B0110D",
"dd 	c #BD1411",
"ed 	c #C91310",
"fd 	c #D51311",
"gd 	c #E90F0D",
"hd 	c #F40200",
"id 	c #EE0300",
"jd 	c #EB0301",
"kd 	c #E40301",
"ld 	c #D90804",
"md 	c #DE0A06",
"nd 	c #DA0700",
"od 	c #D90600",
"pd 	c #D90801",
"qd 	c #D80C03",
"rd 	c #D7150B",
"sd 	c #D6180C",
"td 	c #D3170C",
"ud 	c #CD1509",
"vd 	c #C81608",
"wd 	c #BF0D00",
"xd 	c #C10F01",
"yd 	c #C51506",
"zd 	c #C21706",
"Ad 	c #B61A0B",
"Bd 	c #BF2213",
"Cd 	c #C52519",
"Dd 	c #BD2114",
"Ed 	c #B01A0B",
"Fd 	c #A11402",
"Gd 	c #991500",
"Hd 	c #971A04",
"Id 	c #8D2F15",
"Jd 	c #6F2B16",
"Kd 	c #501B0B",
"Ld 	c #421609",
"Md 	c #421D14",
"Nd 	c #3B2019",
"Od 	c #321D18",
"Pd 	c #281914",
"Qd 	c #1B100A",
"Rd 	c #291F16",
"Sd 	c #160C02",
"Td 	c #180C00",
"Ud 	c #261C12",
"Vd 	c #21190E",
"Wd 	c #1E170F",
"Xd 	c #1C130E",
"Yd 	c #180A07",
"Zd 	c #150704",
"`d 	c #0E0300",
" e 	c #251C17",
".e 	c #1F0C06",
"+e 	c #210A04",
"@e 	c #210D06",
"#e 	c #25140C",
"$e 	c #35241A",
"%e 	c #2B190D",
"&e 	c #2E1006",
"*e 	c #390E08",
"=e 	c #450C05",
"-e 	c #5D0D02",
";e 	c #7E1407",
">e 	c #A21911",
",e 	c #B81A11",
"'e 	c #D4190A",
")e 	c #D61B0A",
"!e 	c #CB0D00",
"~e 	c #D00C00",
"{e 	c #DA1407",
"]e 	c #C81A01",
"^e 	c #C81D03",
"/e 	c #CD1F06",
"(e 	c #D51805",
"_e 	c #DA1F0E",
":e 	c #D61F0D",
"<e 	c #C5200A",
"[e 	c #CA2A12",
"}e 	c #C62A11",
"|e 	c #C1230A",
"1e 	c #C71D06",
"2e 	c #CC220B",
"3e 	c #CF230D",
"4e 	c #C91602",
"5e 	c #D31304",
"6e 	c #D71305",
"7e 	c #E70801",
"8e 	c #ED0600",
"9e 	c #FC0807",
"0e 	c #FB0706",
"ae 	c #FD0B09",
"be 	c #FC0A06",
"ce 	c #F40906",
"de 	c #EF0E08",
"ee 	c #E71308",
"fe 	c #DF1606",
"ge 	c #DA1705",
"he 	c #DE1B07",
"ie 	c #DB1B04",
"je 	c #D71B02",
"ke 	c #EC070A",
"le 	c #EA090D",
"me 	c #E80C0E",
"ne 	c #E40E0E",
"oe 	c #DF0F0D",
"pe 	c #D60F0C",
"qe 	c #CC0F0B",
"re 	c #C3100B",
"se 	c #BE1510",
"te 	c #B3140E",
"ue 	c #A6110D",
"ve 	c #9A0C0A",
"we 	c #8D0706",
"xe 	c #840403",
"ye 	c #7E0202",
"ze 	c #780202",
"Ae 	c #720502",
"Be 	c #6E0804",
"Ce 	c #6C0904",
"De 	c #680B06",
"Ee 	c #640B05",
"Fe 	c #610C07",
"Ge 	c #5F0C06",
"He 	c #590A05",
"Ie 	c #590C06",
"Je 	c #5A0F0A",
"Ke 	c #5C130D",
"Le 	c #5E1411",
"Me 	c #5F1512",
"Ne 	c #681B15",
"Oe 	c #6A1D17",
"Pe 	c #6B1E18",
"Qe 	c #6D201A",
"Re 	c #6D221C",
"Se 	c #70231D",
"Te 	c #71241E",
"Ue 	c #742520",
"Ve 	c #74231F",
"We 	c #74211D",
"Xe 	c #731E1B",
"Ye 	c #721A18",
"Ze 	c #711716",
"`e 	c #701514",
" f 	c #6E1413",
".f 	c #6A1512",
"+f 	c #691610",
"@f 	c #6B140D",
"#f 	c #6D1009",
"$f 	c #710E08",
"%f 	c #790C07",
"&f 	c #830C06",
"*f 	c #8C0B05",
"=f 	c #9F120B",
"-f 	c #A9100A",
";f 	c #B5100A",
">f 	c #C2100C",
",f 	c #CC110C",
"'f 	c #D2110C",
")f 	c #F30401",
"!f 	c #F30100",
"~f 	c #F50101",
"{f 	c #F30002",
"]f 	c #EE0000",
"^f 	c #EA0001",
"/f 	c #E10000",
"(f 	c #E00201",
"_f 	c #DE0403",
":f 	c #D70504",
"<f 	c #D80401",
"[f 	c #E00604",
"}f 	c #DD0200",
"|f 	c #DC0100",
"1f 	c #DD0804",
"2f 	c #D70703",
"3f 	c #D70A05",
"4f 	c #D60D06",
"5f 	c #D61109",
"6f 	c #CC1206",
"7f 	c #C61005",
"8f 	c #C00A00",
"9f 	c #C20E00",
"0f 	c #C21203",
"af 	c #B81101",
"bf 	c #B71508",
"cf 	c #C41C13",
"df 	c #CC241B",
"ef 	c #CC251C",
"ff 	c #B91B0F",
"gf 	c #9F1401",
"hf 	c #9D1C07",
"if 	c #94250A",
"jf 	c #892B12",
"kf 	c #61200C",
"lf 	c #48180A",
"mf 	c #42180C",
"nf 	c #3F1D14",
"of 	c #3A1E1A",
"pf 	c #36211E",
"qf 	c #2E1C18",
"rf 	c #1C0F07",
"sf 	c #110400",
"tf 	c #1C0E03",
"uf 	c #2A1E10",
"vf 	c #241A0E",
"wf 	c #1F170C",
"xf 	c #1D190E",
"yf 	c #19120A",
"zf 	c #271E19",
"Af 	c #200D07",
"Bf 	c #220B05",
"Cf 	c #200C05",
"Df 	c #230F08",
"Ef 	c #28160A",
"Ff 	c #311309",
"Gf 	c #3A150D",
"Hf 	c #3A0F09",
"If 	c #460B05",
"Jf 	c #640D04",
"Kf 	c #841409",
"Lf 	c #A61711",
"Mf 	c #BB1610",
"Nf 	c #CD120B",
"Of 	c #D6140A",
"Pf 	c #DA1A0D",
"Qf 	c #D91E0D",
"Rf 	c #D60D03",
"Sf 	c #C90E00",
"Tf 	c #C51A00",
"Uf 	c #C41F01",
"Vf 	c #CA2006",
"Wf 	c #CE2007",
"Xf 	c #D21904",
"Yf 	c #D41906",
"Zf 	c #D61906",
"`f 	c #CE1302",
" g 	c #BF1601",
".g 	c #B91700",
"+g 	c #BB1F06",
"@g 	c #B92308",
"#g 	c #B81E04",
"$g 	c #C91D07",
"%g 	c #C51903",
"&g 	c #D42510",
"*g 	c #D1200C",
"=g 	c #D21404",
"-g 	c #DC1103",
";g 	c #FD0807",
">g 	c #FB0804",
",g 	c #FD0B07",
"'g 	c #E80F06",
")g 	c #DE1304",
"!g 	c #DA1504",
"~g 	c #D81803",
"{g 	c #DD1A06",
"]g 	c #DD1903",
"^g 	c #DB1802",
"/g 	c #D81A02",
"(g 	c #E20C0A",
"_g 	c #DB0F10",
":g 	c #D51113",
"<g 	c #D31213",
"[g 	c #CD1412",
"}g 	c #C1120F",
"|g 	c #B70F0C",
"1g 	c #AA0D08",
"2g 	c #9E0E06",
"3g 	c #900903",
"4g 	c #870B03",
"5g 	c #7E0B04",
"6g 	c #770C06",
"7g 	c #710E09",
"8g 	c #6F120D",
"9g 	c #6F1411",
"0g 	c #6D1815",
"ag 	c #661511",
"bg 	c #641612",
"cg 	c #601711",
"dg 	c #5C1712",
"eg 	c #571610",
"fg 	c #52160E",
"gg 	c #4E150C",
"hg 	c #521B14",
"ig 	c #531E16",
"jg 	c #55231A",
"kg 	c #57261F",
"lg 	c #592821",
"mg 	c #582722",
"ng 	c #58261F",
"og 	c #59221B",
"pg 	c #5C231A",
"qg 	c #5D241B",
"rg 	c #5E251C",
"sg 	c #5F261D",
"tg 	c #60271E",
"ug 	c #62271F",
"vg 	c #60251D",
"wg 	c #61251D",
"xg 	c #64251E",
"yg 	c #65241E",
"zg 	c #68251F",
"Ag 	c #69241F",
"Bg 	c #652823",
"Cg 	c #60251F",
"Dg 	c #5D2119",
"Eg 	c #612118",
"Fg 	c #692019",
"Gg 	c #6E1E17",
"Hg 	c #701711",
"Ig 	c #720F09",
"Jg 	c #7D0E07",
"Kg 	c #860D05",
"Lg 	c #930C06",
"Mg 	c #9E0D08",
"Ng 	c #A90E09",
"Og 	c #B2100B",
"Pg 	c #BA110C",
"Qg 	c #C60F0B",
"Rg 	c #DE1010",
"Sg 	c #E80E0D",
"Tg 	c #EA0E0E",
"Ug 	c #EA0C0B",
"Vg 	c #E90708",
"Wg 	c #FF0306",
"Xg 	c #F10102",
"Yg 	c #EC0002",
"Zg 	c #E80000",
"`g 	c #DD0302",
" h 	c #D50400",
".h 	c #DE0402",
"+h 	c #DB0100",
"@h 	c #DE0905",
"#h 	c #D40400",
"$h 	c #D50C05",
"%h 	c #C50D03",
"&h 	c #BF0700",
"*h 	c #C10900",
"=h 	c #AB1804",
"-h 	c #B31A0A",
";h 	c #B9190B",
">h 	c #B20A00",
",h 	c #BE1309",
"'h 	c #CE2319",
")h 	c #CE261B",
"!h 	c #BF1C0D",
"~h 	c #A92413",
"{h 	c #9F2814",
"]h 	c #902511",
"^h 	c #7D2613",
"/h 	c #511606",
"(h 	c #401A11",
"_h 	c #3E1D16",
":h 	c #381C18",
"<h 	c #33201C",
"[h 	c #23140F",
"}h 	c #0E0000",
"|h 	c #1E1108",
"1h 	c #1D170B",
"2h 	c #150A04",
"3h 	c #291E1A",
"4h 	c #1F0D09",
"5h 	c #210C07",
"6h 	c #230C06",
"7h 	c #241009",
"8h 	c #29160F",
"9h 	c #35241C",
"0h 	c #302217",
"ah 	c #27150B",
"bh 	c #33150B",
"ch 	c #3B160D",
"dh 	c #3C0F09",
"eh 	c #4A0903",
"fh 	c #6B0D05",
"gh 	c #8B1008",
"hh 	c #AC140F",
"ih 	c #C0110C",
"jh 	c #DA1109",
"kh 	c #DE180D",
"lh 	c #D81A0C",
"mh 	c #D31509",
"nh 	c #D00E04",
"oh 	c #D30D04",
"ph 	c #C60D00",
"qh 	c #C31900",
"rh 	c #C41F03",
"sh 	c #C92106",
"th 	c #CC2107",
"uh 	c #D01A04",
"vh 	c #D41A05",
"wh 	c #D11401",
"xh 	c #D91E0B",
"yh 	c #D6210E",
"zh 	c #BB1500",
"Ah 	c #B91B02",
"Bh 	c #B82106",
"Ch 	c #B91F03",
"Dh 	c #CC2008",
"Eh 	c #CD2109",
"Fh 	c #C41800",
"Gh 	c #CE1F0A",
"Hh 	c #D72612",
"Ih 	c #C81100",
"Jh 	c #D01705",
"Kh 	c #D50F02",
"Lh 	c #E30D03",
"Mh 	c #EA0A02",
"Nh 	c #EC0902",
"Oh 	c #FC0706",
"Ph 	c #FD0805",
"Qh 	c #FF0C08",
"Rh 	c #EB0C05",
"Sh 	c #E20E02",
"Th 	c #DE1505",
"Uh 	c #DF1805",
"Vh 	c #DE1704",
"Wh 	c #DD1603",
"Xh 	c #DA1600",
"Yh 	c #D81801",
"Zh 	c #F20000",
"`h 	c #F10507",
" i 	c #EA080A",
".i 	c #DE1213",
"+i 	c #D71314",
"@i 	c #D21513",
"#i 	c #C71513",
"$i 	c #BE1C1A",
"%i 	c #B41C19",
"&i 	c #A91815",
"*i 	c #9F140F",
"=i 	c #92110B",
"-i 	c #850E06",
";i 	c #7A0E04",
">i 	c #710F04",
",i 	c #681006",
"'i 	c #621207",
")i 	c #60160D",
"!i 	c #5E1A11",
"~i 	c #5E1E15",
"{i 	c #5E221A",
"]i 	c #5F241E",
"^i 	c #5F2521",
"/i 	c #59221F",
"(i 	c #56211D",
"_i 	c #55221E",
":i 	c #51221C",
"<i 	c #441E15",
"[i 	c #452017",
"}i 	c #442218",
"|i 	c #45251A",
"1i 	c #47271C",
"2i 	c #482A1F",
"3i 	c #4B2D22",
"4i 	c #4C2E23",
"5i 	c #4F2F24",
"6i 	c #522E22",
"7i 	c #53291D",
"8i 	c #56271D",
"9i 	c #57281E",
"0i 	c #58281E",
"ai 	c #5A2A20",
"bi 	c #5C2A21",
"ci 	c #5C271F",
"di 	c #59241C",
"ei 	c #542219",
"fi 	c #572820",
"gi 	c #562923",
"hi 	c #572A24",
"ii 	c #5A2B25",
"ji 	c #5B2922",
"ki 	c #5D2621",
"li 	c #61221D",
"mi 	c #631E19",
"ni 	c #6C1F19",
"oi 	c #701814",
"pi 	c #75140E",
"qi 	c #7E120F",
"ri 	c #83100B",
"si 	c #860C07",
"ti 	c #8C0A08",
"ui 	c #9A0A0A",
"vi 	c #AE080C",
"wi 	c #BE0910",
"xi 	c #C91016",
"yi 	c #D2131A",
"zi 	c #D91217",
"Ai 	c #DD0F13",
"Bi 	c #E40D0A",
"Ci 	c #E9100B",
"Di 	c #EB0D08",
"Ei 	c #FE0500",
"Fi 	c #FD0200",
"Gi 	c #FF000A",
"Hi 	c #FE0106",
"Ii 	c #EC0608",
"Ji 	c #DC0201",
"Ki 	c #D70400",
"Li 	c #D60300",
"Mi 	c #D70600",
"Ni 	c #D50B01",
"Oi 	c #D00A01",
"Pi 	c #D11007",
"Qi 	c #C80900",
"Ri 	c #BF0300",
"Si 	c #C60903",
"Ti 	c #C10901",
"Ui 	c #BF0900",
"Vi 	c #BE0C00",
"Wi 	c #BB1100",
"Xi 	c #B91200",
"Yi 	c #BA1301",
"Zi 	c #B61004",
"`i 	c #A41400",
" j 	c #B41B0B",
".j 	c #B8180C",
"+j 	c #B20E04",
"@j 	c #AF0800",
"#j 	c #C01D0C",
"$j 	c #C7220F",
"%j 	c #C92410",
"&j 	c #C21F0C",
"*j 	c #B21909",
"=j 	c #A81E13",
"-j 	c #A02A20",
";j 	c #8B2A21",
">j 	c #6D231A",
",j 	c #4D1810",
"'j 	c #3C160D",
")j 	c #431E16",
"!j 	c #3D1F17",
"~j 	c #2F120E",
"{j 	c #331B17",
"]j 	c #37221F",
"^j 	c #23110D",
"/j 	c #100100",
"(j 	c #170A04",
"_j 	c #211610",
":j 	c #281F18",
"<j 	c #251C13",
"[j 	c #1C150B",
"}j 	c #1A130B",
"|j 	c #1D160E",
"1j 	c #180D07",
"2j 	c #140903",
"3j 	c #100500",
"4j 	c #170C06",
"5j 	c #0D0200",
"6j 	c #2A1D17",
"7j 	c #291C16",
"8j 	c #22130E",
"9j 	c #21120D",
"0j 	c #20110E",
"aj 	c #1E0C0A",
"bj 	c #200B08",
"cj 	c #270E0A",
"dj 	c #260A06",
"ej 	c #200500",
"fj 	c #230A05",
"gj 	c #2B1710",
"hj 	c #36251E",
"ij 	c #2E1F18",
"jj 	c #23140D",
"kj 	c #251108",
"lj 	c #381207",
"mj 	c #3B0B00",
"nj 	c #4F0900",
"oj 	c #950C04",
"pj 	c #BB1813",
"qj 	c #CD1411",
"rj 	c #D10600",
"sj 	c #E31309",
"tj 	c #E0170D",
"uj 	c #DB150C",
"vj 	c #DB100A",
"wj 	c #D60B05",
"xj 	c #C71D04",
"yj 	c #CA1F05",
"zj 	c #D31F06",
"Aj 	c #D82006",
"Bj 	c #DD2108",
"Cj 	c #DB1E0A",
"Dj 	c #C32108",
"Ej 	c #C42209",
"Fj 	c #C82307",
"Gj 	c #CB2107",
"Hj 	c #C91F05",
"Ij 	c #CF1C06",
"Jj 	c #CB1404",
"Kj 	c #DB1103",
"Lj 	c #E40E03",
"Mj 	c #EA0D04",
"Nj 	c #FB0605",
"Oj 	c #FB0908",
"Pj 	c #EA0B03",
"Qj 	c #EB0E05",
"Rj 	c #EC1409",
"Sj 	c #EA160A",
"Tj 	c #E31605",
"Uj 	c #E11806",
"Vj 	c #E01D09",
"Wj 	c #F2090C",
"Xj 	c #EF0D0F",
"Yj 	c #E90E12",
"Zj 	c #E21114",
"`j 	c #DA1316",
" k 	c #CF1314",
".k 	c #C31313",
"+k 	c #B81212",
"@k 	c #B0120F",
"#k 	c #A9110E",
"$k 	c #A1130F",
"%k 	c #8F100A",
"&k 	c #84130D",
"*k 	c #7D120C",
"=k 	c #72110A",
"-k 	c #6A1109",
";k 	c #63150B",
">k 	c #5E180E",
",k 	c #5C1E13",
"'k 	c #592015",
")k 	c #57251C",
"!k 	c #552A23",
"~k 	c #552A24",
"{k 	c #542923",
"]k 	c #522623",
"^k 	c #4D2420",
"/k 	c #4C231F",
"(k 	c #4C2721",
"_k 	c #4A2721",
":k 	c #43251D",
"<k 	c #41261B",
"[k 	c #422A1E",
"}k 	c #432D20",
"|k 	c #442E20",
"1k 	c #462C1D",
"2k 	c #4B291D",
"3k 	c #4D291B",
"4k 	c #4E2A1C",
"5k 	c #4F2B1D",
"6k 	c #502C1E",
"7k 	c #512B1E",
"8k 	c #522C1F",
"9k 	c #542C20",
"0k 	c #552D21",
"ak 	c #532B1F",
"bk 	c #522A20",
"ck 	c #522C23",
"dk 	c #522D25",
"ek 	c #532E28",
"fk 	c #55302A",
"gk 	c #562F28",
"hk 	c #572E28",
"ik 	c #5B2B27",
"jk 	c #5C2925",
"kk 	c #622824",
"lk 	c #652420",
"mk 	c #6C231D",
"nk 	c #78211A",
"ok 	c #791C15",
"pk 	c #7C1914",
"qk 	c #871715",
"rk 	c #941317",
"sk 	c #A21319",
"tk 	c #AB161C",
"uk 	c #B5161B",
"vk 	c #BD1417",
"wk 	c #C41114",
"xk 	c #CB1210",
"yk 	c #D8110A",
"zk 	c #E30E06",
"Ak 	c #EA0D05",
"Bk 	c #FB0300",
"Ck 	c #F8030A",
"Dk 	c #FC010A",
"Ek 	c #FE000A",
"Fk 	c #FF000B",
"Gk 	c #F0070A",
"Hk 	c #EB0609",
"Ik 	c #E80809",
"Jk 	c #DD0101",
"Kk 	c #DB0401",
"Lk 	c #DA0501",
"Mk 	c #D70700",
"Nk 	c #D90A00",
"Ok 	c #D70D03",
"Pk 	c #DA1107",
"Qk 	c #D00F06",
"Rk 	c #D00E05",
"Sk 	c #CC0A01",
"Tk 	c #C50400",
"Uk 	c #C90C06",
"Vk 	c #C70C05",
"Wk 	c #BC1100",
"Xk 	c #BA1300",
"Yk 	c #B91401",
"Zk 	c #B81502",
"`k 	c #B9190D",
" l 	c #B7130A",
".l 	c #B61702",
"+l 	c #C5230C",
"@l 	c #A41A10",
"#l 	c #9B2521",
"$l 	c #812623",
"%l 	c #621C1A",
"&l 	c #45140F",
"*l 	c #3D1810",
"=l 	c #391610",
"-l 	c #35170F",
";l 	c #351814",
">l 	c #2F1611",
",l 	c #2C1714",
"'l 	c #301E1A",
")l 	c #170805",
"!l 	c #180D09",
"~l 	c #1F1810",
"{l 	c #160F07",
"]l 	c #190E08",
"^l 	c #110600",
"/l 	c #120500",
"(l 	c #130600",
"_l 	c #2B1C17",
":l 	c #20110C",
"<l 	c #1F0F0F",
"[l 	c #220A08",
"}l 	c #260D08",
"|l 	c #260905",
"1l 	c #210400",
"2l 	c #250905",
"3l 	c #33241F",
"4l 	c #25110A",
"5l 	c #34160C",
"6l 	c #391107",
"7l 	c #3C0B00",
"8l 	c #520800",
"9l 	c #740400",
"0l 	c #9A0B03",
"al 	c #BF1611",
"bl 	c #D1110E",
"cl 	c #DC0500",
"dl 	c #E01006",
"el 	c #DE0D09",
"fl 	c #CD1203",
"gl 	c #C81403",
"hl 	c #C71803",
"il 	c #CA1E06",
"jl 	c #CE1E06",
"kl 	c #D71D04",
"ll 	c #DB1D03",
"ml 	c #DB1700",
"nl 	c #DF1A07",
"ol 	c #CA2208",
"pl 	c #CC2208",
"ql 	c #CB2205",
"rl 	c #CB2004",
"sl 	c #CB2006",
"tl 	c #D31201",
"ul 	c #D81000",
"vl 	c #DD0F01",
"wl 	c #FC0C0B",
"xl 	c #EF0F07",
"yl 	c #EF1209",
"zl 	c #E81305",
"Al 	c #E51304",
"Bl 	c #E21B08",
"Cl 	c #F40007",
"Dl 	c #F6020A",
"El 	c #F3030C",
"Fl 	c #EE050B",
"Gl 	c #EA070E",
"Hl 	c #E90E14",
"Il 	c #E31217",
"Jl 	c #D81418",
"Kl 	c #CD1618",
"Ll 	c #C11718",
"Ml 	c #B11614",
"Nl 	c #A21410",
"Ol 	c #94130E",
"Pl 	c #89120A",
"Ql 	c #83120A",
"Rl 	c #7F140C",
"Sl 	c #78110C",
"Tl 	c #76150F",
"Ul 	c #761912",
"Vl 	c #721B14",
"Wl 	c #6B1B14",
"Xl 	c #651C15",
"Yl 	c #621F16",
"Zl 	c #5E2419",
"`l 	c #5B251B",
" m 	c #592C26",
".m 	c #582C29",
"+m 	c #552C28",
"@m 	c #522925",
"#m 	c #512824",
"$m 	c #4E2722",
"%m 	c #4B2620",
"&m 	c #4A2922",
"*m 	c #482A22",
"=m 	c #452820",
"-m 	c #452F22",
";m 	c #433022",
">m 	c #412E20",
",m 	c #402D1F",
"'m 	c #3F2C1D",
")m 	c #422B1B",
"!m 	c #45291B",
"~m 	c #472A1A",
"{m 	c #482B1B",
"]m 	c #492C1C",
"^m 	c #4A2D1D",
"/m 	c #4D2D1E",
"(m 	c #4E2E1F",
"_m 	c #4F2F20",
":m 	c #4F2E1F",
"<m 	c #502F20",
"[m 	c #513021",
"}m 	c #523122",
"|m 	c #543324",
"1m 	c #563226",
"2m 	c #532E25",
"3m 	c #552E27",
"4m 	c #542F27",
"5m 	c #553028",
"6m 	c #56312B",
"7m 	c #58312A",
"8m 	c #5A312B",
"9m 	c #5D302A",
"0m 	c #5E2D28",
"am 	c #622B26",
"bm 	c #692D25",
"cm 	c #722F27",
"dm 	c #762D26",
"em 	c #74271F",
"fm 	c #722219",
"gm 	c #772017",
"hm 	c #7E1F19",
"im 	c #851D1A",
"jm 	c #8E1C1B",
"km 	c #951917",
"lm 	c #9E1713",
"mm 	c #A91511",
"nm 	c #B3160F",
"om 	c #BD160E",
"pm 	c #C3120A",
"qm 	c #CE1209",
"rm 	c #DA110A",
"sm 	c #EE0D0B",
"tm 	c #FC0500",
"um 	c #FF0006",
"vm 	c #F60609",
"wm 	c #ED070A",
"xm 	c #E20304",
"ym 	c #DF0303",
"zm 	c #DD0800",
"Am 	c #DD0A01",
"Bm 	c #DA0E03",
"Cm 	c #DD140A",
"Dm 	c #D81408",
"Em 	c #D41206",
"Fm 	c #D40F07",
"Gm 	c #CB0802",
"Hm 	c #CB1009",
"Im 	c #C71008",
"Jm 	c #C51007",
"Km 	c #BD1401",
"Lm 	c #B41907",
"Mm 	c #BA180D",
"Nm 	c #BC180F",
"Om 	c #B71309",
"Pm 	c #AE1100",
"Qm 	c #C1220C",
"Rm 	c #C72614",
"Sm 	c #B51D0F",
"Tm 	c #A11B12",
"Um 	c #94231D",
"Vm 	c #7B221E",
"Wm 	c #5B1714",
"Xm 	c #40110B",
"Ym 	c #411C14",
"Zm 	c #34110B",
"`m 	c #2F1109",
" n 	c #391D19",
".n 	c #2C150F",
"+n 	c #281310",
"@n 	c #402E2A",
"#n 	c #1E130F",
"$n 	c #1B140C",
"%n 	c #171008",
"&n 	c #150E06",
"*n 	c #1A0F09",
"=n 	c #160B05",
"-n 	c #140701",
";n 	c #1A0D07",
">n 	c #2A1B16",
",n 	c #261712",
"'n 	c #1C0E0D",
")n 	c #1F0A07",
"!n 	c #240B06",
"~n 	c #240703",
"{n 	c #2A160F",
"]n 	c #30211C",
"^n 	c #2B1E18",
"/n 	c #26120B",
"(n 	c #530900",
"_n 	c #C21612",
":n 	c #D0100D",
"<n 	c #D70602",
"[n 	c #DF0C03",
"}n 	c #DC0D05",
"|n 	c #CF0F02",
"1n 	c #D21A02",
"2n 	c #D61800",
"3n 	c #DA1701",
"4n 	c #DC1500",
"5n 	c #DE1501",
"6n 	c #E01705",
"7n 	c #DE1906",
"8n 	c #CF1E0A",
"9n 	c #CF2109",
"0n 	c #CF2106",
"an 	c #CF2204",
"bn 	c #CC2103",
"cn 	c #CC2105",
"dn 	c #CD1F07",
"en 	c #D01100",
"fn 	c #D40F00",
"gn 	c #D70E00",
"hn 	c #DB0B00",
"in 	c #E10B00",
"jn 	c #E80B02",
"kn 	c #F40D07",
"ln 	c #F90A07",
"mn 	c #F70C08",
"nn 	c #FD0F0C",
"on 	c #F90B08",
"pn 	c #EE1005",
"qn 	c #E81003",
"rn 	c #E51103",
"sn 	c #E21301",
"tn 	c #E21804",
"un 	c #EC0110",
"vn 	c #EE0815",
"wn 	c #EF0D1B",
"xn 	c #E80F1A",
"yn 	c #DF101A",
"zn 	c #D51019",
"An 	c #C60F14",
"Bn 	c #B30D0F",
"Cn 	c #AB1214",
"Dn 	c #9E1714",
"En 	c #921815",
"Fn 	c #851A14",
"Gn 	c #7B1A13",
"Hn 	c #721B11",
"In 	c #6C1C11",
"Jn 	c #6E2119",
"Kn 	c #6E231D",
"Ln 	c #6D2620",
"Mn 	c #6D2A22",
"Nn 	c #692A23",
"On 	c #632A23",
"Pn 	c #5B261E",
"Qn 	c #54251D",
"Rn 	c #4F241D",
"Sn 	c #4E251F",
"Tn 	c #4F2622",
"Un 	c #4F2823",
"Vn 	c #502826",
"Wn 	c #4F2727",
"Xn 	c #4D2724",
"Yn 	c #4D2A26",
"Zn 	c #4B2A23",
"`n 	c #492B23",
" o 	c #482B23",
".o 	c #462B22",
"+o 	c #432B21",
"@o 	c #422C1F",
"#o 	c #3E2C1E",
"$o 	c #3D2B1D",
"%o 	c #3C2A1C",
"&o 	c #3C2B1B",
"*o 	c #3D2C1C",
"=o 	c #402D1E",
"-o 	c #422D1C",
";o 	c #422D1A",
">o 	c #432E1B",
",o 	c #452E1C",
"'o 	c #462F1D",
")o 	c #472D1C",
"!o 	c #482E1D",
"~o 	c #492F1E",
"{o 	c #4B3120",
"]o 	c #4D3322",
"^o 	c #523726",
"/o 	c #55382A",
"(o 	c #563128",
"_o 	c #573029",
":o 	c #563129",
"<o 	c #54312B",
"[o 	c #55332A",
"}o 	c #58332B",
"|o 	c #59302A",
"1o 	c #5A2F28",
"2o 	c #603127",
"3o 	c #663429",
"4o 	c #693327",
"5o 	c #662C20",
"6o 	c #66281D",
"7o 	c #67271B",
"8o 	c #6C2A1E",
"9o 	c #6E281E",
"0o 	c #75251C",
"ao 	c #7C2219",
"bo 	c #861F16",
"co 	c #901E14",
"do 	c #9B1D11",
"eo 	c #A51B10",
"fo 	c #AC150A",
"go 	c #B7140B",
"ho 	c #C6130E",
"io 	c #D3110F",
"jo 	c #EB0C0F",
"ko 	c #F4050B",
"lo 	c #F1080B",
"mo 	c #EE090C",
"no 	c #DB0400",
"oo 	c #DE0702",
"po 	c #DE0B02",
"qo 	c #D91104",
"ro 	c #D51309",
"so 	c #D80F08",
"to 	c #C61106",
"uo 	c #BD1603",
"vo 	c #BA1803",
"wo 	c #B81903",
"xo 	c #B81904",
"yo 	c #B61A04",
"zo 	c #B91A07",
"Ao 	c #B51D08",
"Bo 	c #AD1B02",
"Co 	c #BB170B",
"Do 	c #BF180F",
"Eo 	c #B9150B",
"Fo 	c #AD1402",
"Go 	c #B71F0A",
"Ho 	c #C12614",
"Io 	c #B82619",
"Jo 	c #A7241C",
"Ko 	c #90231E",
"Lo 	c #581914",
"Mo 	c #40130D",
"No 	c #37160F",
"Oo 	c #31130B",
"Po 	c #351915",
"Qo 	c #321B15",
"Ro 	c #341F1C",
"So 	c #45332F",
"To 	c #2E1F1C",
"Uo 	c #241915",
"Vo 	c #1A0C0B",
"Wo 	c #1E0906",
"Xo 	c #220602",
"Yo 	c #240D07",
"Zo 	c #2A1710",
"`o 	c #2C1F19",
" p 	c #281D17",
".p 	c #22150D",
"+p 	c #27130C",
"@p 	c #35170D",
"#p 	c #3B1007",
"$p 	c #3F0B00",
"%p 	c #550900",
"&p 	c #770500",
"*p 	c #A6130B",
"=p 	c #C41814",
"-p 	c #D1100B",
";p 	c #DD0A00",
">p 	c #DA0B01",
",p 	c #E00C09",
"'p 	c #E20E0B",
")p 	c #E00F0A",
"!p 	c #D41701",
"~p 	c #D81501",
"{p 	c #DD1300",
"]p 	c #E11200",
"^p 	c #E21303",
"/p 	c #E01506",
"(p 	c #DD1808",
"_p 	c #D61D0B",
":p 	c #D41F0A",
"<p 	c #D42007",
"[p 	c #D32105",
"}p 	c #D12205",
"|p 	c #D02207",
"1p 	c #CD2206",
"2p 	c #CC2306",
"3p 	c #D01300",
"4p 	c #D11000",
"5p 	c #D10E00",
"6p 	c #D50C00",
"7p 	c #D90B00",
"8p 	c #E00C00",
"9p 	c #EC0F06",
"0p 	c #F00B05",
"ap 	c #FA0F0B",
"bp 	c #EE0700",
"cp 	c #EE0B02",
"dp 	c #EC0E03",
"ep 	c #EB0F01",
"fp 	c #E70F00",
"gp 	c #E51201",
"hp 	c #E31402",
"ip 	c #DE0E1E",
"jp 	c #E11222",
"kp 	c #DB1524",
"lp 	c #D21322",
"mp 	c #C3111D",
"np 	c #B41019",
"op 	c #A10C12",
"pp 	c #8E090C",
"qp 	c #861212",
"rp 	c #7E1814",
"sp 	c #751E17",
"tp 	c #66261C",
"up 	c #61281D",
"vp 	c #5B291E",
"wp 	c #5A2A1E",
"xp 	c #5F2A22",
"yp 	c #5A2922",
"zp 	c #5C2D27",
"Ap 	c #522B24",
"Bp 	c #462119",
"Cp 	c #3A1912",
"Dp 	c #3F1E17",
"Ep 	c #3F1E19",
"Fp 	c #3F1D1B",
"Gp 	c #401E1C",
"Hp 	c #43201E",
"Ip 	c #452121",
"Jp 	c #4A2324",
"Kp 	c #482625",
"Lp 	c #482B25",
"Mp 	c #452C25",
"Np 	c #432C24",
"Op 	c #432D22",
"Pp 	c #412D22",
"Qp 	c #402E22",
"Rp 	c #3E2E21",
"Sp 	c #3C2C1D",
"Tp 	c #3B2B1C",
"Up 	c #3D2D1E",
"Vp 	c #402F1F",
"Wp 	c #403020",
"Xp 	c #3F301D",
"Yp 	c #3F2E1C",
"Zp 	c #402D1C",
"`p 	c #412E1D",
" q 	c #422F1E",
".q 	c #453221",
"+q 	c #4B3625",
"@q 	c #523829",
"#q 	c #58362C",
"$q 	c #5A342B",
"%q 	c #53322B",
"&q 	c #51332B",
"*q 	c #50332B",
"=q 	c #52342C",
"-q 	c #513329",
";q 	c #543429",
">q 	c #58362A",
",q 	c #5A3427",
"'q 	c #573021",
")q 	c #582E20",
"!q 	c #5A3020",
"~q 	c #593223",
"{q 	c #5C3121",
"]q 	c #613021",
"^q 	c #692E20",
"/q 	c #722D1E",
"(q 	c #7C2A1C",
"_q 	c #832718",
":q 	c #8B2415",
"<q 	c #911D10",
"[q 	c #9C1A0D",
"}q 	c #AA170F",
"|q 	c #B81510",
"1q 	c #C81211",
"2q 	c #D60F14",
"3q 	c #E10E17",
"4q 	c #E60D15",
"5q 	c #E8110F",
"6q 	c #ED0B0C",
"7q 	c #FE0406",
"8q 	c #EF0D0E",
"9q 	c #DE0301",
"0q 	c #DE0903",
"aq 	c #DB1306",
"bq 	c #DA160A",
"cq 	c #D71509",
"dq 	c #C90E05",
"eq 	c #C51005",
"fq 	c #B71B04",
"gq 	c #B71D05",
"hq 	c #B81D07",
"iq 	c #B91C09",
"jq 	c #B61E09",
"kq 	c #B11F06",
"lq 	c #B01B03",
"mq 	c #B71707",
"nq 	c #BD170B",
"oq 	c #BD160D",
"pq 	c #B8160B",
"qq 	c #B31E0A",
"rq 	c #B32112",
"sq 	c #B52B20",
"tq 	c #A62B23",
"uq 	c #89201C",
"vq 	c #691814",
"wq 	c #551813",
"xq 	c #41160F",
"yq 	c #3A180F",
"zq 	c #3D1C15",
"Aq 	c #351810",
"Bq 	c #2D110D",
"Cq 	c #3A231D",
"Dq 	c #45322E",
"Eq 	c #392A25",
"Fq 	c #30221F",
"Gq 	c #180B05",
"Hq 	c #190B08",
"Iq 	c #1D0A06",
"Jq 	c #1F0802",
"Kq 	c #210501",
"Lq 	c #1F0600",
"Mq 	c #291810",
"Nq 	c #261B15",
"Oq 	c #28140D",
"Pq 	c #3C1108",
"Qq 	c #560A00",
"Rq 	c #7B0600",
"Sq 	c #AD1811",
"Tq 	c #C81B17",
"Uq 	c #D10E0A",
"Vq 	c #E10800",
"Wq 	c #DB0B01",
"Xq 	c #E30D0B",
"Yq 	c #DF1008",
"Zq 	c #D01001",
"`q 	c #DC1502",
" r 	c #E11403",
".r 	c #E21001",
"+r 	c #E40F01",
"@r 	c #E51105",
"#r 	c #E31508",
"$r 	c #E01809",
"%r 	c #D71F03",
"&r 	c #D42206",
"*r 	c #CE2305",
"=r 	c #CB2404",
"-r 	c #C82303",
";r 	c #C82305",
">r 	c #CA2205",
",r 	c #CF1903",
"'r 	c #D11803",
")r 	c #D01601",
"!r 	c #CF1200",
"~r 	c #F60D08",
"{r 	c #F60D06",
"]r 	c #F00700",
"^r 	c #F00C01",
"/r 	c #ED0D01",
"(r 	c #EC0F00",
"_r 	c #E91000",
":r 	c #E81100",
"<r 	c #E51200",
"[r 	c #C81928",
"}r 	c #C51B28",
"|r 	c #BB1624",
"1r 	c #AB111B",
"2r 	c #9B0E16",
"3r 	c #8F1115",
"4r 	c #821113",
"5r 	c #741211",
"6r 	c #6E1B17",
"7r 	c #661F19",
"8r 	c #62261E",
"9r 	c #5D2B22",
"0r 	c #5A2E25",
"ar 	c #552F24",
"br 	c #502E24",
"cr 	c #523027",
"dr 	c #502E25",
"er 	c #4D2C25",
"fr 	c #4D2F27",
"gr 	c #4B3027",
"hr 	c #452D23",
"ir 	c #321B13",
"jr 	c #341D17",
"kr 	c #341B17",
"lr 	c #361A17",
"mr 	c #391B19",
"nr 	c #3E1F1D",
"or 	c #422321",
"pr 	c #432523",
"qr 	c #3F2822",
"rr 	c #3E2C22",
"sr 	c #3F2D23",
"tr 	c #413124",
"ur 	c #403225",
"vr 	c #3D3123",
"wr 	c #3D3020",
"xr 	c #3C3020",
"yr 	c #3C2F1F",
"zr 	c #3E2E1E",
"Ar 	c #3D301F",
"Br 	c #3C311F",
"Cr 	c #3A321D",
"Dr 	c #39311C",
"Er 	c #3B301C",
"Fr 	c #3A2F1B",
"Gr 	c #392E1A",
"Hr 	c #3B2E1B",
"Ir 	c #3C2F1C",
"Jr 	c #3D301D",
"Kr 	c #3A2D1A",
"Lr 	c #3D2E1B",
"Mr 	c #41321F",
"Nr 	c #483322",
"Or 	c #53352A",
"Pr 	c #56342A",
"Qr 	c #55342B",
"Rr 	c #52342A",
"Sr 	c #51342C",
"Tr 	c #4D352B",
"Ur 	c #4C342A",
"Vr 	c #4B352A",
"Wr 	c #4E382D",
"Xr 	c #4C3428",
"Yr 	c #4F382A",
"Zr 	c #51372A",
"`r 	c #503426",
" s 	c #513424",
".s 	c #533626",
"+s 	c #513527",
"@s 	c #523527",
"#s 	c #563526",
"$s 	c #5E3426",
"%s 	c #663526",
"&s 	c #6C3224",
"*s 	c #6F301F",
"=s 	c #742B1A",
"-s 	c #792616",
";s 	c #832114",
">s 	c #8D1D12",
",s 	c #991812",
"'s 	c #A91513",
")s 	c #B71415",
"!s 	c #C41319",
"~s 	c #CC1318",
"{s 	c #D71716",
"]s 	c #DC1512",
"^s 	c #F5060C",
"/s 	c #FA030B",
"(s 	c #FD040A",
"_s 	c #F5090B",
":s 	c #F50B0C",
"<s 	c #F40E10",
"[s 	c #EE0C0D",
"}s 	c #E80808",
"|s 	c #E20403",
"1s 	c #DB0F04",
"2s 	c #DA1205",
"3s 	c #DB1508",
"4s 	c #DB170B",
"5s 	c #D60B04",
"6s 	c #DC1009",
"7s 	c #CC1005",
"8s 	c #BF1201",
"9s 	c #BE1704",
"0s 	c #BD1B06",
"as 	c #BA1B05",
"bs 	c #B91D06",
"cs 	c #BA1E08",
"ds 	c #B51D06",
"es 	c #B21E04",
"fs 	c #BE180A",
"gs 	c #B41D0C",
"hs 	c #B62512",
"is 	c #AF220E",
"js 	c #A81F0C",
"ks 	c #AA2013",
"ls 	c #AB281E",
"ms 	c #9D2821",
"ns 	c #7D1C16",
"os 	c #61140E",
"ps 	c #4E150E",
"qs 	c #34130A",
"rs 	c #3A1C14",
"ss 	c #361911",
"ts 	c #402923",
"us 	c #483531",
"vs 	c #201511",
"ws 	c #181109",
"xs 	c #241510",
"ys 	c #1E0B07",
"zs 	c #1E0500",
"As 	c #210801",
"Bs 	c #291B12",
"Cs 	c #231812",
"Ds 	c #241913",
"Es 	c #38170E",
"Fs 	c #400A00",
"Gs 	c #580A00",
"Hs 	c #7E0700",
"Is 	c #B31C15",
"Js 	c #CC1A16",
"Ks 	c #D10B08",
"Ls 	c #E30E0A",
"Ms 	c #E10900",
"Ns 	c #E10D02",
"Os 	c #D51103",
"Ps 	c #D30F00",
"Qs 	c #D51403",
"Rs 	c #D81404",
"Ss 	c #DC1404",
"Ts 	c #E61405",
"Us 	c #E60E01",
"Vs 	c #E80C00",
"Ws 	c #E71107",
"Xs 	c #E71409",
"Ys 	c #E3180A",
"Zs 	c #E11909",
"`s 	c #DD1A04",
" t 	c #DA1C02",
".t 	c #D81E05",
"+t 	c #D62106",
"@t 	c #D02305",
"#t 	c #CA2303",
"$t 	c #C72202",
"%t 	c #C72405",
"&t 	c #CB2306",
"*t 	c #CE2005",
"=t 	c #CF1D03",
"-t 	c #CE1A01",
";t 	c #CD1300",
">t 	c #CE1100",
",t 	c #D61100",
"'t 	c #DB1202",
")t 	c #E41004",
"!t 	c #F30C06",
"~t 	c #F40B04",
"{t 	c #F00800",
"]t 	c #EF0800",
"^t 	c #F10D00",
"/t 	c #EF0D00",
"(t 	c #EE0F00",
"_t 	c #ED1101",
":t 	c #EA1100",
"<t 	c #9C1B20",
"[t 	c #981B1F",
"}t 	c #8E171B",
"|t 	c #811316",
"1t 	c #771313",
"2t 	c #711917",
"3t 	c #691E19",
"4t 	c #61201A",
"5t 	c #5D261F",
"6t 	c #582921",
"7t 	c #542C22",
"8t 	c #522D24",
"9t 	c #4F2E27",
"0t 	c #47332A",
"at 	c #433127",
"bt 	c #3B2A20",
"ct 	c #37291E",
"dt 	c #36281D",
"et 	c #34231B",
"ft 	c #35221B",
"gt 	c #39221C",
"ht 	c #3C231E",
"it 	c #3E2520",
"jt 	c #3E2721",
"kt 	c #39281E",
"lt 	c #392D21",
"mt 	c #3A2E22",
"nt 	c #382C20",
"ot 	c #3D3125",
"pt 	c #393021",
"qt 	c #3B2F21",
"rt 	c #3B2F1F",
"st 	c #3A2E1E",
"tt 	c #3A2D1D",
"ut 	c #382D1B",
"vt 	c #37301D",
"wt 	c #38301D",
"xt 	c #372F1C",
"yt 	c #392E1C",
"zt 	c #3B301E",
"At 	c #352A18",
"Bt 	c #342716",
"Ct 	c #372A19",
"Dt 	c #472D20",
"Et 	c #4A2C21",
"Ft 	c #4B2F24",
"Gt 	c #4C3126",
"Ht 	c #4B3329",
"It 	c #49352A",
"Jt 	c #49352C",
"Kt 	c #48362C",
"Lt 	c #48372D",
"Mt 	c #46352B",
"Nt 	c #4C382D",
"Ot 	c #4D392E",
"Pt 	c #4C3629",
"Qt 	c #4D3729",
"Rt 	c #50392B",
"St 	c #50352A",
"Tt 	c #503429",
"Ut 	c #533328",
"Vt 	c #563428",
"Wt 	c #5C3629",
"Xt 	c #603628",
"Yt 	c #603525",
"Zt 	c #623321",
"`t 	c #65301E",
" u 	c #6B2C1B",
".u 	c #732719",
"+u 	c #7B2317",
"@u 	c #861D17",
"#u 	c #921B17",
"$u 	c #9C1A1A",
"%u 	c #A71717",
"&u 	c #BB1916",
"*u 	c #C51613",
"=u 	c #D11514",
"-u 	c #DC1115",
";u 	c #E60E13",
">u 	c #EF0A11",
",u 	c #F5050E",
"'u 	c #FA0807",
")u 	c #F80A0A",
"!u 	c #F70B0B",
"~u 	c #F50D0D",
"{u 	c #F10B0B",
"]u 	c #ED090A",
"^u 	c #DD0601",
"/u 	c #DB1709",
"(u 	c #DA1608",
"_u 	c #D40902",
":u 	c #D41409",
"<u 	c #C81103",
"[u 	c #C00F00",
"}u 	c #BF1603",
"|u 	c #BD1D07",
"1u 	c #BE1F09",
"2u 	c #B91A04",
"3u 	c #B31D04",
"4u 	c #B51B03",
"5u 	c #C11A0A",
"6u 	c #C01A0C",
"7u 	c #B11E0C",
"8u 	c #B02512",
"9u 	c #AA2713",
"0u 	c #AB2C1B",
"au 	c #A92B1F",
"bu 	c #9D241B",
"cu 	c #881D17",
"du 	c #721712",
"eu 	c #59120C",
"fu 	c #450E07",
"gu 	c #3D150D",
"hu 	c #36150C",
"iu 	c #33150D",
"ju 	c #32170E",
"ku 	c #3A211C",
"lu 	c #432F28",
"mu 	c #3B2824",
"nu 	c #251611",
"ou 	c #1B0E08",
"pu 	c #1D0B07",
"qu 	c #1D0600",
"ru 	c #210A02",
"su 	c #27140D",
"tu 	c #2A1C13",
"uu 	c #29150E",
"vu 	c #3D1108",
"wu 	c #420900",
"xu 	c #5B0900",
"yu 	c #810600",
"zu 	c #B81D18",
"Au 	c #CF0803",
"Bu 	c #EB0E06",
"Cu 	c #E00800",
"Du 	c #E50B09",
"Eu 	c #E20D07",
"Fu 	c #D50D00",
"Gu 	c #D70F00",
"Hu 	c #D91102",
"Iu 	c #DB1304",
"Ju 	c #DC1303",
"Ku 	c #E41205",
"Lu 	c #EC0701",
"Mu 	c #EE1109",
"Nu 	c #EA140A",
"Ou 	c #E81609",
"Pu 	c #E11703",
"Qu 	c #E01902",
"Ru 	c #DE1C03",
"Su 	c #DB1F04",
"Tu 	c #D52003",
"Uu 	c #D02102",
"Vu 	c #CA2100",
"Wu 	c #C62200",
"Xu 	c #C52201",
"Yu 	c #CC2304",
"Zu 	c #D01E02",
"`u 	c #D01C01",
" v 	c #D21E07",
".v 	c #CD1902",
"+v 	c #CB1700",
"@v 	c #D31602",
"#v 	c #D61503",
"$v 	c #DD1505",
"%v 	c #E11305",
"&v 	c #E80E04",
"*v 	c #F70E09",
"=v 	c #F50E06",
"-v 	c #F20B01",
";v 	c #F00900",
">v 	c #F10A00",
",v 	c #F10B00",
"'v 	c #F40E01",
")v 	c #F21000",
"!v 	c #F11201",
"~v 	c #EF1200",
"{v 	c #EC1100",
"]v 	c #721817",
"^v 	c #651A15",
"/v 	c #5F1F16",
"(v 	c #592A20",
"_v 	c #503025",
":v 	c #4C3024",
"<v 	c #482D22",
"[v 	c #492C24",
"}v 	c #4B2D25",
"|v 	c #4F2E29",
"1v 	c #4D302A",
"2v 	c #453128",
"3v 	c #443427",
"4v 	c #423127",
"5v 	c #392B1E",
"6v 	c #2D2113",
"7v 	c #30261A",
"8v 	c #372D21",
"9v 	c #362C20",
"0v 	c #392B20",
"av 	c #3B291F",
"bv 	c #3A281E",
"cv 	c #383023",
"dv 	c #342C1F",
"ev 	c #382E22",
"fv 	c #372E1F",
"gv 	c #342B1C",
"hv 	c #332A1B",
"iv 	c #352C1B",
"jv 	c #362D1C",
"kv 	c #382C1C",
"lv 	c #372B1B",
"mv 	c #342B1A",
"nv 	c #352E1B",
"ov 	c #362F1C",
"pv 	c #39311E",
"qv 	c #372C1A",
"rv 	c #322715",
"sv 	c #2F2412",
"tv 	c #312614",
"uv 	c #372717",
"vv 	c #382214",
"wv 	c #3C2517",
"xv 	c #40281C",
"yv 	c #453126",
"zv 	c #463428",
"Av 	c #45342C",
"Bv 	c #44332B",
"Cv 	c #4B392F",
"Dv 	c #4D3930",
"Ev 	c #4B372C",
"Fv 	c #4C362B",
"Gv 	c #4F372B",
"Hv 	c #50352C",
"Iv 	c #4F322A",
"Jv 	c #4E3026",
"Kv 	c #4F3127",
"Lv 	c #55352A",
"Mv 	c #553828",
"Nv 	c #573826",
"Ov 	c #5A3523",
"Pv 	c #5E3020",
"Qv 	c #652B1D",
"Rv 	c #6C261C",
"Sv 	c #75221A",
"Tv 	c #7C1F1A",
"Uv 	c #8A1A16",
"Vv 	c #A01B16",
"Wv 	c #AE1913",
"Xv 	c #BE1A19",
"Yv 	c #CC191C",
"Zv 	c #DA151C",
"`v 	c #E31017",
" w 	c #EA0911",
".w 	c #EE040D",
"+w 	c #FA0A0B",
"@w 	c #FA0C0C",
"#w 	c #F40A09",
"$w 	c #E50304",
"%w 	c #DC0C02",
"&w 	c #DC1206",
"*w 	c #D91306",
"=w 	c #DA0904",
"-w 	c #DC160D",
";w 	c #C21302",
">w 	c #C11604",
",w 	c #C11C08",
"'w 	c #C31E0A",
")w 	c #C21D09",
"!w 	c #BE1C07",
"~w 	c #B61A03",
"{w 	c #C41D0D",
"]w 	c #BC1C0C",
"^w 	c #AE1F0E",
"/w 	c #A6230F",
"(w 	c #A42917",
"_w 	c #AE382A",
":w 	c #AC372D",
"<w 	c #8F221B",
"[w 	c #781510",
"}w 	c #6B1812",
"|w 	c #56160D",
"1w 	c #391B11",
"2w 	c #2C0F07",
"3w 	c #30150C",
"4w 	c #4A312C",
"5w 	c #45312A",
"6w 	c #2E1B17",
"7w 	c #140D05",
"8w 	c #1C0F09",
"9w 	c #1B0D0A",
"0w 	c #1E0C08",
"aw 	c #200C03",
"bw 	c #211811",
"cw 	c #2B140E",
"dw 	c #39170E",
"ew 	c #3F1008",
"fw 	c #440A00",
"gw 	c #5C0800",
"hw 	c #830400",
"iw 	c #BB1C16",
"jw 	c #CE1713",
"kw 	c #CF0501",
"lw 	c #DF0700",
"mw 	c #E01004",
"nw 	c #D70C00",
"ow 	c #D90E00",
"pw 	c #DB1002",
"qw 	c #E01003",
"rw 	c #EF0601",
"sw 	c #F30E09",
"tw 	c #F1100A",
"uw 	c #EC1208",
"vw 	c #E61302",
"ww 	c #E31601",
"xw 	c #E21A03",
"yw 	c #DF1D04",
"zw 	c #DA1E03",
"Aw 	c #D32002",
"Bw 	c #CD2000",
"Cw 	c #C92000",
"Dw 	c #C72000",
"Ew 	c #C62101",
"Fw 	c #CD2405",
"Gw 	c #D22004",
"Hw 	c #D21E03",
"Iw 	c #D11D02",
"Jw 	c #D21E05",
"Kw 	c #CC1902",
"Lw 	c #CC1801",
"Mw 	c #DC1706",
"Nw 	c #F50E08",
"Ow 	c #F80F08",
"Pw 	c #F81109",
"Qw 	c #F20E03",
"Rw 	c #F30C02",
"Sw 	c #F30B00",
"Tw 	c #F10900",
"Uw 	c #F50F02",
"Vw 	c #F40E00",
"Ww 	c #F41101",
"Xw 	c #F41202",
"Yw 	c #EE1100",
"Zw 	c #5B1C13",
"`w 	c #5C2016",
" x 	c #5A2418",
".x 	c #57271B",
"+x 	c #542D1E",
"@x 	c #523223",
"#x 	c #4C3221",
"$x 	c #45301F",
"%x 	c #413020",
"&x 	c #423022",
"*x 	c #422F21",
"=x 	c #44271F",
"-x 	c #442520",
";x 	c #442721",
">x 	c #402A1F",
",x 	c #3A2A1B",
"'x 	c #38281B",
")x 	c #342717",
"!x 	c #332518",
"~x 	c #312515",
"{x 	c #302718",
"]x 	c #382F20",
"^x 	c #352C1D",
"/x 	c #2F2617",
"(x 	c #2F2315",
"_x 	c #332719",
":x 	c #382C1E",
"<x 	c #30281B",
"[x 	c #302A1E",
"}x 	c #342E22",
"|x 	c #383226",
"1x 	c #393325",
"2x 	c #292114",
"3x 	c #20180B",
"4x 	c #282111",
"5x 	c #2E2717",
"6x 	c #362D1E",
"7x 	c #322918",
"8x 	c #302716",
"9x 	c #332A19",
"0x 	c #372E1D",
"ax 	c #392D1D",
"bx 	c #382B1B",
"cx 	c #312413",
"dx 	c #2D1C0C",
"ex 	c #301F0D",
"fx 	c #332212",
"gx 	c #372517",
"hx 	c #433228",
"ix 	c #46352D",
"jx 	c #47342D",
"kx 	c #49352E",
"lx 	c #4C352D",
"mx 	c #4E352E",
"nx 	c #4E362C",
"ox 	c #51352A",
"px 	c #4C392B",
"qx 	c #4B3A2A",
"rx 	c #4A3929",
"sx 	c #4A3726",
"tx 	c #4E3425",
"ux 	c #672E25",
"vx 	c #6C2923",
"wx 	c #75221C",
"xx 	c #801711",
"yx 	c #90150E",
"zx 	c #9E1412",
"Ax 	c #BF1518",
"Bx 	c #D01319",
"Cx 	c #DE1118",
"Dx 	c #E70E17",
"Ex 	c #E90911",
"Fx 	c #EC050B",
"Gx 	c #FE0604",
"Hx 	c #FE0606",
"Ix 	c #FB0B0A",
"Jx 	c #FC0E0C",
"Kx 	c #F80C0C",
"Lx 	c #DF0901",
"Mx 	c #DC0C00",
"Nx 	c #DF0C05",
"Ox 	c #E00B05",
"Px 	c #DC160B",
"Qx 	c #CE1002",
"Rx 	c #C31401",
"Sx 	c #B41600",
"Tx 	c #C81D0C",
"Ux 	c #C3190A",
"Vx 	c #B32815",
"Wx 	c #A12412",
"Xx 	c #982715",
"Yx 	c #A73B2E",
"Zx 	c #8B231A",
"`x 	c #7D1A15",
" y 	c #761D19",
".y 	c #5F140E",
"+y 	c #51160E",
"@y 	c #401107",
"#y 	c #38130A",
"$y 	c #34170F",
"%y 	c #4C352F",
"&y 	c #39261F",
"*y 	c #2A1814",
"=y 	c #1C0A06",
"-y 	c #1E0701",
";y 	c #26130C",
">y 	c #291E18",
",y 	c #22130C",
"'y 	c #3C170F",
")y 	c #3F0D06",
"!y 	c #5F0600",
"~y 	c #900D05",
"{y 	c #BD1A15",
"]y 	c #D31A17",
"^y 	c #D90C07",
"/y 	c #DB0D00",
"(y 	c #DB0C02",
"_y 	c #D90900",
":y 	c #DD0D01",
"<y 	c #DF0C01",
"[y 	c #E10B01",
"}y 	c #EA0E02",
"|y 	c #E61101",
"1y 	c #E61403",
"2y 	c #E11804",
"3y 	c #DE1B05",
"4y 	c #DA1E05",
"5y 	c #D31F04",
"6y 	c #D02104",
"7y 	c #C91F00",
"8y 	c #CB2201",
"9y 	c #CD2302",
"0y 	c #D12203",
"ay 	c #D22002",
"by 	c #D21F01",
"cy 	c #D21F08",
"dy 	c #CF1500",
"ey 	c #D11200",
"fy 	c #DF1405",
"gy 	c #E61407",
"hy 	c #F1120A",
"iy 	c #F5100A",
"jy 	c #F80F0A",
"ky 	c #F60F05",
"ly 	c #F40D03",
"my 	c #F40C00",
"ny 	c #F61001",
"oy 	c #F20F00",
"py 	c #F00E00",
"qy 	c #ED0E00",
"ry 	c #512218",
"sy 	c #512518",
"ty 	c #4C2619",
"uy 	c #482718",
"vy 	c #452B1A",
"wy 	c #43311D",
"xy 	c #40311E",
"yy 	c #3B2E1E",
"zy 	c #3C261B",
"Ay 	c #3D251B",
"By 	c #3D271A",
"Cy 	c #392818",
"Dy 	c #382618",
"Ey 	c #352515",
"Fy 	c #352516",
"Gy 	c #332615",
"Hy 	c #322616",
"Iy 	c #312916",
"Jy 	c #332C19",
"Ky 	c #332C1A",
"Ly 	c #312A18",
"My 	c #302917",
"Ny 	c #302919",
"Oy 	c #2D2719",
"Py 	c #2B271B",
"Qy 	c #2C281C",
"Ry 	c #2F2B1F",
"Sy 	c #332D1F",
"Ty 	c #2B2316",
"Uy 	c #241C0F",
"Vy 	c #2A2313",
"Wy 	c #312817",
"Xy 	c #362A1A",
"Yy 	c #392C1C",
"Zy 	c #392C1B",
"`y 	c #372A17",
" z 	c #352817",
".z 	c #322514",
"+z 	c #312316",
"@z 	c #362619",
"#z 	c #402D26",
"$z 	c #48342D",
"%z 	c #4B342E",
"&z 	c #4C332C",
"*z 	c #4F342D",
"=z 	c #50322A",
"-z 	c #4F342B",
";z 	c #49392C",
">z 	c #463A2C",
",z 	c #443B2C",
"'z 	c #453929",
")z 	c #473728",
"!z 	c #57352B",
"~z 	c #5D322B",
"{z 	c #612F28",
"]z 	c #692822",
"^z 	c #732018",
"/z 	c #7B1A11",
"(z 	c #81140F",
"_z 	c #8D100E",
":z 	c #9E0E0E",
"<z 	c #B20F14",
"[z 	c #C51218",
"}z 	c #D11219",
"|z 	c #DC1117",
"1z 	c #E20F15",
"2z 	c #E80D11",
"3z 	c #EC0A0C",
"4z 	c #EF0508",
"5z 	c #F20203",
"6z 	c #FA0606",
"7z 	c #F50100",
"8z 	c #FD0B0A",
"9z 	c #F80807",
"0z 	c #F60806",
"az 	c #E30A01",
"bz 	c #E20C02",
"cz 	c #E00D02",
"dz 	c #DE0E04",
"ez 	c #DD0E06",
"fz 	c #E10705",
"gz 	c #E01109",
"hz 	c #D40E03",
"iz 	c #CB1102",
"jz 	c #C81705",
"kz 	c #C51603",
"lz 	c #BE2110",
"mz 	c #B32C19",
"nz 	c #901B09",
"oz 	c #92281A",
"pz 	c #9D3B30",
"qz 	c #84251F",
"rz 	c #721915",
"sz 	c #661713",
"tz 	c #520F09",
"uz 	c #4B150B",
"vz 	c #3F1509",
"wz 	c #37150B",
"xz 	c #301409",
"yz 	c #3B2319",
"zz 	c #452E28",
"Az 	c #301D16",
"Bz 	c #24120E",
"Cz 	c #1A110A",
"Dz 	c #1A0804",
"Ez 	c #220E05",
"Fz 	c #24130C",
"Gz 	c #341B16",
"Hz 	c #3C150E",
"Iz 	c #410C06",
"Jz 	c #4D0A02",
"Kz 	c #630600",
"Lz 	c #950E08",
"Mz 	c #C11A14",
"Nz 	c #D61915",
"Oz 	c #E30E00",
"Pz 	c #E10F00",
"Qz 	c #DC0900",
"Rz 	c #DE0B00",
"Sz 	c #E70904",
"Tz 	c #E91102",
"Uz 	c #E71504",
"Vz 	c #DE1A04",
"Wz 	c #D31E03",
"Xz 	c #CD1B00",
"Yz 	c #CC1D00",
"Zz 	c #CD1E00",
"`z 	c #D01E00",
" A 	c #D42103",
".A 	c #CF1601",
"+A 	c #D21501",
"@A 	c #D31401",
"#A 	c #E11104",
"$A 	c #E61005",
"%A 	c #F91009",
"&A 	c #FA1309",
"*A 	c #FA1208",
"=A 	c #F60E04",
"-A 	c #F50D03",
";A 	c #F60E02",
">A 	c #F61003",
",A 	c #F31000",
"'A 	c #F10F00",
")A 	c #F01100",
"!A 	c #F01301",
"~A 	c #4E231A",
"{A 	c #4C2418",
"]A 	c #482418",
"^A 	c #402315",
"/A 	c #3D2616",
"(A 	c #3D2C1A",
"_A 	c #342D1A",
":A 	c #322D19",
"<A 	c #312F1A",
"[A 	c #332E1B",
"}A 	c #322D1A",
"|A 	c #322515",
"1A 	c #352315",
"2A 	c #372415",
"3A 	c #392413",
"4A 	c #352211",
"5A 	c #352213",
"6A 	c #352412",
"7A 	c #342414",
"8A 	c #332613",
"9A 	c #342917",
"0A 	c #312914",
"aA 	c #302916",
"bA 	c #342F1B",
"cA 	c #312C18",
"dA 	c #2E2916",
"eA 	c #2C291A",
"fA 	c #2C261A",
"gA 	c #2D271B",
"hA 	c #30281D",
"iA 	c #31291E",
"jA 	c #2F2519",
"kA 	c #2C2216",
"lA 	c #2E2418",
"mA 	c #312819",
"nA 	c #312A1A",
"oA 	c #322B1B",
"pA 	c #332C1C",
"qA 	c #372B1D",
"rA 	c #362A1C",
"sA 	c #37291C",
"tA 	c #3C2C1F",
"uA 	c #3F2F22",
"vA 	c #403023",
"wA 	c #3E3321",
"xA 	c #322618",
"yA 	c #342619",
"zA 	c #38271D",
"AA 	c #48312B",
"BA 	c #4C312A",
"CA 	c #4E312B",
"DA 	c #4F302B",
"EA 	c #502F28",
"FA 	c #512E28",
"GA 	c #493628",
"HA 	c #483628",
"IA 	c #49372B",
"JA 	c #46382D",
"KA 	c #45392D",
"LA 	c #443A2E",
"MA 	c #43392D",
"NA 	c #4D372C",
"OA 	c #54362E",
"PA 	c #5B322C",
"QA 	c #602F2B",
"RA 	c #652B27",
"SA 	c #682920",
"TA 	c #6B2219",
"UA 	c #6E1912",
"VA 	c #74130D",
"WA 	c #810E0B",
"XA 	c #900E0E",
"YA 	c #A10F10",
"ZA 	c #AF0F11",
"`A 	c #C01315",
" B 	c #CE1618",
".B 	c #DC181A",
"+B 	c #E31517",
"@B 	c #EB060B",
"#B 	c #F00309",
"$B 	c #F5040A",
"%B 	c #F40201",
"&B 	c #FC0A08",
"*B 	c #F10200",
"=B 	c #F00200",
"-B 	c #EF0401",
";B 	c #E40A01",
">B 	c #D90D02",
",B 	c #E00A02",
"'B 	c #E20D05",
")B 	c #CD0F01",
"!B 	c #CF1A09",
"~B 	c #C51402",
"{B 	c #C41907",
"]B 	c #C32814",
"^B 	c #B3301C",
"/B 	c #871805",
"(B 	c #7F1F11",
"_B 	c #883026",
":B 	c #792421",
"<B 	c #6A1A19",
"[B 	c #4A0E06",
"}B 	c #431307",
"|B 	c #3B1508",
"1B 	c #2F1308",
"2B 	c #381D14",
"3B 	c #473126",
"4B 	c #37231C",
"5B 	c #26150D",
"6B 	c #160D06",
"7B 	c #191009",
"8B 	c #190602",
"9B 	c #281109",
"0B 	c #26130D",
"aB 	c #361915",
"bB 	c #40150F",
"cB 	c #430905",
"dB 	c #4D0600",
"eB 	c #660500",
"fB 	c #9E130E",
"gB 	c #C71B17",
"hB 	c #DA1816",
"iB 	c #E01101",
"jB 	c #E00B03",
"kB 	c #DB0E00",
"lB 	c #DE0C00",
"mB 	c #DF0D00",
"nB 	c #DE0E02",
"oB 	c #ED0707",
"pB 	c #EE0E04",
"qB 	c #EA1004",
"rB 	c #E71305",
"sB 	c #DA1A03",
"tB 	c #D51900",
"uB 	c #D21A00",
"vB 	c #D01B00",
"wB 	c #D42005",
"xB 	c #D62305",
"yB 	c #D92409",
"zB 	c #DA220A",
"AB 	c #D71E09",
"BB 	c #D41703",
"CB 	c #D51402",
"DB 	c #E31104",
"EB 	c #FC120B",
"FB 	c #FD140D",
"GB 	c #FF150E",
"HB 	c #FC1209",
"IB 	c #FB1108",
"JB 	c #F91107",
"KB 	c #F41003",
"LB 	c #F11203",
"MB 	c #F11404",
"NB 	c #EE1504",
"OB 	c #412116",
"PB 	c #3D2115",
"QB 	c #3B2517",
"RB 	c #3B2B1B",
"SB 	c #2D2A17",
"TB 	c #2E2B18",
"UB 	c #2E2D19",
"VB 	c #2B2815",
"WB 	c #2B2613",
"XB 	c #2C2513",
"YB 	c #2F2313",
"ZB 	c #342112",
"`B 	c #362110",
" C 	c #33200F",
".C 	c #321F0E",
"+C 	c #31200E",
"@C 	c #30210E",
"#C 	c #302010",
"$C 	c #302513",
"%C 	c #2F2714",
"&C 	c #312A17",
"*C 	c #342D1B",
"=C 	c #352E1C",
"-C 	c #322C1C",
";C 	c #322C20",
">C 	c #33291F",
",C 	c #34281C",
"'C 	c #32261A",
")C 	c #33271B",
"!C 	c #312519",
"~C 	c #302416",
"{C 	c #32291A",
"]C 	c #36281B",
"^C 	c #3B2B1E",
"/C 	c #372A1A",
"(C 	c #332B18",
"_C 	c #352F19",
":C 	c #3A321F",
"<C 	c #3C3322",
"[C 	c #3D2F22",
"}C 	c #3E2D23",
"|C 	c #402C23",
"1C 	c #452E26",
"2C 	c #472E27",
"3C 	c #4A2F28",
"4C 	c #4C2F27",
"5C 	c #4F2E25",
"6C 	c #473626",
"7C 	c #433826",
"8C 	c #443726",
"9C 	c #463627",
"0C 	c #47372A",
"aC 	c #47362C",
"bC 	c #45372C",
"cC 	c #44372E",
"dC 	c #45382F",
"eC 	c #47392E",
"fC 	c #4C382F",
"gC 	c #52352F",
"hC 	c #58332D",
"iC 	c #5D302D",
"jC 	c #5E2E2A",
"kC 	c #5F2F25",
"lC 	c #612D22",
"mC 	c #67281F",
"nC 	c #6C231C",
"oC 	c #741D16",
"pC 	c #791611",
"qC 	c #82110D",
"rC 	c #8B0B0A",
"sC 	c #9B0F0E",
"tC 	c #AE1414",
"uC 	c #C41C1C",
"vC 	c #D51E20",
"wC 	c #E0191E",
"xC 	c #E51219",
"yC 	c #E90C15",
"zC 	c #EE0602",
"AC 	c #DC0D03",
"BC 	c #E20904",
"CC 	c #E50F07",
"DC 	c #DD1309",
"EC 	c #D20E02",
"FC 	c #D51A0B",
"GC 	c #D41B09",
"HC 	c #CE1803",
"IC 	c #CB1802",
"JC 	c #C12612",
"KC 	c #B63520",
"LC 	c #912614",
"MC 	c #6A1103",
"NC 	c #6D1E17",
"OC 	c #6B201D",
"PC 	c #621C1C",
"QC 	c #581816",
"RC 	c #3F1306",
"SC 	c #361204",
"TC 	c #311308",
"UC 	c #24130B",
"VC 	c #170C08",
"WC 	c #1B120B",
"XC 	c #1C0C0C",
"YC 	c #180906",
"ZC 	c #170400",
"`C 	c #2C150D",
" D 	c #2A1510",
".D 	c #391A17",
"+D 	c #461612",
"@D 	c #460906",
"#D 	c #4D0200",
"$D 	c #690300",
"%D 	c #CB1C17",
"&D 	c #DB1814",
"*D 	c #E10D09",
"=D 	c #ED0F04",
"-D 	c #E51000",
";D 	c #E11401",
">D 	c #D80F00",
",D 	c #DA0F00",
"'D 	c #E91104",
")D 	c #E01504",
"!D 	c #D61C03",
"~D 	c #D52106",
"{D 	c #D82308",
"]D 	c #DC220B",
"^D 	c #DC1B09",
"/D 	c #E21406",
"(D 	c #E71508",
"_D 	c #EA1409",
":D 	c #E90F05",
"<D 	c #FB0E08",
"[D 	c #FE110B",
"}D 	c #FF130D",
"|D 	c #FD130C",
"1D 	c #FE140B",
"2D 	c #FB1309",
"3D 	c #F30F04",
"4D 	c #F31103",
"5D 	c #ED1604",
"6D 	c #35140B",
"7D 	c #37190F",
"8D 	c #381C11",
"9D 	c #371F13",
"0D 	c #372416",
"aD 	c #2F2818",
"bD 	c #2F2919",
"cD 	c #2E2B1A",
"dD 	c #2D2A19",
"eD 	c #2B2817",
"fD 	c #292615",
"gD 	c #2B2515",
"hD 	c #312111",
"iD 	c #321F10",
"jD 	c #301F0F",
"kD 	c #2F1E0E",
"lD 	c #2C1C0C",
"mD 	c #2B1B0B",
"nD 	c #2B1B0C",
"oD 	c #281B0B",
"pD 	c #291C0C",
"qD 	c #2A1E0E",
"rD 	c #2B1F0F",
"sD 	c #2C2012",
"tD 	c #2D2415",
"uD 	c #33291D",
"vD 	c #362C22",
"wD 	c #352D22",
"xD 	c #372A21",
"yD 	c #35281F",
"zD 	c #34261D",
"AD 	c #32241B",
"BD 	c #322419",
"CD 	c #302418",
"DD 	c #332B1E",
"ED 	c #342A1E",
"FD 	c #362A1E",
"GD 	c #35291D",
"HD 	c #39301F",
"ID 	c #3F3325",
"JD 	c #413026",
"KD 	c #423026",
"LD 	c #492E23",
"MD 	c #4E3025",
"ND 	c #4C3223",
"OD 	c #443520",
"PD 	c #413620",
"QD 	c #433623",
"RD 	c #453525",
"SD 	c #473426",
"TD 	c #473328",
"UD 	c #47352B",
"VD 	c #47362E",
"WD 	c #46382F",
"XD 	c #493830",
"YD 	c #4B372E",
"ZD 	c #50352E",
"`D 	c #54332E",
" E 	c #58302E",
".E 	c #58312C",
"+E 	c #573229",
"@E 	c #583428",
"#E 	c #5D3327",
"$E 	c #623025",
"%E 	c #672B21",
"&E 	c #69231B",
"*E 	c #6C1C13",
"=E 	c #70160E",
"-E 	c #7A130C",
";E 	c #89140D",
">E 	c #B41C1B",
",E 	c #C91C20",
"'E 	c #D61B22",
")E 	c #E01721",
"!E 	c #E8121C",
"~E 	c #EB0205",
"{E 	c #EE0501",
"]E 	c #E60901",
"^E 	c #E00D04",
"/E 	c #E80D07",
"(E 	c #E41005",
"_E 	c #DF1308",
":E 	c #D20C01",
"<E 	c #CF0D01",
"[E 	c #D81F0D",
"}E 	c #CD1A04",
"|E 	c #B8200B",
"1E 	c #B73923",
"2E 	c #A23B2A",
"3E 	c #631105",
"4E 	c #5B140E",
"5E 	c #5C1B19",
"6E 	c #561819",
"7E 	c #4F1513",
"8E 	c #47160F",
"9E 	c #3A1505",
"0E 	c #311200",
"aE 	c #301408",
"bE 	c #3B2015",
"cE 	c #422A20",
"dE 	c #452F24",
"eE 	c #271813",
"fE 	c #20150F",
"gE 	c #120701",
"hE 	c #1F140E",
"iE 	c #190401",
"jE 	c #29100B",
"kE 	c #301710",
"lE 	c #2D1912",
"mE 	c #170803",
"nE 	c #25130F",
"oE 	c #301814",
"pE 	c #3D1B19",
"qE 	c #4A1915",
"rE 	c #480806",
"sE 	c #4D0000",
"tE 	c #6C0300",
"uE 	c #AE1A16",
"vE 	c #CE1C18",
"wE 	c #DC1613",
"xE 	c #EF1106",
"yE 	c #E21502",
"zE 	c #D71200",
"AE 	c #D81302",
"BE 	c #DB1200",
"CE 	c #DA1100",
"DE 	c #E31507",
"EE 	c #E41407",
"FE 	c #DE1406",
"GE 	c #DE1302",
"HE 	c #DD1805",
"IE 	c #D91F06",
"JE 	c #D11F03",
"KE 	c #D21D02",
"LE 	c #DD1F09",
"ME 	c #E11C0B",
"NE 	c #E21A0A",
"OE 	c #E51709",
"PE 	c #EB1308",
"QE 	c #F10C06",
"RE 	c #FC0D0A",
"SE 	c #FB0D0A",
"TE 	c #FC0E0B",
"UE 	c #FA110A",
"VE 	c #F60F07",
"WE 	c #F20F06",
"XE 	c #F11105",
"YE 	c #F01406",
"ZE 	c #EC1405",
"`E 	c #E71403",
" F 	c #260F07",
".F 	c #2C180F",
"+F 	c #2E2516",
"@F 	c #2E2619",
"#F 	c #2C2417",
"$F 	c #2B2414",
"%F 	c #2E2110",
"&F 	c #2D2010",
"*F 	c #2B1E0E",
"=F 	c #2A1A0D",
"-F 	c #29190C",
";F 	c #221409",
">F 	c #23150A",
",F 	c #2D1F16",
"'F 	c #31241B",
")F 	c #32251C",
"!F 	c #372920",
"~F 	c #36251D",
"{F 	c #33221A",
"]F 	c #301F17",
"^F 	c #312318",
"/F 	c #34281A",
"(F 	c #322A1D",
"_F 	c #352B1F",
":F 	c #382A1D",
"<F 	c #412F23",
"[F 	c #3E2C20",
"}F 	c #452F21",
"|F 	c #463022",
"1F 	c #483121",
"2F 	c #493222",
"3F 	c #483320",
"4F 	c #44341D",
"5F 	c #43341D",
"6F 	c #45331F",
"7F 	c #493224",
"8F 	c #4B3025",
"9F 	c #493127",
"0F 	c #483129",
"aF 	c #46332C",
"bF 	c #48372F",
"cF 	c #4A3730",
"dF 	c #51322D",
"eF 	c #4F3429",
"fF 	c #4D3628",
"gF 	c #513328",
"hF 	c #543226",
"iF 	c #573124",
"jF 	c #5C2E21",
"kF 	c #5F2B1E",
"lF 	c #66281B",
"mF 	c #671F13",
"nF 	c #6F180E",
"oF 	c #7C130D",
"pF 	c #8F1210",
"qF 	c #A91416",
"rF 	c #BE191F",
"sF 	c #D01A26",
"tF 	c #DE1923",
"uF 	c #E40D12",
"vF 	c #E90709",
"wF 	c #E90407",
"xF 	c #FC0B04",
"yF 	c #FB0A03",
"zF 	c #FA0701",
"AF 	c #F30000",
"BF 	c #E50B02",
"CF 	c #E40E04",
"DF 	c #E21309",
"EF 	c #CE0C00",
"FF 	c #CE1B04",
"GF 	c #C51901",
"HF 	c #CC1702",
"IF 	c #D31E09",
"JF 	c #B63923",
"KF 	c #A5422F",
"LF 	c #6B1D11",
"MF 	c #54130D",
"NF 	c #541818",
"OF 	c #491112",
"PF 	c #3E0B0A",
"QF 	c #41140E",
"RF 	c #391505",
"SF 	c #331604",
"TF 	c #371B0F",
"UF 	c #342015",
"VF 	c #24110A",
"WF 	c #2D1C14",
"XF 	c #221711",
"YF 	c #1C0A0A",
"ZF 	c #1B0706",
"`F 	c #1E0604",
" G 	c #2E120E",
".G 	c #2D1610",
"+G 	c #190703",
"@G 	c #2C1915",
"#G 	c #361D19",
"$G 	c #3E1B19",
"%G 	c #4E1816",
"&G 	c #4B0706",
"*G 	c #4E0000",
"=G 	c #730704",
"-G 	c #B31E1A",
";G 	c #D01D18",
">G 	c #DB1411",
",G 	c #EE0F07",
"'G 	c #F01205",
")G 	c #E61300",
"!G 	c #E11701",
"~G 	c #D91602",
"{G 	c #DA1703",
"]G 	c #DF1403",
"^G 	c #E21708",
"/G 	c #E11709",
"(G 	c #E6110D",
"_G 	c #ED0709",
":G 	c #E40A00",
"<G 	c #E20E00",
"[G 	c #DA1D07",
"}G 	c #CE1C00",
"|G 	c #CE1800",
"1G 	c #E81408",
"2G 	c #FA0C09",
"3G 	c #F9100B",
"4G 	c #F11308",
"5G 	c #ED1508",
"6G 	c #20180D",
"7G 	c #221A0F",
"8G 	c #251D12",
"9G 	c #2A2016",
"0G 	c #2B1E15",
"aG 	c #281C10",
"bG 	c #2B1D12",
"cG 	c #2F1E16",
"dG 	c #2E1D13",
"eG 	c #2D2111",
"fG 	c #2A2311",
"gG 	c #2B2211",
"hG 	c #2B2213",
"iG 	c #2A2112",
"jG 	c #2B1F11",
"kG 	c #2A1C11",
"lG 	c #28170F",
"mG 	c #25140D",
"nG 	c #27140E",
"oG 	c #271410",
"pG 	c #261710",
"qG 	c #2A1B14",
"rG 	c #2E2017",
"sG 	c #34211A",
"tG 	c #332019",
"uG 	c #352319",
"vG 	c #2F291B",
"wG 	c #2D2A1B",
"xG 	c #302A1C",
"yG 	c #322C1E",
"zG 	c #362E21",
"AG 	c #412F21",
"BG 	c #423121",
"CG 	c #433220",
"DG 	c #43321E",
"EG 	c #43331C",
"FG 	c #463219",
"GG 	c #473119",
"HG 	c #4A2F1A",
"IG 	c #4C2F1D",
"JG 	c #4E2E21",
"KG 	c #4E2E23",
"LG 	c #4C2E26",
"MG 	c #4B3029",
"NG 	c #43372B",
"OG 	c #43352A",
"PG 	c #493729",
"QG 	c #4B3527",
"RG 	c #4F3524",
"SG 	c #543523",
"TG 	c #583321",
"UG 	c #582919",
"VG 	c #612314",
"WG 	c #6A1A0F",
"XG 	c #7A130E",
"YG 	c #8C0E0F",
"ZG 	c #9F0E13",
"`G 	c #B2101B",
" H 	c #C8101A",
".H 	c #DD0C12",
"+H 	c #E8090C",
"@H 	c #EB0B0C",
"#H 	c #FB0800",
"$H 	c #F90600",
"%H 	c #E40B02",
"&H 	c #DE0901",
"*H 	c #E80E02",
"=H 	c #E40C01",
"-H 	c #D51E0C",
";H 	c #CE1A03",
">H 	c #BD250E",
",H 	c #B33922",
"'H 	c #943322",
")H 	c #6B2116",
"!H 	c #4E110C",
"~H 	c #521A1B",
"{H 	c #441012",
"]H 	c #360403",
"^H 	c #3C110A",
"/H 	c #381706",
"(H 	c #391E0B",
"_H 	c #43291C",
":H 	c #382217",
"<H 	c #251106",
"[H 	c #2C1B13",
"}H 	c #1A0F0B",
"|H 	c #1B0909",
"1H 	c #301410",
"2H 	c #31160F",
"3H 	c #231009",
"4H 	c #34211D",
"5H 	c #3A1E1B",
"6H 	c #3C1615",
"7H 	c #4C1413",
"8H 	c #4B0505",
"9H 	c #530000",
"0H 	c #7E0E0C",
"aH 	c #B61E1B",
"bH 	c #D11B17",
"cH 	c #DB110F",
"dH 	c #F01008",
"eH 	c #F11306",
"fH 	c #E71401",
"gH 	c #E11902",
"hH 	c #DE1909",
"iH 	c #E2180A",
"jH 	c #E21706",
"kH 	c #E1190A",
"lH 	c #E80800",
"mH 	c #E21205",
"nH 	c #E01906",
"oH 	c #D41E06",
"pH 	c #D11F05",
"qH 	c #D11B03",
"rH 	c #E01B0A",
"sH 	c #E71307",
"tH 	c #E81005",
"uH 	c #FB0707",
"vH 	c #F40F09",
"wH 	c #F3130B",
"xH 	c #F11509",
"yH 	c #EB1608",
"zH 	c #DE1100",
"AH 	c #1F1D11",
"BH 	c #201E11",
"CH 	c #201C11",
"DH 	c #1D190D",
"EH 	c #211A10",
"FH 	c #261910",
"GH 	c #2D1A13",
"HH 	c #2E1A13",
"IH 	c #2D1C12",
"JH 	c #292313",
"KH 	c #2B2115",
"LH 	c #2C1F16",
"MH 	c #2C1E15",
"NH 	c #30211A",
"OH 	c #2C1D16",
"PH 	c #2B1915",
"QH 	c #2F1C18",
"RH 	c #200E0A",
"SH 	c #281912",
"TH 	c #2E281A",
"UH 	c #342E20",
"VH 	c #352D20",
"WH 	c #352919",
"XH 	c #3C2E21",
"YH 	c #3F2F20",
"ZH 	c #423223",
"`H 	c #433123",
" I 	c #433222",
".I 	c #41321D",
"+I 	c #40311C",
"@I 	c #412F19",
"#I 	c #4A3019",
"$I 	c #4B2F1A",
"%I 	c #4D2E1C",
"&I 	c #4D2D20",
"*I 	c #4C2E24",
"=I 	c #4A2F26",
"-I 	c #443027",
";I 	c #42382C",
">I 	c #40362A",
",I 	c #3F3627",
"'I 	c #403728",
")I 	c #44382A",
"!I 	c #46382B",
"~I 	c #49392A",
"{I 	c #4B3B2C",
"]I 	c #4C3C2C",
"^I 	c #493C2B",
"/I 	c #483926",
"(I 	c #473622",
"_I 	c #48331E",
":I 	c #4C2D19",
"<I 	c #562B1A",
"[I 	c #642619",
"}I 	c #6D1D16",
"|I 	c #791110",
"1I 	c #830B0D",
"2I 	c #920911",
"3I 	c #A4070E",
"4I 	c #C90F12",
"5I 	c #DC1212",
"6I 	c #E41414",
"7I 	c #E6100E",
"8I 	c #E60807",
"9I 	c #FB0C07",
"0I 	c #FA0500",
"aI 	c #F70000",
"bI 	c #E00700",
"cI 	c #E80901",
"dI 	c #E20800",
"eI 	c #DE1408",
"fI 	c #D01003",
"gI 	c #D51B0C",
"hI 	c #C71200",
"iI 	c #C31400",
"jI 	c #C02F1C",
"kI 	c #AE3927",
"lI 	c #7F2213",
"mI 	c #631A11",
"nI 	c #480D07",
"oI 	c #541E1E",
"pI 	c #461616",
"qI 	c #330704",
"rI 	c #39140B",
"sI 	c #361909",
"tI 	c #3C2211",
"uI 	c #4C3527",
"vI 	c #311B10",
"wI 	c #1D0900",
"xI 	c #21120B",
"yI 	c #210F0B",
"zI 	c #1F0C08",
"AI 	c #1C0706",
"BI 	c #200808",
"CI 	c #260C0B",
"DI 	c #2B120E",
"EI 	c #311511",
"FI 	c #30150E",
"GI 	c #2A110C",
"HI 	c #250D09",
"II 	c #26110E",
"JI 	c #3A2522",
"KI 	c #3B1F1C",
"LI 	c #391310",
"MI 	c #49120F",
"NI 	c #4D0300",
"OI 	c #5A0000",
"PI 	c #8B1110",
"QI 	c #D51816",
"RI 	c #DB100C",
"SI 	c #EE1506",
"TI 	c #E41601",
"UI 	c #DD1D06",
"VI 	c #DD1D08",
"WI 	c #DF1B0B",
"XI 	c #E31B0C",
"YI 	c #E41B0B",
"ZI 	c #DF1C06",
"`I 	c #DF1604",
" J 	c #E11607",
".J 	c #DF170A",
"+J 	c #F30306",
"@J 	c #DF1C0A",
"#J 	c #DD200A",
"$J 	c #DF1F0A",
"%J 	c #E91C0B",
"&J 	c #EB1709",
"*J 	c #FE0A0C",
"=J 	c #F5150D",
"-J 	c #F1170D",
";J 	c #E31404",
">J 	c #DD1000",
",J 	c #211B0F",
"'J 	c #211B0D",
")J 	c #201A0C",
"!J 	c #21190C",
"~J 	c #21170B",
"{J 	c #271B0F",
"]J 	c #281A0F",
"^J 	c #271D11",
"/J 	c #282013",
"(J 	c #2D2319",
"_J 	c #2C2218",
":J 	c #2A1D14",
"<J 	c #2A1D15",
"[J 	c #2C1F17",
"}J 	c #2E2119",
"|J 	c #31241C",
"1J 	c #32251F",
"2J 	c #2F221C",
"3J 	c #21140C",
"4J 	c #31231A",
"5J 	c #33251C",
"6J 	c #2F2114",
"7J 	c #302215",
"8J 	c #312414",
"9J 	c #352E1E",
"0J 	c #383121",
"aJ 	c #3D3425",
"bJ 	c #3C3324",
"cJ 	c #3B2D20",
"dJ 	c #433326",
"eJ 	c #3B291B",
"fJ 	c #453223",
"gJ 	c #433021",
"hJ 	c #473221",
"iJ 	c #4E3928",
"jJ 	c #412C19",
"kJ 	c #48341C",
"lJ 	c #46301B",
"mJ 	c #422B19",
"nJ 	c #452E1E",
"oJ 	c #493325",
"pJ 	c #483225",
"qJ 	c #45342A",
"rJ 	c #423429",
"sJ 	c #3F3327",
"tJ 	c #403424",
"uJ 	c #423626",
"vJ 	c #443727",
"wJ 	c #453A28",
"xJ 	c #443C27",
"yJ 	c #463B25",
"zJ 	c #493A25",
"AJ 	c #4B3621",
"BJ 	c #4F2E1D",
"CJ 	c #562618",
"DJ 	c #5F2017",
"EJ 	c #6B1C17",
"FJ 	c #751717",
"GJ 	c #780F13",
"HJ 	c #820709",
"IJ 	c #9A0604",
"JJ 	c #BF1A14",
"KJ 	c #D3211D",
"LJ 	c #D51814",
"MJ 	c #DF120D",
"NJ 	c #EA0F0B",
"OJ 	c #E50A06",
"PJ 	c #EF0E0A",
"QJ 	c #CB1100",
"RJ 	c #D7210C",
"SJ 	c #BF1C0B",
"TJ 	c #C12E1E",
"UJ 	c #B53325",
"VJ 	c #912217",
"WJ 	c #751B12",
"XJ 	c #641913",
"YJ 	c #541510",
"ZJ 	c #48130F",
"`J 	c #421711",
" K 	c #2E1204",
".K 	c #341F0C",
"+K 	c #43301F",
"@K 	c #472F23",
"#K 	c #392117",
"$K 	c #2A1409",
"%K 	c #26140A",
"&K 	c #1A1007",
"*K 	c #1B100C",
"=K 	c #110101",
"-K 	c #150603",
";K 	c #2C1E1D",
">K 	c #2D1E1B",
",K 	c #2F1D19",
"'K 	c #26130F",
")K 	c #210C09",
"!K 	c #220D0A",
"~K 	c #240C0A",
"{K 	c #220807",
"]K 	c #210406",
"^K 	c #290B0D",
"/K 	c #311514",
"(K 	c #331612",
"_K 	c #2B0C0A",
":K 	c #240604",
"<K 	c #361C1B",
"[K 	c #3D2521",
"}K 	c #371E19",
"|K 	c #38160D",
"1K 	c #470E05",
"2K 	c #4F0000",
"3K 	c #690000",
"4K 	c #9C110E",
"5K 	c #CE1A1B",
"6K 	c #DF1515",
"7K 	c #DD0D0B",
"8K 	c #EB190C",
"9K 	c #EC1D0B",
"0K 	c #E31903",
"aK 	c #E11E08",
"bK 	c #DA1606",
"cK 	c #D91505",
"dK 	c #DF1B05",
"eK 	c #E31807",
"fK 	c #E51509",
"gK 	c #E4140A",
"hK 	c #E3120B",
"iK 	c #E2110C",
"jK 	c #E8150E",
"kK 	c #E8130D",
"lK 	c #F40105",
"mK 	c #EE080B",
"nK 	c #EB0F0F",
"oK 	c #E51312",
"pK 	c #D6150C",
"qK 	c #EB1D0F",
"rK 	c #F01E0F",
"sK 	c #F11C0E",
"tK 	c #F3190D",
"uK 	c #F21407",
"vK 	c #ED0D03",
"wK 	c #EA0700",
"xK 	c #EA0600",
"yK 	c #ED0400",
"zK 	c #EF0400",
"AK 	c #F10300",
"BK 	c #F00000",
"CK 	c #F90B0B",
"DK 	c #FA0E0E",
"EK 	c #EB0001",
"FK 	c #EF170C",
"GK 	c #221A0D",
"HK 	c #23190D",
"IK 	c #251B0F",
"JK 	c #291F15",
"KK 	c #2E241A",
"LK 	c #2A2017",
"MK 	c #2B201A",
"NK 	c #2A1F19",
"OK 	c #23160E",
"PK 	c #271A11",
"QK 	c #372718",
"RK 	c #292011",
"SK 	c #3A3122",
"TK 	c #3A2C1F",
"UK 	c #3C291A",
"VK 	c #442D1D",
"WK 	c #4D3626",
"XK 	c #553E2C",
"YK 	c #493721",
"ZK 	c #402E1A",
"`K 	c #3F2E1E",
" L 	c #443226",
".L 	c #443329",
"+L 	c #423427",
"@L 	c #433626",
"#L 	c #443927",
"$L 	c #483828",
"%L 	c #493627",
"&L 	c #4A3426",
"*L 	c #453827",
"=L 	c #433B26",
"-L 	c #423C26",
";L 	c #413B23",
">L 	c #423721",
",L 	c #483723",
"'L 	c #662A22",
")L 	c #6E2721",
"!L 	c #6E1E1D",
"~L 	c #741511",
"{L 	c #810800",
"]L 	c #9A1006",
"^L 	c #AA1008",
"/L 	c #BB1009",
"(L 	c #D51812",
"_L 	c #E91915",
":L 	c #EF110C",
"<L 	c #F80100",
"[L 	c #F2060A",
"}L 	c #EF090B",
"|L 	c #E70707",
"1L 	c #F50C08",
"2L 	c #F80809",
"3L 	c #D21205",
"4L 	c #CC1102",
"5L 	c #D41608",
"6L 	c #C81F0C",
"7L 	c #C02717",
"8L 	c #BB3325",
"9L 	c #A63026",
"0L 	c #841F17",
"aL 	c #6D1511",
"bL 	c #5F1610",
"cL 	c #420F0B",
"dL 	c #3C140C",
"eL 	c #38180D",
"fL 	c #321B0B",
"gL 	c #3B2518",
"hL 	c #321A10",
"iL 	c #281207",
"jL 	c #27130A",
"kL 	c #231208",
"lL 	c #190C04",
"mL 	c #110302",
"nL 	c #140605",
"oL 	c #1B0B0B",
"pL 	c #130101",
"qL 	c #170505",
"rL 	c #200E0E",
"sL 	c #1C0E0B",
"tL 	c #2D1B17",
"uL 	c #2A1713",
"vL 	c #25100D",
"wL 	c #250D0B",
"xL 	c #250B0A",
"yL 	c #2B090A",
"zL 	c #351916",
"AL 	c #311410",
"BL 	c #2E0C0B",
"CL 	c #412323",
"DL 	c #3C231F",
"EL 	c #321912",
"FL 	c #36140A",
"GL 	c #4A1005",
"HL 	c #550100",
"IL 	c #700000",
"JL 	c #A50D0C",
"KL 	c #D71619",
"LL 	c #E61113",
"ML 	c #E71808",
"NL 	c #E81B06",
"OL 	c #E61C04",
"PL 	c #EA230C",
"QL 	c #DE1702",
"RL 	c #DB1603",
"SL 	c #DB1806",
"TL 	c #E11605",
"UL 	c #E8150C",
"VL 	c #E7160F",
"WL 	c #E6170F",
"XL 	c #E6160C",
"YL 	c #E81409",
"ZL 	c #EA0A0B",
"`L 	c #E30F0E",
" M 	c #D9120F",
".M 	c #CF0F0A",
"+M 	c #C60E06",
"@M 	c #C60F07",
"#M 	c #CE160C",
"$M 	c #D8190F",
"%M 	c #E01107",
"&M 	c #F0130A",
"*M 	c #F31309",
"=M 	c #F6160C",
"-M 	c #F41206",
";M 	c #F00D04",
">M 	c #ED1309",
",M 	c #1D1508",
"'M 	c #1E1609",
")M 	c #25190D",
"!M 	c #22180E",
"~M 	c #23190F",
"{M 	c #251B11",
"]M 	c #2F251B",
"^M 	c #281E15",
"/M 	c #271C16",
"(M 	c #2C211B",
"_M 	c #2D221C",
":M 	c #20160D",
"<M 	c #24170E",
"[M 	c #281B12",
"}M 	c #2E2216",
"|M 	c #2F2212",
"1M 	c #3B2F23",
"2M 	c #3A2E20",
"3M 	c #382819",
"4M 	c #403021",
"5M 	c #3F2D1F",
"6M 	c #3D2719",
"7M 	c #4E3926",
"8M 	c #4A3822",
"9M 	c #4B3923",
"0M 	c #483622",
"aM 	c #423024",
"bM 	c #463629",
"cM 	c #453828",
"dM 	c #463626",
"eM 	c #4C3628",
"fM 	c #4B3829",
"gM 	c #4A3A2A",
"hM 	c #483D29",
"iM 	c #453D28",
"jM 	c #423A25",
"kM 	c #413622",
"lM 	c #4C3D2A",
"mM 	c #4D3825",
"nM 	c #4E3322",
"oM 	c #563023",
"pM 	c #632A21",
"qM 	c #63140F",
"rM 	c #730B02",
"sM 	c #850A02",
"tM 	c #910600",
"uM 	c #A40A02",
"vM 	c #C3150E",
"wM 	c #D71611",
"xM 	c #DE0F09",
"yM 	c #F00100",
"zM 	c #FF0808",
"AM 	c #ED0906",
"BM 	c #F10C09",
"CM 	c #F50D09",
"DM 	c #F60B08",
"EM 	c #F80A08",
"FM 	c #DE1003",
"GM 	c #D81205",
"HM 	c #D71909",
"IM 	c #D51A09",
"JM 	c #C32210",
"KM 	c #C23120",
"LM 	c #AF3021",
"MM 	c #932419",
"NM 	c #761911",
"OM 	c #5F1009",
"PM 	c #55120C",
"QM 	c #490F0B",
"RM 	c #3E0D08",
"SM 	c #39100A",
"TM 	c #39180F",
"UM 	c #392214",
"VM 	c #392617",
"WM 	c #2E180B",
"XM 	c #2A1208",
"YM 	c #200F05",
"ZM 	c #180A01",
"`M 	c #170A02",
" N 	c #180B03",
".N 	c #0F0100",
"+N 	c #130303",
"@N 	c #1A0A0A",
"#N 	c #261412",
"$N 	c #25120C",
"%N 	c #25100B",
"&N 	c #270F0B",
"*N 	c #260D09",
"=N 	c #260A07",
"-N 	c #280A08",
";N 	c #2F0B0B",
">N 	c #300E0D",
",N 	c #3C211A",
"'N 	c #361913",
")N 	c #2A0B08",
"!N 	c #2C0808",
"~N 	c #341211",
"{N 	c #482A2A",
"]N 	c #391D1A",
"^N 	c #2C100C",
"/N 	c #361109",
"(N 	c #4C1006",
"_N 	c #5C0300",
":N 	c #7A0300",
"<N 	c #AD1210",
"[N 	c #D71315",
"}N 	c #ED190B",
"|N 	c #E81703",
"1N 	c #E51700",
"2N 	c #ED230D",
"3N 	c #DF1501",
"4N 	c #E61D0D",
"5N 	c #E61B0C",
"6N 	c #E61906",
"7N 	c #E51604",
"8N 	c #E41702",
"9N 	c #E21907",
"0N 	c #E4190A",
"aN 	c #E7190C",
"bN 	c #E8180E",
"cN 	c #E7180E",
"dN 	c #E8180C",
"eN 	c #EA160B",
"fN 	c #F50B02",
"gN 	c #FB0601",
"hN 	c #E10D0A",
"iN 	c #C80702",
"jN 	c #BE0300",
"kN 	c #BD0200",
"lN 	c #D9180F",
"mN 	c #DE150B",
"nN 	c #F50A07",
"oN 	c #F60C0B",
"pN 	c #F00F0D",
"qN 	c #F5100B",
"rN 	c #1C1407",
"sN 	c #1F170A",
"tN 	c #20160C",
"uN 	c #21170D",
"vN 	c #2B2118",
"wN 	c #2C2219",
"xN 	c #30251F",
"yN 	c #271A12",
"zN 	c #291D11",
"AN 	c #2C1E13",
"BN 	c #2E2013",
"CN 	c #271E0F",
"DN 	c #1D1405",
"EN 	c #1A1102",
"FN 	c #413829",
"GN 	c #413529",
"HN 	c #372B1F",
"IN 	c #3F3124",
"JN 	c #39291A",
"KN 	c #473425",
"LN 	c #422F20",
"MN 	c #3E281A",
"NN 	c #3A2716",
"ON 	c #463420",
"PN 	c #4A3824",
"QN 	c #483524",
"RN 	c #433125",
"SN 	c #453528",
"TN 	c #413423",
"UN 	c #4E3729",
"VN 	c #503A2C",
"WN 	c #503D2E",
"XN 	c #50412E",
"YN 	c #4B402C",
"ZN 	c #443925",
"`N 	c #4B3E2B",
" O 	c #4E3D2B",
".O 	c #503B2A",
"+O 	c #533729",
"@O 	c #553327",
"#O 	c #552D23",
"$O 	c #53271E",
"%O 	c #591F14",
"&O 	c #68140A",
"*O 	c #7A1209",
"=O 	c #840D05",
"-O 	c #930D04",
";O 	c #A80E06",
">O 	c #B70A03",
",O 	c #C90904",
"'O 	c #E8130B",
")O 	c #F10C07",
"!O 	c #D71708",
"~O 	c #DA1C0C",
"{O 	c #D31C0A",
"]O 	c #C42D1C",
"^O 	c #BA3222",
"/O 	c #942011",
"(O 	c #7A1509",
"_O 	c #68160B",
":O 	c #540E06",
"<O 	c #4C0F0A",
"[O 	c #45120E",
"}O 	c #3E110C",
"|O 	c #382215",
"1O 	c #321F11",
"2O 	c #270F05",
"3O 	c #231107",
"4O 	c #1C0B01",
"5O 	c #1A0D05",
"6O 	c #150505",
"7O 	c #1C0A08",
"8O 	c #2D1918",
"9O 	c #291713",
"0O 	c #22110A",
"aO 	c #2B1A13",
"bO 	c #2A110D",
"cO 	c #250804",
"dO 	c #2B0C09",
"eO 	c #36100F",
"fO 	c #320F0D",
"gO 	c #361712",
"hO 	c #3C1F19",
"iO 	c #331610",
"jO 	c #250601",
"kO 	c #2D0A08",
"lO 	c #3F1B1B",
"mO 	c #492B2B",
"nO 	c #2A0D09",
"oO 	c #4F0F06",
"pO 	c #620500",
"qO 	c #870B09",
"rO 	c #BB1B1B",
"sO 	c #D90E11",
"tO 	c #EC0E09",
"uO 	c #F3190F",
"vO 	c #F92011",
"wO 	c #EB1604",
"xO 	c #E10E00",
"yO 	c #DF1200",
"zO 	c #E61B0D",
"AO 	c #E91B0D",
"BO 	c #EA180B",
"CO 	c #E91605",
"DO 	c #EB1402",
"EO 	c #E91603",
"FO 	c #E51D06",
"GO 	c #E21E06",
"HO 	c #E41D08",
"IO 	c #E51A09",
"JO 	c #E6180A",
"KO 	c #E01204",
"LO 	c #E8180B",
"MO 	c #EF1509",
"NO 	c #FA0900",
"OO 	c #EF0705",
"PO 	c #EA0A08",
"QO 	c #D60904",
"RO 	c #C90400",
"SO 	c #BE0000",
"TO 	c #B90000",
"UO 	c #C80700",
"VO 	c #DE140A",
"WO 	c #EF0100",
"XO 	c #F60E0A",
"YO 	c #F6110C",
"ZO 	c #F2110D",
"`O 	c #EF0B08",
" P 	c #F10907",
".P 	c #22180C",
"+P 	c #21170E",
"@P 	c #271D14",
"#P 	c #291C13",
"$P 	c #24180C",
"%P 	c #201205",
"&P 	c #403426",
"*P 	c #2C2314",
"=P 	c #191001",
"-P 	c #32281C",
";P 	c #392D1F",
">P 	c #3E3224",
",P 	c #3E2E1F",
"'P 	c #463325",
")P 	c #3D2A1B",
"!P 	c #412F1B",
"~P 	c #493625",
"{P 	c #4B3827",
"]P 	c #473727",
"^P 	c #503627",
"/P 	c #523C2E",
"(P 	c #524131",
"_P 	c #504030",
":P 	c #4C3F2E",
"<P 	c #483D2B",
"[P 	c #483B2A",
"}P 	c #524232",
"|P 	c #513B2D",
"1P 	c #53392C",
"2P 	c #5E382B",
"3P 	c #622419",
"4P 	c #75170D",
"5P 	c #811008",
"6P 	c #940F08",
"7P 	c #A30C05",
"8P 	c #B60D06",
"9P 	c #CF1810",
"0P 	c #E3140C",
"aP 	c #FF0806",
"bP 	c #DD1A08",
"cP 	c #DD1909",
"dP 	c #DA1908",
"eP 	c #DB1E0B",
"fP 	c #D81F0B",
"gP 	c #D21D08",
"hP 	c #C52211",
"iP 	c #C42E1F",
"jP 	c #C53C2C",
"kP 	c #A72D1E",
"lP 	c #760E01",
"mP 	c #600900",
"nP 	c #5B1209",
"oP 	c #45130C",
"pP 	c #431611",
"qP 	c #3D1611",
"rP 	c #38150F",
"sP 	c #351A11",
"tP 	c #31190F",
"uP 	c #270E07",
"vP 	c #250E06",
"wP 	c #230F06",
"xP 	c #1E1109",
"yP 	c #150802",
"zP 	c #24110D",
"AP 	c #29140F",
"BP 	c #2F1A17",
"CP 	c #28150F",
"DP 	c #1E0D06",
"EP 	c #200D06",
"FP 	c #2F160F",
"GP 	c #2B0F0B",
"HP 	c #240701",
"IP 	c #250802",
"JP 	c #300F0A",
"KP 	c #3E1614",
"LP 	c #3B1311",
"MP 	c #3C1B16",
"NP 	c #3E2018",
"OP 	c #34160E",
"PP 	c #2B0A05",
"QP 	c #371412",
"RP 	c #4D2929",
"SP 	c #4A2A2B",
"TP 	c #361816",
"UP 	c #2F100D",
"VP 	c #4E0902",
"WP 	c #660300",
"XP 	c #910F0F",
"YP 	c #C51F1F",
"ZP 	c #DD0C0F",
"`P 	c #F5150B",
" Q 	c #FE2111",
".Q 	c #F51A07",
"+Q 	c #E30F00",
"@Q 	c #E21100",
"#Q 	c #DA0B00",
"$Q 	c #E30D02",
"%Q 	c #E50C00",
"&Q 	c #EA0B00",
"*Q 	c #E71D05",
"=Q 	c #E31F05",
"-Q 	c #E51E07",
";Q 	c #E51B05",
">Q 	c #E41704",
",Q 	c #DF1000",
"'Q 	c #DD0E00",
")Q 	c #E41706",
"!Q 	c #E61707",
"~Q 	c #EC180A",
"{Q 	c #F11809",
"]Q 	c #F41408",
"^Q 	c #F70F03",
"/Q 	c #DD0C07",
"(Q 	c #D20701",
"_Q 	c #C90200",
":Q 	c #C20000",
"<Q 	c #E90F06",
"[Q 	c #E90901",
"}Q 	c #F5120B",
"|Q 	c #F5160F",
"1Q 	c #EF150B",
"2Q 	c #EF0A07",
"3Q 	c #20160A",
"4Q 	c #281E14",
"5Q 	c #241A10",
"6Q 	c #1F150C",
"7Q 	c #1C1209",
"8Q 	c #1E140B",
"9Q 	c #2F241E",
"0Q 	c #2F221A",
"aQ 	c #231508",
"bQ 	c #231709",
"cQ 	c #2E2214",
"dQ 	c #3E3526",
"eQ 	c #201708",
"fQ 	c #0F0600",
"gQ 	c #190F03",
"hQ 	c #291F13",
"iQ 	c #443629",
"jQ 	c #413122",
"kQ 	c #473527",
"lQ 	c #453325",
"mQ 	c #3F2C1B",
"nQ 	c #463322",
"oQ 	c #453424",
"pQ 	c #423225",
"qQ 	c #4A3A2B",
"rQ 	c #4F3C2D",
"sQ 	c #4C3525",
"tQ 	c #4F392B",
"uQ 	c #503F2F",
"vQ 	c #4E3E2E",
"wQ 	c #4D3D2D",
"xQ 	c #4E4131",
"yQ 	c #514535",
"zQ 	c #504434",
"AQ 	c #4C3E31",
"BQ 	c #493B2E",
"CQ 	c #4B3B2E",
"DQ 	c #533C2E",
"EQ 	c #673B30",
"FQ 	c #6E3228",
"GQ 	c #6B2118",
"HQ 	c #70160D",
"IQ 	c #86170E",
"JQ 	c #94140B",
"KQ 	c #A00B04",
"LQ 	c #AD0A01",
"MQ 	c #C5120B",
"NQ 	c #D3140C",
"OQ 	c #F20401",
"PQ 	c #E11808",
"QQ 	c #E31A0A",
"RQ 	c #E01808",
"SQ 	c #D91807",
"TQ 	c #D81B08",
"UQ 	c #D21F0B",
"VQ 	c #C8210E",
"WQ 	c #C63021",
"XQ 	c #C43C2E",
"YQ 	c #B53B2C",
"ZQ 	c #8C2013",
"`Q 	c #600600",
" R 	c #510700",
".R 	c #4D1107",
"+R 	c #421009",
"@R 	c #431812",
"#R 	c #3E1712",
"$R 	c #3A1713",
"%R 	c #381712",
"&R 	c #32150D",
"*R 	c #2D1209",
"=R 	c #281006",
"-R 	c #2D140D",
";R 	c #271008",
">R 	c #210D04",
",R 	c #1F0D03",
"'R 	c #1F120A",
")R 	c #22100C",
"!R 	c #2E1914",
"~R 	c #2F1A15",
"{R 	c #28130E",
"]R 	c #1F0B04",
"^R 	c #2A0D07",
"/R 	c #280904",
"(R 	c #320F09",
"_R 	c #3F1614",
":R 	c #3E1511",
"<R 	c #3C1913",
"[R 	c #391B13",
"}R 	c #2F0E09",
"|R 	c #3F1C1A",
"1R 	c #563232",
"2R 	c #49292A",
"3R 	c #3A1B19",
"4R 	c #381614",
"5R 	c #44130E",
"6R 	c #4F0400",
"7R 	c #6A0100",
"8R 	c #9D1313",
"9R 	c #CC1E20",
"0R 	c #E10D0C",
"aR 	c #EB0600",
"bR 	c #FA1B0C",
"cR 	c #F91E0B",
"dR 	c #EC1803",
"eR 	c #E71806",
"fR 	c #ED0B00",
"gR 	c #E81A02",
"hR 	c #E51D03",
"iR 	c #E61D03",
"jR 	c #E91B04",
"kR 	c #E91802",
"lR 	c #E41100",
"mR 	c #EC1908",
"nR 	c #F21A0B",
"oR 	c #F61909",
"pR 	c #F71306",
"qR 	c #F60C01",
"rR 	c #F70900",
"sR 	c #D40702",
"tR 	c #DA0A06",
"uR 	c #E70400",
"vR 	c #F50B0A",
"wR 	c #EE1108",
"xR 	c #ED0C08",
"yR 	c #1E160B",
"zR 	c #23160D",
"AR 	c #25180F",
"BR 	c #271F14",
"CR 	c #241C11",
"DR 	c #221910",
"ER 	c #21180F",
"FR 	c #1C130C",
"GR 	c #150C05",
"HR 	c #241B16",
"IR 	c #281F1A",
"JR 	c #29201B",
"KR 	c #2A211C",
"LR 	c #2E241B",
"MR 	c #2F251C",
"NR 	c #2F2219",
"OR 	c #2D2115",
"PR 	c #1C0E01",
"QR 	c #1B0F03",
"RR 	c #3A3024",
"SR 	c #3C3226",
"TR 	c #31271B",
"UR 	c #392F23",
"VR 	c #3F3529",
"WR 	c #281E12",
"XR 	c #181003",
"YR 	c #1F1509",
"ZR 	c #2A2014",
"`R 	c #423628",
" S 	c #483526",
".S 	c #493828",
"+S 	c #443224",
"@S 	c #4E3B2C",
"#S 	c #503929",
"$S 	c #4E3727",
"%S 	c #503D2F",
"&S 	c #513E30",
"*S 	c #503E30",
"=S 	c #524235",
"-S 	c #534538",
";S 	c #524638",
">S 	c #4F4337",
",S 	c #493D31",
"'S 	c #5F4136",
")S 	c #6B4037",
"!S 	c #6B3229",
"~S 	c #6A211A",
"{S 	c #771D15",
"]S 	c #83160F",
"^S 	c #8A0903",
"/S 	c #910100",
"(S 	c #AD0C04",
"_S 	c #BD0F06",
":S 	c #D2130B",
"<S 	c #E0150E",
"[S 	c #EB0F03",
"}S 	c #E70F02",
"|S 	c #E31809",
"1S 	c #D31E0D",
"2S 	c #D22310",
"3S 	c #CA2B18",
"4S 	c #C0382A",
"5S 	c #AC362A",
"6S 	c #8D2316",
"7S 	c #6A0E01",
"8S 	c #570B00",
"9S 	c #4A0E03",
"0S 	c #421007",
"aS 	c #411C16",
"bS 	c #351311",
"cS 	c #32100E",
"dS 	c #361714",
"eS 	c #381B17",
"fS 	c #2B1009",
"gS 	c #260D06",
"hS 	c #2C130C",
"iS 	c #180904",
"jS 	c #190A05",
"kS 	c #2B1814",
"lS 	c #3A221E",
"mS 	c #351E18",
"nS 	c #2F1812",
"oS 	c #260F09",
"pS 	c #240D05",
"qS 	c #2B1309",
"rS 	c #290E05",
"sS 	c #280A02",
"tS 	c #2E0D06",
"uS 	c #340F07",
"vS 	c #3F1310",
"wS 	c #2D0F07",
"xS 	c #33120D",
"yS 	c #482523",
"zS 	c #5C3838",
"AS 	c #462425",
"BS 	c #3E1815",
"CS 	c #47120E",
"DS 	c #520100",
"ES 	c #770504",
"FS 	c #AD181A",
"GS 	c #D21B1F",
"HS 	c #DF0907",
"IS 	c #F30C04",
"JS 	c #EF0B00",
"KS 	c #F71809",
"LS 	c #F9200D",
"MS 	c #F01F0B",
"NS 	c #E71E0C",
"OS 	c #D9190A",
"PS 	c #DA180C",
"QS 	c #E6180B",
"RS 	c #ED170C",
"SS 	c #F31403",
"TS 	c #EE1A04",
"US 	c #ED1D03",
"VS 	c #EF1D04",
"WS 	c #F21B06",
"XS 	c #F21A05",
"YS 	c #EF1603",
"ZS 	c #EC1300",
"`S 	c #E91200",
" T 	c #E61100",
".T 	c #E81502",
"+T 	c #EE1B08",
"@T 	c #F31E0C",
"#T 	c #F81C0C",
"$T 	c #F51104",
"%T 	c #E20806",
"&T 	c #E50B0A",
"*T 	c #E70D0C",
"=T 	c #E80806",
"-T 	c #E90D01",
";T 	c #E41203",
">T 	c #E70906",
",T 	c #E40B06",
"'T 	c #E31009",
")T 	c #1C1409",
"!T 	c #1D1309",
"~T 	c #1E140A",
"{T 	c #21140B",
"]T 	c #22150C",
"^T 	c #231A11",
"/T 	c #0D0400",
"(T 	c #352820",
"_T 	c #33261D",
":T 	c #2B1F13",
"<T 	c #2B1D10",
"[T 	c #1D1307",
"}T 	c #1E1408",
"|T 	c #3D3327",
"1T 	c #191104",
"2T 	c #100800",
"3T 	c #170F02",
"4T 	c #413527",
"5T 	c #4A3C31",
"6T 	c #433528",
"7T 	c #3A2C21",
"8T 	c #443122",
"9T 	c #463525",
"0T 	c #443323",
"aT 	c #402E20",
"bT 	c #463324",
"cT 	c #543F2E",
"dT 	c #513C2B",
"eT 	c #4D3827",
"fT 	c #4E382A",
"gT 	c #543C30",
"hT 	c #543E31",
"iT 	c #533D32",
"jT 	c #523E33",
"kT 	c #544238",
"lT 	c #59483E",
"mT 	c #5A4C41",
"nT 	c #55473C",
"oT 	c #483B32",
"pT 	c #604238",
"qT 	c #662D26",
"rT 	c #6A1F19",
"sT 	c #751813",
"tT 	c #7F1009",
"uT 	c #8B0C05",
"vT 	c #970700",
"wT 	c #AB0A02",
"xT 	c #C3120C",
"yT 	c #D81911",
"zT 	c #E81913",
"AT 	c #EF110E",
"BT 	c #EF0000",
"CT 	c #F30A03",
"DT 	c #F10D04",
"ET 	c #EB0D00",
"FT 	c #E80F00",
"GT 	c #EA1507",
"HT 	c #E91507",
"IT 	c #E7170A",
"JT 	c #DB1A0B",
"KT 	c #D12211",
"LT 	c #D12A18",
"MT 	c #CA3425",
"NT 	c #B2382B",
"OT 	c #8E291D",
"PT 	c #630900",
"QT 	c #4E0200",
"RT 	c #521409",
"ST 	c #49170C",
"TT 	c #3B1812",
"UT 	c #3E1F1A",
"VT 	c #2E0F0C",
"WT 	c #290A08",
"XT 	c #341513",
"YT 	c #3C1F1B",
"ZT 	c #150601",
"`T 	c #311E18",
" U 	c #3D2620",
".U 	c #28110B",
"+U 	c #220B03",
"@U 	c #2A0F06",
"#U 	c #240700",
"$U 	c #240600",
"%U 	c #2D0C05",
"&U 	c #451813",
"*U 	c #3F1A12",
"=U 	c #3B1A15",
"-U 	c #512E2C",
";U 	c #653E3F",
">U 	c #411D1F",
",U 	c #391213",
"'U 	c #3D1412",
")U 	c #4A0F0B",
"!U 	c #860C0B",
"~U 	c #BC1D21",
"{U 	c #DA1C1E",
"]U 	c #F8140B",
"^U 	c #FD160C",
"/U 	c #F81B0B",
"(U 	c #F72210",
"_U 	c #EB200F",
":U 	c #DE1D0B",
"<U 	c #D92212",
"[U 	c #D62213",
"}U 	c #D52113",
"|U 	c #DA2315",
"1U 	c #E72317",
"2U 	c #EF2114",
"3U 	c #F41C0F",
"4U 	c #F41808",
"5U 	c #F51D08",
"6U 	c #F61E07",
"7U 	c #F91E0A",
"8U 	c #FA1D0A",
"9U 	c #FB1A08",
"0U 	c #F81705",
"aU 	c #F21302",
"bU 	c #EA1601",
"cU 	c #EF1C09",
"dU 	c #F5200E",
"eU 	c #F7200E",
"fU 	c #F71B0B",
"gU 	c #F41506",
"hU 	c #FB0F02",
"iU 	c #F50700",
"jU 	c #ED080B",
"kU 	c #EF0A0D",
"lU 	c #EE0A0B",
"mU 	c #E30303",
"nU 	c #F50C05",
"oU 	c #E60D00",
"pU 	c #E10C00",
"qU 	c #DE0F00",
"rU 	c #E41002",
"sU 	c #DE110C",
"tU 	c #E0150F",
"uU 	c #D20902",
"vU 	c #EA0100",
"wU 	c #1B1308",
"xU 	c #1A1207",
"yU 	c #1C1208",
"zU 	c #261D14",
"AU 	c #1D1311",
"BU 	c #231917",
"CU 	c #251C15",
"DU 	c #2D2017",
"EU 	c #261C10",
"FU 	c #2D2317",
"GU 	c #251D10",
"HU 	c #180E02",
"IU 	c #3D3027",
"JU 	c #453224",
"KU 	c #412E1F",
"LU 	c #3C291B",
"MU 	c #463523",
"NU 	c #523F2E",
"OU 	c #523B2D",
"PU 	c #563B30",
"QU 	c #54392E",
"RU 	c #543930",
"SU 	c #553A31",
"TU 	c #543B34",
"UU 	c #563D36",
"VU 	c #5A433B",
"WU 	c #5E473F",
"XU 	c #58443D",
"YU 	c #513D36",
"ZU 	c #49372D",
"`U 	c #523C31",
" V 	c #5B3A31",
".V 	c #5E3229",
"+V 	c #682924",
"@V 	c #7F201C",
"#V 	c #881814",
"$V 	c #93140D",
"%V 	c #9C0C04",
"&V 	c #A90800",
"*V 	c #C00D08",
"=V 	c #EC1814",
"-V 	c #F0100E",
";V 	c #EE0C00",
">V 	c #EF0F05",
",V 	c #EF1307",
"'V 	c #E9150A",
")V 	c #E51B11",
"!V 	c #E02015",
"~V 	c #D42012",
"{V 	c #C82B1A",
"]V 	c #C84030",
"^V 	c #942C1F",
"/V 	c #69170B",
"(V 	c #4D0500",
"_V 	c #470900",
":V 	c #410F04",
"<V 	c #350D03",
"[V 	c #3A1D17",
"}V 	c #280B07",
"|V 	c #311311",
"1V 	c #482A28",
"2V 	c #4C2E2C",
"3V 	c #341614",
"4V 	c #2C0F0B",
"5V 	c #2C130E",
"6V 	c #29120C",
"7V 	c #130000",
"8V 	c #160300",
"9V 	c #170801",
"0V 	c #311C17",
"aV 	c #301913",
"bV 	c #2A110A",
"cV 	c #240B04",
"dV 	c #220902",
"eV 	c #230C04",
"fV 	c #291107",
"gV 	c #260A00",
"hV 	c #290800",
"iV 	c #42120E",
"jV 	c #4B2A25",
"kV 	c #5D3A38",
"lV 	c #532C2D",
"mV 	c #3E171A",
"nV 	c #381011",
"oV 	c #41110F",
"pV 	c #4C0B07",
"qV 	c #610000",
"rV 	c #940E0F",
"sV 	c #CD2326",
"tV 	c #E82124",
"uV 	c #EC130E",
"vV 	c #FD1A11",
"wV 	c #FF1D12",
"xV 	c #F8180C",
"yV 	c #F2190A",
"zV 	c #EF2010",
"AV 	c #E01F0E",
"BV 	c #C62012",
"CV 	c #D92719",
"DV 	c #E7291B",
"EV 	c #F12719",
"FV 	c #F92517",
"GV 	c #F51909",
"HV 	c #FA1707",
"IV 	c #FA1405",
"JV 	c #FE1507",
"KV 	c #FF180A",
"LV 	c #FC1607",
"MV 	c #ED1000",
"NV 	c #EB1400",
"OV 	c #ED1A05",
"PV 	c #EF1A08",
"QV 	c #F01907",
"RV 	c #F01404",
"SV 	c #F91002",
"TV 	c #F1040A",
"UV 	c #F00408",
"VV 	c #E90909",
"WV 	c #F3140C",
"XV 	c #E2110D",
"YV 	c #D80D09",
"ZV 	c #D81511",
"`V 	c #CA0F08",
" W 	c #D51910",
".W 	c #D00B03",
"+W 	c #E5140D",
"@W 	c #231A13",
"#W 	c #1D140D",
"$W 	c #2B221B",
"%W 	c #322721",
"&W 	c #2E2118",
"*W 	c #1B1105",
"=W 	c #3A3225",
"-W 	c #2F271A",
";W 	c #271F12",
">W 	c #34271E",
",W 	c #463426",
"'W 	c #433421",
")W 	c #493826",
"!W 	c #4C3928",
"~W 	c #543D2F",
"{W 	c #55392E",
"]W 	c #563A2F",
"^W 	c #583B33",
"/W 	c #593B33",
"(W 	c #5D3E39",
"_W 	c #62453F",
":W 	c #61443E",
"<W 	c #5A413A",
"[W 	c #4D3B31",
"}W 	c #534135",
"|W 	c #5A3F34",
"1W 	c #5D372E",
"2W 	c #602E27",
"3W 	c #6A2923",
"4W 	c #7C1D17",
"5W 	c #861710",
"6W 	c #8E0F08",
"7W 	c #9A0A02",
"8W 	c #B00D06",
"9W 	c #CA1410",
"0W 	c #DE1913",
"aW 	c #E81713",
"bW 	c #ED120E",
"cW 	c #FA0703",
"dW 	c #FA0804",
"eW 	c #F80B03",
"fW 	c #F40C02",
"gW 	c #F30F06",
"hW 	c #F11109",
"iW 	c #EF120A",
"jW 	c #E7140D",
"kW 	c #DD160F",
"lW 	c #D81D14",
"mW 	c #D3281E",
"nW 	c #CC3024",
"oW 	c #BE2F21",
"pW 	c #A72F21",
"qW 	c #6C1609",
"rW 	c #510F03",
"sW 	c #450B00",
"tW 	c #431106",
"uW 	c #3C140A",
"vW 	c #311007",
"wW 	c #2E1109",
"xW 	c #341814",
"yW 	c #331714",
"zW 	c #351715",
"AW 	c #301210",
"BW 	c #2A0C0A",
"CW 	c #250C07",
"DW 	c #210E07",
"EW 	c #1B0E06",
"FW 	c #35221E",
"GW 	c #27100A",
"HW 	c #250C05",
"IW 	c #230A03",
"JW 	c #280D02",
"KW 	c #250900",
"LW 	c #250700",
"MW 	c #2A0900",
"NW 	c #331108",
"OW 	c #40100C",
"PW 	c #3F0F0B",
"QW 	c #350E07",
"RW 	c #2E0D04",
"SW 	c #3B1D15",
"TW 	c #593833",
"UW 	c #5F3C3A",
"VW 	c #4D2627",
"WW 	c #411A1D",
"XW 	c #3E1213",
"YW 	c #43100D",
"ZW 	c #500603",
"`W 	c #6B0000",
" X 	c #A11111",
".X 	c #DA2327",
"+X 	c #ED1F21",
"@X 	c #F71914",
"#X 	c #FA170E",
"$X 	c #F2160A",
"%X 	c #EF1A0C",
"&X 	c #EB2313",
"*X 	c #DC2515",
"=X 	c #C92212",
"-X 	c #A11403",
";X 	c #9B0F00",
">X 	c #C32617",
",X 	c #D92E1D",
"'X 	c #E62C1D",
")X 	c #F02819",
"!X 	c #F1170B",
"~X 	c #FA1609",
"{X 	c #FB1307",
"]X 	c #F90F04",
"^X 	c #FB0F04",
"/X 	c #FE1207",
"(X 	c #FB1204",
"_X 	c #F51605",
":X 	c #F21906",
"<X 	c #EF1B06",
"[X 	c #EE1B06",
"}X 	c #EE1907",
"|X 	c #ED1806",
"1X 	c #EE1705",
"2X 	c #F60D00",
"3X 	c #F70A02",
"4X 	c #F40103",
"5X 	c #F50208",
"6X 	c #F7020A",
"7X 	c #F50109",
"8X 	c #EC0400",
"9X 	c #EA0B0C",
"0X 	c #F9100C",
"aX 	c #F9110D",
"bX 	c #F8150E",
"cX 	c #F8180E",
"dX 	c #F61A0E",
"eX 	c #F11C0C",
"fX 	c #F01D0C",
"gX 	c #EE200B",
"hX 	c #F21F0E",
"iX 	c #F2150C",
"jX 	c #EF100B",
"kX 	c #DF1511",
"lX 	c #CE0E0B",
"mX 	c #C9130F",
"nX 	c #B70902",
"oX 	c #B60902",
"pX 	c #C01209",
"qX 	c #BE0700",
"rX 	c #1C130A",
"sX 	c #1E150C",
"tX 	c #20170E",
"uX 	c #24170F",
"vX 	c #231910",
"wX 	c #201710",
"xX 	c #130B08",
"yX 	c #19110E",
"zX 	c #1F1812",
"AX 	c #2F261F",
"BX 	c #332A23",
"CX 	c #31271D",
"DX 	c #30261C",
"EX 	c #352B21",
"FX 	c #372D23",
"GX 	c #32281E",
"HX 	c #2B2117",
"IX 	c #33261E",
"JX 	c #372A22",
"KX 	c #31221B",
"LX 	c #3C2B21",
"MX 	c #443123",
"NX 	c #473423",
"OX 	c #4E382B",
"PX 	c #3B2A1A",
"QX 	c #392A17",
"RX 	c #553E30",
"SX 	c #553B2E",
"TX 	c #55392D",
"UX 	c #563A2E",
"VX 	c #593B31",
"WX 	c #5A3930",
"XX 	c #5A382F",
"YX 	c #5C3933",
"ZX 	c #643F39",
"`X 	c #68433D",
" Y 	c #63453D",
".Y 	c #544035",
"+Y 	c #574539",
"@Y 	c #5B4337",
"#Y 	c #5C3B32",
"$Y 	c #5F322C",
"%Y 	c #642D28",
"&Y 	c #6B2822",
"*Y 	c #71221D",
"=Y 	c #7A1D16",
"-Y 	c #82170F",
";Y 	c #8C1006",
">Y 	c #9D0F05",
",Y 	c #B4110A",
"'Y 	c #C91611",
")Y 	c #E41712",
"!Y 	c #FB0905",
"~Y 	c #FA0B06",
"{Y 	c #F80B05",
"]Y 	c #F50B04",
"^Y 	c #E1110D",
"/Y 	c #D3130E",
"(Y 	c #CA1B16",
"_Y 	c #C92F27",
":Y 	c #C43A30",
"<Y 	c #A62A1E",
"[Y 	c #7C160A",
"}Y 	c #4E0A00",
"|Y 	c #421005",
"1Y 	c #41150A",
"2Y 	c #3F190E",
"3Y 	c #31140C",
"4Y 	c #321710",
"5Y 	c #361A16",
"6Y 	c #3E201E",
"7Y 	c #391A18",
"8Y 	c #381917",
"9Y 	c #280C08",
"0Y 	c #270E09",
"aY 	c #1B0601",
"bY 	c #2C1913",
"cY 	c #23100A",
"dY 	c #1B0A03",
"eY 	c #1C0D06",
"fY 	c #2A1912",
"gY 	c #37261F",
"hY 	c #36231D",
"iY 	c #2D1813",
"jY 	c #260B02",
"kY 	c #250800",
"lY 	c #260800",
"mY 	c #2C0B04",
"nY 	c #341209",
"oY 	c #3A0D0A",
"pY 	c #3B0E0B",
"qY 	c #2E0903",
"rY 	c #4E2F2A",
"sY 	c #644540",
"tY 	c #583533",
"uY 	c #40191A",
"vY 	c #421A1B",
"wY 	c #421416",
"xY 	c #480E0C",
"yY 	c #530400",
"zY 	c #780200",
"AY 	c #B11717",
"BY 	c #E32225",
"CY 	c #F0181B",
"DY 	c #F41510",
"EY 	c #F20F08",
"FY 	c #EF1F13",
"GY 	c #E72718",
"HY 	c #D32817",
"IY 	c #BD2615",
"JY 	c #9B1605",
"KY 	c #8A1100",
"LY 	c #820D00",
"MY 	c #8C1100",
"NY 	c #A21A0A",
"OY 	c #B82211",
"PY 	c #CD2717",
"QY 	c #E22819",
"RY 	c #E8150A",
"SY 	c #F4140C",
"TY 	c #F61209",
"UY 	c #FA0D05",
"VY 	c #FC1207",
"WY 	c #FB1508",
"XY 	c #F31C0A",
"YY 	c #F01B09",
"ZY 	c #EF1C0B",
"`Y 	c #F01B0B",
" Z 	c #F51C0D",
".Z 	c #F41005",
"+Z 	c #F70209",
"@Z 	c #F9040C",
"#Z 	c #F8010A",
"$Z 	c #F60309",
"%Z 	c #EA0C09",
"&Z 	c #EA100E",
"*Z 	c #EC110F",
"=Z 	c #E80D09",
"-Z 	c #F2150D",
";Z 	c #F0160D",
">Z 	c #F1190E",
",Z 	c #F01B0D",
"'Z 	c #F01C0E",
")Z 	c #F01E0D",
"!Z 	c #EF200E",
"~Z 	c #F22311",
"{Z 	c #F62415",
"]Z 	c #F31A11",
"^Z 	c #EF160F",
"/Z 	c #E61C18",
"(Z 	c #C10F0B",
"_Z 	c #BB140E",
":Z 	c #A80903",
"<Z 	c #A10700",
"[Z 	c #A80C00",
"}Z 	c #AB0500",
"|Z 	c #CF1D11",
"1Z 	c #D8160C",
"2Z 	c #1D140B",
"3Z 	c #22180F",
"4Z 	c #1E150E",
"5Z 	c #120A07",
"6Z 	c #261D16",
"7Z 	c #32281F",
"8Z 	c #342A20",
"9Z 	c #382E24",
"0Z 	c #362920",
"aZ 	c #3C2F29",
"bZ 	c #3E2F28",
"cZ 	c #3E2D25",
"dZ 	c #412F25",
"eZ 	c #443120",
"fZ 	c #523C2F",
"gZ 	c #513B2E",
"hZ 	c #372614",
"iZ 	c #362515",
"jZ 	c #4C392A",
"kZ 	c #573B2F",
"lZ 	c #583A2F",
"mZ 	c #5A352C",
"nZ 	c #603A31",
"oZ 	c #643E35",
"pZ 	c #624036",
"qZ 	c #584235",
"rZ 	c #584638",
"sZ 	c #5D4539",
"tZ 	c #5D3F34",
"uZ 	c #5D382F",
"vZ 	c #5F332A",
"wZ 	c #632E26",
"xZ 	c #6A2B22",
"yZ 	c #72281F",
"zZ 	c #7A2218",
"AZ 	c #831B10",
"BZ 	c #8F150A",
"CZ 	c #9F1107",
"DZ 	c #B01209",
"EZ 	c #C2150E",
"FZ 	c #D1160F",
"GZ 	c #E40F07",
"HZ 	c #F70A04",
"IZ 	c #CD1714",
"JZ 	c #C11F1C",
"KZ 	c #B62B26",
"LZ 	c #A42D25",
"MZ 	c #5D0B00",
"NZ 	c #441003",
"OZ 	c #3D190D",
"PZ 	c #3B190F",
"QZ 	c #321409",
"RZ 	c #3B1E1A",
"SZ 	c #3F1D1C",
"TZ 	c #371313",
"UZ 	c #33110F",
"VZ 	c #2D0E0B",
"WZ 	c #2A0E0A",
"XZ 	c #2A1711",
"YZ 	c #291610",
"ZZ 	c #1F0E07",
"`Z 	c #160700",
" ` 	c #1D1008",
".` 	c #25160F",
"+` 	c #2F1E17",
"@` 	c #230E09",
"#` 	c #250E08",
"$` 	c #241007",
"%` 	c #261209",
"&` 	c #230B01",
"*` 	c #270A02",
"=` 	c #34130C",
"-` 	c #3A150F",
";` 	c #300B05",
">` 	c #60433D",
",` 	c #624340",
"'` 	c #462222",
")` 	c #350D0E",
"!` 	c #3D1315",
"~` 	c #441213",
"{` 	c #490C09",
"]` 	c #5A0200",
"^` 	c #860907",
"/` 	c #C11D1C",
"(` 	c #E91C21",
"_` 	c #F20E0B",
":` 	c #EE2219",
"<` 	c #DE2217",
"[` 	c #9D1102",
"}` 	c #7F0A00",
"|` 	c #781100",
"1` 	c #791505",
"2` 	c #7B1403",
"3` 	c #820F00",
"4` 	c #910E00",
"5` 	c #CD2314",
"6` 	c #F1130E",
"7` 	c #F40D05",
"8` 	c #FE1A0F",
"9` 	c #F61A0A",
"0` 	c #F31B0C",
"a` 	c #F21D0D",
"b` 	c #F31E0E",
"c` 	c #F52010",
"d` 	c #F82011",
"e` 	c #F92114",
"f` 	c #F01408",
"g` 	c #E80300",
"h` 	c #ED0304",
"i` 	c #F5060B",
"j` 	c #FA060E",
"k` 	c #FA050D",
"l` 	c #F7060C",
"m` 	c #F8090C",
"n` 	c #F70F0D",
"o` 	c #F8130E",
"p` 	c #F3160E",
"q` 	c #E91813",
"r` 	c #EC1B14",
"s` 	c #EA1912",
"t` 	c #E3140A",
"u` 	c #E71C0D",
"v` 	c #E81D0E",
"w` 	c #E91E0D",
"x` 	c #EB210D",
"y` 	c #EE2410",
"z` 	c #F02514",
"A` 	c #F22216",
"B` 	c #EB1C14",
"C` 	c #DE1710",
"D` 	c #DC1F19",
"E` 	c #C91B14",
"F` 	c #B6130E",
"G` 	c #B11A13",
"H` 	c #A1120A",
"I` 	c #920800",
"J` 	c #990B00",
"K` 	c #9F0700",
"L` 	c #CB2517",
"M` 	c #D92115",
"N` 	c #261911",
"O` 	c #241B14",
"P` 	c #221B13",
"Q` 	c #201911",
"R` 	c #2C231A",
"S` 	c #2E251C",
"T` 	c #30261D",
"U` 	c #3B3127",
"V` 	c #3A2D24",
"W` 	c #3D2F26",
"X` 	c #392C23",
"Y` 	c #34251E",
"Z` 	c #3F302B",
"`` 	c #46352E",
"  .	c #453329",
". .	c #4A3522",
"+ .	c #51392D",
"@ .	c #523A2E",
"# .	c #402A1C",
"$ .	c #3A2416",
"% .	c #3B2819",
"& .	c #4F3A29",
"* .	c #543D2D",
"= .	c #583E2F",
"- .	c #573A2C",
"; .	c #59372B",
"> .	c #5E3A2E",
", .	c #603A2F",
"' .	c #5C3A2E",
") .	c #584133",
"! .	c #574435",
"~ .	c #5B4436",
"{ .	c #5D4336",
"] .	c #5D3D32",
"^ .	c #5C372E",
"/ .	c #5E362C",
"( .	c #66362A",
"_ .	c #672F22",
": .	c #6F2B1E",
"< .	c #792618",
"[ .	c #831D0F",
"} .	c #901609",
"| .	c #9D1308",
"1 .	c #AD150A",
"2 .	c #D61A0F",
"3 .	c #DF150B",
"4 .	c #E21414",
"5 .	c #D51717",
"6 .	c #C61E1D",
"7 .	c #B52421",
"8 .	c #98211B",
"9 .	c #78150F",
"0 .	c #5E0E05",
"a .	c #4C1005",
"b .	c #3B150A",
"c .	c #341A0D",
"d .	c #2E160A",
"e .	c #2E150E",
"f .	c #371A16",
"g .	c #3C1A19",
"h .	c #381112",
"i .	c #3A1213",
"j .	c #33100E",
"k .	c #31120F",
"l .	c #251309",
"m .	c #24110B",
"n .	c #33221B",
"o .	c #260E0A",
"p .	c #250A03",
"q .	c #30120A",
"r .	c #33120B",
"s .	c #37120C",
"t .	c #380A0A",
"u .	c #370B0A",
"v .	c #371410",
"w .	c #684B47",
"x .	c #533632",
"y .	c #361212",
"z .	c #340C0D",
"A .	c #380B0E",
"B .	c #420F0E",
"C .	c #490804",
"D .	c #97130F",
"E .	c #CD211F",
"F .	c #EA1519",
"G .	c #FB1311",
"H .	c #EA1D18",
"I .	c #D11911",
"J .	c #A70A01",
"K .	c #820000",
"L .	c #700800",
"M .	c #6B1403",
"N .	c #6D1C0B",
"O .	c #6E1B09",
"P .	c #731200",
"Q .	c #7D0D00",
"R .	c #941100",
"S .	c #B01709",
"T .	c #CD180F",
"U .	c #E7130F",
"V .	c #E90C04",
"W .	c #EF1008",
"X .	c #F6180D",
"Y .	c #EF1607",
"Z .	c #F0180B",
"` .	c #F21A0D",
" ..	c #F61C10",
"...	c #F81C10",
"+..	c #F51D12",
"@..	c #ED1B0E",
"#..	c #F70E12",
"$..	c #F80811",
"%..	c #F00008",
"&..	c #FB0711",
"*..	c #F7060D",
"=..	c #F3070B",
"-..	c #F30B0B",
";..	c #F4170F",
">..	c #F32114",
",..	c #E5190E",
"'..	c #E2190F",
")..	c #E11B10",
"!..	c #E52113",
"~..	c #E42314",
"{..	c #DF1F10",
"]..	c #DC1E0E",
"^..	c #DA1F0C",
"/..	c #DF2510",
"(..	c #E02611",
"_..	c #E22511",
":..	c #E2240E",
"<..	c #E3230E",
"[..	c #E6230F",
"}..	c #E92411",
"|..	c #EB2615",
"1..	c #E62214",
"2..	c #E12116",
"3..	c #D61E14",
"4..	c #D5291F",
"5..	c #C1231A",
"6..	c #AC1911",
"7..	c #A41E15",
"8..	c #94150C",
"9..	c #830700",
"0..	c #8A0A00",
"a..	c #930700",
"b..	c #C3271A",
"c..	c #D42417",
"d..	c #281B13",
"e..	c #211A12",
"f..	c #19120C",
"g..	c #342A21",
"h..	c #382A21",
"i..	c #3B2D24",
"j..	c #3C2D26",
"k..	c #3A2B24",
"l..	c #342721",
"m..	c #2F201B",
"n..	c #47362F",
"o..	c #473529",
"p..	c #4B3623",
"q..	c #543A2D",
"r..	c #4E3427",
"s..	c #422B1D",
"t..	c #392315",
"u..	c #493C29",
"v..	c #4D402D",
"w..	c #4D3E2B",
"x..	c #51402C",
"y..	c #56412E",
"z..	c #593C2C",
"A..	c #5C3D2B",
"B..	c #5C3B2C",
"C..	c #583829",
"D..	c #55402D",
"E..	c #584332",
"F..	c #5B4434",
"G..	c #5A4033",
"H..	c #583C30",
"I..	c #593C2E",
"J..	c #623E30",
"K..	c #5C3222",
"L..	c #653020",
"M..	c #6F2C1C",
"N..	c #782515",
"O..	c #841D0E",
"P..	c #91190B",
"Q..	c #9E180C",
"R..	c #AF170A",
"S..	c #F10D0A",
"T..	c #EE100F",
"U..	c #E81413",
"V..	c #E11B1A",
"W..	c #D01C1D",
"X..	c #BB201E",
"Y..	c #A2201E",
"Z..	c #7C1510",
"`..	c #560700",
" +.	c #460A00",
".+.	c #43190D",
"++.	c #2E1709",
"@+.	c #29170B",
"#+.	c #2D1910",
"$+.	c #3B1717",
"%+.	c #33090B",
"&+.	c #390F11",
"*+.	c #380E0F",
"=+.	c #350F0E",
"-+.	c #2D160E",
";+.	c #221107",
">+.	c #27160F",
",+.	c #200F08",
"'+.	c #20110A",
")+.	c #160901",
"!+.	c #33201A",
"~+.	c #240C08",
"{+.	c #220D08",
"]+.	c #240F0A",
"^+.	c #1F0B02",
"/+.	c #2E110B",
"(+.	c #31140E",
"_+.	c #320C09",
":+.	c #330708",
"<+.	c #370B0C",
"[+.	c #44211F",
"}+.	c #5C3F39",
"|+.	c #604440",
"1+.	c #442624",
"2+.	c #330F11",
"3+.	c #3B1314",
"4+.	c #35080B",
"5+.	c #410B0B",
"6+.	c #4C0604",
"7+.	c #6C0B05",
"8+.	c #A71D1A",
"9+.	c #D62221",
"0+.	c #EB0F11",
"a+.	c #EF0002",
"b+.	c #FA0E10",
"c+.	c #E80C0C",
"d+.	c #E51717",
"e+.	c #D41C1A",
"f+.	c #B01711",
"g+.	c #8D120A",
"h+.	c #721408",
"i+.	c #631709",
"j+.	c #5D1A0A",
"k+.	c #631F0C",
"l+.	c #72200B",
"m+.	c #7E1B08",
"n+.	c #891402",
"o+.	c #9A0E00",
"p+.	c #BE170E",
"q+.	c #CB160F",
"r+.	c #D61913",
"s+.	c #DD1812",
"t+.	c #EB1306",
"u+.	c #EC1407",
"v+.	c #EE1609",
"w+.	c #F0160A",
"x+.	c #F2130B",
"y+.	c #EE160B",
"z+.	c #F41216",
"A+.	c #F30912",
"B+.	c #E80005",
"C+.	c #F60913",
"D+.	c #EF060A",
"E+.	c #EA2111",
"F+.	c #E82416",
"G+.	c #DF1F12",
"H+.	c #DB1D0D",
"I+.	c #DA210F",
"J+.	c #DA2512",
"K+.	c #D62810",
"L+.	c #D62A12",
"M+.	c #D4290F",
"N+.	c #D6280F",
"O+.	c #D82810",
"P+.	c #DA260F",
"Q+.	c #DB230B",
"R+.	c #DE210B",
"S+.	c #E0220C",
"T+.	c #E0230F",
"U+.	c #D9200E",
"V+.	c #D42313",
"W+.	c #CF2516",
"X+.	c #CE3024",
"Y+.	c #BA271D",
"Z+.	c #9E1A0E",
"`+.	c #931A11",
" @.	c #800E03",
".@.	c #750500",
"+@.	c #7E0A00",
"@@.	c #870500",
"#@.	c #B42012",
"$@.	c #C91F12",
"%@.	c #191007",
"&@.	c #180F06",
"*@.	c #170E05",
"=@.	c #1B1209",
"-@.	c #291C14",
";@.	c #17100A",
">@.	c #170F0C",
",@.	c #160E0B",
"'@.	c #140C09",
")@.	c #0E0604",
"!@.	c #302219",
"~@.	c #37261E",
"{@.	c #362720",
"]@.	c #382922",
"^@.	c #35241D",
"/@.	c #3E2B24",
"(@.	c #4A382C",
"_@.	c #483429",
":@.	c #493421",
"<@.	c #4C3523",
"[@.	c #4F3828",
"}@.	c #513A2C",
"|@.	c #4D3326",
"1@.	c #372113",
"2@.	c #2F1E0C",
"3@.	c #382B18",
"4@.	c #453A24",
"5@.	c #473F28",
"6@.	c #49412A",
"7@.	c #4C412B",
"8@.	c #4E3F2A",
"9@.	c #4E3E27",
"0@.	c #553F2A",
"a@.	c #5A412B",
"b@.	c #5A3D2B",
"c@.	c #533825",
"d@.	c #533D28",
"e@.	c #533E29",
"f@.	c #594433",
"g@.	c #584234",
"h@.	c #543E30",
"i@.	c #563F31",
"j@.	c #5C4233",
"k@.	c #563725",
"l@.	c #5B3522",
"m@.	c #6E2A17",
"n@.	c #7A2312",
"o@.	c #87200F",
"p@.	c #941F0E",
"q@.	c #A51C0C",
"r@.	c #CD1106",
"s@.	c #F70E0A",
"t@.	c #F20D0A",
"u@.	c #EC1210",
"v@.	c #E51815",
"w@.	c #DD1C1D",
"x@.	c #C71B1B",
"y@.	c #A71515",
"z@.	c #630A06",
"A@.	c #3A0F06",
"B@.	c #33190C",
"C@.	c #261609",
"D@.	c #2F2116",
"E@.	c #351C17",
"F@.	c #391716",
"G@.	c #3D1617",
"H@.	c #380C0D",
"I@.	c #3F1113",
"J@.	c #390D0E",
"K@.	c #350D0D",
"L@.	c #381914",
"M@.	c #1B0D00",
"N@.	c #1C0905",
"O@.	c #1F1009",
"P@.	c #1E0F08",
"Q@.	c #2B1811",
"R@.	c #25120B",
"S@.	c #220E07",
"T@.	c #220904",
"U@.	c #2F100B",
"V@.	c #2C0905",
"W@.	c #512F2D",
"X@.	c #5E413D",
"Y@.	c #4D312E",
"Z@.	c #381A18",
"`@.	c #381416",
" #.	c #401819",
".#.	c #390B0E",
"+#.	c #430B0C",
"@#.	c #4E0703",
"##.	c #750F0B",
"$#.	c #B42622",
"%#.	c #DC2422",
"&#.	c #E6181A",
"*#.	c #DF2928",
"=#.	c #C72F2C",
"-#.	c #A62F29",
";#.	c #771F15",
">#.	c #611D10",
",#.	c #561B0B",
"'#.	c #5C1F0D",
")#.	c #6D220F",
"!#.	c #791E0C",
"~#.	c #841605",
"{#.	c #8E0F00",
"]#.	c #A81106",
"^#.	c #B61209",
"/#.	c #C51811",
"(#.	c #D41D15",
"_#.	c #DB1A13",
":#.	c #DF1006",
"<#.	c #E51207",
"[#.	c #F2120A",
"}#.	c #E01C0E",
"|#.	c #DA1C0E",
"1#.	c #DB0706",
"2#.	c #F00D14",
"3#.	c #ED060E",
"4#.	c #ED080D",
"5#.	c #E62110",
"6#.	c #E52412",
"7#.	c #E02310",
"8#.	c #DB2210",
"9#.	c #D82511",
"0#.	c #D72813",
"a#.	c #D32B11",
"b#.	c #CD290E",
"c#.	c #CB2C0F",
"d#.	c #CD2F12",
"e#.	c #C92A0D",
"f#.	c #CB2A0E",
"g#.	c #CF2A0E",
"h#.	c #D3280E",
"i#.	c #D5250D",
"j#.	c #D8220C",
"k#.	c #D9230E",
"l#.	c #D42512",
"m#.	c #CC2714",
"n#.	c #C22514",
"o#.	c #BF2D1E",
"p#.	c #A72115",
"q#.	c #8B1305",
"r#.	c #811207",
"s#.	c #6F0700",
"t#.	c #6D0700",
"u#.	c #7C0E00",
"v#.	c #A91B0D",
"w#.	c #BF190D",
"x#.	c #120900",
"y#.	c #110800",
"z#.	c #2B1E16",
"A#.	c #150D0A",
"B#.	c #0C0402",
"C#.	c #0D0503",
"D#.	c #110706",
"E#.	c #190F0D",
"F#.	c #281A11",
"G#.	c #2B1A12",
"H#.	c #2D1E17",
"I#.	c #352621",
"J#.	c #352623",
"K#.	c #0F0000",
"L#.	c #4B3A28",
"M#.	c #463120",
"N#.	c #4A3524",
"O#.	c #523B2B",
"P#.	c #574032",
"Q#.	c #583E31",
"R#.	c #54382C",
"S#.	c #5D4135",
"T#.	c #53382D",
"U#.	c #372114",
"V#.	c #2A1909",
"W#.	c #443C29",
"X#.	c #48402D",
"Y#.	c #473F2A",
"Z#.	c #483B28",
"`#.	c #4F3D27",
" $.	c #56412C",
".$.	c #573E2A",
"+$.	c #523925",
"@$.	c #553C26",
"#$.	c #553C28",
"$$.	c #583E2D",
"%$.	c #5A4331",
"&$.	c #574231",
"*$.	c #513E2D",
"=$.	c #523F30",
"-$.	c #574433",
";$.	c #543D2B",
">$.	c #573B26",
",$.	c #5E3521",
"'$.	c #652E19",
")$.	c #702714",
"!$.	c #7B2411",
"~$.	c #872411",
"{$.	c #981E0F",
"]$.	c #AA1205",
"^$.	c #D9140C",
"/$.	c #E6120E",
"($.	c #EE0F0A",
"_$.	c #EE0D09",
":$.	c #E31110",
"<$.	c #DF1717",
"[$.	c #D61E1C",
"}$.	c #C62020",
"|$.	c #AE1C1C",
"1$.	c #890F0E",
"2$.	c #630400",
"3$.	c #4C0700",
"4$.	c #421309",
"5$.	c #34160B",
"6$.	c #241204",
"7$.	c #2D140F",
"8$.	c #30110F",
"9$.	c #381414",
"0$.	c #3A1212",
"a$.	c #401617",
"b$.	c #300D0B",
"c$.	c #371A14",
"d$.	c #2A160D",
"e$.	c #150700",
"f$.	c #140800",
"g$.	c #2B1C15",
"h$.	c #2F2118",
"i$.	c #230E0B",
"j$.	c #1F0A05",
"k$.	c #180000",
"l$.	c #210803",
"m$.	c #341711",
"n$.	c #2D100C",
"o$.	c #290803",
"p$.	c #310B08",
"q$.	c #421C19",
"r$.	c #5C3A38",
"s$.	c #5B3D3B",
"t$.	c #3F1F20",
"u$.	c #351314",
"v$.	c #3F181B",
"w$.	c #411719",
"x$.	c #3F0E11",
"y$.	c #480C0B",
"z$.	c #550601",
"A$.	c #7F120D",
"B$.	c #C22924",
"C$.	c #E52323",
"D$.	c #F40B0E",
"E$.	c #FF080C",
"F$.	c #F10104",
"G$.	c #F20C0E",
"H$.	c #EA0E10",
"I$.	c #E71B1E",
"J$.	c #E32F30",
"K$.	c #CD3834",
"L$.	c #AC3730",
"M$.	c #652315",
"N$.	c #5A2211",
"O$.	c #59200D",
"P$.	c #601B0B",
"Q$.	c #691606",
"R$.	c #781405",
"S$.	c #881407",
"T$.	c #900E00",
"U$.	c #9E1004",
"V$.	c #B31B10",
"W$.	c #C8251C",
"X$.	c #D4261D",
"Y$.	c #D82018",
"Z$.	c #DD1B12",
"`$.	c #E41B11",
" %.	c #ED130A",
".%.	c #F3160D",
"+%.	c #F81911",
"@%.	c #F32015",
"#%.	c #E12519",
"$%.	c #D82416",
"%%.	c #C80000",
"&%.	c #DE0609",
"*%.	c #F11217",
"=%.	c #FA151C",
"-%.	c #EC110D",
";%.	c #ED1A11",
">%.	c #EC2214",
",%.	c #EC2716",
"'%.	c #E92A17",
")%.	c #D4200F",
"!%.	c #D82C18",
"~%.	c #DA341E",
"{%.	c #D2321A",
"]%.	c #C62C12",
"^%.	c #BF290E",
"/%.	c #C02C10",
"(%.	c #C32F15",
"_%.	c #C63015",
":%.	c #CB3117",
"<%.	c #CE3017",
"[%.	c #CF2D16",
"}%.	c #D12B13",
"|%.	c #D42915",
"1%.	c #D12C18",
"2%.	c #CB331E",
"3%.	c #BE2F1E",
"4%.	c #AF2616",
"5%.	c #A62619",
"6%.	c #8D190C",
"7%.	c #730B00",
"8%.	c #6E1004",
"9%.	c #620900",
"0%.	c #690D00",
"a%.	c #791506",
"b%.	c #7F0900",
"c%.	c #A51B0E",
"d%.	c #100700",
"e%.	c #130A01",
"f%.	c #150C03",
"g%.	c #30231B",
"h%.	c #2D2018",
"i%.	c #1A100E",
"j%.	c #180E0C",
"k%.	c #150D0B",
"l%.	c #120D0A",
"m%.	c #110C09",
"n%.	c #0F0A07",
"o%.	c #100806",
"p%.	c #110708",
"q%.	c #120809",
"r%.	c #130709",
"s%.	c #140808",
"t%.	c #150909",
"u%.	c #2D1A14",
"v%.	c #321F19",
"w%.	c #271910",
"x%.	c #26180F",
"y%.	c #32251D",
"z%.	c #110200",
"A%.	c #130200",
"B%.	c #1D0B00",
"C%.	c #4B392B",
"D%.	c #544435",
"E%.	c #392919",
"F%.	c #453422",
"G%.	c #523D2C",
"H%.	c #533B2F",
"I%.	c #594338",
"J%.	c #4E3A2F",
"K%.	c #28170D",
"L%.	c #42362A",
"M%.	c #483C30",
"N%.	c #544130",
"O%.	c #5B4130",
"P%.	c #553423",
"Q%.	c #573627",
"R%.	c #5A3D2D",
"S%.	c #5A402F",
"T%.	c #543F2C",
"U%.	c #51402E",
"V%.	c #54432F",
"W%.	c #51412A",
"X%.	c #554129",
"Y%.	c #5B3D25",
"Z%.	c #613721",
"`%.	c #682F1B",
" &.	c #6D2914",
".&.	c #752411",
"+&.	c #821C0D",
"@&.	c #99170A",
"#&.	c #A60F06",
"$&.	c #CD1A13",
"%&.	c #FF0707",
"&&.	c #FE0C0A",
"*&.	c #D50B0B",
"=&.	c #D11919",
"-&.	c #CB2527",
";&.	c #BE2C2D",
">&.	c #921616",
",&.	c #730B0A",
"'&.	c #570602",
")&.	c #3E1209",
"!&.	c #301305",
"~&.	c #271606",
"{&.	c #271B0B",
"]&.	c #2A130D",
"^&.	c #321511",
"/&.	c #30130F",
"(&.	c #2C1B14",
"_&.	c #281710",
":&.	c #2A120E",
"<&.	c #2D1410",
"[&.	c #2F1310",
"}&.	c #290D0A",
"|&.	c #250906",
"1&.	c #260806",
"2&.	c #270907",
"3&.	c #220402",
"4&.	c #250705",
"5&.	c #2F110F",
"6&.	c #2B0E0A",
"7&.	c #240902",
"8&.	c #270F03",
"9&.	c #4A2F24",
"0&.	c #5E3F3A",
"a&.	c #4A2827",
"b&.	c #370E16",
"c&.	c #3C111A",
"d&.	c #41131D",
"e&.	c #38070B",
"f&.	c #481212",
"g&.	c #4C0702",
"h&.	c #680B04",
"i&.	c #991D15",
"j&.	c #C81F1C",
"k&.	c #DF1113",
"l&.	c #F7080E",
"m&.	c #FF0B13",
"n&.	c #ED0D0B",
"o&.	c #EE1311",
"p&.	c #EB1716",
"q&.	c #D51112",
"r&.	c #B90A07",
"s&.	c #A31009",
"t&.	c #941E14",
"u&.	c #761D0D",
"v&.	c #65210E",
"w&.	c #5A210D",
"x&.	c #601E0E",
"y&.	c #691D10",
"z&.	c #731910",
"A&.	c #7A150B",
"B&.	c #7C1003",
"C&.	c #861301",
"D&.	c #951709",
"E&.	c #A41C10",
"F&.	c #B21B12",
"G&.	c #BD1A11",
"H&.	c #CC1E17",
"I&.	c #DD251D",
"J&.	c #E4231C",
"K&.	c #E11811",
"L&.	c #E11107",
"M&.	c #EC1C10",
"N&.	c #EE2A1E",
"O&.	c #DD3022",
"P&.	c #D1291E",
"Q&.	c #D22119",
"R&.	c #C50000",
"S&.	c #CF0000",
"T&.	c #EA0B10",
"U&.	c #FB141A",
"V&.	c #F3080D",
"W&.	c #F3090C",
"X&.	c #F20C0C",
"Y&.	c #F1100C",
"Z&.	c #F0170E",
"`&.	c #F01D12",
" *.	c #F22718",
".*.	c #F32F1F",
"+*.	c #DB2011",
"@*.	c #D22111",
"#*.	c #CB200E",
"$*.	c #BC210D",
"%*.	c #BA2511",
"&*.	c #B82A14",
"**.	c #BA2D19",
"=*.	c #C93C2A",
"-*.	c #C03321",
";*.	c #BA2D1B",
">*.	c #B52713",
",*.	c #BC2E18",
"'*.	c #C63824",
")*.	c #BE3723",
"!*.	c #B03525",
"~*.	c #9D2C1E",
"{*.	c #8C2014",
"]*.	c #811A11",
"^*.	c #6C180E",
"/*.	c #66180E",
"(*.	c #661A0D",
"_*.	c #641508",
":*.	c #6A0E00",
"<*.	c #7E1001",
"[*.	c #9E1A0B",
"}*.	c #BD2011",
"|*.	c #20130B",
"1*.	c #140C0A",
"2*.	c #100B08",
"3*.	c #120A08",
"4*.	c #140A0B",
"5*.	c #15090B",
"6*.	c #180A0A",
"7*.	c #1A0C0C",
"8*.	c #1D0D0D",
"9*.	c #22100E",
"0*.	c #2B1613",
"a*.	c #2A1512",
"b*.	c #2E1612",
"c*.	c #341C18",
"d*.	c #34271F",
"e*.	c #372A24",
"f*.	c #382B25",
"g*.	c #362923",
"h*.	c #1D0C02",
"i*.	c #200E00",
"j*.	c #2D1D0E",
"k*.	c #483829",
"l*.	c #483B2B",
"m*.	c #4A3728",
"n*.	c #513A2A",
"o*.	c #574134",
"p*.	c #554136",
"q*.	c #3B2821",
"r*.	c #291A13",
"s*.	c #473930",
"t*.	c #483A31",
"u*.	c #4D3C32",
"v*.	c #544132",
"w*.	c #533928",
"x*.	c #553425",
"y*.	c #573222",
"z*.	c #573325",
"A*.	c #5A3A2B",
"B*.	c #593E2D",
"C*.	c #52402C",
"D*.	c #544530",
"E*.	c #4F4029",
"F*.	c #524229",
"G*.	c #594129",
"H*.	c #5E3C23",
"I*.	c #63351E",
"J*.	c #672D19",
"K*.	c #6B2714",
"L*.	c #77200F",
"M*.	c #881309",
"N*.	c #960D05",
"O*.	c #A9120B",
"P*.	c #C31A13",
"Q*.	c #FC0808",
"R*.	c #D51F1E",
"S*.	c #C62324",
"T*.	c #A81C1D",
"U*.	c #8A1414",
"V*.	c #6F100E",
"W*.	c #580D08",
"X*.	c #480F08",
"Y*.	c #3F170D",
"Z*.	c #35190D",
"`*.	c #211604",
" =.	c #231A09",
".=.	c #221109",
"+=.	c #2E1711",
"@=.	c #24150E",
"#=.	c #23120B",
"$=.	c #26150E",
"%=.	c #2D110E",
"&=.	c #250604",
"*=.	c #240503",
"==.	c #2A0807",
"-=.	c #230402",
";=.	c #260705",
">=.	c #321412",
",=.	c #2B0D0B",
"'=.	c #240805",
")=.	c #2D1A0B",
"!=.	c #543731",
"~=.	c #3A1119",
"{=.	c #3C0E19",
"]=.	c #380913",
"^=.	c #3E0B10",
"/=.	c #4A0E0D",
"(=.	c #520500",
"_=.	c #760E05",
":=.	c #A91E17",
"<=.	c #CD1918",
"[=.	c #E40E10",
"}=.	c #F80710",
"|=.	c #FF0810",
"1=.	c #E60B05",
"2=.	c #E70D0B",
"3=.	c #E00E0D",
"4=.	c #CE0B09",
"5=.	c #B20300",
"6=.	c #960000",
"7=.	c #7E0200",
"8=.	c #741404",
"9=.	c #681B09",
"0=.	c #5D1F0A",
"a=.	c #5A200C",
"b=.	c #5E1C0E",
"c=.	c #651B10",
"d=.	c #701B16",
"e=.	c #76190A",
"f=.	c #791807",
"g=.	c #801608",
"h=.	c #861507",
"i=.	c #921408",
"j=.	c #A2180E",
"k=.	c #B31E17",
"l=.	c #CB221B",
"m=.	c #CF211A",
"n=.	c #D72219",
"o=.	c #DE281D",
"p=.	c #E0281C",
"q=.	c #DF281A",
"r=.	c #E12A1C",
"s=.	c #E03023",
"t=.	c #D23226",
"u=.	c #C92C23",
"v=.	c #CE2923",
"w=.	c #D1221D",
"x=.	c #CF1111",
"y=.	c #D80D10",
"z=.	c #E51014",
"A=.	c #ED0C10",
"B=.	c #EC0C0D",
"C=.	c #E6150E",
"D=.	c #E71D11",
"E=.	c #E82215",
"F=.	c #E52A1B",
"G=.	c #EA3D2D",
"H=.	c #DE3B2A",
"I=.	c #D03523",
"J=.	c #C12E1C",
"K=.	c #B82D1A",
"L=.	c #B63724",
"M=.	c #BB3E2C",
"N=.	c #BC4131",
"O=.	c #B83D2D",
"P=.	c #B53A2A",
"Q=.	c #AB301E",
"R=.	c #A02714",
"S=.	c #A32C16",
"T=.	c #A7331C",
"U=.	c #9E2F1B",
"V=.	c #882013",
"W=.	c #71140C",
"X=.	c #6C150C",
"Y=.	c #671811",
"Z=.	c #631A13",
"`=.	c #5F1B12",
" -.	c #611D12",
".-.	c #63190E",
"+-.	c #6A1204",
"@-.	c #7B0F02",
"#-.	c #971505",
"$-.	c #B81B0C",
"%-.	c #170D0E",
"&-.	c #170B0D",
"*-.	c #1B0D0D",
"=-.	c #1E0E0E",
"--.	c #2B1716",
";-.	c #2E1916",
">-.	c #311915",
",-.	c #301B16",
"'-.	c #32231C",
")-.	c #35261F",
"!-.	c #362722",
"~-.	c #382924",
"{-.	c #372823",
"]-.	c #2B1A10",
"^-.	c #261408",
"/-.	c #201003",
"(-.	c #231306",
"_-.	c #2B1B0E",
":-.	c #463929",
"<-.	c #5C4639",
"[-.	c #4F392C",
"}-.	c #5A483E",
"|-.	c #42342B",
"1-.	c #3F3128",
"2-.	c #534232",
"3-.	c #4D3A29",
"4-.	c #4D3624",
"5-.	c #503323",
"6-.	c #523120",
"7-.	c #533221",
"8-.	c #553A29",
"9-.	c #553B2A",
"0-.	c #4F3F28",
"a-.	c #534129",
"b-.	c #5B432B",
"c-.	c #604029",
"d-.	c #633923",
"e-.	c #65311B",
"f-.	c #682917",
"g-.	c #732211",
"h-.	c #A4110A",
"i-.	c #BD1814",
"j-.	c #DB0E0B",
"k-.	c #E70705",
"l-.	c #DB1A15",
"m-.	c #D4211D",
"n-.	c #C62421",
"o-.	c #AD1F1D",
"p-.	c #890F0C",
"q-.	c #660200",
"r-.	c #580703",
"s-.	c #4A0B04",
"t-.	c #401109",
"u-.	c #39190E",
"v-.	c #30180C",
"w-.	c #231304",
"x-.	c #1E1504",
"y-.	c #231A0B",
"z-.	c #220F08",
"A-.	c #140700",
"B-.	c #2B1812",
"C-.	c #2B130F",
"D-.	c #2E1511",
"E-.	c #2A0E0B",
"F-.	c #220301",
"G-.	c #280907",
"H-.	c #382516",
"I-.	c #432821",
"J-.	c #2E0F0D",
"K-.	c #3A161A",
"L-.	c #380F17",
"M-.	c #310208",
"N-.	c #481114",
"O-.	c #4D0906",
"P-.	c #590200",
"Q-.	c #86130C",
"R-.	c #B7221C",
"S-.	c #D01715",
"T-.	c #E60C0D",
"U-.	c #FD0911",
"V-.	c #FB050A",
"W-.	c #F40C08",
"X-.	c #EE130F",
"Y-.	c #EA1412",
"Z-.	c #E21816",
"`-.	c #CE1614",
" ;.	c #AF100A",
".;.	c #900A01",
"+;.	c #750900",
"@;.	c #651C0B",
"#;.	c #611E0D",
"$;.	c #601A0E",
"%;.	c #62180D",
"&;.	c #6B160F",
"*;.	c #70170F",
"=;.	c #781E13",
"-;.	c #7D2114",
";;.	c #7E1E12",
">;.	c #781609",
",;.	c #7B1306",
"';.	c #881A0D",
");.	c #921E11",
"!;.	c #961C0F",
"~;.	c #99190C",
"{;.	c #9F190D",
"];.	c #A91D10",
"^;.	c #B12214",
"/;.	c #B72317",
"(;.	c #BE281A",
"_;.	c #C93124",
":;.	c #D13B2D",
"<;.	c #BE3026",
"[;.	c #B92C22",
"};.	c #C22D26",
"|;.	c #CB2E27",
"1;.	c #D02724",
"2;.	c #D82423",
"3;.	c #DF2121",
"4;.	c #DB1718",
"5;.	c #DA1212",
"6;.	c #D8110E",
"7;.	c #D50F0C",
"8;.	c #D3120B",
"9;.	c #D62013",
"0;.	c #D52315",
"a;.	c #CE2717",
"b;.	c #D74132",
"c;.	c #CD4633",
"d;.	c #C64532",
"e;.	c #B9402D",
"f;.	c #AB3B27",
"g;.	c #9F3420",
"h;.	c #99321F",
"i;.	c #983321",
"j;.	c #9A3523",
"k;.	c #9C3725",
"l;.	c #9D3826",
"m;.	c #912C18",
"n;.	c #821D09",
"o;.	c #811E07",
"p;.	c #81230A",
"q;.	c #781C07",
"r;.	c #721609",
"s;.	c #6B1109",
"t;.	c #69120B",
"u;.	c #681811",
"v;.	c #681D18",
"w;.	c #631E17",
"x;.	c #681E15",
"y;.	c #70180C",
"z;.	c #7C1004",
"A;.	c #930F02",
"B;.	c #170D0C",
"C;.	c #190D0F",
"D;.	c #180C0E",
"E;.	c #23110F",
"F;.	c #2D1511",
"G;.	c #312018",
"H;.	c #2E1D15",
"I;.	c #342520",
"J;.	c #392821",
"K;.	c #25140A",
"L;.	c #201207",
"M;.	c #241609",
"N;.	c #45372A",
"O;.	c #4A3729",
"P;.	c #503A2D",
"Q;.	c #594336",
"R;.	c #513D32",
"S;.	c #5A463B",
"T;.	c #21130A",
"U;.	c #160800",
"V;.	c #4A3C33",
"W;.	c #4B392D",
"X;.	c #4E3C2E",
"Y;.	c #4E3423",
"Z;.	c #4F3220",
"`;.	c #513422",
" >.	c #513625",
".>.	c #523827",
"+>.	c #523B29",
"@>.	c #513F2B",
"#>.	c #503E28",
"$>.	c #54422C",
"%>.	c #5D442E",
"&>.	c #63442F",
"*>.	c #653F28",
"=>.	c #653720",
"->.	c #672E1B",
";>.	c #6F2617",
">>.	c #7D180C",
",>.	c #8C1109",
"'>.	c #9C110C",
")>.	c #C8120F",
"!>.	c #E41412",
"~>.	c #CB241C",
"{>.	c #B9201A",
"]>.	c #9D1610",
"^>.	c #830E07",
"/>.	c #6E0B06",
"(>.	c #5E0E07",
"_>.	c #490A03",
":>.	c #3D0C05",
"<>.	c #361108",
"[>.	c #31160B",
"}>.	c #281608",
"|>.	c #211404",
"1>.	c #1E1506",
"2>.	c #22190A",
"3>.	c #1F0E04",
"4>.	c #2C1811",
"5>.	c #2E1B15",
"6>.	c #220F09",
"7>.	c #2F1713",
"8>.	c #311814",
"9>.	c #270806",
"0>.	c #2C0E0C",
"a>.	c #2C100D",
"b>.	c #331A15",
"c>.	c #432D1F",
"d>.	c #331A13",
"e>.	c #2B0F0C",
"f>.	c #341417",
"g>.	c #360F14",
"h>.	c #380A0D",
"i>.	c #4D1312",
"j>.	c #500200",
"k>.	c #650200",
"l>.	c #C6241F",
"m>.	c #FF0C10",
"n>.	c #E71715",
"o>.	c #DF1D1D",
"p>.	c #A9160F",
"q>.	c #850C01",
"r>.	c #711E10",
"s>.	c #6C2012",
"t>.	c #671D10",
"u>.	c #65180E",
"v>.	c #65120A",
"w>.	c #660F08",
"x>.	c #6B120A",
"y>.	c #681205",
"z>.	c #691306",
"A>.	c #691103",
"B>.	c #630A00",
"C>.	c #6C0F00",
"D>.	c #711000",
"E>.	c #781102",
"F>.	c #7E1003",
"G>.	c #811002",
"H>.	c #8B1509",
"I>.	c #9C2217",
"J>.	c #A92D23",
"K>.	c #9F251A",
"L>.	c #9B1F15",
"M>.	c #A22219",
"N>.	c #AC231B",
"O>.	c #B5211D",
"P>.	c #C32824",
"Q>.	c #CD2B28",
"R>.	c #CA221F",
"S>.	c #CE2220",
"T>.	c #CC201C",
"U>.	c #C71E17",
"V>.	c #C61F17",
"W>.	c #C9271C",
"X>.	c #CD3021",
"Y>.	c #CC3021",
"Z>.	c #C03121",
"`>.	c #A92E1E",
" ,.	c #A33423",
".,.	c #9D3625",
"+,.	c #852C1A",
"@,.	c #7A2511",
"#,.	c #721F0D",
"$,.	c #6E1D0A",
"%,.	c #72210E",
"&,.	c #772412",
"*,.	c #701E09",
"=,.	c #651300",
"-,.	c #661600",
";,.	c #681A03",
">,.	c #601200",
",,.	c #6E1C10",
"',.	c #6C1911",
"),.	c #6A1B14",
"!,.	c #6C211B",
"~,.	c #6A2520",
"{,.	c #63221C",
"],.	c #5F1E18",
"^,.	c #601D15",
"/,.	c #6A2017",
"(,.	c #831308",
"_,.	c #960D03",
":,.	c #190E0C",
"<,.	c #180C0C",
"[,.	c #190A0D",
"},.	c #190B0B",
"|,.	c #291612",
"1,.	c #27120D",
"2,.	c #34231C",
"3,.	c #3B2A23",
"4,.	c #3A2922",
"5,.	c #382622",
"6,.	c #392723",
"7,.	c #3B2925",
"8,.	c #3A2720",
"9,.	c #2D1F14",
"0,.	c #47392C",
"a,.	c #4C3C2F",
"b,.	c #4D3B2F",
"c,.	c #4F392E",
"d,.	c #4F3D33",
"e,.	c #140600",
"f,.	c #65574E",
"g,.	c #3B2D22",
"h,.	c #453526",
"i,.	c #443425",
"j,.	c #4D3C2C",
"k,.	c #4C3621",
"l,.	c #503524",
"m,.	c #513726",
"n,.	c #4F3826",
"o,.	c #513C29",
"p,.	c #5C462F",
"q,.	c #614730",
"r,.	c #66432F",
"s,.	c #653C28",
"t,.	c #653624",
"u,.	c #6D2E1D",
"v,.	c #84150C",
"w,.	c #91100A",
"x,.	c #A30E0A",
"y,.	c #B80A09",
"z,.	c #CB0709",
"A,.	c #DF070A",
"B,.	c #EF090C",
"C,.	c #EC0A0B",
"D,.	c #E11313",
"E,.	c #E01A19",
"F,.	c #D8221E",
"G,.	c #C72822",
"H,.	c #B7271E",
"I,.	c #A51F16",
"J,.	c #730800",
"K,.	c #570E05",
"L,.	c #531810",
"M,.	c #3B0F06",
"N,.	c #2A180C",
"O,.	c #27190C",
"P,.	c #221608",
"Q,.	c #160500",
"R,.	c #190C03",
"S,.	c #2A0B09",
"T,.	c #2E100E",
"U,.	c #301713",
"V,.	c #3F2621",
"W,.	c #473124",
"X,.	c #301A0D",
"Y,.	c #290F0E",
"Z,.	c #310F0E",
"`,.	c #441414",
" '.	c #4A0907",
".'.	c #580000",
"+'.	c #7C0700",
"@'.	c #AE1B14",
"#'.	c #DD120E",
"$'.	c #FD0D0E",
"%'.	c #F41007",
"&'.	c #F3150A",
"*'.	c #E40D0B",
"='.	c #E01616",
"-'.	c #D21A18",
";'.	c #BD1B18",
">'.	c #A01913",
",'.	c #8D1B11",
"''.	c #7A1A0E",
")'.	c #711B0E",
"!'.	c #6B1B10",
"~'.	c #6A170F",
"{'.	c #68130C",
"]'.	c #882F2B",
"^'.	c #8E3934",
"/'.	c #81322B",
"('.	c #722A1E",
"_'.	c #6B291B",
":'.	c #672819",
"<'.	c #602213",
"['.	c #561809",
"}'.	c #5E1C0C",
"|'.	c #641F10",
"1'.	c #651308",
"2'.	c #670E06",
"3'.	c #6F100A",
"4'.	c #76130D",
"5'.	c #7D180E",
"6'.	c #7D150A",
"7'.	c #82160C",
"8'.	c #85140C",
"9'.	c #88110B",
"0'.	c #971A14",
"a'.	c #A6221D",
"b'.	c #A41D17",
"c'.	c #A81F19",
"d'.	c #A71E16",
"e'.	c #A31A10",
"f'.	c #9F190E",
"g'.	c #A31D11",
"h'.	c #A82618",
"i'.	c #A52617",
"j'.	c #982214",
"k'.	c #841E10",
"l'.	c #771D12",
"m'.	c #6C190B",
"n'.	c #621407",
"o'.	c #5B1304",
"p'.	c #5D1B0B",
"q'.	c #601D0D",
"r'.	c #5C1707",
"s'.	c #61190A",
"t'.	c #621B09",
"u'.	c #5F1806",
"v'.	c #601C07",
"w'.	c #63210B",
"x'.	c #5E1B08",
"y'.	c #671F11",
"z'.	c #671D14",
"A'.	c #662018",
"B'.	c #69241D",
"C'.	c #66251F",
"D'.	c #60211C",
"E'.	c #5B1C15",
"F'.	c #5D1A12",
"G'.	c #661911",
"H'.	c #751810",
"I'.	c #87150B",
"J'.	c #9E1108",
"K'.	c #BE160D",
"L'.	c #130A03",
"M'.	c #160A0A",
"N'.	c #1B0907",
"O'.	c #35231F",
"P'.	c #362420",
"Q'.	c #372521",
"R'.	c #392620",
"S'.	c #1A0C01",
"T'.	c #403227",
"U'.	c #4A392F",
"V'.	c #4D372A",
"W'.	c #4F3D31",
"X'.	c #503E34",
"Y'.	c #3F2E24",
"Z'.	c #6F6158",
"`'.	c #4D3F34",
" ).	c #463724",
".).	c #493824",
"+).	c #4C3724",
"@).	c #4A3321",
"#).	c #4F3423",
"$).	c #503927",
"%).	c #533E2B",
"&).	c #59432E",
"*).	c #5E452F",
"=).	c #60442F",
"-).	c #63402C",
";).	c #633D2A",
">).	c #6C3727",
",).	c #702417",
"').	c #831009",
")).	c #910A06",
"!).	c #A80604",
"~).	c #BF0709",
"{).	c #D7090D",
"]).	c #EB040A",
"^).	c #ED060C",
"/).	c #EB0A0E",
"().	c #E51012",
"_).	c #DC1617",
":).	c #C12822",
"<).	c #A92920",
"[).	c #8E1C12",
"}).	c #750D02",
"|).	c #650700",
"1).	c #590900",
"2).	c #500D04",
"3).	c #441207",
"4).	c #3C160B",
"5).	c #271308",
"6).	c #27160C",
"7).	c #23170B",
"8).	c #301D17",
"9).	c #35221C",
"0).	c #230B07",
"a).	c #2C0D0B",
"b).	c #341815",
"c).	c #412823",
"d).	c #261003",
"e).	c #28160C",
"f).	c #321F18",
"g).	c #2F0D0B",
"h).	c #481512",
"i).	c #4A0000",
"j).	c #670000",
"k).	c #96110C",
"l).	c #C01D18",
"m).	c #F9170B",
"n).	c #F7190C",
"o).	c #F4150D",
"p).	c #ED0F0A",
"q).	c #E60C0B",
"r).	c #E31313",
"s).	c #DC1B1C",
"t).	c #D02422",
"u).	c #B4201C",
"v).	c #9A1B15",
"w).	c #7F1309",
"x).	c #6F1107",
"y).	c #6D160C",
"z).	c #6F1D12",
"A).	c #702017",
"B).	c #711E16",
"C).	c #670D0C",
"D).	c #751B1A",
"E).	c #7A2723",
"F).	c #6E231E",
"G).	c #621F17",
"H).	c #5B2116",
"I).	c #5A2619",
"J).	c #572719",
"K).	c #5C2C1E",
"L).	c #5E2E20",
"M).	c #5E2A1D",
"N).	c #5B2018",
"O).	c #581711",
"P).	c #631815",
"Q).	c #681914",
"R).	c #6D1811",
"S).	c #70190F",
"T).	c #761D15",
"U).	c #711009",
"V).	c #7A150D",
"W).	c #801912",
"X).	c #7B130A",
"Y).	c #7E1309",
"Z).	c #80140A",
"`).	c #7D1105",
" !.	c #780C00",
".!.	c #790D00",
"+!.	c #7D1305",
"@!.	c #7B1103",
"#!.	c #6F0D00",
"$!.	c #62130C",
"%!.	c #5A1108",
"&!.	c #571308",
"*!.	c #58180E",
"=!.	c #5A1E13",
"-!.	c #5D2116",
";!.	c #602215",
">!.	c #632317",
",!.	c #5B190B",
"'!.	c #6D2A1A",
")!.	c #6B2818",
"!!.	c #662513",
"~!.	c #652614",
"{!.	c #632412",
"]!.	c #601E10",
"^!.	c #601C11",
"/!.	c #65251C",
"(!.	c #65261F",
"_!.	c #61221B",
":!.	c #601F19",
"<!.	c #651F17",
"[!.	c #76140B",
"}!.	c #8E150C",
"|!.	c #AB1810",
"1!.	c #CA1C13",
"2!.	c #190C06",
"3!.	c #22140B",
"4!.	c #1D0E07",
"5!.	c #1A0B0E",
"6!.	c #1B0C0F",
"7!.	c #190909",
"8!.	c #34211B",
"9!.	c #321F1B",
"0!.	c #372420",
"a!.	c #36231F",
"b!.	c #3C2A26",
"c!.	c #150800",
"d!.	c #24160D",
"e!.	c #413028",
"f!.	c #4A362D",
"g!.	c #48342B",
"h!.	c #524034",
"i!.	c #504237",
"j!.	c #6D6155",
"k!.	c #413624",
"l!.	c #453825",
"m!.	c #493423",
"n!.	c #4D3123",
"o!.	c #58422D",
"p!.	c #5B422E",
"q!.	c #5D422D",
"r!.	c #60412D",
"s!.	c #693E2D",
"t!.	c #6E3023",
"u!.	c #76261B",
"v!.	c #7D1A14",
"w!.	c #87100A",
"x!.	c #9B0A07",
"y!.	c #B20809",
"z!.	c #CA090E",
"A!.	c #D9080E",
"B!.	c #E20911",
"C!.	c #E41318",
"D!.	c #DA1819",
"E!.	c #C91919",
"F!.	c #B71A15",
"G!.	c #A71A11",
"H!.	c #971D12",
"I!.	c #7F1A10",
"J!.	c #651106",
"K!.	c #540600",
"L!.	c #4D0900",
"M!.	c #4A1106",
"N!.	c #26150B",
"O!.	c #1D1007",
"P!.	c #2B120D",
"Q!.	c #2F1C15",
"R!.	c #200400",
"S!.	c #220501",
"T!.	c #270A06",
"U!.	c #260704",
"V!.	c #2C0D0A",
"W!.	c #2E110D",
"X!.	c #290C08",
"Y!.	c #381D16",
"Z!.	c #3C2118",
"`!.	c #2C1A10",
" ~.	c #4A100C",
".~.	c #550200",
"+~.	c #7A0400",
"@~.	c #D01D19",
"#~.	c #F20D07",
"$~.	c #EF1104",
"%~.	c #EA1102",
"&~.	c #DF0D0E",
"*~.	c #DB1417",
"=~.	c #D31F20",
"-~.	c #C02221",
";~.	c #A91F1C",
">~.	c #8F1A13",
",~.	c #7E1911",
"'~.	c #781E15",
")~.	c #772519",
"!~.	c #78281D",
"~~.	c #792920",
"{~.	c #6C1412",
"]~.	c #721818",
"^~.	c #74201E",
"/~.	c #722422",
"(~.	c #6C2722",
"_~.	c #682922",
":~.	c #653028",
"<~.	c #63322B",
"[~.	c #62312A",
"}~.	c #5D2B24",
"|~.	c #561F1C",
"1~.	c #571B1A",
"2~.	c #5D201F",
"3~.	c #662425",
"4~.	c #6C2626",
"5~.	c #67201A",
"6~.	c #712620",
"7~.	c #6C2219",
"8~.	c #671A12",
"9~.	c #6D1F15",
"0~.	c #66160B",
"a~.	c #6E1C11",
"b~.	c #731F14",
"c~.	c #6D190E",
"d~.	c #741E11",
"e~.	c #6D190F",
"f~.	c #6E1D19",
"g~.	c #691B19",
"h~.	c #641A17",
"i~.	c #65201B",
"j~.	c #692920",
"k~.	c #6A2A21",
"l~.	c #64241B",
"m~.	c #601D14",
"n~.	c #6E2820",
"o~.	c #651C13",
"p~.	c #752820",
"q~.	c #8B3E34",
"r~.	c #843A2D",
"s~.	c #71291B",
"t~.	c #692415",
"u~.	c #642214",
"v~.	c #612115",
"w~.	c #622216",
"x~.	c #65271C",
"y~.	c #632319",
"z~.	c #66231A",
"A~.	c #6E241B",
"B~.	c #6E170D",
"C~.	c #7E160B",
"D~.	c #99190E",
"E~.	c #B81E14",
"F~.	c #D51D15",
"G~.	c #170909",
"H~.	c #1D0E11",
"I~.	c #1D0F0F",
"J~.	c #170501",
"K~.	c #3A2723",
"L~.	c #3C2925",
"M~.	c #3A2824",
"N~.	c #100200",
"O~.	c #43322A",
"P~.	c #503931",
"Q~.	c #543E33",
"R~.	c #553F32",
"S~.	c #523F31",
"T~.	c #190B00",
"U~.	c #85796D",
"V~.	c #4C4034",
"W~.	c #180E04",
"X~.	c #3B3422",
"Y~.	c #403926",
"Z~.	c #4B3424",
"`~.	c #503B28",
" {.	c #55402B",
".{.	c #5D4430",
"+{.	c #664232",
"@{.	c #6F3E2F",
"#{.	c #753529",
"${.	c #7B2820",
"%{.	c #811C14",
"&{.	c #91120C",
"*{.	c #A30D0C",
"={.	c #B90B0D",
"-{.	c #C6070E",
";{.	c #D91219",
">{.	c #DD161D",
",{.	c #D91C20",
"'{.	c #CD1F20",
"){.	c #B51D1A",
"!{.	c #9A150E",
"~{.	c #810F04",
"{{.	c #6D0D01",
"]{.	c #5A0D03",
"^{.	c #4B0D02",
"/{.	c #460D02",
"({.	c #33170B",
"_{.	c #2D190E",
":{.	c #311813",
"<{.	c #20130A",
"[{.	c #290A07",
"}{.	c #2D120B",
"|{.	c #30130B",
"1{.	c #2E160C",
"2{.	c #381209",
"3{.	c #4B0A04",
"4{.	c #660701",
"5{.	c #8B0703",
"6{.	c #CA2521",
"7{.	c #DE1C1A",
"8{.	c #E70300",
"9{.	c #EA1706",
"0{.	c #EB150A",
"a{.	c #EF1911",
"b{.	c #ED1715",
"c{.	c #E21212",
"d{.	c #D01C1F",
"e{.	c #C62626",
"f{.	c #B82A28",
"g{.	c #A72D28",
"h{.	c #983027",
"i{.	c #8E3129",
"j{.	c #863227",
"k{.	c #803226",
"l{.	c #7F3127",
"m{.	c #711E1A",
"n{.	c #701C1A",
"o{.	c #72231F",
"p{.	c #772C27",
"q{.	c #79322E",
"r{.	c #74302D",
"s{.	c #6C2F2A",
"t{.	c #6A2F2B",
"u{.	c #612A25",
"v{.	c #652E2B",
"w{.	c #662F2C",
"x{.	c #622A29",
"y{.	c #622827",
"z{.	c #622729",
"A{.	c #5F2325",
"B{.	c #5A1D1C",
"C{.	c #63231A",
"D{.	c #622219",
"E{.	c #68281E",
"F{.	c #6B2B21",
"G{.	c #602016",
"H{.	c #5D1D13",
"I{.	c #68261A",
"J{.	c #642015",
"K{.	c #651F13",
"L{.	c #6D271B",
"M{.	c #6F251C",
"N{.	c #843634",
"O{.	c #792B2B",
"P{.	c #6B2120",
"Q{.	c #67201C",
"R{.	c #6A2721",
"S{.	c #6C2921",
"T{.	c #68231C",
"U{.	c #631D15",
"V{.	c #752A24",
"W{.	c #70211A",
"X{.	c #88352F",
"Y{.	c #A5524A",
"Z{.	c #99493E",
"`{.	c #792D1F",
" ].	c #6D2415",
".].	c #702B1B",
"+].	c #6B2919",
"@].	c #652816",
"#].	c #642617",
"$].	c #652617",
"%].	c #622012",
"&].	c #702114",
"*].	c #7B1F12",
"=].	c #8B1B0F",
"-].	c #A51D11",
";].	c #C42217",
">].	c #DB1C12",
",].	c #1A0B06",
"'].	c #3D2B27",
")].	c #3B2C27",
"!].	c #392C26",
"~].	c #3B2A22",
"{].	c #4F3C35",
"]].	c #503D36",
"^].	c #4F3B34",
"/].	c #523E35",
"(].	c #574636",
"_].	c #2C1E11",
":].	c #5C5044",
"<].	c #5E544A",
"[].	c #584E44",
"}].	c #271E15",
"|].	c #221C10",
"1].	c #312E1B",
"2].	c #4A4130",
"3].	c #52362A",
"4].	c #462A1C",
"5].	c #452B1C",
"6].	c #4F3D29",
"7].	c #4E3C28",
"8].	c #54422E",
"9].	c #5A4532",
"0].	c #5E4330",
"a].	c #5F3A2A",
"b].	c #724132",
"c].	c #7F3F33",
"d].	c #7F2D22",
"e].	c #811910",
"f].	c #90110B",
"g].	c #A50F0E",
"h].	c #B40E10",
"i].	c #C51518",
"j].	c #D22225",
"k].	c #CF2629",
"l].	c #B11918",
"m].	c #8D0C07",
"n].	c #740900",
"o].	c #5D0500",
"p].	c #480000",
"q].	c #3F0600",
"r].	c #3C0D05",
"s].	c #3E130A",
"t].	c #3A180E",
"u].	c #361A0F",
"v].	c #27190E",
"w].	c #261E13",
"x].	c #150B02",
"y].	c #210E08",
"z].	c #29110D",
"A].	c #270B07",
"B].	c #331411",
"C].	c #2E0C0A",
"D].	c #310F0D",
"E].	c #30110E",
"F].	c #2F120C",
"G].	c #2B0D05",
"H].	c #2B140C",
"I].	c #390A02",
"J].	c #520701",
"K].	c #730802",
"L].	c #A81712",
"M].	c #CA1814",
"N].	c #F6130C",
"O].	c #E81909",
"P].	c #E81D19",
"Q].	c #E01A1B",
"R].	c #D31718",
"S].	c #C81A1C",
"T].	c #B51718",
"U].	c #A91D1C",
"V].	c #A12722",
"W].	c #982D25",
"X].	c #862921",
"Y].	c #762217",
"Z].	c #6F2115",
"`].	c #70261B",
" ^.	c #6E251C",
".^.	c #732A23",
"+^.	c #732D25",
"@^.	c #722B25",
"#^.	c #742D27",
"$^.	c #722D28",
"%^.	c #6E2A27",
"&^.	c #64201D",
"*^.	c #702F2D",
"=^.	c #7B3B39",
"-^.	c #773A39",
";^.	c #692D2D",
">^.	c #5F2524",
",^.	c #5E2625",
"'^.	c #662C2A",
")^.	c #632621",
"!^.	c #5D201B",
"~^.	c #632820",
"{^.	c #6B3028",
"]^.	c #642B22",
"^^.	c #602A1E",
"/^.	c #612B1F",
"(^.	c #5F261B",
"_^.	c #5D2117",
":^.	c #65261D",
"<^.	c #6D2E25",
"[^.	c #713128",
"}^.	c #742F28",
"|^.	c #8F4441",
"1^.	c #873937",
"2^.	c #752A27",
"3^.	c #69221C",
"4^.	c #6C251F",
"5^.	c #742E26",
"6^.	c #742B22",
"7^.	c #702319",
"8^.	c #7A2A21",
"9^.	c #822E24",
"0^.	c #A04940",
"a^.	c #AD564C",
"b^.	c #903C31",
"c^.	c #762718",
"d^.	c #752818",
"e^.	c #732A19",
"f^.	c #682713",
"g^.	c #662813",
"h^.	c #662715",
"i^.	c #682715",
"j^.	c #652211",
"k^.	c #621D0D",
"l^.	c #681C0E",
"m^.	c #751F10",
"n^.	c #7C1809",
"o^.	c #8C1706",
"p^.	c #AB1D0F",
"q^.	c #C51D10",
"r^.	c #3B2E28",
"s^.	c #392C24",
"t^.	c #422F28",
"u^.	c #49362F",
"v^.	c #4C3831",
"w^.	c #4F3B32",
"x^.	c #513E2F",
"y^.	c #534032",
"z^.	c #6C635A",
"A^.	c #4A433B",
"B^.	c #0C0800",
"C^.	c #141507",
"D^.	c #201E0F",
"E^.	c #342D1D",
"F^.	c #4B3528",
"G^.	c #5C4235",
"H^.	c #4B2F23",
"I^.	c #523628",
"J^.	c #473020",
"K^.	c #4D3C28",
"L^.	c #4E3D29",
"M^.	c #57422F",
"N^.	c #583B2B",
"O^.	c #654030",
"P^.	c #734233",
"Q^.	c #7D3B2D",
"R^.	c #821A11",
"S^.	c #93140E",
"T^.	c #A41413",
"U^.	c #B31919",
"V^.	c #BC2222",
"W^.	c #B62123",
"X^.	c #991513",
"Y^.	c #760902",
"Z^.	c #5F0700",
"`^.	c #4B0700",
" /.	c #3A0500",
"./.	c #350A01",
"+/.	c #3A1D15",
"@/.	c #170D04",
"#/.	c #2D0F0D",
"$/.	c #290D09",
"%/.	c #2F130F",
"&/.	c #2B0907",
"*/.	c #2C0A08",
"=/.	c #300E0C",
"-/.	c #2E0F0A",
";/.	c #2E1008",
">/.	c #360E06",
",/.	c #400500",
"'/.	c #5D0400",
")/.	c #800601",
"!/.	c #B81B16",
"~/.	c #D31813",
"{/.	c #F3100A",
"]/.	c #EB1209",
"^/.	c #D40C00",
"//.	c #C60500",
"(/.	c #C50300",
"_/.	c #D11917",
":/.	c #C9191B",
"</.	c #C31F20",
"[/.	c #A41010",
"}/.	c #97110E",
"|/.	c #8C1612",
"1/.	c #841B15",
"2/.	c #7A1D15",
"3/.	c #681C0F",
"4/.	c #662112",
"5/.	c #692A1B",
"6/.	c #692E1E",
"7/.	c #6B2D20",
"8/.	c #69291D",
"9/.	c #6C281D",
"0/.	c #702A22",
"a/.	c #7B3631",
"b/.	c #7C3835",
"c/.	c #753631",
"d/.	c #6B302C",
"e/.	c #652B29",
"f/.	c #622D29",
"g/.	c #662F2A",
"h/.	c #662924",
"i/.	c #672821",
"j/.	c #622520",
"k/.	c #672C24",
"l/.	c #6E332D",
"m/.	c #592319",
"n/.	c #5B271C",
"o/.	c #5E2A1F",
"p/.	c #5E281E",
"q/.	c #662B23",
"r/.	c #6B2F27",
"s/.	c #6D3129",
"t/.	c #6F2E28",
"u/.	c #813734",
"v/.	c #803530",
"w/.	c #7A312B",
"x/.	c #722E23",
"y/.	c #763024",
"z/.	c #792F24",
"A/.	c #772B1E",
"B/.	c #7E2C20",
"C/.	c #8A3329",
"D/.	c #A14B3E",
"E/.	c #A24C3F",
"F/.	c #833123",
"G/.	c #722312",
"H/.	c #762B18",
"I/.	c #742D19",
"J/.	c #72301A",
"K/.	c #692812",
"L/.	c #64230D",
"M/.	c #67250F",
"N/.	c #6D2411",
"O/.	c #71200F",
"P/.	c #751C0A",
"Q/.	c #890E00",
"R/.	c #A71506",
"S/.	c #2F2019",
"T/.	c #3A2B26",
"U/.	c #3A2D25",
"V/.	c #3B2E26",
"W/.	c #3A3027",
"X/.	c #3B3128",
"Y/.	c #402E24",
"Z/.	c #533C2C",
"`/.	c #291D0F",
" (.	c #080000",
".(.	c #635C54",
"+(.	c #5E5953",
"@(.	c #3C3932",
"#(.	c #0C0C04",
"$(.	c #0C0C02",
"%(.	c #131105",
"&(.	c #533F34",
"*(.	c #624A3E",
"=(.	c #3C2215",
"-(.	c #503629",
";(.	c #4C3B27",
">(.	c #503E2A",
",(.	c #57402E",
"'(.	c #5E4433",
")(.	c #553B2C",
"!(.	c #694432",
"~(.	c #7A4938",
"{(.	c #803E2E",
"](.	c #7C291B",
"^(.	c #831B12",
"/(.	c #901913",
"((.	c #9E1A16",
"_(.	c #A6201D",
":(.	c #A12120",
"<(.	c #881713",
"[(.	c #670A03",
"}(.	c #4F0700",
"|(.	c #3E0900",
"1(.	c #340A00",
"2(.	c #392019",
"3(.	c #382119",
"4(.	c #280F0A",
"5(.	c #200903",
"6(.	c #180400",
"7(.	c #200E04",
"8(.	c #29150C",
"9(.	c #1C0500",
"0(.	c #290E07",
"a(.	c #341510",
"b(.	c #3A1914",
"c(.	c #35120E",
"d(.	c #33100C",
"e(.	c #300A07",
"f(.	c #2A0703",
"g(.	c #300D09",
"h(.	c #310E0A",
"i(.	c #2E0D08",
"j(.	c #311009",
"k(.	c #3D140E",
"l(.	c #3E0903",
"m(.	c #4C0300",
"n(.	c #950E0A",
"o(.	c #E41A10",
"p(.	c #D21408",
"q(.	c #C91810",
"r(.	c #C71C15",
"s(.	c #B01511",
"t(.	c #AA1916",
"u(.	c #9F1916",
"v(.	c #861914",
"w(.	c #811E18",
"x(.	c #7D231A",
"y(.	c #78261B",
"z(.	c #74281B",
"A(.	c #68341F",
"B(.	c #663620",
"C(.	c #663320",
"D(.	c #642C1B",
"E(.	c #662B1B",
"F(.	c #6F2F23",
"G(.	c #783429",
"H(.	c #7B352D",
"I(.	c #853F37",
"J(.	c #7D3930",
"K(.	c #733028",
"L(.	c #6B2C23",
"M(.	c #682E23",
"N(.	c #652F25",
"O(.	c #612F24",
"P(.	c #632D23",
"Q(.	c #682721",
"R(.	c #73342D",
"S(.	c #60261B",
"T(.	c #672B23",
"U(.	c #6A2E26",
"V(.	c #6E2F28",
"W(.	c #6E2F2A",
"X(.	c #722D26",
"Y(.	c #7C3A2E",
"Z(.	c #7A382A",
"`(.	c #773525",
" _.	c #763523",
"._.	c #773222",
"+_.	c #79301F",
"@_.	c #792A19",
"#_.	c #8C3B2A",
"$_.	c #9C4B3A",
"%_.	c #8F402F",
"&_.	c #742916",
"*_.	c #6D2610",
"=_.	c #712F17",
"-_.	c #6E2E15",
";_.	c #713118",
">_.	c #6B2911",
",_.	c #69250E",
"'_.	c #6C250F",
")_.	c #732612",
"!_.	c #822513",
"~_.	c #8E2311",
"{_.	c #C71B0D",
"]_.	c #31221D",
"^_.	c #32231E",
"/_.	c #382B23",
"(_.	c #553E2E",
"__.	c #4F3E2E",
":_.	c #504031",
"<_.	c #190F05",
"[_.	c #150E04",
"}_.	c #3A352F",
"|_.	c #514E49",
"1_.	c #575651",
"2_.	c #30312B",
"3_.	c #15160E",
"4_.	c #0B0801",
"5_.	c #4D3A33",
"6_.	c #5A4439",
"7_.	c #321A0E",
"8_.	c #452E20",
"9_.	c #4F3C2B",
"0_.	c #4A3925",
"a_.	c #533C2A",
"b_.	c #634739",
"c_.	c #573B2D",
"d_.	c #624331",
"e_.	c #704A37",
"f_.	c #7C4936",
"g_.	c #7D3C2A",
"h_.	c #7D2A1C",
"i_.	c #7F1D12",
"j_.	c #911E19",
"k_.	c #962622",
"l_.	c #88221E",
"m_.	c #671710",
"n_.	c #3A0C00",
"o_.	c #321004",
"p_.	c #2A0D05",
"q_.	c #2B120B",
"r_.	c #371E17",
"s_.	c #38211B",
"t_.	c #321A16",
"u_.	c #29100C",
"v_.	c #250C08",
"w_.	c #221006",
"x_.	c #200901",
"y_.	c #2B0E08",
"z_.	c #32130E",
"A_.	c #371611",
"B_.	c #3B1814",
"C_.	c #36100D",
"D_.	c #350F0C",
"E_.	c #320A08",
"F_.	c #2E0805",
"G_.	c #340E0B",
"H_.	c #2E0B07",
"I_.	c #2F0E07",
"J_.	c #37140E",
"K_.	c #3F1612",
"L_.	c #410E0A",
"M_.	c #480401",
"N_.	c #5E0501",
"O_.	c #88100F",
"P_.	c #B11D1B",
"Q_.	c #D21F1B",
"R_.	c #F0130B",
"S_.	c #DA180F",
"T_.	c #CD2218",
"U_.	c #C82119",
"V_.	c #C4231B",
"W_.	c #B71E18",
"X_.	c #A4150D",
"Y_.	c #960F09",
"Z_.	c #8D100A",
"`_.	c #8E1814",
" :.	c #7F1914",
".:.	c #782118",
"+:.	c #742419",
"@:.	c #693520",
"#:.	c #663821",
"$:.	c #653521",
"%:.	c #642F1D",
"&:.	c #69301F",
"*:.	c #713626",
"=:.	c #7C3C30",
"-:.	c #803E32",
";:.	c #803C31",
">:.	c #763428",
",:.	c #6B2B1F",
"':.	c #682A1D",
"):.	c #682E20",
"!:.	c #693122",
"~:.	c #653022",
"{:.	c #642A1E",
"]:.	c #6E2B22",
"^:.	c #6F2921",
"/:.	c #6D271F",
"(:.	c #722E25",
"_:.	c #78342B",
"::.	c #712D24",
"<:.	c #6A261D",
"[:.	c #6F2C23",
"}:.	c #6E2B23",
"|:.	c #6F2C24",
"1:.	c #76332B",
"2:.	c #76332D",
"3:.	c #73302A",
"4:.	c #742F2A",
"5:.	c #763426",
"6:.	c #7C3A2C",
"7:.	c #793A29",
"8:.	c #773624",
"9:.	c #74331F",
"0:.	c #76321D",
"a:.	c #7A321C",
"b:.	c #752814",
"c:.	c #8B3D29",
"d:.	c #934531",
"e:.	c #813420",
"f:.	c #6E2711",
"g:.	c #702E16",
"h:.	c #6F3319",
"i:.	c #662A10",
"j:.	c #67270E",
"k:.	c #722B15",
"l:.	c #722A14",
"m:.	c #6E230E",
"n:.	c #6F210D",
"o:.	c #7F2A16",
"p:.	c #933422",
"q:.	c #A63B2B",
"r:.	c #A92B1C",
"s:.	c #B82418",
"t:.	c #CA1F15",
"u:.	c #0E0301",
"v:.	c #100503",
"w:.	c #150B0A",
"x:.	c #140A01",
"y:.	c #33241D",
"z:.	c #1B0D02",
"A:.	c #211006",
"B:.	c #342216",
"C:.	c #443025",
"D:.	c #513A28",
"E:.	c #4E3D2D",
"F:.	c #574738",
"G:.	c #312517",
"H:.	c #1E170D",
"I:.	c #26231C",
"J:.	c #43423D",
"K:.	c #4A4B46",
"L:.	c #4D4E49",
"M:.	c #2E2F2A",
"N:.	c #0F0B08",
"O:.	c #1C1411",
"P:.	c #32211A",
"Q:.	c #412D24",
"R:.	c #301C11",
"S:.	c #3A2718",
"T:.	c #564533",
"U:.	c #4F3E2C",
"V:.	c #4F3A25",
"W:.	c #5C3F2F",
"X:.	c #614436",
"Y:.	c #5A3E32",
"Z:.	c #5D4030",
"`:.	c #61402D",
" <.	c #6E4833",
".<.	c #7E4B36",
"+<.	c #7E3B2A",
"@<.	c #762416",
"#<.	c #701208",
"$<.	c #8B2823",
"%<.	c #892E29",
"&<.	c #4C1109",
"*<.	c #2F0F04",
"=<.	c #280D04",
"-<.	c #280F08",
";<.	c #391E17",
"><.	c #361B14",
",<.	c #331811",
"'<.	c #3A1F18",
")<.	c #2E1510",
"!<.	c #2A180E",
"~<.	c #2A130B",
"{<.	c #200700",
"]<.	c #35140F",
"^<.	c #381511",
"/<.	c #38120F",
"(<.	c #340C0A",
"_<.	c #360E0C",
":<.	c #370E0C",
"<<.	c #350D0B",
"[<.	c #39100E",
"}<.	c #38100E",
"|<.	c #310E08",
"1<.	c #38130D",
"2<.	c #440706",
"3<.	c #510000",
"4<.	c #700606",
"5<.	c #9E1819",
"6<.	c #C72425",
"7<.	c #DE110E",
"8<.	c #EE1810",
"9<.	c #CC1F19",
"0<.	c #C01E19",
"a<.	c #B41B15",
"b<.	c #A91A12",
"c<.	c #9A170F",
"d<.	c #8D140B",
"e<.	c #801910",
"f<.	c #7A1912",
"g<.	c #791F17",
"h<.	c #7B221A",
"i<.	c #77221B",
"j<.	c #712118",
"k<.	c #702218",
"l<.	c #72241A",
"m<.	c #70281C",
"n<.	c #6A2C1D",
"o<.	c #693120",
"p<.	c #6A3022",
"q<.	c #682F1E",
"r<.	c #6B3221",
"s<.	c #723928",
"t<.	c #793E2E",
"u<.	c #7B4030",
"v<.	c #703223",
"w<.	c #6E3021",
"x<.	c #6C2E1F",
"y<.	c #6D2F20",
"z<.	c #703321",
"A<.	c #723322",
"B<.	c #6F2D1D",
"C<.	c #7A3226",
"D<.	c #7A3025",
"E<.	c #762C21",
"F<.	c #7B2E24",
"G<.	c #81342A",
"H<.	c #782B23",
"I<.	c #81342C",
"J<.	c #7F322C",
"K<.	c #7D302A",
"L<.	c #7E312B",
"M<.	c #7E332D",
"N<.	c #7E332E",
"O<.	c #7D322D",
"P<.	c #823933",
"Q<.	c #773127",
"R<.	c #763225",
"S<.	c #753323",
"T<.	c #753221",
"U<.	c #74311E",
"V<.	c #78311D",
"W<.	c #7B331D",
"X<.	c #792C18",
"Y<.	c #893B25",
"Z<.	c #843723",
"`<.	c #722712",
" [.	c #72341D",
".[.	c #6E361D",
"+[.	c #652D14",
"@[.	c #672610",
"#[.	c #6B2913",
"$[.	c #722B17",
"%[.	c #712815",
"&[.	c #6F200F",
"*[.	c #7F291A",
"=[.	c #913423",
"-[.	c #A03628",
";[.	c #A3271B",
">[.	c #B5251C",
",[.	c #D91916",
"'[.	c #130504",
")[.	c #120403",
"![.	c #130900",
"~[.	c #31271E",
"{[.	c #352518",
"][.	c #4E3725",
"^[.	c #524233",
"/[.	c #312E27",
"([.	c #42433E",
"_[.	c #282A27",
":[.	c #464845",
"<[.	c #4C4B49",
"[[.	c #252120",
"}[.	c #1D1513",
"|[.	c #2E1C0E",
"1[.	c #584838",
"2[.	c #544532",
"3[.	c #503A25",
"4[.	c #593C2A",
"5[.	c #5B3A2B",
"6[.	c #56362B",
"7[.	c #5C3E33",
"8[.	c #5A3E30",
"9[.	c #553826",
"0[.	c #774F36",
"a[.	c #7F4833",
"b[.	c #783522",
"c[.	c #691709",
"d[.	c #6E160C",
"e[.	c #7A1F1A",
"f[.	c #822D28",
"g[.	c #702923",
"h[.	c #330801",
"i[.	c #250D03",
"j[.	c #2E130C",
"k[.	c #351812",
"l[.	c #3A1B16",
"m[.	c #391813",
"n[.	c #341713",
"o[.	c #2E1B14",
"p[.	c #2F1B14",
"q[.	c #2B190F",
"r[.	c #280B05",
"s[.	c #32110C",
"t[.	c #330A08",
"u[.	c #380F0D",
"v[.	c #3C1311",
"w[.	c #3E1211",
"x[.	c #3D1110",
"y[.	c #35120C",
"z[.	c #39120D",
"A[.	c #3F0C09",
"B[.	c #480202",
"C[.	c #5D0000",
"D[.	c #80090D",
"E[.	c #AB191C",
"F[.	c #CC2223",
"G[.	c #D21211",
"H[.	c #E8120A",
"I[.	c #ED1A13",
"J[.	c #E41811",
"K[.	c #DA1411",
"L[.	c #D51C19",
"M[.	c #C01B17",
"N[.	c #B01813",
"O[.	c #9E100C",
"P[.	c #8E0D07",
"Q[.	c #810F05",
"R[.	c #7C2015",
"S[.	c #7B271C",
"T[.	c #732318",
"U[.	c #792B21",
"V[.	c #7D3026",
"W[.	c #76291F",
"X[.	c #76281E",
"Y[.	c #77291F",
"Z[.	c #772A22",
"`[.	c #71271E",
" }.	c #752C25",
".}.	c #743027",
"+}.	c #723024",
"@}.	c #723226",
"#}.	c #753A2A",
"$}.	c #783F2E",
"%}.	c #622715",
"&}.	c #662B19",
"*}.	c #6D301E",
"=}.	c #733220",
"-}.	c #763121",
";}.	c #782F20",
">}.	c #792B1E",
",}.	c #87392C",
"'}.	c #85372A",
")}.	c #803124",
"!}.	c #823326",
"~}.	c #88362A",
"{}.	c #832F25",
"]}.	c #812D23",
"^}.	c #8E3730",
"/}.	c #8C3730",
"(}.	c #86312C",
"_}.	c #832E29",
":}.	c #85322C",
"<}.	c #84332F",
"[}.	c #81322D",
"}}.	c #853631",
"|}.	c #8B3E38",
"1}.	c #762E20",
"2}.	c #762E1F",
"3}.	c #772F20",
"4}.	c #7E311F",
"5}.	c #833521",
"6}.	c #853421",
"7}.	c #8A3823",
"8}.	c #7B2A17",
"9}.	c #6B1E0C",
"0}.	c #6E2713",
"a}.	c #6E341E",
"b}.	c #6D331D",
"c}.	c #6F311C",
"d}.	c #6B2815",
"e}.	c #682411",
"f}.	c #6B2412",
"g}.	c #722618",
"h}.	c #752619",
"i}.	c #85291C",
"j}.	c #8F271C",
"k}.	c #A81B14",
"l}.	c #C3211E",
"m}.	c #D61C1D",
"n}.	c #0F0402",
"o}.	c #100201",
"p}.	c #1B110F",
"q}.	c #170F0D",
"r}.	c #160E0C",
"s}.	c #130E0B",
"t}.	c #311D16",
"u}.	c #282015",
"v}.	c #2A2217",
"w}.	c #2C2419",
"x}.	c #2F261D",
"y}.	c #352C25",
"z}.	c #1B0E05",
"A}.	c #3E3023",
"B}.	c #47301E",
"C}.	c #493220",
"D}.	c #4F3A27",
"E}.	c #4D3C2A",
"F}.	c #4C3C2D",
"G}.	c #493D2F",
"H}.	c #18140B",
"I}.	c #2D2C27",
"J}.	c #3A3B36",
"K}.	c #222421",
"L}.	c #303231",
"M}.	c #4D4B4C",
"N}.	c #3C3638",
"O}.	c #1B1213",
"P}.	c #190D0D",
"Q}.	c #241309",
"R}.	c #271708",
"S}.	c #524330",
"T}.	c #503F2B",
"U}.	c #4C3A24",
"V}.	c #543B27",
"W}.	c #5F402E",
"X}.	c #5D3828",
"Y}.	c #4F291C",
"Z}.	c #5C3A30",
"`}.	c #5A3D2F",
" |.	c #523724",
".|.	c #553923",
"+|.	c #68462D",
"@|.	c #7B4D36",
"#|.	c #844A36",
"$|.	c #6C1A0E",
"%|.	c #702925",
"&|.	c #551A14",
"*|.	c #360903",
"=|.	c #270600",
"-|.	c #240C02",
";|.	c #3C1711",
">|.	c #36130D",
",|.	c #311811",
"'|.	c #1F0800",
")|.	c #34130E",
"!|.	c #39110F",
"~|.	c #320907",
"{|.	c #340B09",
"]|.	c #411514",
"^|.	c #3F1312",
"/|.	c #3E1010",
"(|.	c #3D0F0F",
"_|.	c #36110B",
":|.	c #380F0B",
"<|.	c #410706",
"[|.	c #4E0002",
"}|.	c #690206",
"||.	c #8F0D15",
"1|.	c #B3181E",
"2|.	c #CB1B1E",
"3|.	c #D51313",
"4|.	c #E31611",
"5|.	c #E5120B",
"6|.	c #E31710",
"7|.	c #D71412",
"8|.	c #CE1815",
"9|.	c #B61714",
"0|.	c #A51612",
"a|.	c #94100C",
"b|.	c #851009",
"c|.	c #761E12",
"d|.	c #73271A",
"e|.	c #712B1F",
"f|.	c #6A281A",
"g|.	c #702E22",
"h|.	c #732F24",
"i|.	c #712B21",
"j|.	c #75261F",
"k|.	c #76231D",
"l|.	c #802425",
"m|.	c #842829",
"n|.	c #842C2B",
"o|.	c #7C2D28",
"p|.	c #782F28",
"q|.	c #78362A",
"r|.	c #763B2D",
"s|.	c #743B2A",
"t|.	c #622916",
"u|.	c #682D1B",
"v|.	c #71301E",
"w|.	c #7C2D20",
"x|.	c #802A1D",
"y|.	c #85291E",
"z|.	c #842B1D",
"A|.	c #893626",
"B|.	c #873625",
"C|.	c #843123",
"D|.	c #863325",
"E|.	c #8C3629",
"F|.	c #872F25",
"G|.	c #882B23",
"H|.	c #93362F",
"I|.	c #963932",
"J|.	c #8D302B",
"K|.	c #862B26",
"L|.	c #89302A",
"M|.	c #89342F",
"N|.	c #87342E",
"O|.	c #8A3731",
"P|.	c #903D37",
"Q|.	c #85322A",
"R|.	c #813126",
"S|.	c #823024",
"T|.	c #7F2D1F",
"U|.	c #832D1E",
"V|.	c #883120",
"W|.	c #8B3222",
"X|.	c #8C3021",
"Y|.	c #7D2416",
"Z|.	c #752212",
"`|.	c #7C2F1F",
" 1.	c #742F1F",
".1.	c #6A2B19",
"+1.	c #703320",
"@1.	c #6E2F1D",
"#1.	c #642110",
"$1.	c #692414",
"%1.	c #72281B",
"&1.	c #782A1E",
"*1.	c #7C2A1F",
"=1.	c #832920",
"-1.	c #8F2A22",
";1.	c #87120B",
">1.	c #920B08",
",1.	c #AF1314",
"'1.	c #CA151A",
")1.	c #0B0000",
"!1.	c #170B0B",
"~1.	c #331F18",
"{1.	c #37221D",
"]1.	c #292017",
"^1.	c #342923",
"/1.	c #47321F",
"(1.	c #46311E",
"_1.	c #4C3726",
":1.	c #4B3B2B",
"<1.	c #29251C",
"[1.	c #1B1813",
"}1.	c #282924",
"|1.	c #363835",
"11.	c #242625",
"21.	c #353336",
"31.	c #3F393D",
"41.	c #140B0E",
"51.	c #190F0E",
"61.	c #302523",
"71.	c #403323",
"81.	c #4B3E2D",
"91.	c #503F2D",
"01.	c #573D2C",
"a1.	c #624535",
"b1.	c #5D392B",
"c1.	c #4A2419",
"d1.	c #542F26",
"e1.	c #59372D",
"f1.	c #553A27",
"g1.	c #503520",
"h1.	c #5A3C24",
"i1.	c #754C36",
"j1.	c #8D5A45",
"k1.	c #864839",
"l1.	c #6A2418",
"m1.	c #5A1007",
"n1.	c #671E18",
"o1.	c #6F2C26",
"p1.	c #5B201C",
"q1.	c #400D09",
"r1.	c #2E0700",
"s1.	c #2B1007",
"t1.	c #381710",
"u1.	c #3A1711",
"v1.	c #3C1B14",
"w1.	c #391C16",
"x1.	c #35271E",
"y1.	c #210600",
"z1.	c #270C05",
"A1.	c #2C0F09",
"B1.	c #3C1915",
"C1.	c #3A1210",
"D1.	c #310804",
"E1.	c #380C09",
"F1.	c #401310",
"G1.	c #441714",
"H1.	c #421210",
"I1.	c #3B0F0C",
"J1.	c #3A110D",
"K1.	c #300D07",
"L1.	c #400302",
"M1.	c #530001",
"N1.	c #76050B",
"O1.	c #9B1219",
"P1.	c #B9181E",
"Q1.	c #C9161A",
"R1.	c #D61A19",
"S1.	c #E1201B",
"T1.	c #CF140B",
"U1.	c #CE1711",
"V1.	c #B91410",
"W1.	c #9C0D09",
"X1.	c #91110E",
"Y1.	c #87140F",
"Z1.	c #7C2217",
"`1.	c #78291C",
" 2.	c #723022",
".2.	c #743224",
"+2.	c #752F23",
"@2.	c #752B20",
"#2.	c #782B21",
"$2.	c #7D2F25",
"%2.	c #7B2D23",
"&2.	c #7A251E",
"*2.	c #822422",
"=2.	c #862627",
"-2.	c #832825",
";2.	c #7B2621",
">2.	c #752D21",
",2.	c #733123",
"'2.	c #713221",
")2.	c #733121",
"!2.	c #7D3123",
"~2.	c #812F21",
"{2.	c #882C21",
"]2.	c #8C2A1F",
"^2.	c #922A21",
"/2.	c #922D23",
"(2.	c #812E1E",
"_2.	c #812B1E",
":2.	c #863023",
"<2.	c #8C342A",
"[2.	c #862E24",
"}2.	c #872A23",
"|2.	c #92352E",
"12.	c #973A35",
"22.	c #8C2F2A",
"32.	c #842924",
"42.	c #8C352E",
"52.	c #89342D",
"62.	c #8B362F",
"72.	c #903B34",
"82.	c #913A31",
"92.	c #8F382E",
"02.	c #8F392C",
"a2.	c #8A3224",
"b2.	c #832A1C",
"c2.	c #84281B",
"d2.	c #892C1D",
"e2.	c #8A2A1C",
"f2.	c #8B2B1D",
"g2.	c #832519",
"h2.	c #852D21",
"i2.	c #8B392D",
"j2.	c #772B1D",
"k2.	c #652011",
"l2.	c #672515",
"m2.	c #6C2718",
"n2.	c #802B26",
"o2.	c #8D322D",
"p2.	c #93322C",
"q2.	c #790000",
"r2.	c #920605",
"s2.	c #B51112",
"t2.	c #0C0201",
"u2.	c #0D0302",
"v2.	c #0E0403",
"w2.	c #18100D",
"x2.	c #1B1310",
"y2.	c #130E08",
"z2.	c #120D07",
"A2.	c #100B05",
"B2.	c #130100",
"C2.	c #281511",
"D2.	c #3F2E27",
"E2.	c #402F28",
"F2.	c #362921",
"G2.	c #110700",
"H2.	c #3C3427",
"I2.	c #3E2C18",
"J2.	c #4A341F",
"K2.	c #49331E",
"L2.	c #564130",
"M2.	c #3C3024",
"N2.	c #292218",
"O2.	c #1A150F",
"P2.	c #32312C",
"Q2.	c #30322D",
"R2.	c #242623",
"S2.	c #242223",
"T2.	c #241F23",
"U2.	c #1C1618",
"V2.	c #292021",
"W2.	c #403635",
"X2.	c #382E2C",
"Y2.	c #231814",
"Z2.	c #554339",
"`2.	c #564237",
" 3.	c #3E281B",
".3.	c #64493E",
"+3.	c #715549",
"@3.	c #422419",
"#3.	c #46261B",
"$3.	c #59392E",
"%3.	c #523525",
"&3.	c #503321",
"*3.	c #50311F",
"=3.	c #62412E",
"-3.	c #88624F",
";3.	c #966859",
">3.	c #8D5C4E",
",3.	c #4F140C",
"'3.	c #6B302A",
")3.	c #531814",
"!3.	c #4B0F0E",
"~3.	c #41100C",
"{3.	c #1F0900",
"]3.	c #1D0700",
"^3.	c #240C00",
"/3.	c #2C1108",
"(3.	c #2E130A",
"_3.	c #33160E",
":3.	c #29170D",
"<3.	c #220A00",
"[3.	c #200800",
"}3.	c #230801",
"|3.	c #441410",
"13.	c #43120E",
"23.	c #3E0E0A",
"33.	c #300A01",
"43.	c #430400",
"53.	c #5F0505",
"63.	c #82090E",
"73.	c #B51217",
"83.	c #C31618",
"93.	c #D52726",
"03.	c #CB2019",
"a3.	c #BD190F",
"b3.	c #B91F13",
"c3.	c #B61F14",
"d3.	c #AA160C",
"e3.	c #9A0F08",
"f3.	c #86110A",
"g3.	c #801914",
"h3.	c #801F18",
"i3.	c #7D251B",
"j3.	c #79271B",
"k3.	c #75271A",
"l3.	c #75291B",
"m3.	c #7F3023",
"n3.	c #843224",
"o3.	c #7E2B1D",
"p3.	c #7B281A",
"q3.	c #803122",
"r3.	c #7D2E1F",
"s3.	c #77281B",
"t3.	c #76281B",
"u3.	c #7B2F1F",
"v3.	c #7C3020",
"w3.	c #7D2B1D",
"x3.	c #883225",
"y3.	c #903429",
"z3.	c #8F2D22",
"A3.	c #932B22",
"B3.	c #9D2E25",
"C3.	c #9F2C25",
"D3.	c #962922",
"E3.	c #802218",
"F3.	c #822B21",
"G3.	c #883128",
"H3.	c #873027",
"I3.	c #7F2A23",
"J3.	c #7E2922",
"K3.	c #85302B",
"L3.	c #8D3833",
"M3.	c #822D26",
"N3.	c #88352D",
"O3.	c #8B372D",
"P3.	c #88342A",
"Q3.	c #89352B",
"R3.	c #8E3A2F",
"S3.	c #8D3726",
"T3.	c #903B27",
"U3.	c #913A27",
"V3.	c #8C3321",
"W3.	c #862B19",
"X3.	c #852817",
"Y3.	c #8C2C1C",
"Z3.	c #943225",
"`3.	c #9A382B",
" 4.	c #933327",
".4.	c #85271D",
"+4.	c #791F14",
"@4.	c #782419",
"#4.	c #762A1C",
"$4.	c #682011",
"%4.	c #692814",
"&4.	c #61230E",
"*4.	c #692816",
"=4.	c #6A2516",
"-4.	c #681B13",
";4.	c #7C2724",
">4.	c #95393A",
",4.	c #973939",
"'4.	c #842624",
")4.	c #71120E",
"!4.	c #690700",
"~4.	c #770600",
"{4.	c #950A05",
"]4.	c #100D06",
"^4.	c #0F0C05",
"/4.	c #180604",
"(4.	c #1B0804",
"_4.	c #210E0A",
":4.	c #34221E",
"<4.	c #4C3B34",
"[4.	c #44332C",
"}4.	c #301F18",
"|4.	c #1A0D04",
"14.	c #1D130A",
"24.	c #372D24",
"34.	c #191106",
"44.	c #1B1509",
"54.	c #443321",
"64.	c #44331F",
"74.	c #45301B",
"84.	c #463A2E",
"94.	c #32322A",
"04.	c #383A35",
"a4.	c #252724",
"b4.	c #161415",
"c4.	c #353132",
"d4.	c #282224",
"e4.	c #2B2525",
"f4.	c #5A5152",
"g4.	c #4C4442",
"h4.	c #0D0000",
"i4.	c #493831",
"j4.	c #5F4C45",
"k4.	c #6C564B",
"l4.	c #7A6459",
"m4.	c #4D3529",
"n4.	c #45271D",
"o4.	c #5A3C31",
"p4.	c #5B3D32",
"q4.	c #513426",
"r4.	c #573A28",
"s4.	c #674836",
"t4.	c #947060",
"u4.	c #A88172",
"v4.	c #6B3F34",
"w4.	c #48160D",
"x4.	c #5E231F",
"y4.	c #551515",
"z4.	c #400B07",
"A4.	c #230D00",
"B4.	c #2C140A",
"C4.	c #2F170D",
"D4.	c #1B0200",
"E4.	c #230D02",
"F4.	c #270A04",
"G4.	c #290C06",
"H4.	c #371911",
"I4.	c #3E150F",
"J4.	c #42150F",
"K4.	c #43140E",
"L4.	c #43100C",
"M4.	c #400F0A",
"N4.	c #3D0E08",
"O4.	c #3A0D07",
"P4.	c #340F06",
"Q4.	c #2E0E03",
"R4.	c #310600",
"S4.	c #470200",
"T4.	c #6A0B09",
"U4.	c #8F1114",
"V4.	c #A51218",
"W4.	c #B21116",
"X4.	c #B91315",
"Y4.	c #BE1C19",
"Z4.	c #B31911",
"`4.	c #A6160B",
" 5.	c #A2180B",
".5.	c #A21E11",
"+5.	c #A11F12",
"@5.	c #7B140D",
"#5.	c #751B13",
"$5.	c #792018",
"%5.	c #7B271D",
"&5.	c #7A2A1F",
"*5.	c #782A1D",
"=5.	c #752617",
"-5.	c #7F291C",
";5.	c #883024",
">5.	c #8A3123",
",5.	c #7E2618",
"'5.	c #7F2C1C",
")5.	c #7F311D",
"!5.	c #7B2E1A",
"~5.	c #782D1A",
"{5.	c #772C19",
"]5.	c #792C1A",
"^5.	c #7B2E1C",
"/5.	c #7D2E1D",
"(5.	c #842C1E",
"_5.	c #8C3023",
":5.	c #903024",
"<5.	c #902920",
"[5.	c #942921",
"}5.	c #A02D28",
"|5.	c #82251E",
"15.	c #812E26",
"25.	c #812E28",
"35.	c #7E2E27",
"45.	c #7D2E29",
"55.	c #7F302B",
"65.	c #82332E",
"75.	c #843530",
"85.	c #80312A",
"95.	c #84362C",
"05.	c #87372C",
"a5.	c #8A382C",
"b5.	c #8D3A2A",
"c5.	c #88331E",
"d5.	c #8B371F",
"e5.	c #903822",
"f5.	c #903520",
"g5.	c #8C2F1D",
"h5.	c #8B2C1A",
"i5.	c #8D2C1C",
"j5.	c #902F1F",
"k5.	c #973528",
"l5.	c #86281E",
"m5.	c #7F251A",
"n5.	c #7F281E",
"o5.	c #7F2D21",
"p5.	c #6D2413",
"q5.	c #712F19",
"r5.	c #682711",
"s5.	c #6C2B17",
"t5.	c #6F2A1B",
"u5.	c #6E1F18",
"v5.	c #802B28",
"w5.	c #A14344",
"x5.	c #AC4E4F",
"y5.	c #791F1E",
"z5.	c #6B130F",
"A5.	c #650E04",
"B5.	c #6E0C00",
"C5.	c #890A01",
"D5.	c #0B0301",
"E5.	c #080300",
"F5.	c #1A120F",
"G5.	c #110C06",
"H5.	c #140502",
"I5.	c #120000",
"J5.	c #130401",
"K5.	c #160400",
"L5.	c #3F3029",
"M5.	c #3B2C25",
"N5.	c #332920",
"O5.	c #2D241B",
"P5.	c #191307",
"Q5.	c #120C00",
"R5.	c #3B3125",
"S5.	c #3C2E23",
"T5.	c #44321E",
"U5.	c #483727",
"V5.	c #605245",
"W5.	c #483E32",
"X5.	c #2C251B",
"Y5.	c #232017",
"Z5.	c #35362E",
"`5.	c #252A24",
" 6.	c #1F241E",
".6.	c #181816",
"+6.	c #2D2C2A",
"@6.	c #262221",
"#6.	c #34302F",
"$6.	c #6D6767",
"%6.	c #716967",
"&6.	c #312725",
"*6.	c #57443D",
"=6.	c #69554C",
"-6.	c #756158",
";6.	c #44281D",
">6.	c #4B2F21",
",6.	c #533827",
"'6.	c #4F3222",
")6.	c #8A695A",
"!6.	c #B28C7F",
"~6.	c #966C60",
"{6.	c #5E2E24",
"]6.	c #521D17",
"^6.	c #551B19",
"/6.	c #4F1112",
"(6.	c #491311",
"_6.	c #35140D",
":6.	c #220C01",
"<6.	c #2B0E06",
"[6.	c #32110A",
"}6.	c #36150E",
"|6.	c #3D160F",
"16.	c #3F120C",
"26.	c #3C0D07",
"36.	c #370C05",
"46.	c #370C03",
"56.	c #3B0400",
"66.	c #520400",
"76.	c #760F10",
"86.	c #961519",
"96.	c #A10E14",
"06.	c #A5090C",
"a6.	c #A70707",
"b6.	c #AE130F",
"c6.	c #9E160A",
"d6.	c #9B190B",
"e6.	c #9A1C0D",
"f6.	c #991E0F",
"g6.	c #971B0F",
"h6.	c #841D16",
"i6.	c #7C1F17",
"j6.	c #7B2118",
"k6.	c #7C251B",
"l6.	c #7D2B1F",
"m6.	c #7D2E21",
"n6.	c #7B2C1F",
"o6.	c #7B291B",
"p6.	c #81291D",
"q6.	c #882F21",
"r6.	c #81281A",
"s6.	c #7D2615",
"t6.	c #7E2B19",
"u6.	c #7F2E1B",
"v6.	c #792E19",
"w6.	c #792E1B",
"x6.	c #7A2D1B",
"y6.	c #7C2D1C",
"z6.	c #833020",
"A6.	c #883223",
"B6.	c #893022",
"C6.	c #892B1F",
"D6.	c #983128",
"E6.	c #982F29",
"F6.	c #8E2C23",
"G6.	c #8A352E",
"H6.	c #7D3028",
"I6.	c #732920",
"J6.	c #70251F",
"K6.	c #722922",
"L6.	c #782F29",
"M6.	c #7C332D",
"N6.	c #7E352F",
"O6.	c #7D342D",
"P6.	c #7E352C",
"Q6.	c #7F352C",
"R6.	c #7E3429",
"S6.	c #83372A",
"T6.	c #883A2E",
"U6.	c #8A3B2E",
"V6.	c #893827",
"W6.	c #883620",
"X6.	c #8D3921",
"Y6.	c #933B25",
"Z6.	c #963B26",
"`6.	c #953826",
" 7.	c #913020",
".7.	c #8F2E1E",
"+7.	c #923023",
"@7.	c #822A1C",
"#7.	c #832D20",
"$7.	c #722616",
"%7.	c #74301B",
"&7.	c #6D2B15",
"*7.	c #8A3733",
"=7.	c #9D4343",
"-7.	c #993D3E",
";7.	c #6F1715",
">7.	c #66110C",
",7.	c #661207",
"'7.	c #700E01",
")7.	c #090401",
"!7.	c #0A0502",
"~7.	c #221A17",
"{7.	c #0F0A04",
"]7.	c #0D0A03",
"^7.	c #140F09",
"/7.	c #0C0000",
"(7.	c #30271E",
"_7.	c #292317",
":7.	c #3E3025",
"<7.	c #665A4C",
"[7.	c #3C3429",
"}7.	c #29251A",
"|7.	c #3D3D33",
"17.	c #343A30",
"27.	c #0E150E",
"37.	c #272E27",
"47.	c #272823",
"57.	c #191814",
"67.	c #242321",
"77.	c #3D3936",
"87.	c #54504D",
"97.	c #736E6A",
"07.	c #67605A",
"a7.	c #2F2621",
"b7.	c #746258",
"c7.	c #826F68",
"d7.	c #3A261D",
"e7.	c #452A21",
"f7.	c #4D3324",
"g7.	c #563B2A",
"h7.	c #634334",
"i7.	c #987768",
"j7.	c #B68E82",
"k7.	c #7D5148",
"l7.	c #471410",
"m7.	c #48110E",
"n7.	c #4F1514",
"o7.	c #44130F",
"p7.	c #2B150A",
"q7.	c #301712",
"r7.	c #35211A",
"s7.	c #3A2921",
"t7.	c #39140E",
"u7.	c #39140C",
"v7.	c #39120B",
"w7.	c #3B100A",
"x7.	c #3E0F09",
"y7.	c #3D0C07",
"z7.	c #3C0B06",
"A7.	c #3B0A05",
"B7.	c #380B05",
"C7.	c #3B0A03",
"D7.	c #400904",
"E7.	c #490400",
"F7.	c #610907",
"G7.	c #821616",
"H7.	c #98171B",
"I7.	c #9D0C11",
"J7.	c #9F0609",
"K7.	c #A00807",
"L7.	c #990501",
"M7.	c #940A00",
"N7.	c #8E0E01",
"O7.	c #8B1102",
"P7.	c #891305",
"Q7.	c #8B1507",
"R7.	c #8D170B",
"S7.	c #8B190F",
"T7.	c #8F271E",
"U7.	c #84231C",
"V7.	c #792117",
"W7.	c #7D261C",
"X7.	c #7F2C1E",
"Y7.	c #802D1F",
"Z7.	c #822C1D",
"`7.	c #82291B",
" 8.	c #882C1F",
".8.	c #83271A",
"+8.	c #7F2817",
"@8.	c #7F2C1A",
"#8.	c #81301D",
"$8.	c #7E301C",
"%8.	c #7A2D19",
"&8.	c #782D18",
"*8.	c #7C2F1D",
"=8.	c #813221",
"-8.	c #833221",
";8.	c #852F20",
">8.	c #8B3126",
",8.	c #92362B",
"'8.	c #8F3127",
")8.	c #842C22",
"!8.	c #83392E",
"~8.	c #77342B",
"{8.	c #702D24",
"]8.	c #6F2F26",
"^8.	c #73332A",
"/8.	c #74342B",
"(8.	c #743129",
"_8.	c #7B372E",
":8.	c #7C362C",
"<8.	c #7E3427",
"[8.	c #873B2D",
"}8.	c #883C2C",
"|8.	c #843524",
"18.	c #8B3923",
"28.	c #8F3B23",
"38.	c #933D26",
"48.	c #963E28",
"58.	c #973C29",
"68.	c #913121",
"78.	c #8C2C1E",
"88.	c #842718",
"98.	c #812518",
"08.	c #782618",
"a8.	c #712213",
"b8.	c #702414",
"c8.	c #782F1C",
"d8.	c #732F1A",
"e8.	c #692613",
"f8.	c #682314",
"g8.	c #853B30",
"h8.	c #A75750",
"i8.	c #A04846",
"j8.	c #78201E",
"k8.	c #66130F",
"l8.	c #61110A",
"m8.	c #651307",
"n8.	c #6F0F03",
"o8.	c #7F0400",
"p8.	c #070200",
"q8.	c #070300",
"r8.	c #080401",
"s8.	c #060200",
"t8.	c #090502",
"u8.	c #130B09",
"v8.	c #110907",
"w8.	c #0F0705",
"x8.	c #28201E",
"y8.	c #18100E",
"z8.	c #100B07",
"A8.	c #0D0A05",
"B8.	c #0F0C07",
"C8.	c #100D08",
"D8.	c #120D09",
"E8.	c #2A1F1B",
"F8.	c #2D221E",
"G8.	c #362B25",
"H8.	c #2E1D16",
"I8.	c #372E25",
"J8.	c #393327",
"K8.	c #363024",
"L8.	c #402F1D",
"M8.	c #3C2918",
"N8.	c #584B3B",
"O8.	c #4D4435",
"P8.	c #343428",
"Q8.	c #404338",
"R8.	c #2F372C",
"S8.	c #131D15",
"T8.	c #2F3931",
"U8.	c #292B26",
"V8.	c #1E1F19",
"W8.	c #363530",
"X8.	c #2D2A25",
"Y8.	c #4D4842",
"Z8.	c #77726C",
"`8.	c #79726C",
" 9.	c #372E27",
".9.	c #6F5E56",
"+9.	c #7A6962",
"@9.	c #38251E",
"#9.	c #483024",
"$9.	c #553D31",
"%9.	c #594335",
"&9.	c #5E4737",
"*9.	c #432719",
"=9.	c #745447",
"-9.	c #B38F83",
";9.	c #946C64",
">9.	c #4E1F19",
",9.	c #4C1916",
"'9.	c #330301",
")9.	c #2F1810",
"!9.	c #2E170F",
"~9.	c #331C16",
"{9.	c #351D19",
"]9.	c #3F2723",
"^9.	c #361F19",
"/9.	c #311E17",
"(9.	c #321914",
"_9.	c #1E0800",
":9.	c #1F0700",
"<9.	c #3D120B",
"[9.	c #3F1610",
"}9.	c #390E07",
"|9.	c #3B0C06",
"19.	c #3F0803",
"29.	c #460100",
"39.	c #580402",
"49.	c #710F0E",
"59.	c #891619",
"69.	c #961318",
"79.	c #990D10",
"89.	c #9C0C0C",
"99.	c #A11110",
"09.	c #920B05",
"a9.	c #901005",
"b9.	c #8D1507",
"c9.	c #881707",
"d9.	c #861608",
"e9.	c #87170B",
"f9.	c #8B190E",
"g9.	c #8D1E13",
"h9.	c #87251C",
"i9.	c #7F2117",
"j9.	c #7F271B",
"k9.	c #812B1C",
"l9.	c #81291B",
"m9.	c #802719",
"n9.	c #862A1D",
"o9.	c #882B1C",
"p9.	c #852819",
"q9.	c #802A19",
"r9.	c #7E2D1A",
"s9.	c #7C2E1A",
"t9.	c #782A14",
"u9.	c #762A13",
"v9.	c #772A16",
"w9.	c #772C17",
"x9.	c #7F3421",
"y9.	c #7D3121",
"z9.	c #7E3222",
"A9.	c #803323",
"B9.	c #823525",
"C9.	c #87382B",
"D9.	c #88392C",
"E9.	c #853327",
"F9.	c #7A2E21",
"G9.	c #713125",
"H9.	c #6E352A",
"I9.	c #71382D",
"J9.	c #743B32",
"K9.	c #70372E",
"L9.	c #662C21",
"M9.	c #703128",
"N9.	c #76362C",
"O9.	c #773529",
"P9.	c #743023",
"Q9.	c #783324",
"R9.	c #81392A",
"S9.	c #833A29",
"T9.	c #813422",
"U9.	c #87351F",
"V9.	c #89351D",
"W9.	c #8B351E",
"X9.	c #8E3620",
"Y9.	c #923724",
"Z9.	c #913422",
"`9.	c #8E3120",
" 0.	c #8B2E1D",
".0.	c #8A2D1E",
"+0.	c #7E2517",
"@0.	c #772615",
"#0.	c #702112",
"$0.	c #702313",
"%0.	c #6D2111",
"&0.	c #69200F",
"*0.	c #652010",
"=0.	c #773223",
"-0.	c #9B5146",
";0.	c #A75851",
">0.	c #893632",
",0.	c #630E0B",
"'0.	c #63120E",
")0.	c #5E1006",
"!0.	c #611205",
"~0.	c #7C0600",
"{0.	c #050100",
"]0.	c #040300",
"^0.	c #050400",
"/0.	c #1B1311",
"(0.	c #241C1A",
"_0.	c #2F2725",
":0.	c #0C0904",
"<0.	c #0B0803",
"[0.	c #0E0905",
"}0.	c #1C150F",
"|0.	c #1C1711",
"10.	c #201B15",
"20.	c #25201A",
"30.	c #2A231D",
"40.	c #2B241E",
"50.	c #2C231C",
"60.	c #2D1C15",
"70.	c #312019",
"80.	c #332D21",
"90.	c #342C21",
"00.	c #3E2B1A",
"a0.	c #3E2D1D",
"b0.	c #625243",
"c0.	c #4E4234",
"d0.	c #2F2B20",
"e0.	c #515348",
"f0.	c #273126",
"g0.	c #202C22",
"h0.	c #1A261C",
"i0.	c #21261F",
"j0.	c #2F3028",
"k0.	c #2C2D27",
"l0.	c #272820",
"m0.	c #2B2B23",
"n0.	c #2F2C25",
"o0.	c #443F39",
"p0.	c #67625C",
"q0.	c #857E76",
"r0.	c #544B44",
"s0.	c #574841",
"t0.	c #70615C",
"u0.	c #52413A",
"v0.	c #3D2920",
"w0.	c #412B20",
"x0.	c #5E4B3D",
"y0.	c #4F3C2E",
"z0.	c #53392A",
"A0.	c #4E3224",
"B0.	c #7D5D52",
"C0.	c #9E7970",
"D0.	c #754A44",
"E0.	c #50201C",
"F0.	c #491716",
"G0.	c #340704",
"H0.	c #301911",
"I0.	c #311A12",
"J0.	c #2E1A11",
"K0.	c #361E1A",
"L0.	c #38201C",
"M0.	c #250A01",
"N0.	c #340C04",
"O0.	c #40150E",
"P0.	c #3B120C",
"Q0.	c #350D05",
"R0.	c #360B04",
"S0.	c #390A04",
"T0.	c #3C0A03",
"U0.	c #3F0A04",
"V0.	c #460702",
"W0.	c #540300",
"X0.	c #6C0D0B",
"Y0.	c #8B1416",
"Z0.	c #8D0B0D",
"`0.	c #8E0608",
" a.	c #920808",
".a.	c #910B08",
"+a.	c #90110A",
"@a.	c #8A180D",
"#a.	c #87190C",
"$a.	c #84180C",
"%a.	c #87180D",
"&a.	c #8B1B10",
"*a.	c #8D1E15",
"=a.	c #8C2119",
"-a.	c #8A231C",
";a.	c #88261D",
">a.	c #8A2E21",
",a.	c #872E20",
"'a.	c #832617",
")a.	c #852517",
"!a.	c #842416",
"~a.	c #802314",
"{a.	c #7C2313",
"]a.	c #792312",
"^a.	c #722410",
"/a.	c #792813",
"(a.	c #782712",
"_a.	c #782A16",
":a.	c #7D2F1B",
"<a.	c #782B17",
"[a.	c #7B301D",
"}a.	c #823724",
"|a.	c #7B3221",
"1a.	c #7D3423",
"2a.	c #7F3826",
"3a.	c #823A2B",
"4a.	c #7C3425",
"5a.	c #753124",
"6a.	c #71392C",
"7a.	c #6C3A2F",
"8a.	c #6B392E",
"9a.	c #6B372C",
"0a.	c #69352A",
"aa.	c #6B352B",
"ba.	c #6E352C",
"ca.	c #6D3328",
"da.	c #713328",
"ea.	c #723228",
"fa.	c #7E3627",
"ga.	c #803726",
"ha.	c #803321",
"ia.	c #84321C",
"ja.	c #86321A",
"ka.	c #87311A",
"la.	c #89331C",
"ma.	c #8D3521",
"na.	c #903522",
"oa.	c #903523",
"pa.	c #832A1A",
"qa.	c #7E2819",
"ra.	c #7A2717",
"sa.	c #732415",
"ta.	c #691C0C",
"ua.	c #6E2617",
"va.	c #8C4436",
"wa.	c #9B5347",
"xa.	c #65120E",
"ya.	c #620F09",
"za.	c #5D1006",
"Aa.	c #601205",
"Ba.	c #680F01",
"Ca.	c #780600",
"Da.	c #030200",
"Ea.	c #030400",
"Fa.	c #040500",
"Ga.	c #060501",
"Ha.	c #1E1614",
"Ia.	c #38302E",
"Ja.	c #231B19",
"Ka.	c #3B3331",
"La.	c #2C2422",
"Ma.	c #070000",
"Na.	c #0D0804",
"Oa.	c #080702",
"Pa.	c #070601",
"Qa.	c #090803",
"Ra.	c #1D1512",
"Sa.	c #1F1714",
"Ta.	c #1C1912",
"Ua.	c #1D1A13",
"Va.	c #211A14",
"Wa.	c #261410",
"Xa.	c #301D19",
"Ya.	c #2C1A16",
"Za.	c #3A2D27",
"`a.	c #392E28",
" b.	c #332822",
".b.	c #322B21",
"+b.	c #2D261C",
"@b.	c #372F24",
"#b.	c #3D3329",
"$b.	c #3D2C22",
"%b.	c #4C3A2C",
"&b.	c #564637",
"*b.	c #584A3D",
"=b.	c #4A483C",
"-b.	c #56594E",
";b.	c #2E362B",
">b.	c #253125",
",b.	c #1E2B21",
"'b.	c #142016",
")b.	c #21271D",
"!b.	c #272A1F",
"~b.	c #1C1D15",
"{b.	c #1E2015",
"]b.	c #333329",
"^b.	c #211E15",
"/b.	c #352E28",
"(b.	c #766D68",
"_b.	c #756C67",
":b.	c #3F3430",
"<b.	c #473A34",
"[b.	c #746663",
"}b.	c #675853",
"|b.	c #503E32",
"1b.	c #4A382A",
"2b.	c #5E483A",
"3b.	c #4C3225",
"4b.	c #4A2C22",
"5b.	c #836158",
"6b.	c #8B645F",
"7b.	c #542825",
"8b.	c #411313",
"9b.	c #401715",
"0b.	c #2B0C07",
"ab.	c #3C2420",
"bb.	c #301615",
"cb.	c #341512",
"db.	c #311A14",
"eb.	c #1E0A01",
"fb.	c #390D04",
"gb.	c #3C1007",
"hb.	c #3A120A",
"ib.	c #310C04",
"jb.	c #320D04",
"kb.	c #330D02",
"lb.	c #360B02",
"mb.	c #3F0A02",
"nb.	c #440903",
"ob.	c #660B08",
"pb.	c #831A17",
"qb.	c #932120",
"rb.	c #8F1716",
"sb.	c #8D0D0E",
"tb.	c #910C0D",
"ub.	c #8E0C0A",
"vb.	c #860905",
"wb.	c #800901",
"xb.	c #7D0B01",
"yb.	c #790D01",
"zb.	c #770D00",
"Ab.	c #770B01",
"Bb.	c #7A0B02",
"Cb.	c #7F0C05",
"Db.	c #810E09",
"Eb.	c #871811",
"Fb.	c #861B13",
"Gb.	c #872518",
"Hb.	c #872719",
"Ib.	c #811F12",
"Jb.	c #822214",
"Kb.	c #7E2515",
"Lb.	c #742612",
"Mb.	c #732511",
"Nb.	c #7D2B16",
"Ob.	c #7A2813",
"Pb.	c #7D2A18",
"Qb.	c #83301E",
"Rb.	c #7C2B18",
"Sb.	c #7E2F1E",
"Tb.	c #863927",
"Ub.	c #7C3322",
"Vb.	c #7C3727",
"Wb.	c #7B3828",
"Xb.	c #7A3727",
"Yb.	c #793626",
"Zb.	c #753728",
"`b.	c #744033",
" c.	c #6C3C32",
".c.	c #64342A",
"+c.	c #5F2D24",
"@c.	c #663129",
"#c.	c #6E3730",
"$c.	c #753C33",
"%c.	c #6F352A",
"&c.	c #6F3126",
"*c.	c #722F26",
"=c.	c #773125",
"-c.	c #7C3426",
";c.	c #7F3325",
">c.	c #833423",
",c.	c #86341F",
"'c.	c #89341F",
")c.	c #8B3420",
"!c.	c #8B3421",
"~c.	c #8D3422",
"{c.	c #8E3523",
"]c.	c #8F3624",
"^c.	c #8A3121",
"/c.	c #822B1A",
"(c.	c #7A2214",
"_c.	c #792314",
":c.	c #7E2B1B",
"<c.	c #7D2A1A",
"[c.	c #772416",
"}c.	c #8B4335",
"|c.	c #884034",
"1c.	c #671D12",
"2c.	c #5A0A03",
"3c.	c #5E1205",
"4c.	c #621608",
"5c.	c #020300",
"6c.	c #050601",
"7c.	c #060100",
"8c.	c #2B2321",
"9c.	c #322A28",
"0c.	c #271F1D",
"ac.	c #1F1715",
"bc.	c #372F2D",
"cc.	c #0B0602",
"dc.	c #0A0702",
"ec.	c #060500",
"fc.	c #0A0904",
"gc.	c #140F0B",
"hc.	c #241C19",
"ic.	c #201B17",
"jc.	c #1E1B16",
"kc.	c #1D1C17",
"lc.	c #1C1C14",
"mc.	c #201D16",
"nc.	c #221F18",
"oc.	c #211C16",
"pc.	c #281612",
"qc.	c #311E1A",
"rc.	c #271511",
"sc.	c #3D302A",
"tc.	c #3C312B",
"uc.	c #3A3128",
"vc.	c #393228",
"wc.	c #332C22",
"xc.	c #392F25",
"yc.	c #403229",
"zc.	c #41332A",
"Ac.	c #534336",
"Bc.	c #4E4033",
"Cc.	c #3B3328",
"Dc.	c #706C61",
"Ec.	c #626258",
"Fc.	c #2B3328",
"Gc.	c #273327",
"Hc.	c #19261C",
"Ic.	c #2F3B2F",
"Jc.	c #242A1E",
"Kc.	c #14170C",
"Lc.	c #14160B",
"Mc.	c #1D1F14",
"Nc.	c #222218",
"Oc.	c #353229",
"Pc.	c #28251C",
"Qc.	c #514A44",
"Rc.	c #5D544F",
"Sc.	c #574E49",
"Tc.	c #4D3F3C",
"Uc.	c #70635D",
"Vc.	c #57463E",
"Wc.	c #4E3D33",
"Xc.	c #524137",
"Yc.	c #48382B",
"Zc.	c #493C2C",
"`c.	c #3C2C1C",
" d.	c #665042",
".d.	c #40251A",
"+d.	c #4F3129",
"@d.	c #795650",
"#d.	c #623A38",
"$d.	c #4E2221",
"%d.	c #3D1513",
"&d.	c #36211C",
"*d.	c #2F1514",
"=d.	c #270C03",
"-d.	c #390E05",
";d.	c #330D04",
">d.	c #2D0B02",
",d.	c #320E02",
"'d.	c #360C00",
")d.	c #3C0A01",
"!d.	c #430800",
"~d.	c #490802",
"{d.	c #750E09",
"]d.	c #941E1A",
"^d.	c #A22825",
"/d.	c #9B1F1D",
"(d.	c #9B1B1A",
"_d.	c #A32320",
":d.	c #A0231F",
"<d.	c #931914",
"[d.	c #810E07",
"}d.	c #7B1008",
"|d.	c #7A0F07",
"1d.	c #7F0E08",
"2d.	c #840E0C",
"3d.	c #86100C",
"4d.	c #7E0D07",
"5d.	c #7A0F05",
"6d.	c #771105",
"7d.	c #771206",
"8d.	c #79170A",
"9d.	c #7F1D10",
"0d.	c #842215",
"ad.	c #841F13",
"bd.	c #882317",
"cd.	c #893020",
"dd.	c #853220",
"ed.	c #81331F",
"fd.	c #80321E",
"gd.	c #802D1B",
"hd.	c #832C1B",
"id.	c #873120",
"jd.	c #852F1E",
"kd.	c #822F1F",
"ld.	c #8B3A29",
"md.	c #823324",
"nd.	c #813424",
"od.	c #7D3425",
"pd.	c #793425",
"qd.	c #773424",
"rd.	c #793727",
"sd.	c #793B2C",
"td.	c #6A3428",
"ud.	c #66342B",
"vd.	c #67352C",
"wd.	c #6C372F",
"xd.	c #6D362F",
"yd.	c #6C332C",
"zd.	c #692E26",
"Ad.	c #74352C",
"Bd.	c #6F2F25",
"Cd.	c #7B3327",
"Dd.	c #813528",
"Ed.	c #823022",
"Fd.	c #893420",
"Gd.	c #8A3520",
"Hd.	c #8B3622",
"Id.	c #86311D",
"Jd.	c #842F1B",
"Kd.	c #842E1D",
"Ld.	c #741E0F",
"Md.	c #6D1708",
"Nd.	c #792316",
"Od.	c #6A1309",
"Pd.	c #79251A",
"Qd.	c #722619",
"Rd.	c #621A0E",
"Sd.	c #5B0E04",
"Td.	c #5A0A01",
"Ud.	c #6B1810",
"Vd.	c #621209",
"Wd.	c #611307",
"Xd.	c #65190B",
"Yd.	c #6A1405",
"Zd.	c #700500",
"`d.	c #000100",
" e.	c #030500",
".e.	c #060803",
"+e.	c #312927",
"@e.	c #332B29",
"#e.	c #100C09",
"$e.	c #030000",
"%e.	c #010000",
"&e.	c #0A0905",
"*e.	c #070602",
"=e.	c #0D0906",
"-e.	c #110D0A",
";e.	c #140F0C",
">e.	c #16110E",
",e.	c #1A1210",
"'e.	c #1A1512",
")e.	c #161510",
"!e.	c #161711",
"~e.	c #171812",
"{e.	c #191A14",
"]e.	c #1B1A15",
"^e.	c #1D1610",
"/e.	c #32201C",
"(e.	c #473C36",
"_e.	c #433A33",
":e.	c #30291F",
"<e.	c #3B3229",
"[e.	c #392B22",
"}e.	c #3A2C23",
"|e.	c #453327",
"1e.	c #3D2B1F",
"2e.	c #6B645A",
"3e.	c #615E55",
"4e.	c #46483D",
"5e.	c #252B21",
"6e.	c #192116",
"7e.	c #1F2B1F",
"8e.	c #283629",
"9e.	c #2A362A",
"0e.	c #22281C",
"ae.	c #232719",
"be.	c #292B1E",
"ce.	c #242619",
"de.	c #1A1A10",
"ee.	c #232319",
"fe.	c #2B281F",
"ge.	c #1E1B12",
"he.	c #27221C",
"ie.	c #3E3731",
"je.	c #4D4640",
"ke.	c #413735",
"le.	c #4B403E",
"me.	c #645653",
"ne.	c #695851",
"oe.	c #54433B",
"pe.	c #3F2E26",
"qe.	c #64564B",
"re.	c #615346",
"se.	c #4B3E2E",
"te.	c #5B483A",
"ue.	c #594137",
"ve.	c #3C1F17",
"we.	c #52312C",
"xe.	c #704D4B",
"ye.	c #5F3737",
"ze.	c #4C2625",
"Ae.	c #200702",
"Be.	c #160100",
"Ce.	c #1A0701",
"De.	c #311F1B",
"Ee.	c #2D1815",
"Fe.	c #29110F",
"Ge.	c #2E1415",
"He.	c #351613",
"Ie.	c #371106",
"Je.	c #391105",
"Ke.	c #3A1208",
"Le.	c #310F06",
"Me.	c #301208",
"Ne.	c #2D1105",
"Oe.	c #2F1106",
"Pe.	c #2D0900",
"Qe.	c #340800",
"Re.	c #430A01",
"Se.	c #420000",
"Te.	c #4C0000",
"Ue.	c #70130E",
"Ve.	c #8F1C17",
"We.	c #92130D",
"Xe.	c #981913",
"Ye.	c #9C1F1B",
"Ze.	c #9B211C",
"`e.	c #97211D",
" f.	c #8B1A14",
".f.	c #7D100B",
"+f.	c #82120E",
"@f.	c #871411",
"#f.	c #860A0C",
"$f.	c #820807",
"%f.	c #800A06",
"&f.	c #7B0A02",
"*f.	c #760E03",
"=f.	c #781206",
"-f.	c #791408",
";f.	c #761107",
">f.	c #730C03",
",f.	c #821B12",
"'f.	c #831C13",
")f.	c #821D13",
"!f.	c #802014",
"~f.	c #7A2113",
"{f.	c #772414",
"]f.	c #752816",
"^f.	c #7C2615",
"/f.	c #7C2514",
"(f.	c #7D2318",
"_f.	c #872F23",
":f.	c #832C22",
"<f.	c #873328",
"[f.	c #86372A",
"}f.	c #7E3224",
"|f.	c #73291C",
"1f.	c #70281A",
"2f.	c #753021",
"3f.	c #6B3125",
"4f.	c #6C332A",
"5f.	c #6A2F27",
"6f.	c #682D25",
"7f.	c #682C24",
"8f.	c #6B2C25",
"9f.	c #67241C",
"0f.	c #782D27",
"af.	c #823025",
"bf.	c #822E23",
"cf.	c #842E21",
"df.	c #862E20",
"ef.	c #86301F",
"ff.	c #873422",
"gf.	c #8A3725",
"hf.	c #893624",
"if.	c #863323",
"jf.	c #7C2919",
"kf.	c #7B2518",
"lf.	c #782014",
"mf.	c #71170E",
"nf.	c #6B140B",
"of.	c #64160C",
"pf.	c #661C11",
"qf.	c #67140C",
"rf.	c #69150B",
"sf.	c #610F04",
"tf.	c #651609",
"uf.	c #651808",
"vf.	c #5B0500",
"wf.	c #760F06",
"xf.	c #000300",
"yf.	c #000200",
"zf.	c #251D1B",
"Af.	c #403836",
"Bf.	c #0E0A07",
"Cf.	c #080703",
"Df.	c #090804",
"Ef.	c #0C0805",
"Ff.	c #0C0704",
"Gf.	c #0F0E09",
"Hf.	c #11120C",
"If.	c #14150F",
"Jf.	c #151610",
"Kf.	c #14130E",
"Lf.	c #13120D",
"Mf.	c #16130C",
"Nf.	c #33211D",
"Of.	c #302720",
"Pf.	c #3B322B",
"Qf.	c #3B342A",
"Rf.	c #393027",
"Sf.	c #3C2A1E",
"Tf.	c #282119",
"Uf.	c #40433A",
"Vf.	c #373F34",
"Wf.	c #252F24",
"Xf.	c #1D291D",
"Yf.	c #222C21",
"Zf.	c #13190D",
"`f.	c #222618",
" g.	c #2F3124",
".g.	c #303225",
"+g.	c #29291F",
"@g.	c #1F1C13",
"#g.	c #0D0A01",
"$g.	c #2D2822",
"%g.	c #322B25",
"&g.	c #362C2A",
"*g.	c #544A48",
"=g.	c #564B49",
"-g.	c #382A27",
";g.	c #594A45",
">g.	c #6C5D56",
",g.	c #493A33",
"'g.	c #615549",
")g.	c #514537",
"!g.	c #4F4333",
"~g.	c #4E3C30",
"{g.	c #5C463B",
"]g.	c #493029",
"^g.	c #472825",
"/g.	c #5E3C3A",
"(g.	c #623B3C",
"_g.	c #593535",
":g.	c #25120E",
"<g.	c #2A1210",
"[g.	c #311718",
"}g.	c #331918",
"|g.	c #1C0800",
"1g.	c #33100A",
"2g.	c #351008",
"3g.	c #351105",
"4g.	c #371104",
"5g.	c #381006",
"6g.	c #340E05",
"7g.	c #300F06",
"8g.	c #2C1004",
"9g.	c #350F02",
"0g.	c #440400",
"ag.	c #640906",
"bg.	c #871B18",
"cg.	c #971610",
"dg.	c #960B04",
"eg.	c #8E0300",
"fg.	c #8C0500",
"gg.	c #900C07",
"hg.	c #8E110B",
"ig.	c #870D08",
"jg.	c #7E0804",
"kg.	c #851410",
"lg.	c #7F0F0B",
"mg.	c #7C0A09",
"ng.	c #7D0909",
"og.	c #7E0808",
"pg.	c #7E0305",
"qg.	c #7F0104",
"rg.	c #7F0303",
"sg.	c #790200",
"tg.	c #750200",
"ug.	c #780900",
"vg.	c #821A0F",
"wg.	c #811B0F",
"xg.	c #861E15",
"yg.	c #7D150C",
"zg.	c #79140A",
"Ag.	c #741408",
"Bg.	c #6B1307",
"Cg.	c #661504",
"Dg.	c #621606",
"Eg.	c #621704",
"Fg.	c #681505",
"Gg.	c #6F1709",
"Hg.	c #7C2416",
"Ig.	c #8A2E23",
"Jg.	c #81251A",
"Kg.	c #7F2318",
"Lg.	c #83261E",
"Mg.	c #7B2319",
"Ng.	c #782117",
"Og.	c #7C2A1E",
"Pg.	c #843429",
"Qg.	c #84382B",
"Rg.	c #7B3124",
"Sg.	c #6E281C",
"Tg.	c #6A2C21",
"Ug.	c #6E2F26",
"Vg.	c #703027",
"Wg.	c #723229",
"Xg.	c #75322C",
"Yg.	c #78332C",
"Zg.	c #7B302A",
"`g.	c #833028",
" h.	c #822B24",
".h.	c #80271F",
"+h.	c #7F251C",
"@h.	c #8E3628",
"#h.	c #8C3627",
"$h.	c #873424",
"%h.	c #802D1D",
"&h.	c #782716",
"*h.	c #7A2B1A",
"=h.	c #772114",
"-h.	c #7D271A",
";h.	c #8B3327",
">h.	c #8F352C",
",h.	c #A54841",
"'h.	c #8F3630",
")h.	c #6B1E14",
"!h.	c #691C12",
"~h.	c #65170B",
"{h.	c #630C03",
"]h.	c #600800",
"^h.	c #640C02",
"/h.	c #681107",
"(h.	c #681608",
"_h.	c #600A00",
":h.	c #000500",
"<h.	c #010600",
"[h.	c #080904",
"}h.	c #0B0203",
"|h.	c #0A0102",
"1h.	c #12090A",
"2h.	c #090001",
"3h.	c #0E0506",
"4h.	c #170E0F",
"5h.	c #2A2122",
"6h.	c #0B0704",
"7h.	c #0D0C08",
"8h.	c #060702",
"9h.	c #0B0A06",
"0h.	c #0D0805",
"ah.	c #14130F",
"bh.	c #181712",
"ch.	c #171611",
"dh.	c #15120D",
"eh.	c #13100B",
"fh.	c #17120E",
"gh.	c #1B1612",
"hh.	c #1B140E",
"ih.	c #322922",
"jh.	c #3F3830",
"kh.	c #362F27",
"lh.	c #31281F",
"mh.	c #362D24",
"nh.	c #42332C",
"oh.	c #3A291F",
"ph.	c #202018",
"qh.	c #373830",
"rh.	c #3A3D34",
"sh.	c #292F25",
"th.	c #1C2419",
"uh.	c #1C2218",
"vh.	c #303328",
"wh.	c #37392E",
"xh.	c #1D1D13",
"yh.	c #1D1A11",
"zh.	c #19160D",
"Ah.	c #201913",
"Bh.	c #2E2721",
"Ch.	c #3B342E",
"Dh.	c #433A35",
"Eh.	c #4F4641",
"Fh.	c #584D49",
"Gh.	c #554744",
"Hh.	c #53443F",
"Ih.	c #70615A",
"Jh.	c #61524B",
"Kh.	c #4D4037",
"Lh.	c #5D5047",
"Mh.	c #5B5145",
"Nh.	c #4A4034",
"Oh.	c #4B3F31",
"Ph.	c #4F4136",
"Qh.	c #58443B",
"Rh.	c #533C36",
"Sh.	c #412420",
"Th.	c #4F302E",
"Uh.	c #603C3E",
"Vh.	c #5F3D3C",
"Wh.	c #402220",
"Xh.	c #1A0200",
"Yh.	c #261110",
"Zh.	c #2C1414",
"`h.	c #301617",
" i.	c #190500",
".i.	c #1E0700",
"+i.	c #361007",
"@i.	c #2D0D02",
"#i.	c #401407",
"$i.	c #460C01",
"%i.	c #600300",
"&i.	c #871918",
"*i.	c #A42723",
"=i.	c #B21F18",
"-i.	c #AB1107",
";i.	c #9C0500",
">i.	c #930300",
",i.	c #910802",
"'i.	c #8F0B06",
")i.	c #850804",
"!i.	c #7B0400",
"~i.	c #820C0A",
"{i.	c #7A0607",
"]i.	c #7A0305",
"^i.	c #760000",
"/i.	c #740000",
"(i.	c #780000",
"_i.	c #7C0000",
":i.	c #770000",
"<i.	c #750000",
"[i.	c #760500",
"}i.	c #7E0F08",
"|i.	c #7D120A",
"1i.	c #770F06",
"2i.	c #7A0F09",
"3i.	c #7F140E",
"4i.	c #861B15",
"5i.	c #821913",
"6i.	c #76180E",
"7i.	c #691A0B",
"8i.	c #651C0D",
"9i.	c #631606",
"0i.	c #661406",
"ai.	c #6E1B0D",
"bi.	c #82281F",
"ci.	c #852820",
"di.	c #8C2E26",
"ei.	c #95342D",
"fi.	c #9B3A33",
"gi.	c #892B23",
"hi.	c #842D23",
"ii.	c #7A2B1E",
"ji.	c #6C2013",
"ki.	c #661E12",
"li.	c #651F15",
"mi.	c #672119",
"ni.	c #681F18",
"oi.	c #69201A",
"pi.	c #6B201A",
"qi.	c #6D1C18",
"ri.	c #701D17",
"si.	c #721913",
"ti.	c #741710",
"ui.	c #761810",
"vi.	c #741C10",
"wi.	c #751F12",
"xi.	c #762315",
"yi.	c #782517",
"zi.	c #742214",
"Ai.	c #76271A",
"Bi.	c #7E3121",
"Ci.	c #853629",
"Di.	c #873529",
"Ei.	c #7E271D",
"Fi.	c #852D23",
"Gi.	c #852B23",
"Hi.	c #80231E",
"Ii.	c #6F1610",
"Ji.	c #5D0A02",
"Ki.	c #560800",
"Li.	c #590B00",
"Mi.	c #6B0E07",
"Ni.	c #700F08",
"Oi.	c #76150E",
"Pi.	c #74180D",
"Qi.	c #6E180B",
"Ri.	c #640E01",
"Si.	c #74130A",
"Ti.	c #020701",
"Ui.	c #020400",
"Vi.	c #0C0304",
"Wi.	c #0D0405",
"Xi.	c #140B0C",
"Yi.	c #130A0B",
"Zi.	c #201816",
"`i.	c #1B1613",
" j.	c #15100D",
".j.	c #070803",
"+j.	c #0C0B07",
"@j.	c #0F0E0A",
"#j.	c #120E0B",
"$j.	c #17120F",
"%j.	c #15110E",
"&j.	c #171310",
"*j.	c #1A1712",
"=j.	c #191611",
"-j.	c #17140F",
";j.	c #18130F",
">j.	c #191410",
",j.	c #291A15",
"'j.	c #3C2E2B",
")j.	c #3E332F",
"!j.	c #272018",
"~j.	c #2D261E",
"{j.	c #3D342B",
"]j.	c #423129",
"^j.	c #38271F",
"/j.	c #382B22",
"(j.	c #362C23",
"_j.	c #3A2F29",
":j.	c #3D342F",
"<j.	c #120F08",
"[j.	c #0D0D05",
"}j.	c #171810",
"|j.	c #26271F",
"1j.	c #292C23",
"2j.	c #25281F",
"3j.	c #26281D",
"4j.	c #323228",
"5j.	c #28281E",
"6j.	c #202016",
"7j.	c #221F16",
"8j.	c #0D0900",
"9j.	c #343027",
"0j.	c #332C26",
"aj.	c #39322C",
"bj.	c #453C37",
"cj.	c #554C47",
"dj.	c #5B504C",
"ej.	c #514642",
"fj.	c #4B3C37",
"gj.	c #665953",
"hj.	c #695C54",
"ij.	c #564C43",
"jj.	c #564C42",
"kj.	c #4F453B",
"lj.	c #41372B",
"mj.	c #5A4E42",
"nj.	c #4B3A30",
"oj.	c #513E37",
"pj.	c #4D3630",
"qj.	c #442825",
"rj.	c #4E2F2D",
"sj.	c #573536",
"tj.	c #5D3B3C",
"uj.	c #4F3131",
"vj.	c #190000",
"wj.	c #2B1615",
"xj.	c #2F1717",
"yj.	c #2F1214",
"zj.	c #270D0C",
"Aj.	c #28100C",
"Bj.	c #1B0400",
"Cj.	c #2A0F08",
"Dj.	c #2F0C06",
"Ej.	c #320D07",
"Fj.	c #330E05",
"Gj.	c #350A04",
"Hj.	c #330C05",
"Ij.	c #330E06",
"Jj.	c #310C03",
"Kj.	c #370D01",
"Lj.	c #481407",
"Mj.	c #500C01",
"Nj.	c #570000",
"Oj.	c #7C0C0A",
"Pj.	c #A92727",
"Qj.	c #BF2B2B",
"Rj.	c #CA251F",
"Sj.	c #C61B11",
"Tj.	c #B50E06",
"Uj.	c #A40700",
"Vj.	c #980300",
"Wj.	c #910601",
"Xj.	c #8E0A08",
"Yj.	c #8B0E0C",
"Zj.	c #7E0607",
"`j.	c #7B0406",
" k.	c #780002",
".k.	c #730000",
"+k.	c #7A0001",
"@k.	c #7B0302",
"#k.	c #770400",
"$k.	c #730400",
"%k.	c #710400",
"&k.	c #6E0300",
"*k.	c #730A06",
"=k.	c #700A05",
"-k.	c #681108",
";k.	c #631508",
">k.	c #61190B",
",k.	c #5F1A0B",
"'k.	c #621A0C",
")k.	c #601609",
"!k.	c #621408",
"~k.	c #68160A",
"{k.	c #711A10",
"]k.	c #791F16",
"^k.	c #82241C",
"/k.	c #892821",
"(k.	c #9B3832",
"_k.	c #94312B",
":k.	c #80221A",
"<k.	c #7B1E16",
"[k.	c #6B190D",
"}k.	c #722217",
"|k.	c #6E2117",
"1k.	c #6B1E16",
"2k.	c #6A1D15",
"3k.	c #6B1C15",
"4k.	c #6C1D18",
"5k.	c #79211D",
"6k.	c #7B221C",
"7k.	c #7E241C",
"8k.	c #882A22",
"9k.	c #8B2D25",
"0k.	c #8F362E",
"ak.	c #8F382F",
"bk.	c #8F3B31",
"ck.	c #8C3A2F",
"dk.	c #823227",
"ek.	c #792B1F",
"fk.	c #7B2D21",
"gk.	c #6E2014",
"hk.	c #6A1C10",
"ik.	c #6E1E13",
"jk.	c #701E13",
"kk.	c #6A130A",
"lk.	c #660D05",
"mk.	c #650B03",
"nk.	c #5D0200",
"ok.	c #620402",
"pk.	c #610804",
"qk.	c #5F0C04",
"rk.	c #5A0C02",
"sk.	c #590700",
"tk.	c #5E0600",
"uk.	c #6C0903",
"vk.	c #780F0B",
"wk.	c #811A13",
"xk.	c #7A180F",
"yk.	c #6F150A",
"zk.	c #670F03",
"Ak.	c #040601",
"Bk.	c #040000",
"Ck.	c #050000",
"Dk.	c #0F0607",
"Ek.	c #100708",
"Fk.	c #0B0C07",
"Gk.	c #100F0B",
"Hk.	c #16110D",
"Ik.	c #392B28",
"Jk.	c #483D39",
"Kk.	c #423932",
"Lk.	c #453C35",
"Mk.	c #42382F",
"Nk.	c #42312A",
"Ok.	c #3C2F27",
"Pk.	c #3A2F2B",
"Qk.	c #3C3230",
"Rk.	c #38302D",
"Sk.	c #2A2521",
"Tk.	c #15100C",
"Uk.	c #050200",
"Vk.	c #070400",
"Wk.	c #17170F",
"Xk.	c #15150D",
"Yk.	c #232019",
"Zk.	c #1E1B14",
"`k.	c #0C0701",
" l.	c #59524C",
".l.	c #3F3832",
"+l.	c #292019",
"@l.	c #514640",
"#l.	c #5C514B",
"$l.	c #4E433D",
"%l.	c #3B2C29",
"&l.	c #50433D",
"*l.	c #63564E",
"=l.	c #594F46",
"-l.	c #5C5248",
";l.	c #524A3F",
">l.	c #3E342A",
",l.	c #51443B",
"'l.	c #54463D",
")l.	c #513E38",
"!l.	c #422A26",
"~l.	c #482C2B",
"{l.	c #4F2F30",
"]l.	c #4E2B2F",
"^l.	c #5E3E3F",
"/l.	c #583A3A",
"(l.	c #2E1413",
"_l.	c #1A0000",
":l.	c #210F0F",
"<l.	c #220E0F",
"[l.	c #261012",
"}l.	c #2C1316",
"|l.	c #2D1014",
"1l.	c #260C0D",
"2l.	c #190200",
"3l.	c #330E08",
"4l.	c #370705",
"5l.	c #380806",
"6l.	c #370A07",
"7l.	c #370A05",
"8l.	c #370A04",
"9l.	c #3A0800",
"0l.	c #4C0C03",
"al.	c #5C0901",
"bl.	c #6F0300",
"cl.	c #9B1617",
"dl.	c #C32A2D",
"el.	c #CF2526",
"fl.	c #D21712",
"gl.	c #D6170D",
"hl.	c #CB140C",
"il.	c #B80B05",
"jl.	c #A10000",
"kl.	c #910000",
"ll.	c #8F0100",
"ml.	c #8E090A",
"nl.	c #850506",
"ol.	c #7B0305",
"pl.	c #7D060A",
"ql.	c #7B0708",
"rl.	c #770304",
"sl.	c #730100",
"tl.	c #7F0706",
"ul.	c #840C0B",
"vl.	c #7E0806",
"wl.	c #710000",
"xl.	c #730300",
"yl.	c #7F120F",
"zl.	c #811512",
"Al.	c #790D0A",
"Bl.	c #6E0200",
"Cl.	c #630000",
"Dl.	c #5F0200",
"El.	c #5B0600",
"Fl.	c #541003",
"Gl.	c #551607",
"Hl.	c #561708",
"Il.	c #5A1609",
"Jl.	c #5E1407",
"Kl.	c #641409",
"Ll.	c #811B16",
"Ml.	c #89241C",
"Nl.	c #86241B",
"Ol.	c #7C1B12",
"Pl.	c #701206",
"Ql.	c #6B0F02",
"Rl.	c #681002",
"Sl.	c #6F190C",
"Tl.	c #6D1B0D",
"Ul.	c #6F1C14",
"Vl.	c #6F1F16",
"Wl.	c #73201A",
"Xl.	c #74211B",
"Yl.	c #731E19",
"Zl.	c #731B17",
"`l.	c #741B15",
" m.	c #761C14",
".m.	c #7B1E17",
"+m.	c #7F201A",
"@m.	c #80231C",
"#m.	c #781F19",
"$m.	c #78231C",
"%m.	c #742119",
"&m.	c #570A00",
"*m.	c #580E03",
"=m.	c #530600",
"-m.	c #540400",
";m.	c #580500",
">m.	c #5A0300",
",m.	c #630803",
"'m.	c #630503",
")m.	c #680F0B",
"!m.	c #69160E",
"~m.	c #65150C",
"{m.	c #620E04",
"]m.	c #650800",
"^m.	c #790905",
"/m.	c #7C0C08",
"(m.	c #750C06",
"_m.	c #6E110A",
":m.	c #10120D",
"<m.	c #0A0C07",
"[m.	c #110809",
"}m.	c #090A05",
"|m.	c #11100C",
"1m.	c #130F0C",
"2m.	c #14100D",
"3m.	c #352C27",
"4m.	c #3D322E",
"5m.	c #2E231F",
"6m.	c #3B302C",
"7m.	c #332A25",
"8m.	c #110A02",
"9m.	c #41372E",
"0m.	c #453B32",
"am.	c #392A23",
"bm.	c #3E2D26",
"cm.	c #36281F",
"dm.	c #3E312B",
"em.	c #3E332D",
"fm.	c #392F2D",
"gm.	c #332927",
"hm.	c #3D3532",
"im.	c #312926",
"jm.	c #2C2421",
"km.	c #28231F",
"lm.	c #1B1610",
"mm.	c #090600",
"nm.	c #0E0A01",
"om.	c #2E2B24",
"pm.	c #17140D",
"qm.	c #131009",
"rm.	c #766F69",
"sm.	c #A29B95",
"tm.	c #6E6761",
"um.	c #473E37",
"vm.	c #483D37",
"wm.	c #433832",
"xm.	c #362724",
"ym.	c #443532",
"zm.	c #40322F",
"Am.	c #453832",
"Bm.	c #5E544B",
"Cm.	c #685E55",
"Dm.	c #534B40",
"Em.	c #53453C",
"Fm.	c #56433D",
"Gm.	c #472B2A",
"Hm.	c #47272A",
"Im.	c #644447",
"Jm.	c #593B3B",
"Km.	c #1B0100",
"Lm.	c #200D09",
"Mm.	c #170707",
"Nm.	c #170304",
"Om.	c #1C0608",
"Pm.	c #260D10",
"Qm.	c #2A1011",
"Rm.	c #350E09",
"Sm.	c #38110C",
"Tm.	c #360604",
"Um.	c #380504",
"Vm.	c #3B0407",
"Wm.	c #3D0609",
"Xm.	c #3B0807",
"Ym.	c #3C0906",
"Zm.	c #3D0A06",
"`m.	c #410600",
" n.	c #500500",
".n.	c #680903",
"+n.	c #8C1010",
"@n.	c #B52022",
"#n.	c #D0252B",
"$n.	c #D91A1F",
"%n.	c #E4130C",
"&n.	c #E11A13",
"*n.	c #B70A06",
"=n.	c #A00100",
"-n.	c #940000",
";n.	c #8D0104",
">n.	c #880306",
",n.	c #800205",
"'n.	c #7E0308",
")n.	c #7E0C0C",
"!n.	c #770908",
"~n.	c #710401",
"{n.	c #8C1413",
"]n.	c #850F0D",
"^n.	c #770602",
"/n.	c #790907",
"(n.	c #871A17",
"_n.	c #8E221F",
":n.	c #891D1A",
"<n.	c #811513",
"[n.	c #7A110E",
"}n.	c #700C0A",
"|n.	c #660B06",
"1n.	c #600D05",
"2n.	c #5A1005",
"3n.	c #4C1103",
"4n.	c #531B0C",
"5n.	c #561E0F",
"6n.	c #571C0E",
"7n.	c #591709",
"8n.	c #5F150A",
"9n.	c #6A180D",
"0n.	c #6E150D",
"an.	c #6D0E08",
"bn.	c #740F07",
"cn.	c #7C150E",
"dn.	c #7E170E",
"en.	c #731104",
"fn.	c #701002",
"gn.	c #6F1203",
"hn.	c #660D00",
"in.	c #650F00",
"jn.	c #640E00",
"kn.	c #630D00",
"ln.	c #600C01",
"mn.	c #610D03",
"nn.	c #630F05",
"on.	c #641109",
"pn.	c #5D0803",
"qn.	c #5B0601",
"rn.	c #5B0400",
"sn.	c #630901",
"tn.	c #660902",
"un.	c #650A05",
"vn.	c #5C0702",
"wn.	c #610C09",
"xn.	c #63130C",
"yn.	c #5F100B",
"zn.	c #570D04",
"An.	c #550B02",
"Bn.	c #540700",
"Cn.	c #590A03",
"Dn.	c #670F0B",
"En.	c #6D120D",
"Fn.	c #711311",
"Gn.	c #690B09",
"Hn.	c #620404",
"In.	c #5F0504",
"Jn.	c #5B0802",
"Kn.	c #671007",
"Ln.	c #81110D",
"Mn.	c #7F0907",
"Nn.	c #7B1812",
"On.	c #84271F",
"Pn.	c #741A12",
"Qn.	c #171914",
"Rn.	c #11130E",
"Sn.	c #090000",
"Tn.	c #0D0707",
"Un.	c #090303",
"Vn.	c #060201",
"Wn.	c #090504",
"Xn.	c #080705",
"Yn.	c #070604",
"Zn.	c #040402",
"`n.	c #030301",
" o.	c #060604",
".o.	c #090907",
"+o.	c #0E0D0B",
"@o.	c #11100E",
"#o.	c #151110",
"$o.	c #171312",
"%o.	c #1A1414",
"&o.	c #1D1415",
"*o.	c #1D1312",
"=o.	c #1A100F",
"-o.	c #180E0D",
";o.	c #1C1211",
">o.	c #1E1913",
",o.	c #1D1812",
"'o.	c #342B26",
")o.	c #3F3631",
"!o.	c #413833",
"~o.	c #1C150D",
"{o.	c #3E342B",
"]o.	c #45362F",
"^o.	c #3D2E27",
"/o.	c #3C2B23",
"(o.	c #3A302E",
"_o.	c #3B3130",
":o.	c #362E2B",
"<o.	c #312A24",
"[o.	c #0A0300",
"}o.	c #1D1814",
"|o.	c #1C1713",
"1o.	c #271F1C",
"2o.	c #4A433D",
"3o.	c #928982",
"4o.	c #938A83",
"5o.	c #786D67",
"6o.	c #352B22",
"7o.	c #483E35",
"8o.	c #3E3129",
"9o.	c #100300",
"0o.	c #463734",
"ao.	c #51473E",
"bo.	c #5C5249",
"co.	c #5D554A",
"do.	c #41392E",
"eo.	c #3C2F26",
"fo.	c #44362D",
"go.	c #53403A",
"ho.	c #4B332F",
"io.	c #432928",
"jo.	c #47292B",
"ko.	c #49292E",
"lo.	c #5D3D40",
"mo.	c #543636",
"no.	c #1C0201",
"oo.	c #1D0908",
"po.	c #140907",
"qo.	c #160606",
"ro.	c #1A0406",
"so.	c #230A0D",
"to.	c #290C11",
"uo.	c #260C0F",
"vo.	c #2F140D",
"wo.	c #2F120A",
"xo.	c #340F09",
"yo.	c #360F0A",
"zo.	c #37100B",
"Ao.	c #370E0A",
"Bo.	c #380406",
"Co.	c #3A0205",
"Do.	c #3E0307",
"Eo.	c #400509",
"Fo.	c #410608",
"Go.	c #430804",
"Ho.	c #4A0701",
"Io.	c #560300",
"Jo.	c #770B08",
"Ko.	c #A71F1F",
"Lo.	c #C9262B",
"Mo.	c #D61B24",
"No.	c #E1121A",
"Oo.	c #F0110C",
"Po.	c #EA1511",
"Qo.	c #E01914",
"Ro.	c #CF1715",
"So.	c #BA1010",
"To.	c #A4080B",
"Uo.	c #930205",
"Vo.	c #8C0408",
"Wo.	c #860509",
"Xo.	c #83080D",
"Yo.	c #800C0F",
"Zo.	c #790D0B",
"`o.	c #700A06",
" p.	c #6C0B04",
".p.	c #710B06",
"+p.	c #891515",
"@p.	c #8C1415",
"#p.	c #891313",
"$p.	c #810F0E",
"%p.	c #7B0B0A",
"&p.	c #7B0D0C",
"*p.	c #851716",
"=p.	c #902221",
"-p.	c #8B1F1F",
";p.	c #821818",
">p.	c #761212",
",p.	c #6A0F0C",
"'p.	c #591007",
")p.	c #521004",
"!p.	c #480E02",
"~p.	c #552415",
"{p.	c #572818",
"]p.	c #572315",
"^p.	c #54190B",
"/p.	c #5C180D",
"(p.	c #6D2016",
"_p.	c #7B241B",
":p.	c #7D2019",
"<p.	c #79120B",
"[p.	c #750E05",
"}p.	c #751004",
"|p.	c #771508",
"1p.	c #791909",
"2p.	c #741907",
"3p.	c #711806",
"4p.	c #6D1404",
"5p.	c #671000",
"6p.	c #620C00",
"7p.	c #5D0900",
"8p.	c #5E0A00",
"9p.	c #5E0B03",
"0p.	c #5E0902",
"ap.	c #5F0A03",
"bp.	c #640D06",
"cp.	c #6C130B",
"dp.	c #6B120C",
"ep.	c #620A08",
"fp.	c #5E0906",
"gp.	c #5F0908",
"hp.	c #5F0E0A",
"ip.	c #5C0E0A",
"jp.	c #550A04",
"kp.	c #500700",
"lp.	c #560D06",
"mp.	c #580D07",
"np.	c #6A1713",
"op.	c #660E0C",
"pp.	c #670909",
"qp.	c #610303",
"rp.	c #741616",
"sp.	c #65120C",
"tp.	c #631008",
"up.	c #6E140C",
"vp.	c #891613",
"wp.	c #8D1A17",
"xp.	c #88211C",
"yp.	c #8C2F27",
"zp.	c #71170F",
"Ap.	c #171813",
"Bp.	c #161712",
"Cp.	c #13140F",
"Dp.	c #0D0E09",
"Ep.	c #080202",
"Fp.	c #070101",
"Gp.	c #0F0909",
"Hp.	c #0B0505",
"Ip.	c #0C0608",
"Jp.	c #0F0B0A",
"Kp.	c #0B0706",
"Lp.	c #0A0907",
"Mp.	c #0D0C0A",
"Np.	c #0F0E0C",
"Op.	c #120E0D",
"Pp.	c #140E0E",
"Qp.	c #19110F",
"Rp.	c #1A1511",
"Sp.	c #1B1811",
"Tp.	c #1F1A14",
"Up.	c #231C16",
"Vp.	c #302722",
"Wp.	c #332824",
"Xp.	c #3C312D",
"Yp.	c #362B27",
"Zp.	c #2D241F",
"`p.	c #413831",
" q.	c #4D443D",
".q.	c #382A1F",
"+q.	c #3D2F24",
"@q.	c #3B2E25",
"#q.	c #372C26",
"$q.	c #39302B",
"%q.	c #392E2A",
"&q.	c #312823",
"*q.	c #312821",
"=q.	c #2E2623",
"-q.	c #322A27",
";q.	c #3C332E",
">q.	c #544943",
",q.	c #61574E",
"'q.	c #6B6158",
")q.	c #5D5048",
"!q.	c #332421",
"~q.	c #4D403A",
"{q.	c #6C6459",
"]q.	c #4A4237",
"^q.	c #463C32",
"/q.	c #4F3C36",
"(q.	c #442C2A",
"_q.	c #462C2B",
":q.	c #4A2D2F",
"<q.	c #4B2F2E",
"[q.	c #4B3130",
"}q.	c #2D1513",
"|q.	c #1A0605",
"1q.	c #180808",
"2q.	c #1E0C0C",
"3q.	c #1F0B0C",
"4q.	c #200A0C",
"5q.	c #21070A",
"6q.	c #1C0203",
"7q.	c #32150F",
"8q.	c #401F1A",
"9q.	c #3D1A16",
"0q.	c #3B1610",
"aq.	c #370B08",
"bq.	c #390907",
"cq.	c #370506",
"dq.	c #360405",
"eq.	c #3A0706",
"fq.	c #3C0908",
"gq.	c #3F0907",
"hq.	c #420806",
"iq.	c #550400",
"jq.	c #660000",
"kq.	c #C22327",
"lq.	c #DB232B",
"mq.	c #DE101C",
"nq.	c #F91111",
"oq.	c #D81614",
"pq.	c #CA1816",
"qq.	c #B20E0D",
"rq.	c #9C0305",
"sq.	c #950407",
"tq.	c #90080A",
"uq.	c #860E0F",
"vq.	c #7A0A08",
"wq.	c #6F0600",
"xq.	c #6E0C03",
"yq.	c #78110A",
"zq.	c #870F10",
"Aq.	c #881212",
"Bq.	c #8A1616",
"Cq.	c #710100",
"Dq.	c #7C0E0D",
"Eq.	c #952726",
"Fq.	c #8F2323",
"Gq.	c #851D1C",
"Hq.	c #781615",
"Iq.	c #6D1410",
"Jq.	c #65150E",
"Kq.	c #5F160D",
"Lq.	c #58150C",
"Mq.	c #4F1509",
"Nq.	c #4D1F0F",
"Oq.	c #542918",
"Pq.	c #5A291B",
"Qq.	c #581E12",
"Rq.	c #5B180F",
"Sq.	c #631910",
"Tq.	c #68150D",
"Uq.	c #640B03",
"Vq.	c #6C0F07",
"Wq.	c #75140B",
"Xq.	c #7C1A11",
"Yq.	c #791209",
"Zq.	c #761004",
"`q.	c #791307",
" r.	c #7A1909",
".r.	c #771C0A",
"+r.	c #721B08",
"@r.	c #6E1706",
"#r.	c #681100",
"$r.	c #610B00",
"%r.	c #5E0700",
"&r.	c #5B0700",
"*r.	c #580800",
"=r.	c #580801",
"-r.	c #5D0A04",
";r.	c #610C05",
">r.	c #620D06",
",r.	c #620B04",
"'r.	c #5F0703",
")r.	c #5C0605",
"!r.	c #5B0705",
"~r.	c #5D0C09",
"{r.	c #5E0F0B",
"]r.	c #590E09",
"^r.	c #570C06",
"/r.	c #691E18",
"(r.	c #691C16",
"_r.	c #6C1B17",
":r.	c #691411",
"<r.	c #5C0402",
"[r.	c #5E0302",
"}r.	c #6A0C0C",
"|r.	c #6E1010",
"1r.	c #6C130F",
"2r.	c #6E1B15",
"3r.	c #6A150E",
"4r.	c #70120A",
"5r.	c #901412",
"6r.	c #981314",
"7r.	c #AB2526",
"8r.	c #9E211F",
"9r.	c #8D201D",
"0r.	c #8C2923",
"ar.	c #690E09",
"br.	c #151412",
"cr.	c #1F1E1C",
"dr.	c #1A1917",
"er.	c #050402",
"fr.	c #100C0B",
"gr.	c #0A0605",
"hr.	c #080403",
"ir.	c #070302",
"jr.	c #0A0404",
"kr.	c #070103",
"lr.	c #0D0407",
"mr.	c #11080D",
"nr.	c #0E080A",
"or.	c #0A0406",
"pr.	c #060002",
"qr.	c #050001",
"rr.	c #060203",
"sr.	c #120F0A",
"tr.	c #16120F",
"ur.	c #16130E",
"vr.	c #14110C",
"wr.	c #13120E",
"xr.	c #161511",
"yr.	c #1A1915",
"zr.	c #1A1914",
"Ar.	c #181713",
"Br.	c #171612",
"Cr.	c #191813",
"Dr.	c #24211A",
"Er.	c #27201A",
"Fr.	c #342925",
"Gr.	c #382D29",
"Hr.	c #352A26",
"Ir.	c #443935",
"Jr.	c #5D524E",
"Kr.	c #3F322C",
"Lr.	c #40332B",
"Mr.	c #3E3128",
"Nr.	c #1E1412",
"Or.	c #271D1B",
"Pr.	c #281E1D",
"Qr.	c #1E1413",
"Rr.	c #302825",
"Sr.	c #59514E",
"Tr.	c #504740",
"Ur.	c #70665D",
"Vr.	c #594C43",
"Wr.	c #50433B",
"Xr.	c #1B0905",
"Yr.	c #3C3229",
"Zr.	c #463C33",
"`r.	c #4E453C",
" s.	c #40372E",
".s.	c #3A3227",
"+s.	c #4A4036",
"@s.	c #3E3027",
"#s.	c #392820",
"$s.	c #433029",
"%s.	c #443029",
"&s.	c #412E27",
"*s.	c #110000",
"=s.	c #170503",
"-s.	c #160404",
";s.	c #1C090B",
">s.	c #1F0C0E",
",s.	c #240E10",
"'s.	c #220A0A",
")s.	c #1F0707",
"!s.	c #26110C",
"~s.	c #361311",
"{s.	c #3E1415",
"]s.	c #3C0E0E",
"^s.	c #3D0D0D",
"/s.	c #3E0C0D",
"(s.	c #410D0F",
"_s.	c #451211",
":s.	c #461312",
"<s.	c #431110",
"[s.	c #410E0D",
"}s.	c #3C0A09",
"|s.	c #300703",
"1s.	c #35150A",
"2s.	c #3E0A00",
"3s.	c #510600",
"4s.	c #600000",
"5s.	c #B21317",
"6s.	c #D51A21",
"7s.	c #E0111B",
"8s.	c #E70712",
"9s.	c #EF050E",
"0s.	c #DB140F",
"as.	c #D61D18",
"bs.	c #C81B15",
"cs.	c #B5120D",
"ds.	c #9D0200",
"es.	c #9C0703",
"fs.	c #8D0000",
"gs.	c #860000",
"hs.	c #8A0F08",
"is.	c #7F0A03",
"js.	c #720300",
"ks.	c #7A0B04",
"ls.	c #770401",
"ms.	c #7D0705",
"ns.	c #810B09",
"os.	c #830D0B",
"ps.	c #820E0E",
"qs.	c #800E0D",
"rs.	c #7C0C0B",
"ss.	c #8B2121",
"ts.	c #7B1513",
"us.	c #761816",
"vs.	c #7C2420",
"ws.	c #71221B",
"xs.	c #641B12",
"ys.	c #5C180F",
"zs.	c #51150A",
"As.	c #512012",
"Bs.	c #49190B",
"Cs.	c #562217",
"Ds.	c #6A3025",
"Es.	c #701C12",
"Fs.	c #6F150C",
"Gs.	c #72160B",
"Hs.	c #710F06",
"Is.	c #6E0700",
"Js.	c #770C04",
"Ks.	c #7F1A0E",
"Ls.	c #751F0E",
"Ms.	c #6D1F0B",
"Ns.	c #671406",
"Os.	c #6D170A",
"Ps.	c #660F05",
"Qs.	c #601007",
"Rs.	c #5E0F08",
"Ss.	c #60130B",
"Ts.	c #5C0F09",
"Us.	c #5A0D07",
"Vs.	c #631410",
"Ws.	c #6A1614",
"Xs.	c #721C1B",
"Ys.	c #7E2827",
"Zs.	c #7A2624",
"`s.	c #590804",
" t.	c #5C0B07",
".t.	c #5E0F0A",
"+t.	c #61100C",
"@t.	c #64140D",
"#t.	c #66130D",
"$t.	c #630E09",
"%t.	c #721A16",
"&t.	c #8B322E",
"*t.	c #822925",
"=t.	c #690E0B",
"-t.	c #600703",
";t.	c #580300",
">t.	c #5C0A00",
",t.	c #820B07",
"'t.	c #950A0D",
")t.	c #A40F13",
"!t.	c #BA232A",
"~t.	c #AE2225",
"{t.	c #921719",
"]t.	c #761713",
"^t.	c #100F0D",
"/t.	c #131210",
"(t.	c #0C0B09",
"_t.	c #141311",
":t.	c #080004",
"<t.	c #0C0308",
"[t.	c #10070C",
"}t.	c #0F060B",
"|t.	c #0B0205",
"1t.	c #080002",
"2t.	c #0C0606",
"3t.	c #12110C",
"4t.	c #100F0A",
"5t.	c #0E0D08",
"6t.	c #0F100B",
"7t.	c #11120D",
"8t.	c #151611",
"9t.	c #1F1A16",
"0t.	c #18150E",
"at.	c #1A1710",
"bt.	c #191911",
"ct.	c #181810",
"dt.	c #1D1D15",
"et.	c #1B1B13",
"ft.	c #211E17",
"gt.	c #28211B",
"ht.	c #382F2A",
"it.	c #302521",
"jt.	c #322723",
"kt.	c #3D322C",
"lt.	c #312620",
"mt.	c #2D2220",
"nt.	c #160C0B",
"ot.	c #605856",
"pt.	c #564E4C",
"qt.	c #241A18",
"rt.	c #766760",
"st.	c #594841",
"tt.	c #352C23",
"ut.	c #281F16",
"vt.	c #362E23",
"wt.	c #3D352A",
"xt.	c #150301",
"yt.	c #160402",
"zt.	c #150102",
"At.	c #190506",
"Bt.	c #1C080A",
"Ct.	c #1E0A0C",
"Dt.	c #220C0E",
"Et.	c #1E0606",
"Ft.	c #1E0602",
"Gt.	c #140B02",
"Ht.	c #1B1108",
"It.	c #370F0F",
"Jt.	c #3E1012",
"Kt.	c #350304",
"Lt.	c #420B0E",
"Mt.	c #4D1518",
"Nt.	c #4F171A",
"Ot.	c #430D0D",
"Pt.	c #441110",
"Qt.	c #3A0404",
"Rt.	c #2F180A",
"St.	c #321608",
"Tt.	c #371202",
"Ut.	c #420A00",
"Vt.	c #5C0700",
"Wt.	c #760300",
"Xt.	c #9E090B",
"Yt.	c #C5141A",
"Zt.	c #E1151E",
"`t.	c #EA0D16",
" u.	c #F10712",
".u.	c #F9080F",
"+u.	c #E61008",
"@u.	c #E5241D",
"#u.	c #DB241E",
"$u.	c #CA1D16",
"%u.	c #B8110B",
"&u.	c #B2130D",
"*u.	c #9D0500",
"=u.	c #8F0A03",
"-u.	c #7B0501",
";u.	c #820A09",
">u.	c #830B0C",
",u.	c #810B0B",
"'u.	c #7E0A0B",
")u.	c #7A0A09",
"!u.	c #811515",
"~u.	c #76100E",
"{u.	c #6C1D16",
"]u.	c #601A12",
"^u.	c #4C0E03",
"/u.	c #4B170C",
"(u.	c #451308",
"_u.	c #562016",
":u.	c #6D2821",
"<u.	c #792C26",
"[u.	c #85362F",
"}u.	c #74241B",
"|u.	c #711F14",
"1u.	c #78130B",
"2u.	c #712414",
"3u.	c #6F1B10",
"4u.	c #761F16",
"5u.	c #711D13",
"6u.	c #5D140E",
"7u.	c #5E150F",
"8u.	c #782326",
"9u.	c #893334",
"0u.	c #7C2826",
"au.	c #6B1A16",
"bu.	c #772420",
"cu.	c #7D2A26",
"du.	c #5B0804",
"eu.	c #6C1714",
"fu.	c #741F1C",
"gu.	c #6E1614",
"hu.	c #802723",
"iu.	c #7A211D",
"ju.	c #6F1713",
"ku.	c #69140D",
"lu.	c #6B190E",
"mu.	c #73190E",
"nu.	c #7C1109",
"ou.	c #890D0B",
"pu.	c #A51316",
"qu.	c #BB1E25",
"ru.	c #BB1B23",
"su.	c #AD181E",
"tu.	c #8E0C0E",
"uu.	c #780806",
"vu.	c #73100B",
"wu.	c #090806",
"xu.	c #161513",
"yu.	c #1C1B19",
"zu.	c #171614",
"Au.	c #060503",
"Bu.	c #040301",
"Cu.	c #0D0908",
"Du.	c #0B0207",
"Eu.	c #0E050A",
"Fu.	c #0D0409",
"Gu.	c #080204",
"Hu.	c #0E0808",
"Iu.	c #15140F",
"Ju.	c #13140E",
"Ku.	c #0E0F09",
"Lu.	c #090A04",
"Mu.	c #0C0D07",
"Nu.	c #0D0E08",
"Ou.	c #0E0F0A",
"Pu.	c #12130E",
"Qu.	c #191A15",
"Ru.	c #1C1914",
"Su.	c #1A1D16",
"Tu.	c #1B1C16",
"Uu.	c #1A1B15",
"Vu.	c #211E19",
"Wu.	c #221F1A",
"Xu.	c #231E1A",
"Yu.	c #362F29",
"Zu.	c #403732",
"`u.	c #443B36",
" v.	c #473E39",
".v.	c #372E29",
"+v.	c #362D26",
"@v.	c #393029",
"#v.	c #342A28",
"$v.	c #68605E",
"%v.	c #817977",
"&v.	c #302826",
"*v.	c #493C34",
"=v.	c #75665F",
"-v.	c #93847D",
";v.	c #8F7E77",
">v.	c #514039",
",v.	c #231B10",
"'v.	c #383025",
")v.	c #3E3428",
"!v.	c #4D4337",
"~v.	c #1B0709",
"{v.	c #1D090B",
"]v.	c #1E0A0B",
"^v.	c #1D0807",
"/v.	c #1B0605",
"(v.	c #1A0502",
"_v.	c #310909",
":v.	c #37090B",
"<v.	c #3F0D0E",
"[v.	c #430F11",
"}v.	c #491517",
"|v.	c #50191C",
"1v.	c #511B1B",
"2v.	c #4A1716",
"3v.	c #3F0C0B",
"4v.	c #2F0000",
"5v.	c #310502",
"6v.	c #331209",
"7v.	c #301207",
"8v.	c #330F01",
"9v.	c #3D0C00",
"0v.	c #4D0700",
"av.	c #6A0702",
"bv.	c #8E0E0D",
"cv.	c #B7191A",
"dv.	c #D2191E",
"ev.	c #EC0B13",
"fv.	c #F50913",
"gv.	c #FC0B11",
"hv.	c #EA231C",
"iv.	c #E32620",
"jv.	c #D7221B",
"kv.	c #DC2D28",
"lv.	c #D52D2A",
"mv.	c #B91B18",
"nv.	c #9E0905",
"ov.	c #930A04",
"pv.	c #8C0C03",
"qv.	c #820900",
"rv.	c #7F0800",
"sv.	c #800603",
"tv.	c #830707",
"uv.	c #850909",
"vv.	c #860A0A",
"wv.	c #84090B",
"xv.	c #80080A",
"yv.	c #7D090A",
"zv.	c #700203",
"Av.	c #6B0302",
"Bv.	c #680907",
"Cv.	c #650C08",
"Dv.	c #621912",
"Ev.	c #480500",
"Fv.	c #4C160C",
"Gv.	c #4A160B",
"Hv.	c #551A12",
"Iv.	c #752C26",
"Jv.	c #72221B",
"Kv.	c #7E2B23",
"Lv.	c #7B261F",
"Mv.	c #821C18",
"Nv.	c #730D08",
"Ov.	c #721B12",
"Pv.	c #6B170D",
"Qv.	c #701910",
"Rv.	c #711C17",
"Sv.	c #711E18",
"Tv.	c #621B15",
"Uv.	c #5E1711",
"Vv.	c #5A130F",
"Wv.	c #5A0F0C",
"Xv.	c #5A0C0A",
"Yv.	c #6D1B1D",
"Zv.	c #8C3838",
"`v.	c #852F2E",
" w.	c #782221",
".w.	c #771F1E",
"+w.	c #7B2322",
"@w.	c #761E1D",
"#w.	c #6C1413",
"$w.	c #691110",
"%w.	c #7A201F",
"&w.	c #781E1D",
"*w.	c #6C1211",
"=w.	c #680D0C",
"-w.	c #721716",
";w.	c #771C1B",
">w.	c #741918",
",w.	c #751C18",
"'w.	c #711810",
")w.	c #73150B",
"!w.	c #850806",
"~w.	c #A10F12",
"{w.	c #B91C23",
"]w.	c #BC1C24",
"^w.	c #AD161B",
"/w.	c #8D0907",
"(w.	c #750E07",
"_w.	c #12110F",
":w.	c #181715",
"<w.	c #14100F",
"[w.	c #130F0E",
"}w.	c #0A0106",
"|w.	c #10110B",
"1w.	c #080903",
"2w.	c #141510",
"3w.	c #181510",
"4w.	c #1D1A15",
"5w.	c #1F1C17",
"6w.	c #0F120B",
"7w.	c #171A13",
"8w.	c #20231C",
"9w.	c #1E211A",
"0w.	c #1C1F18",
"aw.	c #23201B",
"bw.	c #241F1B",
"cw.	c #37322C",
"dw.	c #47403A",
"ew.	c #48413B",
"fw.	c #423934",
"gw.	c #2D241D",
"hw.	c #342B24",
"iw.	c #372821",
"jw.	c #221713",
"kw.	c #635957",
"lw.	c #7B716F",
"mw.	c #4E4644",
"nw.	c #4A3B36",
"ow.	c #675851",
"pw.	c #181005",
"qw.	c #3E362B",
"rw.	c #4E4035",
"sw.	c #1B080A",
"tw.	c #1D090A",
"uw.	c #1B0603",
"vw.	c #170600",
"ww.	c #280503",
"xw.	c #2D0505",
"yw.	c #4E1E1E",
"zw.	c #4D1B1C",
"Aw.	c #4E1C1D",
"Bw.	c #4D1B1A",
"Cw.	c #461413",
"Dw.	c #2D0000",
"Ew.	c #330A06",
"Fw.	c #330C07",
"Gw.	c #340C02",
"Hw.	c #3B0900",
"Iw.	c #4C0900",
"Jw.	c #610802",
"Kw.	c #A51515",
"Lw.	c #CA1D21",
"Mw.	c #DA171D",
"Nw.	c #E30C13",
"Ow.	c #F5080E",
"Pw.	c #F9090C",
"Qw.	c #E71812",
"Rw.	c #E11A15",
"Sw.	c #D81813",
"Tw.	c #E82F2C",
"Uw.	c #E63432",
"Vw.	c #D02827",
"Ww.	c #AF110E",
"Xw.	c #980702",
"Yw.	c #870B01",
"Zw.	c #820700",
"`w.	c #840705",
" x.	c #860607",
".x.	c #870708",
"+x.	c #860809",
"@x.	c #840609",
"#x.	c #800406",
"$x.	c #800508",
"%x.	c #810A0C",
"&x.	c #740305",
"*x.	c #6F0505",
"=x.	c #6F0D0C",
"-x.	c #6D120F",
";x.	c #6B1613",
">x.	c #6F201B",
",x.	c #541007",
"'x.	c #50170E",
")x.	c #471107",
"!x.	c #53170F",
"~x.	c #692620",
"{x.	c #712A24",
"]x.	c #742924",
"^x.	c #6E201C",
"/x.	c #61120D",
"(x.	c #6D1E19",
"_x.	c #7F2E2A",
":x.	c #822F29",
"<x.	c #741C18",
"[x.	c #711613",
"}x.	c #801E1D",
"|x.	c #831B1A",
"1x.	c #730F0D",
"2x.	c #68100C",
"3x.	c #6A1510",
"4x.	c #6B1611",
"5x.	c #67120F",
"6x.	c #691612",
"7x.	c #70221E",
"8x.	c #6A211B",
"9x.	c #5E1912",
"0x.	c #510C07",
"ax.	c #4D0803",
"bx.	c #510704",
"cx.	c #4E0300",
"dx.	c #5A0A0B",
"ex.	c #752121",
"fx.	c #7F2628",
"gx.	c #832929",
"hx.	c #7B1F22",
"ix.	c #771B1C",
"jx.	c #7F2324",
"kx.	c #791D1E",
"lx.	c #6A0E0F",
"mx.	c #65090A",
"nx.	c #7A1E1F",
"ox.	c #862B2A",
"px.	c #812323",
"qx.	c #6C1110",
"rx.	c #6F1111",
"sx.	c #7D2221",
"tx.	c #822424",
"ux.	c #791B19",
"vx.	c #791A14",
"wx.	c #7A1C14",
"xx.	c #7B1F14",
"yx.	c #811F14",
"zx.	c #881912",
"Ax.	c #931310",
"Bx.	c #A61417",
"Cx.	c #B91A1F",
"Dx.	c #C6252B",
"Ex.	c #B61D20",
"Fx.	c #940E0B",
"Gx.	c #800903",
"Hx.	c #7F120B",
"Ix.	c #191816",
"Jx.	c #020100",
"Kx.	c #0B0A08",
"Lx.	c #191514",
"Mx.	c #1B1716",
"Nx.	c #090003",
"Ox.	c #0E0A09",
"Px.	c #151410",
"Qx.	c #0A0B05",
"Rx.	c #12130D",
"Sx.	c #1C1B17",
"Tx.	c #21201C",
"Ux.	c #21221D",
"Vx.	c #1C1D18",
"Wx.	c #161813",
"Xx.	c #151A14",
"Yx.	c #1B201A",
"Zx.	c #1A1F19",
"`x.	c #1C1E19",
" y.	c #1F201B",
".y.	c #22231E",
"+y.	c #252420",
"@y.	c #262521",
"#y.	c #27241F",
"$y.	c #25221B",
"%y.	c #45403A",
"&y.	c #4B4640",
"*y.	c #403B35",
"=y.	c #3C352F",
"-y.	c #463F39",
";y.	c #453E38",
">y.	c #423B35",
",y.	c #352A24",
"'y.	c #584F4A",
")y.	c #3D2E29",
"!y.	c #3F322A",
"~y.	c #120300",
"{y.	c #1A0806",
"]y.	c #270402",
"^y.	c #471E1C",
"/y.	c #502222",
"(y.	c #592929",
"_y.	c #5C2C2A",
":y.	c #50201E",
"<y.	c #2F0200",
"[y.	c #320502",
"}y.	c #430E06",
"|y.	c #4C0901",
"1y.	c #9A1010",
"2y.	c #BB161A",
"3y.	c #D71A20",
"4y.	c #E01117",
"5y.	c #E90A0F",
"6y.	c #F2090D",
"7y.	c #F7080D",
"8y.	c #E30F0C",
"9y.	c #D81211",
"0y.	c #DC1E1E",
"ay.	c #D52323",
"by.	c #B91412",
"cy.	c #9D0400",
"dy.	c #930600",
"ey.	c #8F0C04",
"fy.	c #890A03",
"gy.	c #870505",
"hy.	c #860406",
"iy.	c #88050A",
"jy.	c #8A070C",
"ky.	c #870409",
"ly.	c #800307",
"my.	c #820B0D",
"ny.	c #770608",
"oy.	c #700C0C",
"py.	c #701210",
"qy.	c #640F0C",
"ry.	c #600F0B",
"sy.	c #5F120C",
"ty.	c #4D1109",
"uy.	c #571811",
"vy.	c #7A3530",
"wy.	c #782E2B",
"xy.	c #621714",
"yy.	c #661816",
"zy.	c #792B27",
"Ay.	c #6C1E1A",
"By.	c #6F201C",
"Cy.	c #6E1F1B",
"Dy.	c #731F1D",
"Ey.	c #7F2726",
"Fy.	c #892D2E",
"Gy.	c #852225",
"Hy.	c #731315",
"Iy.	c #65110F",
"Jy.	c #6C1B18",
"Ky.	c #6D1917",
"Ly.	c #620E0C",
"My.	c #641310",
"Ny.	c #70211D",
"Oy.	c #6E2421",
"Py.	c #6E2924",
"Qy.	c #591812",
"Ry.	c #470600",
"Sy.	c #4E0B05",
"Ty.	c #5E1713",
"Uy.	c #5C120F",
"Vy.	c #540604",
"Wy.	c #5A0606",
"Xy.	c #650B0D",
"Yy.	c #943539",
"Zy.	c #9D3E44",
"`y.	c #842529",
" z.	c #77181C",
".z.	c #701115",
"+z.	c #6C0D11",
"@z.	c #741617",
"#z.	c #711314",
"$z.	c #7A1C1D",
"%z.	c #822224",
"&z.	c #7D1F20",
"*z.	c #7A1A1B",
"=z.	c #7E2020",
"-z.	c #842425",
";z.	c #842221",
">z.	c #7B160E",
",z.	c #7B1910",
"'z.	c #94211C",
")z.	c #A11F1D",
"!z.	c #B01B1D",
"~z.	c #BA1B1F",
"{z.	c #CB2A2F",
"]z.	c #BC2325",
"^z.	c #9E1411",
"/z.	c #8B0F07",
"(z.	c #88160C",
"_z.	c #181413",
":z.	c #1D1918",
"<z.	c #221E1D",
"[z.	c #0C0807",
"}z.	c #181913",
"|z.	c #0F100A",
"1z.	c #1D1E19",
"2z.	c #272924",
"3z.	c #2D322C",
"4z.	c #222721",
"5z.	c #171C16",
"6z.	c #141913",
"7z.	c #1B1D18",
"8z.	c #1F211C",
"9z.	c #242520",
"0z.	c #252621",
"az.	c #23221D",
"bz.	c #26261E",
"cz.	c #2A2720",
"dz.	c #2D2A23",
"ez.	c #342F29",
"fz.	c #514C46",
"gz.	c #443D37",
"hz.	c #261D18",
"iz.	c #362919",
"jz.	c #3F3222",
"kz.	c #3F362F",
"lz.	c #2C231E",
"mz.	c #2E201F",
"nz.	c #342522",
"oz.	c #483932",
"pz.	c #44372F",
"qz.	c #402F25",
"rz.	c #240502",
"sz.	c #2E0B09",
"tz.	c #431D1A",
"uz.	c #562E2C",
"vz.	c #552928",
"wz.	c #4F2320",
"xz.	c #421613",
"yz.	c #340805",
"zz.	c #2E0200",
"Az.	c #391811",
"Bz.	c #39130A",
"Cz.	c #510E08",
"Dz.	c #5E0604",
"Ez.	c #710302",
"Fz.	c #8B0506",
"Gz.	c #B7161B",
"Hz.	c #CE171B",
"Iz.	c #E11419",
"Jz.	c #E80D13",
"Kz.	c #F00A0D",
"Lz.	c #F70B0F",
"Mz.	c #FB080A",
"Nz.	c #EC0E0D",
"Oz.	c #E60F0D",
"Pz.	c #D80607",
"Qz.	c #DD1313",
"Rz.	c #DC2021",
"Sz.	c #C61817",
"Tz.	c #A40501",
"Uz.	c #880701",
"Vz.	c #860404",
"Wz.	c #850305",
"Xz.	c #7E0003",
"Yz.	c #7F0407",
"Zz.	c #840D0F",
"`z.	c #7A090B",
" A.	c #5C0704",
".A.	c #580B05",
"+A.	c #530E07",
"@A.	c #50140C",
"#A.	c #601B16",
"$A.	c #621815",
"%A.	c #671C19",
"&A.	c #6C211E",
"*A.	c #681D1A",
"=A.	c #5D120F",
"-A.	c #611515",
";A.	c #661A1A",
">A.	c #6D1F1F",
",A.	c #711F21",
"'A.	c #731D20",
")A.	c #72161B",
"!A.	c #6B1216",
"~A.	c #5F1111",
"{A.	c #580E0D",
"]A.	c #621616",
"^A.	c #621414",
"/A.	c #540606",
"(A.	c #661C19",
"_A.	c #601915",
":A.	c #57140E",
"<A.	c #591A13",
"[A.	c #5A1B14",
"}A.	c #5D1C16",
"|A.	c #631C18",
"1A.	c #5B100D",
"2A.	c #550504",
"3A.	c #5D0708",
"4A.	c #5A0003",
"5A.	c #923138",
"6A.	c #A24148",
"7A.	c #85242B",
"8A.	c #701014",
"9A.	c #6C0C10",
"0A.	c #6F0F13",
"aA.	c #78181C",
"bA.	c #761618",
"cA.	c #6C0C0E",
"dA.	c #7B1B1D",
"eA.	c #903031",
"fA.	c #862425",
"gA.	c #711112",
"hA.	c #771516",
"iA.	c #862220",
"jA.	c #841714",
"kA.	c #84180E",
"lA.	c #97221B",
"mA.	c #A82420",
"nA.	c #B62222",
"oA.	c #BE2021",
"pA.	c #C42426",
"qA.	c #B91F1F",
"rA.	c #9D120D",
"sA.	c #8D0D04",
"tA.	c #8E1409",
"uA.	c #21201E",
"vA.	c #1B1A18",
"wA.	c #12140F",
"xA.	c #1B1C17",
"yA.	c #1C1D17",
"zA.	c #20221D",
"AA.	c #2B302A",
"BA.	c #292E28",
"CA.	c #242B24",
"DA.	c #1E251E",
"EA.	c #1B221B",
"FA.	c #191E18",
"GA.	c #1D1F1A",
"HA.	c #23241E",
"IA.	c #32332B",
"JA.	c #33352A",
"KA.	c #303026",
"LA.	c #2A2A20",
"MA.	c #1C1910",
"NA.	c #18150C",
"OA.	c #252219",
"PA.	c #3C3731",
"QA.	c #38312B",
"RA.	c #3A312C",
"SA.	c #2F2317",
"TA.	c #352818",
"UA.	c #241706",
"VA.	c #1F1513",
"WA.	c #2A1C1B",
"XA.	c #231313",
"YA.	c #3C2B24",
"ZA.	c #45372E",
"`A.	c #41342B",
" B.	c #3A3026",
".B.	c #443C31",
"+B.	c #3F372A",
"@B.	c #3E3226",
"#B.	c #150400",
"$B.	c #250603",
"%B.	c #48221F",
"&B.	c #4C2422",
"*B.	c #441B17",
"=B.	c #320905",
"-B.	c #350C06",
";B.	c #4C1008",
">B.	c #6D0101",
",B.	c #8C0509",
"'B.	c #AD0E12",
")B.	c #D0191E",
"!B.	c #DE1319",
"~B.	c #E90C13",
"{B.	c #EF080E",
"]B.	c #F6070C",
"^B.	c #F90801",
"/B.	c #F30F10",
"(B.	c #EF1013",
"_B.	c #E71214",
":B.	c #E51E21",
"<B.	c #D21C1B",
"[B.	c #AC0705",
"}B.	c #980000",
"|B.	c #900700",
"1B.	c #860200",
"2B.	c #840202",
"3B.	c #820105",
"4B.	c #890B0E",
"5B.	c #84070B",
"6B.	c #7C0104",
"7B.	c #7C0509",
"8B.	c #820F12",
"9B.	c #811417",
"0B.	c #7D1617",
"aB.	c #79191A",
"bB.	c #701615",
"cB.	c #702520",
"dB.	c #652921",
"eB.	c #52110B",
"fB.	c #4B0601",
"gB.	c #540D0B",
"hB.	c #6D2322",
"iB.	c #4F0504",
"jB.	c #500907",
"kB.	c #5C1616",
"lB.	c #651F1F",
"mB.	c #61191A",
"nB.	c #590D0F",
"oB.	c #57070A",
"pB.	c #5D080F",
"qB.	c #5F0E14",
"rB.	c #561010",
"sB.	c #470604",
"tB.	c #4E0A09",
"uB.	c #500A0A",
"vB.	c #460000",
"wB.	c #4F0907",
"xB.	c #5B1513",
"yB.	c #4C0805",
"zB.	c #5C1D18",
"AB.	c #5F1C16",
"BB.	c #590F0C",
"CB.	c #6B1113",
"DB.	c #66070D",
"EB.	c #7E1D24",
"FB.	c #832229",
"GB.	c #77161D",
"HB.	c #761318",
"IB.	c #7A171C",
"JB.	c #78151A",
"KB.	c #751217",
"LB.	c #801D20",
"MB.	c #741114",
"NB.	c #832122",
"OB.	c #953334",
"PB.	c #852123",
"QB.	c #700E0D",
"RB.	c #861E1D",
"SB.	c #992323",
"TB.	c #931C18",
"UB.	c #8D1A15",
"VB.	c #932019",
"WB.	c #A22823",
"XB.	c #AE2A26",
"YB.	c #BB2727",
"ZB.	c #C32526",
"`B.	c #B8181A",
" C.	c #B01614",
".C.	c #9A0D06",
"+C.	c #8D0900",
"@C.	c #901003",
"#C.	c #090305",
"$C.	c #131311",
"%C.	c #11110F",
"&C.	c #141611",
"*C.	c #10110C",
"=C.	c #1A1B16",
"-C.	c #0B0D08",
";C.	c #0D120C",
">C.	c #363D36",
",C.	c #2D342D",
"'C.	c #212620",
")C.	c #1A1C17",
"!C.	c #191B16",
"~C.	c #262722",
"{C.	c #2B2C26",
"]C.	c #2D2E26",
"^C.	c #393B30",
"/C.	c #36382D",
"(C.	c #26261C",
"_C.	c #2E2111",
":C.	c #332616",
"<C.	c #3B2E1D",
"[C.	c #382F28",
"}C.	c #1F1412",
"|C.	c #312322",
"1C.	c #362827",
"2C.	c #4D3F36",
"3C.	c #4C3F36",
"4C.	c #4B3E35",
"5C.	c #443A30",
"6C.	c #473F32",
"7C.	c #443C2F",
"8C.	c #403428",
"9C.	c #230703",
"0C.	c #482521",
"aC.	c #441E1B",
"bC.	c #3A130E",
"cC.	c #340B07",
"dC.	c #320903",
"eC.	c #3D120C",
"fC.	c #3E1910",
"gC.	c #3E160C",
"hC.	c #48110A",
"iC.	c #570C07",
"jC.	c #680200",
"kC.	c #7F0000",
"lC.	c #AA0E12",
"mC.	c #D41F26",
"nC.	c #E0151B",
"oC.	c #F0070D",
"pC.	c #F70909",
"qC.	c #F91316",
"rC.	c #E70C10",
"sC.	c #E11518",
"tC.	c #AF0603",
"uC.	c #9A0100",
"vC.	c #920700",
"wC.	c #870300",
"xC.	c #800301",
"yC.	c #7E0204",
"zC.	c #830709",
"AC.	c #870C0E",
"BC.	c #81090B",
"CC.	c #7E1212",
"DC.	c #740D0E",
"EC.	c #741513",
"FC.	c #63100C",
"GC.	c #7D3630",
"HC.	c #702D25",
"IC.	c #793D35",
"JC.	c #551911",
"KC.	c #4D0C06",
"LC.	c #611C17",
"MC.	c #641D1B",
"NC.	c #5B1110",
"OC.	c #5C1211",
"PC.	c #621B19",
"QC.	c #530F0E",
"RC.	c #581715",
"SC.	c #581617",
"TC.	c #541011",
"UC.	c #540E10",
"VC.	c #5C1115",
"WC.	c #5F1016",
"XC.	c #560B10",
"YC.	c #591919",
"ZC.	c #410705",
"`C.	c #450807",
" D.	c #490909",
".D.	c #440301",
"+D.	c #52110F",
"@D.	c #5A1915",
"#D.	c #5E1F18",
"$D.	c #55140E",
"%D.	c #560806",
"&D.	c #660C0C",
"*D.	c #6A0C0D",
"=D.	c #6D0D11",
"-D.	c #6E0D14",
";D.	c #711115",
">D.	c #7B181D",
",D.	c #821F22",
"'D.	c #811E21",
")D.	c #7E1B1E",
"!D.	c #7E191D",
"~D.	c #801C1E",
"{D.	c #912A2D",
"]D.	c #922B2C",
"^D.	c #80191A",
"/D.	c #811B19",
"(D.	c #8B2523",
"_D.	c #8C1E1D",
":D.	c #9E2021",
"<D.	c #9C1A18",
"[D.	c #971D18",
"}D.	c #99221A",
"|D.	c #9F241D",
"1D.	c #A5201B",
"2D.	c #AD1917",
"3D.	c #B21715",
"4D.	c #B11312",
"5D.	c #AB120D",
"6D.	c #980901",
"7D.	c #8F0700",
"8D.	c #950F03",
"9D.	c #252422",
"0D.	c #151513",
"aD.	c #171715",
"bD.	c #151515",
"cD.	c #141412",
"dD.	c #0E0E0C",
"eD.	c #1E1E1C",
"fD.	c #1D1D1B",
"gD.	c #1B1A16",
"hD.	c #1E1D19",
"iD.	c #1F1E1A",
"jD.	c #19160F",
"kD.	c #1C1815",
"lD.	c #121711",
"mD.	c #10150F",
"nD.	c #262823",
"oD.	c #31302C",
"pD.	c #33322E",
"qD.	c #2B2A25",
"rD.	c #2F2F25",
"sD.	c #303024",
"tD.	c #323226",
"uD.	c #3B382F",
"vD.	c #423F36",
"wD.	c #403D34",
"xD.	c #39362D",
"yD.	c #504B45",
"zD.	c #4B4340",
"AD.	c #3E3633",
"BD.	c #433B38",
"CD.	c #251B19",
"DD.	c #2B1F1F",
"ED.	c #281D1B",
"FD.	c #30231A",
"GD.	c #3A2B18",
"HD.	c #352815",
"ID.	c #3D332A",
"JD.	c #443933",
"KD.	c #0C0100",
"LD.	c #180A09",
"MD.	c #382828",
"ND.	c #322020",
"OD.	c #463930",
"PD.	c #473D33",
"QD.	c #4C4437",
"RD.	c #4B4336",
"SD.	c #463E31",
"TD.	c #433A2B",
"UD.	c #42392A",
"VD.	c #413326",
"WD.	c #413328",
"XD.	c #402F27",
"YD.	c #401D19",
"ZD.	c #411E1A",
"`D.	c #2D0802",
" E.	c #280100",
".E.	c #2B0200",
"+E.	c #3C110B",
"@E.	c #3D100B",
"#E.	c #431610",
"$E.	c #3F130A",
"%E.	c #49140C",
"&E.	c #530C06",
"*E.	c #600200",
"=E.	c #7F0406",
"-E.	c #A91418",
";E.	c #CB1A20",
">E.	c #DE151D",
",E.	c #E60B13",
"'E.	c #F7040A",
")E.	c #FC0905",
"!E.	c #F21316",
"~E.	c #EC1B1E",
"{E.	c #D71617",
"]E.	c #BB0F0D",
"^E.	c #A30804",
"/E.	c #910400",
"(E.	c #810000",
"_E.	c #780404",
":E.	c #780405",
"<E.	c #7B0909",
"[E.	c #730705",
"}E.	c #700807",
"|E.	c #6E100E",
"1E.	c #6A110D",
"2E.	c #5C0905",
"3E.	c #712C25",
"4E.	c #692A21",
"5E.	c #602118",
"6E.	c #76312A",
"7E.	c #77302C",
"8E.	c #6A201D",
"9E.	c #67211F",
"0E.	c #571614",
"aE.	c #551513",
"bE.	c #521514",
"cE.	c #591719",
"dE.	c #5D161A",
"eE.	c #5A1216",
"fE.	c #530E11",
"gE.	c #521816",
"hE.	c #4C1713",
"iE.	c #480E0A",
"jE.	c #480D09",
"kE.	c #4E110E",
"lE.	c #4C0F0C",
"mE.	c #4B0E09",
"nE.	c #53140F",
"oE.	c #4B0C05",
"pE.	c #520702",
"qE.	c #5E0A08",
"rE.	c #731817",
"sE.	c #741213",
"tE.	c #852024",
"uE.	c #76161A",
"vE.	c #721317",
"wE.	c #76171B",
"xE.	c #822021",
"yE.	c #730F11",
"zE.	c #741010",
"AE.	c #6B0405",
"BE.	c #821A19",
"CE.	c #801714",
"DE.	c #861A18",
"EE.	c #982C2A",
"FE.	c #942826",
"GE.	c #A11919",
"HE.	c #A5241F",
"IE.	c #9E221A",
"JE.	c #961A12",
"KE.	c #951009",
"LE.	c #A20A07",
"ME.	c #9E0402",
"NE.	c #A40C07",
"OE.	c #970A00",
"PE.	c #9D1306",
"QE.	c #282725",
"RE.	c #0D0D0B",
"SE.	c #080806",
"TE.	c #0F0F0F",
"UE.	c #1B1B1B",
"VE.	c #272624",
"WE.	c #23221E",
"XE.	c #231F1C",
"YE.	c #201C19",
"ZE.	c #1D1916",
"`E.	c #241D17",
" F.	c #18130D",
".F.	c #1A1613",
"+F.	c #1B1E17",
"@F.	c #191C15",
"#F.	c #201F1B",
"$F.	c #2B2823",
"%F.	c #302B28",
"&F.	c #2C2924",
"*F.	c #3E3C30",
"=F.	c #403E32",
"-F.	c #3B392D",
";F.	c #38352C",
">F.	c #3C382F",
",F.	c #46413B",
"'F.	c #49443E",
")F.	c #463E3B",
"!F.	c #2E2422",
"~F.	c #2D2121",
"{F.	c #2E2222",
"]F.	c #382D2B",
"^F.	c #312624",
"/F.	c #31241E",
"(F.	c #3C2E25",
"_F.	c #3C2D1A",
":F.	c #3E2F1A",
"<F.	c #382B1A",
"[F.	c #3F3323",
"}F.	c #3C3228",
"|F.	c #3E2E2E",
"1F.	c #392727",
"2F.	c #301E1C",
"3F.	c #3F2C25",
"4F.	c #2D0C07",
"5F.	c #43201C",
"6F.	c #44211D",
"7F.	c #391612",
"8F.	c #310C06",
"9F.	c #300904",
"0F.	c #310802",
"aF.	c #45100C",
"bF.	c #491009",
"cF.	c #510C05",
"dF.	c #5E0602",
"eF.	c #750503",
"fF.	c #9B0F10",
"gF.	c #C31A1F",
"hF.	c #DC191F",
"iF.	c #E60F16",
"jF.	c #F70D10",
"kF.	c #E71619",
"lF.	c #D81A1A",
"mF.	c #BE1210",
"nF.	c #A00501",
"oF.	c #8A0000",
"pF.	c #820300",
"qF.	c #790603",
"rF.	c #700201",
"sF.	c #6F0603",
"tF.	c #6E0603",
"uF.	c #690601",
"vF.	c #670804",
"wF.	c #680D08",
"xF.	c #650D09",
"yF.	c #67140E",
"zF.	c #62150F",
"AF.	c #5F160F",
"BF.	c #632018",
"CF.	c #612219",
"DF.	c #69291F",
"EF.	c #79342D",
"FF.	c #7F3832",
"GF.	c #782D28",
"HF.	c #5E1715",
"IF.	c #591512",
"JF.	c #561712",
"KF.	c #571715",
"LF.	c #591917",
"MF.	c #5C1A1B",
"NF.	c #5C1819",
"OF.	c #591114",
"PF.	c #510D0E",
"QF.	c #460B07",
"RF.	c #4F140E",
"SF.	c #61241F",
"TF.	c #62231E",
"UF.	c #4E0D09",
"VF.	c #4B0802",
"WF.	c #652019",
"XF.	c #631813",
"YF.	c #6A0F0E",
"ZF.	c #801C1C",
"`F.	c #7A1012",
" G.	c #7C1216",
".G.	c #700D10",
"+G.	c #7B1D1E",
"@G.	c #8C2E2E",
"#G.	c #802021",
"$G.	c #7B191A",
"%G.	c #842020",
"&G.	c #801A18",
"*G.	c #7F1716",
"=G.	c #902724",
"-G.	c #A33534",
";G.	c #A43432",
">G.	c #952322",
",G.	c #9A2724",
"'G.	c #AD3A37",
")G.	c #AC3634",
"!G.	c #9E1E1D",
"~G.	c #A71516",
"{G.	c #AB1715",
"]G.	c #A21B17",
"^G.	c #98180F",
"/G.	c #8F1007",
"(G.	c #8D0A02",
"_G.	c #930400",
":G.	c #980400",
"<G.	c #990400",
"[G.	c #A00D06",
"}G.	c #9B1106",
"|G.	c #9B1305",
"1G.	c #A91B0F",
"2G.	c #000000",
"3G.	c #020200",
"4G.	c #070705",
"5G.	c #10100E",
"6G.	c #252523",
"7G.	c #242422",
"8G.	c #0B0B09",
"9G.	c #0A0603",
"0G.	c #232323",
"aG.	c #212121",
"bG.	c #111111",
"cG.	c #020202",
"dG.	c #040404",
"eG.	c #0C0C0C",
"fG.	c #090708",
"gG.	c #110F10",
"hG.	c #1A1615",
"iG.	c #191313",
"jG.	c #0E0906",
"kG.	c #1E1613",
"lG.	c #1F1C15",
"mG.	c #221D17",
"nG.	c #261E1B",
"oG.	c #373026",
"pG.	c #403C30",
"qG.	c #474338",
"rG.	c #423E33",
"sG.	c #39352A",
"tG.	c #353126",
"uG.	c #3B342C",
"vG.	c #403931",
"wG.	c #453D3A",
"xG.	c #433B39",
"yG.	c #2E2423",
"zG.	c #322725",
"AG.	c #362B29",
"BG.	c #42331E",
"CG.	c #41322F",
"DG.	c #3D2B29",
"EG.	c #4B3A32",
"FG.	c #4E4639",
"GG.	c #484131",
"HG.	c #443D2D",
"IG.	c #3F2D21",
"JG.	c #180602",
"KG.	c #1B0A00",
"LG.	c #1B0900",
"MG.	c #1C0A00",
"NG.	c #30130D",
"OG.	c #2D100A",
"PG.	c #290A05",
"QG.	c #250200",
"RG.	c #290600",
"SG.	c #42110D",
"TG.	c #481210",
"UG.	c #480B08",
"VG.	c #510802",
"WG.	c #590100",
"XG.	c #6D0100",
"YG.	c #900B0C",
"ZG.	c #BA1A1C",
"`G.	c #D81F24",
" H.	c #E8151B",
".H.	c #EC0A0E",
"+H.	c #F61010",
"@H.	c #E90D0D",
"#H.	c #E21416",
"$H.	c #DB1F1E",
"%H.	c #C11717",
"&H.	c #850000",
"*H.	c #7E0300",
"=H.	c #740702",
"-H.	c #6B0501",
";H.	c #650300",
">H.	c #620905",
",H.	c #5B0A06",
"'H.	c #5D100A",
")H.	c #5B120C",
"!H.	c #5D1811",
"~H.	c #57180F",
"{H.	c #541810",
"]H.	c #62231A",
"^H.	c #5C1910",
"/H.	c #6F291F",
"(H.	c #7F342E",
"_H.	c #7B2E28",
":H.	c #62130F",
"<H.	c #651713",
"[H.	c #6A1F1C",
"}H.	c #5D1612",
"|H.	c #591610",
"1H.	c #581411",
"2H.	c #5A1414",
"3H.	c #5B1314",
"4H.	c #5D1113",
"5H.	c #53120C",
"6H.	c #77342E",
"7H.	c #99544F",
"8H.	c #8C4541",
"9H.	c #6E251F",
"0H.	c #540B04",
"aH.	c #570E07",
"bH.	c #7A3027",
"cH.	c #7D2D26",
"dH.	c #78201C",
"eH.	c #922828",
"fH.	c #911E21",
"gH.	c #8A191B",
"hH.	c #7B1717",
"iH.	c #7A1C1A",
"jH.	c #8F302E",
"kH.	c #872522",
"lH.	c #750F0D",
"mH.	c #7C1411",
"nH.	c #831714",
"oH.	c #861916",
"pH.	c #962521",
"qH.	c #97211F",
"rH.	c #961C19",
"sH.	c #971B19",
"tH.	c #9F221E",
"uH.	c #AB2B28",
"vH.	c #B02F2A",
"wH.	c #B52928",
"xH.	c #B81C1D",
"yH.	c #B61B19",
"zH.	c #AA1B17",
"AH.	c #9D1811",
"BH.	c #93130A",
"CH.	c #940904",
"DH.	c #970802",
"EH.	c #960500",
"FH.	c #9B0C04",
"GH.	c #9A1206",
"HH.	c #9F1709",
"IH.	c #050503",
"JH.	c #20201E",
"KH.	c #0A0A08",
"LH.	c #222222",
"MH.	c #2D2D2D",
"NH.	c #2A2A2A",
"OH.	c #1C1C1C",
"PH.	c #0A0809",
"QH.	c #0A0607",
"RH.	c #26211B",
"SH.	c #241F19",
"TH.	c #261F19",
"UH.	c #322A1F",
"VH.	c #463F37",
"WH.	c #433C36",
"XH.	c #443C39",
"YH.	c #48403D",
"ZH.	c #473F3D",
"`H.	c #3F3735",
" I.	c #352D2B",
".I.	c #2D2321",
"+I.	c #342927",
"@I.	c #3E302D",
"#I.	c #483B35",
"$I.	c #43341F",
"%I.	c #3C2F1E",
"&I.	c #4C3B33",
"*I.	c #50483B",
"=I.	c #423B2B",
"-I.	c #372318",
";I.	c #462F27",
">I.	c #3B271E",
",I.	c #200B06",
"'I.	c #140000",
")I.	c #1E0A09",
"!I.	c #1A0900",
"~I.	c #1A0800",
"{I.	c #2C0D08",
"]I.	c #2A0904",
"^I.	c #280702",
"/I.	c #2C0B06",
"(I.	c #320F0B",
"_I.	c #2F0906",
":I.	c #2D0A06",
"<I.	c #2E0B05",
"[I.	c #2C0903",
"}I.	c #2A0701",
"|I.	c #400D0A",
"1I.	c #450D0C",
"2I.	c #4E1110",
"3I.	c #4F0806",
"4I.	c #680000",
"5I.	c #AA1416",
"6I.	c #CD1D20",
"7I.	c #E1191C",
"8I.	c #EC0D12",
"9I.	c #F30B09",
"0I.	c #EF0E0C",
"aI.	c #E50E0C",
"bI.	c #BC1715",
"cI.	c #690802",
"dI.	c #670600",
"eI.	c #610601",
"fI.	c #600B06",
"gI.	c #610E08",
"hI.	c #510A04",
"iI.	c #5B160F",
"jI.	c #7A2C22",
"kI.	c #842F2A",
"lI.	c #761E1A",
"mI.	c #711C19",
"nI.	c #792824",
"oI.	c #651812",
"pI.	c #5D120C",
"qI.	c #560D07",
"rI.	c #530A04",
"sI.	c #550A07",
"tI.	c #641312",
"uI.	c #6B1A17",
"vI.	c #6D1A16",
"wI.	c #9A4743",
"xI.	c #BC6764",
"yI.	c #A74F4D",
"zI.	c #862E2C",
"AI.	c #6F1A15",
"BI.	c #590600",
"CI.	c #66130B",
"DI.	c #852C26",
"EI.	c #82231D",
"FI.	c #7E1613",
"GI.	c #9A2A29",
"HI.	c #A1292B",
"II.	c #A12A2C",
"JI.	c #8F2724",
"KI.	c #6F0E08",
"LI.	c #7F1C17",
"MI.	c #8B2521",
"NI.	c #7A110D",
"OI.	c #7A0D08",
"PI.	c #99231F",
"QI.	c #A32823",
"RI.	c #951610",
"SI.	c #98120F",
"TI.	c #AB211E",
"UI.	c #B02522",
"VI.	c #B1201D",
"WI.	c #C9312E",
"XI.	c #C62223",
"YI.	c #C42021",
"ZI.	c #A92018",
"`I.	c #9F1C14",
" J.	c #991910",
".J.	c #99120C",
"+J.	c #9A0F0A",
"@J.	c #991008",
"#J.	c #941004",
"$J.	c #9A1408",
"%J.	c #A5170D",
"&J.	c #0F0F0D",
"*J.	c #232321",
"=J.	c #191917",
"-J.	c #090601",
";J.	c #1A1A1A",
">J.	c #333335",
",J.	c #303032",
"'J.	c #272729",
")J.	c #222023",
"!J.	c #1E181A",
"~J.	c #170E11",
"{J.	c #0F0609",
"]J.	c #2B241C",
"^J.	c #251E16",
"/J.	c #4B403A",
"(J.	c #413936",
"_J.	c #403B38",
":J.	c #393431",
"<J.	c #36312E",
"[J.	c #383330",
"}J.	c #372926",
"|J.	c #463835",
"1J.	c #3F312E",
"2J.	c #3E2F2C",
"3J.	c #40312C",
"4J.	c #3A2D1C",
"5J.	c #3E3222",
"6J.	c #160C03",
"7J.	c #474030",
"8J.	c #514A3A",
"9J.	c #4E4737",
"0J.	c #463F2F",
"aJ.	c #403726",
"bJ.	c #3F3625",
"cJ.	c #493328",
"dJ.	c #372116",
"eJ.	c #4A312A",
"fJ.	c #3E271F",
"gJ.	c #341F1A",
"hJ.	c #170302",
"iJ.	c #280D06",
"jJ.	c #2D0E09",
"kJ.	c #3A1411",
"lJ.	c #2B0802",
"mJ.	c #2F0D04",
"nJ.	c #2E0901",
"oJ.	c #2F0600",
"pJ.	c #430B0A",
"qJ.	c #470B0A",
"rJ.	c #501010",
"sJ.	c #520E0F",
"tJ.	c #560406",
"uJ.	c #820203",
"vJ.	c #A51012",
"wJ.	c #C41B1E",
"xJ.	c #D9181D",
"yJ.	c #E20D11",
"zJ.	c #E21210",
"AJ.	c #C00E0C",
"BJ.	c #A80906",
"CJ.	c #960502",
"DJ.	c #880400",
"EJ.	c #6E0702",
"FJ.	c #640A02",
"GJ.	c #630A04",
"HJ.	c #600D07",
"IJ.	c #631610",
"JJ.	c #57100A",
"KJ.	c #65221C",
"LJ.	c #5C1B15",
"MJ.	c #6C2720",
"NJ.	c #7F2F28",
"OJ.	c #872E26",
"PJ.	c #963934",
"QJ.	c #A2433F",
"RJ.	c #993734",
"SJ.	c #811F1C",
"TJ.	c #751614",
"UJ.	c #771C19",
"VJ.	c #5D0D06",
"WJ.	c #6A100F",
"XJ.	c #791A18",
"YJ.	c #730707",
"ZJ.	c #962A2A",
"`J.	c #AA3E3E",
" K.	c #8A211E",
".K.	c #811B17",
"+K.	c #680701",
"@K.	c #6A0B05",
"#K.	c #761711",
"$K.	c #7E1D17",
"%K.	c #8B241F",
"&K.	c #811411",
"*K.	c #901A1A",
"=K.	c #94181A",
"-K.	c #991F1E",
";K.	c #8D221C",
">K.	c #6D0800",
",K.	c #922721",
"'K.	c #8A150E",
")K.	c #AF302A",
"!K.	c #B7322D",
"~K.	c #B62824",
"{K.	c #BB2725",
"]K.	c #C42C29",
"^K.	c #C32524",
"/K.	c #B81916",
"(K.	c #BA1816",
"_K.	c #C72220",
":K.	c #CA1C1D",
"<K.	c #C61E1E",
"[K.	c #B9211C",
"}K.	c #AE241A",
"|K.	c #A42117",
"1K.	c #9A1C10",
"2K.	c #97140C",
"3K.	c #961108",
"4K.	c #971508",
"5K.	c #A3160C",
"6K.	c #010100",
"7K.	c #181411",
"8K.	c #110E09",
"9K.	c #171717",
"0K.	c #1A1A1C",
"aK.	c #1C1C1E",
"bK.	c #202022",
"cK.	c #272528",
"dK.	c #2B2527",
"eK.	c #292023",
"fK.	c #1F1619",
"gK.	c #12090C",
"hK.	c #0C0203",
"iK.	c #0D0304",
"jK.	c #110505",
"kK.	c #140606",
"lK.	c #1F1110",
"mK.	c #50453F",
"nK.	c #514843",
"oK.	c #4C433E",
"pK.	c #3C3431",
"qK.	c #332E2B",
"rK.	c #2E2926",
"sK.	c #2E2A27",
"tK.	c #372C28",
"uK.	c #514340",
"vK.	c #312320",
"wK.	c #443633",
"xK.	c #4E3F3C",
"yK.	c #433431",
"zK.	c #392A27",
"AK.	c #4F4838",
"BK.	c #564F3F",
"CK.	c #4B4434",
"DK.	c #423928",
"EK.	c #423525",
"FK.	c #463025",
"GK.	c #371F15",
"HK.	c #4D342D",
"IK.	c #3D241D",
"JK.	c #503834",
"KK.	c #1C0402",
"LK.	c #170201",
"MK.	c #180300",
"NK.	c #31120D",
"OK.	c #270400",
"PK.	c #3D1714",
"QK.	c #461E1C",
"RK.	c #431B19",
"SK.	c #2B0A03",
"TK.	c #2A0902",
"UK.	c #280700",
"VK.	c #44110E",
"WK.	c #480E0D",
"XK.	c #4C0C0C",
"YK.	c #510B0D",
"ZK.	c #54090D",
"`K.	c #5E0205",
" L.	c #A21013",
".L.	c #C11E23",
"+L.	c #D51E23",
"@L.	c #DE1116",
"#L.	c #E50609",
"$L.	c #E11713",
"%L.	c #B40703",
"&L.	c #990000",
"*L.	c #880702",
"=L.	c #7E0B06",
"-L.	c #6B0500",
";L.	c #660C04",
">L.	c #630A02",
",L.	c #5B0C05",
"'L.	c #631812",
")L.	c #651C16",
"!L.	c #5D1813",
"~L.	c #55100B",
"{L.	c #5C1913",
"]L.	c #822923",
"^L.	c #85241E",
"/L.	c #922C28",
"(L.	c #A43C39",
"_L.	c #9F3633",
":L.	c #861D1A",
"<L.	c #780F0C",
"[L.	c #79130F",
"}L.	c #6D140C",
"|L.	c #6F0D0A",
"1L.	c #7F1311",
"2L.	c #7D0004",
"3L.	c #830005",
"4L.	c #8F0C11",
"5L.	c #921115",
"6L.	c #89090A",
"7L.	c #8B0F0F",
"8L.	c #8C1614",
"9L.	c #750906",
"0L.	c #710A03",
"aL.	c #7B120E",
"bL.	c #942923",
"cL.	c #871612",
"dL.	c #860E0D",
"eL.	c #840405",
"fL.	c #850907",
"gL.	c #81120B",
"hL.	c #7D1208",
"iL.	c #95291F",
"jL.	c #95241C",
"kL.	c #88130C",
"lL.	c #941912",
"mL.	c #A2211B",
"nL.	c #B12822",
"oL.	c #B01F1A",
"pL.	c #C72F2A",
"qL.	c #D1322F",
"rL.	c #C92422",
"sL.	c #CA1E1E",
"tL.	c #D42424",
"uL.	c #CA1617",
"vL.	c #CA1315",
"wL.	c #C7191A",
"xL.	c #BC211C",
"yL.	c #B1241B",
"zL.	c #921209",
"AL.	c #8E0E05",
"BL.	c #880C02",
"CL.	c #921207",
"DL.	c #9F150B",
"EL.	c #1A1A18",
"FL.	c #20211C",
"GL.	c #211D1A",
"HL.	c #0E0E0E",
"IL.	c #121212",
"JL.	c #121214",
"KL.	c #111113",
"LL.	c #101113",
"ML.	c #151316",
"NL.	c #201A1E",
"OL.	c #261B21",
"PL.	c #24191D",
"QL.	c #1B1014",
"RL.	c #100406",
"SL.	c #110303",
"TL.	c #100202",
"UL.	c #1D0B0B",
"VL.	c #1F0D0B",
"WL.	c #220E0D",
"XL.	c #3F342E",
"YL.	c #473F3C",
"ZL.	c #3B3330",
"`L.	c #272320",
" M.	c #25201D",
".M.	c #322924",
"+M.	c #3B302A",
"@M.	c #4C3E3B",
"#M.	c #211312",
"$M.	c #352726",
"%M.	c #443434",
"&M.	c #352525",
"*M.	c #362626",
"=M.	c #392929",
"-M.	c #3F3229",
";M.	c #40332A",
">M.	c #130500",
",M.	c #3D2C24",
"'M.	c #39271D",
")M.	c #493B30",
"!M.	c #44382C",
"~M.	c #4A4333",
"{M.	c #554E3E",
"]M.	c #443B2A",
"^M.	c #413424",
"/M.	c #3B2017",
"(M.	c #543932",
"_M.	c #3D221B",
":M.	c #301411",
"<M.	c #6B524E",
"[M.	c #280E0D",
"}M.	c #2D0704",
"|M.	c #4A2220",
"1M.	c #4F2624",
"2M.	c #441B19",
"3M.	c #360D0B",
"4M.	c #2A0500",
"5M.	c #250400",
"6M.	c #2B0900",
"7M.	c #3E130D",
"8M.	c #501312",
"9M.	c #530F10",
"0M.	c #550A0E",
"aM.	c #590A0F",
"bM.	c #6B080D",
"cM.	c #9C151B",
"dM.	c #BC1D22",
"eM.	c #D02128",
"fM.	c #DA1820",
"gM.	c #E20D13",
"hM.	c #F90700",
"iM.	c #E4150F",
"jM.	c #E01B15",
"kM.	c #D51E1A",
"lM.	c #C01714",
"mM.	c #A40A08",
"nM.	c #8D0200",
"oM.	c #840401",
"pM.	c #7E0D09",
"qM.	c #6B0802",
"rM.	c #690C05",
"sM.	c #620903",
"tM.	c #610A03",
"uM.	c #580904",
"vM.	c #621913",
"wM.	c #5D1310",
"xM.	c #58110D",
"yM.	c #611A16",
"zM.	c #792A26",
"AM.	c #7B1C18",
"BM.	c #871E1A",
"CM.	c #962A27",
"DM.	c #9E2C2B",
"EM.	c #8B1918",
"FM.	c #801310",
"GM.	c #770F0C",
"HM.	c #73100A",
"IM.	c #76130E",
"JM.	c #781710",
"KM.	c #77110C",
"LM.	c #710A05",
"MM.	c #770E0A",
"NM.	c #A3141A",
"OM.	c #A40A12",
"PM.	c #9E070E",
"QM.	c #9E090F",
"RM.	c #9C0B10",
"SM.	c #990E11",
"TM.	c #951011",
"UM.	c #8F1917",
"VM.	c #7C0D06",
"WM.	c #92231C",
"XM.	c #87110D",
"YM.	c #8C100E",
"ZM.	c #8D0D0C",
"`M.	c #8E110F",
" N.	c #85120B",
".N.	c #942419",
"+N.	c #8D180E",
"@N.	c #9A1A11",
"#N.	c #A31A12",
"$N.	c #B12119",
"%N.	c #BC231E",
"&N.	c #D02E2B",
"*N.	c #D72E2B",
"=N.	c #D2201E",
"-N.	c #D82020",
";N.	c #EA2E2D",
">N.	c #E82A2A",
",N.	c #D71919",
"'N.	c #CE1213",
")N.	c #C0231E",
"!N.	c #B3241C",
"~N.	c #A11E14",
"{N.	c #92160A",
"]N.	c #8D0E05",
"^N.	c #860700",
"/N.	c #860A00",
"(N.	c #830900",
"_N.	c #8B0D01",
":N.	c #9B1009",
"<N.	c #110D0C",
"[N.	c #24211C",
"}N.	c #0C0E0B",
"|N.	c #222220",
"1N.	c #2B2B29",
"2N.	c #272725",
"3N.	c #181A19",
"4N.	c #100E0F",
"5N.	c #1A1114",
"6N.	c #271B1F",
"7N.	c #2F2325",
"8N.	c #2E2224",
"9N.	c #291B1B",
"0N.	c #241616",
"aN.	c #211112",
"bN.	c #230F10",
"cN.	c #190504",
"dN.	c #33140F",
"eN.	c #381B13",
"fN.	c #3E211B",
"gN.	c #433937",
"hN.	c #473D3B",
"iN.	c #342F2C",
"jN.	c #2E2828",
"kN.	c #272123",
"lN.	c #1F1919",
"mN.	c #2C2220",
"nN.	c #3B302E",
"oN.	c #2E2321",
"pN.	c #42352C",
"qN.	c #493C33",
"rN.	c #4F473A",
"sN.	c #494031",
"tN.	c #483A2D",
"uN.	c #3E2A1F",
"vN.	c #472F25",
"wN.	c #3F241B",
"xN.	c #583D36",
"yN.	c #3D201A",
"zN.	c #7D5F5D",
"AN.	c #240F0C",
"BN.	c #1C0400",
"CN.	c #260B04",
"DN.	c #30110C",
"EN.	c #2F0C08",
"FN.	c #4D2422",
"GN.	c #481F1D",
"HN.	c #3B0F0E",
"IN.	c #2C0301",
"JN.	c #290801",
"KN.	c #3E1710",
"LN.	c #46130F",
"MN.	c #531613",
"NN.	c #5F0A0D",
"ON.	c #690A0E",
"PN.	c #800B11",
"QN.	c #B71E21",
"RN.	c #D21F23",
"SN.	c #DC1B20",
"TN.	c #E8070B",
"UN.	c #F60A0C",
"VN.	c #F30700",
"WN.	c #EB100C",
"XN.	c #E31917",
"YN.	c #E12825",
"ZN.	c #D82F2C",
"`N.	c #BA211C",
" O.	c #930805",
".O.	c #800000",
"+O.	c #700D07",
"@O.	c #6D0C06",
"#O.	c #640700",
"$O.	c #620800",
"%O.	c #660F06",
"&O.	c #611309",
"*O.	c #5B0D03",
"=O.	c #691C14",
"-O.	c #681D17",
";O.	c #802824",
">O.	c #7F1613",
",O.	c #9D2A27",
"'O.	c #B94140",
")O.	c #C24648",
"!O.	c #B5373A",
"~O.	c #9F2124",
"{O.	c #8C1113",
"]O.	c #7F0B0B",
"^O.	c #780B08",
"/O.	c #720B06",
"(O.	c #77120A",
"_O.	c #770E08",
":O.	c #770A03",
"<O.	c #83120C",
"[O.	c #9B1B18",
"}O.	c #B2191C",
"|O.	c #B10E13",
"1O.	c #A9080E",
"2O.	c #AF1317",
"3O.	c #A71619",
"4O.	c #980E0E",
"5O.	c #961414",
"6O.	c #A62C29",
"7O.	c #89130F",
"8O.	c #7C0602",
"9O.	c #911714",
"0O.	c #9E2220",
"aO.	c #A52B26",
"bO.	c #902015",
"cO.	c #7F1104",
"dO.	c #7E0C01",
"eO.	c #840E02",
"fO.	c #991A11",
"gO.	c #A81F17",
"hO.	c #AF1C15",
"iO.	c #C72C27",
"jO.	c #DE3937",
"kO.	c #DB2D2C",
"lO.	c #D71F1D",
"mO.	c #D91B1B",
"nO.	c #D11412",
"oO.	c #CA0D0B",
"pO.	c #CD1110",
"qO.	c #CB1917",
"rO.	c #C4211C",
"sO.	c #B41F18",
"tO.	c #A1180E",
"uO.	c #930E05",
"vO.	c #8D0801",
"wO.	c #8C0700",
"xO.	c #910C05",
"yO.	c #920D06",
"zO.	c #9F0B07",
"AO.	c #010300",
"BO.	c #160C0D",
"CO.	c #150B0C",
"DO.	c #161211",
"EO.	c #12110D",
"FO.	c #15120B",
"GO.	c #110D04",
"HO.	c #0A0700",
"IO.	c #0B0B03",
"JO.	c #0E0F07",
"KO.	c #0D1007",
"LO.	c #0C0F06",
"MO.	c #0F1209",
"NO.	c #070D03",
"OO.	c #15180F",
"PO.	c #262920",
"QO.	c #2E3128",
"RO.	c #35382F",
"SO.	c #2A2B25",
"TO.	c #0C0B06",
"UO.	c #332323",
"VO.	c #3B2929",
"WO.	c #483636",
"XO.	c #463233",
"YO.	c #331E1D",
"ZO.	c #291111",
"`O.	c #1A0504",
" P.	c #1F0B0A",
".P.	c #23100C",
"+P.	c #310401",
"@P.	c #320100",
"#P.	c #380300",
"$P.	c #461614",
"%P.	c #401411",
"&P.	c #3B1512",
"*P.	c #2C130F",
"=P.	c #220F0B",
"-P.	c #33292A",
";P.	c #393033",
">P.	c #3C3336",
",P.	c #30272C",
"'P.	c #20171A",
")P.	c #251B1A",
"!P.	c #2F2523",
"~P.	c #302B25",
"{P.	c #262219",
"]P.	c #35302A",
"^P.	c #302C23",
"/P.	c #393126",
"(P.	c #41372D",
"_P.	c #40362D",
":P.	c #43362E",
"<P.	c #0F0200",
"[P.	c #40312A",
"}P.	c #4E4236",
"|P.	c #4B4137",
"1P.	c #53463D",
"2P.	c #422B25",
"3P.	c #503933",
"4P.	c #3F2820",
"5P.	c #42201E",
"6P.	c #7A5856",
"7P.	c #1B0000",
"8P.	c #200401",
"9P.	c #1E0501",
"0P.	c #270901",
"aP.	c #3E1B15",
"bP.	c #4E2825",
"cP.	c #451C1A",
"dP.	c #350C0A",
"eP.	c #270000",
"fP.	c #290B03",
"gP.	c #2B0502",
"hP.	c #2D0402",
"iP.	c #350709",
"jP.	c #3A0E0F",
"kP.	c #3B1112",
"lP.	c #40150C",
"mP.	c #4B1008",
"nP.	c #550500",
"oP.	c #640000",
"pP.	c #850A0D",
"qP.	c #AE191B",
"rP.	c #DA2625",
"sP.	c #DF0B0A",
"tP.	c #EF0F0D",
"uP.	c #DD0705",
"vP.	c #DC0E0E",
"wP.	c #DD0B0C",
"xP.	c #EC0F14",
"yP.	c #E9080C",
"zP.	c #EE0F14",
"AP.	c #EA1517",
"BP.	c #DC1917",
"CP.	c #C51611",
"DP.	c #AE100D",
"EP.	c #910707",
"FP.	c #850303",
"GP.	c #710C02",
"HP.	c #680A00",
"IP.	c #640C00",
"JP.	c #64180B",
"KP.	c #68180D",
"LP.	c #6E1A10",
"MP.	c #911B19",
"NP.	c #9C1718",
"OP.	c #A92123",
"PP.	c #B92C32",
"QP.	c #B8292F",
"RP.	c #A2151B",
"SP.	c #8B060B",
"TP.	c #7C0103",
"UP.	c #750805",
"VP.	c #741207",
"WP.	c #7D0C04",
"XP.	c #8B110C",
"YP.	c #9C1511",
"ZP.	c #B1120F",
"`P.	c #A10604",
" Q.	c #A30B0A",
".Q.	c #B31F1F",
"+Q.	c #A41615",
"@Q.	c #8E0606",
"#Q.	c #7A0704",
"$Q.	c #952420",
"%Q.	c #891814",
"&Q.	c #7B0A06",
"*Q.	c #A22F2C",
"=Q.	c #B6473E",
"-Q.	c #972D1F",
";Q.	c #831A07",
">Q.	c #7A0C00",
",Q.	c #850F01",
"'Q.	c #97140A",
")Q.	c #A3140C",
"!Q.	c #CC2320",
"~Q.	c #DA2627",
"{Q.	c #D91F20",
"]Q.	c #D7191B",
"^Q.	c #C70F0D",
"/Q.	c #BE0B06",
"(Q.	c #BB0D06",
"_Q.	c #BF110A",
":Q.	c #D52120",
"<Q.	c #C9201B",
"[Q.	c #A8110A",
"}Q.	c #A8150E",
"|Q.	c #A01008",
"1Q.	c #9B0703",
"2Q.	c #A00B07",
"3Q.	c #A70D0B",
"4Q.	c #AC110F",
"5Q.	c #AF100D",
"6Q.	c #AF0B0A",
"7Q.	c #120608",
"8Q.	c #100A0A",
"9Q.	c #120C0C",
"0Q.	c #181212",
"aQ.	c #070700",
"bQ.	c #090900",
"cQ.	c #0A0C01",
"dQ.	c #090C01",
"eQ.	c #070D01",
"fQ.	c #0A1004",
"gQ.	c #010700",
"hQ.	c #181B10",
"iQ.	c #1D2015",
"jQ.	c #1B1D12",
"kQ.	c #181A0F",
"lQ.	c #17140B",
"mQ.	c #2D1B19",
"nQ.	c #412D2C",
"oQ.	c #453130",
"pQ.	c #392423",
"qQ.	c #2D1515",
"rQ.	c #2B1313",
"sQ.	c #2A1212",
"tQ.	c #281010",
"uQ.	c #210F0D",
"vQ.	c #43221D",
"wQ.	c #4E2521",
"xQ.	c #54211E",
"yQ.	c #531917",
"zQ.	c #4E0E0C",
"AQ.	c #490806",
"BQ.	c #4D0908",
"CQ.	c #4B0708",
"DQ.	c #430303",
"EQ.	c #3D0302",
"FQ.	c #3E1513",
"GQ.	c #371B18",
"HQ.	c #231515",
"IQ.	c #201416",
"JQ.	c #2C2125",
"KQ.	c #281D23",
"LQ.	c #1F1418",
"MQ.	c #1B1110",
"NQ.	c #403634",
"OQ.	c #332B28",
"PQ.	c #2C251F",
"QQ.	c #29241E",
"RQ.	c #332E28",
"SQ.	c #100D04",
"TQ.	c #17170D",
"UQ.	c #25251B",
"VQ.	c #343025",
"WQ.	c #2F281E",
"XQ.	c #261F15",
"YQ.	c #2B241A",
"ZQ.	c #3C332A",
"`Q.	c #453830",
" R.	c #43362D",
".R.	c #55483F",
"+R.	c #4B3A33",
"@R.	c #47322D",
"#R.	c #48302C",
"$R.	c #472E2A",
"%R.	c #462D28",
"&R.	c #3C251D",
"*R.	c #492624",
"=R.	c #775150",
"-R.	c #593634",
";R.	c #240200",
">R.	c #170200",
",R.	c #210706",
"'R.	c #361810",
")R.	c #47261F",
"!R.	c #4A2421",
"~R.	c #411B18",
"{R.	c #370F0D",
"]R.	c #300705",
"^R.	c #2F0604",
"/R.	c #2F0705",
"(R.	c #3C0B0F",
"_R.	c #3E1013",
":R.	c #391614",
"<R.	c #3D1B11",
"[R.	c #45160C",
"}R.	c #850B08",
"|R.	c #AC171B",
"1R.	c #CD2022",
"2R.	c #EB0B09",
"3R.	c #E7100D",
"4R.	c #D30802",
"5R.	c #CE0B07",
"6R.	c #CC0907",
"7R.	c #CD0205",
"8R.	c #DD050A",
"9R.	c #DE0006",
"0R.	c #DE0003",
"aR.	c #DB0306",
"bR.	c #CD0A08",
"cR.	c #BC0A06",
"dR.	c #AB0C08",
"eR.	c #A1100D",
"fR.	c #9D0E10",
"gR.	c #960E10",
"hR.	c #84110C",
"iR.	c #630B00",
"jR.	c #611505",
"kR.	c #631A09",
"lR.	c #5F1605",
"mR.	c #691B0E",
"nR.	c #6F1D11",
"oR.	c #6F170D",
"pR.	c #951B18",
"qR.	c #9C1615",
"rR.	c #A71B1E",
"sR.	c #B42328",
"tR.	c #B32028",
"uR.	c #A11218",
"vR.	c #8C070C",
"wR.	c #800507",
"xR.	c #73170C",
"yR.	c #74160A",
"zR.	c #740D04",
"AR.	c #760700",
"BR.	c #860B06",
"CR.	c #9A130F",
"DR.	c #A7120C",
"ER.	c #AC130B",
"FR.	c #A00803",
"GR.	c #A00C08",
"HR.	c #AD1E1A",
"IR.	c #8D0704",
"JR.	c #941411",
"KR.	c #8A0E0C",
"LR.	c #7D0504",
"MR.	c #820C0C",
"NR.	c #9B2727",
"OR.	c #8E1D19",
"PR.	c #7F0E0A",
"QR.	c #9B2B27",
"RR.	c #A63A30",
"SR.	c #831C0B",
"TR.	c #821B08",
"UR.	c #9A2212",
"VR.	c #9C180C",
"WR.	c #B51310",
"XR.	c #D02221",
"YR.	c #DE2427",
"ZR.	c #DF1E21",
"`R.	c #DA191C",
" S.	c #D11313",
".S.	c #C30D0A",
"+S.	c #B60801",
"@S.	c #B20A01",
"#S.	c #B70F06",
"$S.	c #C6130F",
"%S.	c #D3201C",
"&S.	c #CB1E1A",
"*S.	c #B6110B",
"=S.	c #AD0E08",
"-S.	c #A10803",
";S.	c #9F0400",
">S.	c #A90A07",
",S.	c #B30D0D",
"'S.	c #BD1314",
")S.	c #C11314",
"!S.	c #BD0D0F",
"~S.	c #13090A",
"{S.	c #160A0C",
"]S.	c #110B0B",
"^S.	c #130D0D",
"/S.	c #231F1E",
"(S.	c #0C0902",
"_S.	c #0C0900",
":S.	c #080800",
"<S.	c #070900",
"[S.	c #080B00",
"}S.	c #0B0E03",
"|S.	c #060900",
"1S.	c #0D0F04",
"2S.	c #16180D",
"3S.	c #15150B",
"4S.	c #111107",
"5S.	c #1A160D",
"6S.	c #342220",
"7S.	c #352321",
"8S.	c #392524",
"9S.	c #1F0A09",
"0S.	c #210C0B",
"aS.	c #200E0C",
"bS.	c #411917",
"cS.	c #512421",
"dS.	c #5D2A27",
"eS.	c #6A2927",
"fS.	c #64181A",
"gS.	c #601013",
"hS.	c #510708",
"iS.	c #430000",
"jS.	c #3D0101",
"kS.	c #371513",
"lS.	c #211718",
"mS.	c #211819",
"nS.	c #1E1415",
"oS.	c #140A09",
"pS.	c #3D3331",
"qS.	c #342C29",
"rS.	c #312C28",
"sS.	c #36332A",
"tS.	c #2E271F",
"uS.	c #413630",
"vS.	c #382D27",
"wS.	c #2E1F1A",
"xS.	c #41322B",
"yS.	c #453B31",
"zS.	c #52453C",
"AS.	c #5E4F48",
"BS.	c #422F29",
"CS.	c #48332E",
"DS.	c #482F28",
"ES.	c #3B1E18",
"FS.	c #532D2A",
"GS.	c #694340",
"HS.	c #755250",
"IS.	c #2A0806",
"JS.	c #240B07",
"KS.	c #3B1C17",
"LS.	c #43241F",
"MS.	c #4A2723",
"NS.	c #2D0503",
"OS.	c #2E0405",
"PS.	c #340809",
"QS.	c #3F1215",
"RS.	c #3F1517",
"SS.	c #3B1514",
"TS.	c #42160B",
"US.	c #5F0801",
"VS.	c #B01F22",
"WS.	c #CE232B",
"XS.	c #DB1C23",
"YS.	c #D80605",
"ZS.	c #E50601",
"`S.	c #CB0400",
" T.	c #C70702",
".T.	c #C30602",
"+T.	c #C40001",
"@T.	c #D8070A",
"#T.	c #DB0409",
"$T.	c #D90909",
"%T.	c #B50802",
"&T.	c #A60904",
"*T.	c #9E0D0A",
"=T.	c #9B0C0E",
"-T.	c #930B0D",
";T.	c #8A0A09",
">T.	c #830C08",
",T.	c #7F0C09",
"'T.	c #760B05",
")T.	c #6D0B02",
"!T.	c #660C01",
"~T.	c #641103",
"{T.	c #611306",
"]T.	c #661A0C",
"^T.	c #611809",
"/T.	c #64180A",
"(T.	c #712116",
"_T.	c #8F1E1A",
":T.	c #941816",
"<T.	c #9C1A1C",
"[T.	c #A61F23",
"}T.	c #A41B22",
"|T.	c #951015",
"1T.	c #7A0808",
"2T.	c #7B1511",
"3T.	c #72180F",
"4T.	c #741D13",
"5T.	c #78180C",
"6T.	c #780D03",
"7T.	c #9D1C16",
"8T.	c #970A01",
"9T.	c #A11106",
"0T.	c #9E0F07",
"aT.	c #A3160F",
"bT.	c #AB221C",
"cT.	c #99140F",
"dT.	c #840300",
"eT.	c #880805",
"fT.	c #840A07",
"gT.	c #9E2826",
"hT.	c #931D1B",
"iT.	c #8D1715",
"jT.	c #A32D29",
"kT.	c #A5342C",
"lT.	c #811707",
"mT.	c #851E0B",
"nT.	c #982918",
"oT.	c #A72D20",
"pT.	c #A82217",
"qT.	c #D72928",
"rT.	c #D51D1F",
"sT.	c #D6181A",
"tT.	c #D11315",
"uT.	c #C90D0C",
"vT.	c #BB0502",
"wT.	c #B00100",
"xT.	c #AF0600",
"yT.	c #B70E07",
"zT.	c #B90703",
"AT.	c #C5120E",
"BT.	c #C11410",
"CT.	c #B60F09",
"DT.	c #B00E09",
"ET.	c #AA0D06",
"FT.	c #A70A05",
"GT.	c #AD0E0A",
"HT.	c #AE0907",
"IT.	c #BA110E",
"JT.	c #C81818",
"KT.	c #CC1817",
"LT.	c #C91111",
"MT.	c #1D1113",
"NT.	c #221819",
"OT.	c #1F1B1A",
"PT.	c #110E05",
"QT.	c #0E0E04",
"RT.	c #0B0B01",
"ST.	c #080A00",
"TT.	c #0C0F04",
"UT.	c #121409",
"VT.	c #0B0D02",
"WT.	c #0A0A00",
"XT.	c #151108",
"YT.	c #493A37",
"ZT.	c #503E3C",
"`T.	c #190403",
" U.	c #140200",
".U.	c #230100",
"+U.	c #4A1D1A",
"@U.	c #5F2C29",
"#U.	c #703332",
"$U.	c #7E2C30",
"%U.	c #81282C",
"&U.	c #741F24",
"*U.	c #5F1315",
"=U.	c #4D090A",
"-U.	c #400605",
";U.	c #380605",
">U.	c #1D1111",
",U.	c #291F1D",
"'U.	c #2B211F",
")U.	c #352B29",
"!U.	c #3A322F",
"~U.	c #342D27",
"{U.	c #130F06",
"]U.	c #2D2A21",
"^U.	c #3A362D",
"/U.	c #353128",
"(U.	c #312A22",
"_U.	c #3A312A",
":U.	c #41322D",
"<U.	c #453B2F",
"[U.	c #483E34",
"}U.	c #564740",
"|U.	c #584942",
"1U.	c #47342E",
"2U.	c #4B3631",
"3U.	c #412D26",
"4U.	c #513831",
"5U.	c #58322F",
"6U.	c #59312F",
"7U.	c #886261",
"8U.	c #270B08",
"9U.	c #462722",
"0U.	c #3E1D18",
"aU.	c #361510",
"bU.	c #2C0603",
"cU.	c #320406",
"dU.	c #370609",
"eU.	c #3A0C0E",
"fU.	c #3E1617",
"gU.	c #3A1715",
"hU.	c #3E0F07",
"iU.	c #470B01",
"jU.	c #7D0D0B",
"kU.	c #AD1E20",
"lU.	c #D52A30",
"mU.	c #E11F28",
"nU.	c #DD0A13",
"oU.	c #E50909",
"pU.	c #E00000",
"qU.	c #C70200",
"rU.	c #C20702",
"sU.	c #BC0501",
"tU.	c #BC0000",
"uU.	c #D30B0D",
"vU.	c #DC0E10",
"wU.	c #E00F12",
"xU.	c #D7100D",
"yU.	c #C50C07",
"zU.	c #B10801",
"AU.	c #A20702",
"BU.	c #9B0A05",
"CU.	c #980808",
"DU.	c #900508",
"EU.	c #870D0C",
"FU.	c #800D0A",
"GU.	c #7C0F0A",
"HU.	c #78120D",
"IU.	c #74170F",
"JU.	c #6E1F12",
"KU.	c #601407",
"LU.	c #601206",
"MU.	c #66180C",
"NU.	c #6E1B13",
"OU.	c #6F1A13",
"PU.	c #73140E",
"QU.	c #8C1211",
"RU.	c #790204",
"SU.	c #6F0301",
"TU.	c #6A0903",
"UU.	c #5F0B00",
"VU.	c #6A1407",
"WU.	c #6E1006",
"XU.	c #90140C",
"YU.	c #8F0900",
"ZU.	c #980E01",
"`U.	c #990F05",
" V.	c #9B150A",
".V.	c #A11C15",
"+V.	c #95110C",
"@V.	c #860701",
"#V.	c #870A06",
"$V.	c #8D1312",
"%V.	c #850B0A",
"&V.	c #8E1411",
"*V.	c #A32926",
"=V.	c #A12C25",
"-V.	c #821808",
";V.	c #7A1100",
">V.	c #7F0E00",
",V.	c #BD1B19",
"'V.	c #CC2020",
")V.	c #CB1418",
"!V.	c #C6090D",
"~V.	c #BC0404",
"{V.	c #B10000",
"]V.	c #AB0000",
"^V.	c #B00903",
"/V.	c #BD140D",
"(V.	c #C81612",
"_V.	c #C31713",
":V.	c #AD0B06",
"<V.	c #A00000",
"[V.	c #AB0803",
"}V.	c #B20906",
"|V.	c #D41817",
"1V.	c #D11110",
"2V.	c #150C0D",
"3V.	c #261C1D",
"4V.	c #2A1E20",
"5V.	c #201617",
"6V.	c #191011",
"7V.	c #161010",
"8V.	c #14110A",
"9V.	c #111109",
"0V.	c #0A0A02",
"aV.	c #0F1008",
"bV.	c #0F0F07",
"cV.	c #4D3D3D",
"dV.	c #5F4D4D",
"eV.	c #412F2F",
"fV.	c #190707",
"gV.	c #251112",
"hV.	c #1B0708",
"iV.	c #1A0607",
"jV.	c #0F0504",
"kV.	c #200200",
"lV.	c #250301",
"mV.	c #300806",
"nV.	c #3B1210",
"oV.	c #501615",
"pV.	c #7B262B",
"qV.	c #8B2C32",
"rV.	c #8C3136",
"sV.	c #7B292D",
"tV.	c #64191D",
"uV.	c #4E0E0F",
"vV.	c #400A08",
"wV.	c #350906",
"xV.	c #1B0F0F",
"yV.	c #373028",
"zV.	c #453A34",
"AV.	c #564B45",
"BV.	c #4A3F39",
"CV.	c #352822",
"DV.	c #4C4238",
"EV.	c #3F352B",
"FV.	c #473A32",
"GV.	c #63544D",
"HV.	c #5C4B44",
"IV.	c #44312B",
"JV.	c #533831",
"KV.	c #42231E",
"LV.	c #5B3331",
"MV.	c #4D2523",
"NV.	c #8B6564",
"OV.	c #3C1917",
"PV.	c #351611",
"QV.	c #3F201B",
"RV.	c #40211E",
"SV.	c #3A1B18",
"TV.	c #270503",
"UV.	c #240300",
"VV.	c #280501",
"WV.	c #34110D",
"XV.	c #390F10",
"YV.	c #3C090E",
"ZV.	c #3F0C11",
"`V.	c #3F1114",
" W.	c #3C1415",
".W.	c #3D0100",
"+W.	c #AB1F1E",
"@W.	c #D4272B",
"#W.	c #E8202A",
"$W.	c #EB0F1B",
"%W.	c #E8010B",
"&W.	c #F60D10",
"*W.	c #E00A08",
"=W.	c #C90600",
"-W.	c #C00903",
";W.	c #B50400",
">W.	c #B20000",
",W.	c #CC0E0E",
"'W.	c #DA1617",
")W.	c #D50F0E",
"!W.	c #CC0C09",
"~W.	c #BA0903",
"{W.	c #A90500",
"]W.	c #A10802",
"^W.	c #9C0A0B",
"/W.	c #96070B",
"(W.	c #910A0E",
"_W.	c #880A0D",
":W.	c #81090A",
"<W.	c #770E0B",
"[W.	c #73120C",
"}W.	c #5C0C03",
"|W.	c #71140D",
"1W.	c #731108",
"2W.	c #780701",
"3W.	c #7D0506",
"4W.	c #7A0404",
"5W.	c #750504",
"6W.	c #6F0704",
"7W.	c #6B0C06",
"8W.	c #691105",
"9W.	c #72140A",
"0W.	c #7E0D05",
"aW.	c #8E0900",
"bW.	c #8B0500",
"cW.	c #8C0800",
"dW.	c #920F07",
"eW.	c #961915",
"fW.	c #A02422",
"gW.	c #8B0F0D",
"hW.	c #870A08",
"iW.	c #991C1A",
"jW.	c #AA2D2B",
"kW.	c #8F2316",
"lW.	c #7E1404",
"mW.	c #7B0A00",
"nW.	c #8C1004",
"oW.	c #A61D15",
"pW.	c #BF201D",
"qW.	c #C51B1B",
"rW.	c #C71316",
"sW.	c #C10A0E",
"tW.	c #B60203",
"uW.	c #AC0000",
"vW.	c #B30B08",
"wW.	c #C01712",
"xW.	c #C91A15",
"yW.	c #BF130F",
"zW.	c #B40D07",
"AW.	c #AB0801",
"BW.	c #A20000",
"CW.	c #B20904",
"DW.	c #BA0B06",
"EW.	c #C7100C",
"FW.	c #D51512",
"GW.	c #DA1413",
"HW.	c #D90F0D",
"IW.	c #2D2425",
"JW.	c #3A3132",
"KW.	c #2B2122",
"LW.	c #101008",
"MW.	c #0D0802",
"NW.	c #5B4949",
"OW.	c #4A3838",
"PW.	c #140202",
"QW.	c #130707",
"RW.	c #0F0303",
"SW.	c #1B0301",
"TW.	c #1C0000",
"UW.	c #210200",
"VW.	c #641319",
"WW.	c #7C1F27",
"XW.	c #842D33",
"YW.	c #7B2B2E",
"ZW.	c #651D20",
"`W.	c #501213",
" X.	c #420C0C",
".X.	c #270601",
"+X.	c #1A0E0E",
"@X.	c #1C1210",
"#X.	c #463D36",
"$X.	c #3C332C",
"%X.	c #5A4F49",
"&X.	c #3D3028",
"*X.	c #60514A",
"=X.	c #483730",
"-X.	c #3D2C25",
";X.	c #422B23",
">X.	c #472621",
",X.	c #492622",
"'X.	c #845C5C",
")X.	c #54312F",
"!X.	c #220300",
"~X.	c #240804",
"{X.	c #391C18",
"]X.	c #321310",
"^X.	c #36130F",
"/X.	c #3B1313",
"(X.	c #400F13",
"_X.	c #420F16",
":X.	c #3B1415",
"<X.	c #361412",
"[X.	c #450C03",
"}X.	c #4B0000",
"|X.	c #750C08",
"1X.	c #AA2320",
"2X.	c #D22C2E",
"3X.	c #E41F26",
"4X.	c #EA0C17",
"5X.	c #F20411",
"6X.	c #FC0611",
"7X.	c #FD0A0E",
"8X.	c #CC0B06",
"9X.	c #B70A04",
"0X.	c #E92D2C",
"aX.	c #E32624",
"bX.	c #BE130B",
"cX.	c #AB0A00",
"dX.	c #A20903",
"eX.	c #9D0709",
"fX.	c #940205",
"gX.	c #8B0307",
"hX.	c #810304",
"iX.	c #730C07",
"jX.	c #6F0C06",
"kX.	c #6A0D05",
"lX.	c #691008",
"mX.	c #691209",
"nX.	c #6D160D",
"oX.	c #711A11",
"pX.	c #6B100B",
"qX.	c #6A0D08",
"rX.	c #6C0D07",
"sX.	c #78160B",
"tX.	c #781003",
"uX.	c #7A0901",
"vX.	c #820F0C",
"wX.	c #841412",
"xX.	c #821915",
"yX.	c #85241D",
"zX.	c #7D2018",
"AX.	c #7A2015",
"BX.	c #802419",
"CX.	c #8A251B",
"DX.	c #8E2218",
"EX.	c #941F18",
"FX.	c #9B1F17",
"GX.	c #A72317",
"HX.	c #AA2418",
"IX.	c #B12D21",
"JX.	c #BB372B",
"KX.	c #C23F37",
"LX.	c #C4443B",
"MX.	c #C1423C",
"NX.	c #BC3F39",
"OX.	c #981B19",
"PX.	c #A22523",
"QX.	c #9C1F1D",
"RX.	c #951514",
"SX.	c #A92926",
"TX.	c #A22921",
"UX.	c #992B1E",
"VX.	c #902515",
"WX.	c #922113",
"XX.	c #A0241A",
"YX.	c #B02721",
"ZX.	c #B82420",
"`X.	c #BE201F",
" Y.	c #C41E1E",
".Y.	c #CF2224",
"+Y.	c #C81A1B",
"@Y.	c #BF0F12",
"#Y.	c #B60809",
"$Y.	c #B00404",
"%Y.	c #AD0502",
"&Y.	c #B30E0C",
"*Y.	c #BF1714",
"=Y.	c #C0130F",
"-Y.	c #C0130D",
";Y.	c #B40B06",
">Y.	c #A90400",
",Y.	c #A80500",
"'Y.	c #A40100",
")Y.	c #A80100",
"!Y.	c #B60903",
"~Y.	c #C50F0B",
"{Y.	c #1C1817",
"]Y.	c #32292A",
"^Y.	c #2F2627",
"/Y.	c #1C1213",
"(Y.	c #0B0A05",
"_Y.	c #0E0E06",
":Y.	c #594745",
"<Y.	c #281517",
"[Y.	c #200D0F",
"}Y.	c #1D0A0C",
"|Y.	c #100001",
"1Y.	c #0F0101",
"2Y.	c #4C070C",
"3Y.	c #5E0F15",
"4Y.	c #62171C",
"5Y.	c #5A1518",
"6Y.	c #4B0D10",
"7Y.	c #3E0808",
"8Y.	c #320404",
"9Y.	c #2A0403",
"0Y.	c #1E1311",
"aY.	c #463B35",
"bY.	c #4F443E",
"cY.	c #493E38",
"dY.	c #463730",
"eY.	c #4D3E37",
"fY.	c #43342D",
"gY.	c #48352E",
"hY.	c #4B2E26",
"iY.	c #4E2B25",
"jY.	c #4A251F",
"kY.	c #532A28",
"lY.	c #764E4C",
"mY.	c #704A47",
"nY.	c #270504",
"oY.	c #290706",
"pY.	c #2D0B09",
"qY.	c #3A1413",
"rY.	c #380E12",
"sY.	c #3C0F14",
"tY.	c #560903",
"uY.	c #760F0A",
"vY.	c #A31D1C",
"wY.	c #CC2829",
"xY.	c #E12025",
"yY.	c #E70E16",
"zY.	c #F0040E",
"AY.	c #FA030C",
"BY.	c #FF050E",
"CY.	c #FF040B",
"DY.	c #CB0B08",
"EY.	c #C2110B",
"FY.	c #DA2C2B",
"GY.	c #F54140",
"HY.	c #F6403D",
"IY.	c #E4322E",
"JY.	c #C51E16",
"KY.	c #AD0F06",
"LY.	c #9F0608",
"MY.	c #970005",
"NY.	c #900405",
"OY.	c #8D0708",
"PY.	c #8C0A0A",
"QY.	c #8B0D0E",
"RY.	c #83130F",
"SY.	c #80150F",
"TY.	c #7C170F",
"UY.	c #791B13",
"VY.	c #7F2119",
"WY.	c #771610",
"XY.	c #7F1A12",
"YY.	c #871F12",
"ZY.	c #8A1F0F",
"`Y.	c #8F1F13",
" Z.	c #941F15",
".Z.	c #972018",
"+Z.	c #97201A",
"@Z.	c #921F1A",
"#Z.	c #8E1F18",
"$Z.	c #8A2219",
"%Z.	c #8E271E",
"&Z.	c #8C2419",
"*Z.	c #8F2015",
"=Z.	c #9E150B",
"-Z.	c #A2180D",
";Z.	c #AF261C",
">Z.	c #BD372C",
",Z.	c #C23D36",
"'Z.	c #B83732",
")Z.	c #AA2B25",
"!Z.	c #8D100C",
"~Z.	c #A62925",
"{Z.	c #A12420",
"]Z.	c #961613",
"^Z.	c #8E150D",
"/Z.	c #891B0E",
"(Z.	c #952016",
"_Z.	c #A51B18",
":Z.	c #A51411",
"<Z.	c #A90F0F",
"[Z.	c #AE0E0E",
"}Z.	c #BB1718",
"|Z.	c #B00A0C",
"1Z.	c #AF0909",
"2Z.	c #B00A0A",
"3Z.	c #B00C0A",
"4Z.	c #B61211",
"5Z.	c #C61D18",
"6Z.	c #C81F1A",
"7Z.	c #BC150F",
"8Z.	c #AF0C05",
"9Z.	c #AE0D05",
"0Z.	c #AE0B04",
"aZ.	c #AE0500",
"bZ.	c #B70600",
"cZ.	c #D40E0B",
"dZ.	c #DE0E0A",
"eZ.	c #1E1A19",
"fZ.	c #241E1E",
"gZ.	c #0E0D09",
"hZ.	c #0D0C07",
"iZ.	c #3F2D2B",
"jZ.	c #5A4645",
"kZ.	c #4E3A3B",
"lZ.	c #1A0709",
"mZ.	c #170708",
"nZ.	c #120203",
"oZ.	c #150707",
"pZ.	c #0E0202",
"qZ.	c #0D0101",
"rZ.	c #0A0001",
"sZ.	c #0A0104",
"tZ.	c #0B0507",
"uZ.	c #0B0102",
"vZ.	c #350306",
"wZ.	c #3F0209",
"xZ.	c #3B0208",
"yZ.	c #320002",
"zZ.	c #2C0000",
"AZ.	c #210000",
"BZ.	c #1A0F0D",
"CZ.	c #40352F",
"DZ.	c #44362B",
"EZ.	c #594B40",
"FZ.	c #56483F",
"GZ.	c #523730",
"HZ.	c #4E3028",
"IZ.	c #4A231E",
"JZ.	c #502423",
"KZ.	c #6B4240",
"LZ.	c #7E5855",
"MZ.	c #2A0B06",
"NZ.	c #220000",
"OZ.	c #240201",
"PZ.	c #2B0908",
"QZ.	c #32100F",
"RZ.	c #310A0D",
"SZ.	c #350E11",
"TZ.	c #3F140E",
"UZ.	c #460F08",
"VZ.	c #560B05",
"WZ.	c #680500",
"XZ.	c #AA2624",
"YZ.	c #C9292B",
"ZZ.	c #DD2024",
"`Z.	c #DF0A10",
" `.	c #E70006",
".`.	c #F9060C",
"+`.	c #FF0208",
"@`.	c #EB0507",
"#`.	c #C60907",
"$`.	c #B90C06",
"%`.	c #AA0803",
"&`.	c #A80905",
"*`.	c #CE2927",
"=`.	c #EB3F3D",
"-`.	c #EB3C39",
";`.	c #D92D29",
">`.	c #BB1811",
",`.	c #A60900",
"'`.	c #A00902",
")`.	c #A70F0C",
"!`.	c #AB1113",
"~`.	c #A80F12",
"{`.	c #8C0200",
"]`.	c #8C0404",
"^`.	c #8B0705",
"/`.	c #840703",
"(`.	c #7E0701",
"_`.	c #750D04",
":`.	c #781108",
"<`.	c #7C170D",
"[`.	c #7F1811",
"}`.	c #821B14",
"|`.	c #8F2821",
"1`.	c #9F342A",
"2`.	c #8F1F11",
"3`.	c #992614",
"4`.	c #A62E20",
"5`.	c #AD3326",
"6`.	c #AD3127",
"7`.	c #A5291F",
"8`.	c #961B13",
"9`.	c #881109",
"0`.	c #8C170E",
"a`.	c #97251B",
"b`.	c #9B291E",
"c`.	c #91160E",
"d`.	c #97180F",
"e`.	c #9F1A13",
"f`.	c #A61910",
"g`.	c #A3160D",
"h`.	c #AC231D",
"i`.	c #AE2924",
"j`.	c #AC2824",
"k`.	c #9E1D18",
"l`.	c #90100D",
"m`.	c #90130F",
"n`.	c #B43733",
"o`.	c #AF322E",
"p`.	c #951814",
"q`.	c #931612",
"r`.	c #8D160E",
"s`.	c #82160A",
"t`.	c #83190B",
"u`.	c #8F1A10",
"v`.	c #971B13",
"w`.	c #9D1612",
"x`.	c #9E0E0D",
"y`.	c #9F090A",
"z`.	c #A20808",
"A`.	c #9E0203",
"B`.	c #9A0000",
"C`.	c #9B0000",
"D`.	c #A20705",
"E`.	c #AC0E0D",
"F`.	c #B61616",
"G`.	c #BC1A18",
"H`.	c #B5100C",
"I`.	c #BD1812",
"J`.	c #BA1710",
"K`.	c #B91810",
"L`.	c #C6251D",
"M`.	c #D22F28",
"N`.	c #D72E27",
"O`.	c #DF2C27",
"P`.	c #CD100A",
"Q`.	c #D60C08",
"R`.	c #11100B",
"S`.	c #513D3E",
"T`.	c #291516",
"U`.	c #190608",
"V`.	c #18080B",
"W`.	c #150508",
"X`.	c #0F0003",
"Y`.	c #110507",
"Z`.	c #070001",
"``.	c #050003",
"  +	c #040003",
". +	c #1F0000",
"+ +	c #1E0000",
"@ +	c #160000",
"# +	c #050304",
"$ +	c #2F2420",
"% +	c #413632",
"& +	c #453A36",
"* +	c #504541",
"= +	c #53423A",
"- +	c #4D3C34",
"; +	c #3C2922",
"> +	c #3B2822",
", +	c #43302A",
"' +	c #4A362F",
") +	c #4F322C",
"! +	c #502B25",
"~ +	c #532C27",
"{ +	c #5B2F2C",
"] +	c #4C201D",
"^ +	c #502725",
"/ +	c #86605D",
"( +	c #44231E",
"_ +	c #250302",
": +	c #280607",
"< +	c #3E1C1D",
"[ +	c #371514",
"} +	c #2F100E",
"| +	c #440D08",
"1 +	c #981817",
"2 +	c #C72729",
"3 +	c #D41A1F",
"4 +	c #E00D13",
"5 +	c #EA080C",
"6 +	c #F90001",
"7 +	c #FF0507",
"8 +	c #F00003",
"9 +	c #E7080B",
"0 +	c #DD0F0F",
"a +	c #BE1711",
"b +	c #A10904",
"c +	c #B91110",
"d +	c #BE1613",
"e +	c #B71812",
"f +	c #A91008",
"g +	c #A10C06",
"h +	c #A40E0D",
"i +	c #A60B0F",
"j +	c #900000",
"k +	c #8E0000",
"l +	c #900500",
"m +	c #8D0904",
"n +	c #860A02",
"o +	c #880F06",
"p +	c #89170C",
"q +	c #912116",
"r +	c #861A0E",
"s +	c #85190D",
"t +	c #891D13",
"u +	c #911F14",
"v +	c #8E1504",
"w +	c #9C1D0A",
"x +	c #AD2B1B",
"y +	c #BA3629",
"z +	c #B52F24",
"A +	c #A9241B",
"B +	c #9F1C12",
"C +	c #AB2B22",
"D +	c #B13128",
"E +	c #A52218",
"F +	c #B0261C",
"G +	c #BD2E26",
"H +	c #BC2C24",
"I +	c #C33029",
"J +	c #BC2922",
"K +	c #B3221D",
"L +	c #AC1D19",
"M +	c #A41916",
"N +	c #9C1512",
"O +	c #9C1613",
"P +	c #870706",
"Q +	c #9A1E1C",
"R +	c #AE3431",
"S +	c #AD332E",
"T +	c #951E18",
"U +	c #83190C",
"V +	c #851D10",
"W +	c #AB3029",
"X +	c #B5312D",
"Y +	c #B42827",
"Z +	c #B02020",
"` +	c #AF1D1D",
" .+	c #A61212",
"..+	c #9E0C0C",
"+.+	c #A81412",
"@.+	c #A60C0C",
"#.+	c #AE100F",
"$.+	c #AE110A",
"%.+	c #B41710",
"&.+	c #C92820",
"*.+	c #E63D36",
"=.+	c #FF4D48",
"-.+	c #E72722",
";.+	c #E31A13",
">.+	c #DD0000",
",.+	c #E70700",
"'.+	c #0E0B06",
").+	c #574545",
"!.+	c #422E2F",
"~.+	c #17080B",
"{.+	c #140508",
"].+	c #0C0002",
"^.+	c #0B0001",
"/.+	c #040001",
"(.+	c #040005",
"_.+	c #050004",
":.+	c #0E0002",
"<.+	c #070304",
"[.+	c #040203",
"}.+	c #030303",
"|.+	c #030305",
"1.+	c #040406",
"2.+	c #050306",
"3.+	c #160D0E",
"4.+	c #1F1313",
"5.+	c #281818",
"6.+	c #534844",
"7.+	c #45322B",
"8.+	c #4E3A33",
"9.+	c #38231E",
"0.+	c #422D28",
"a.+	c #4E3731",
"b.+	c #50312C",
"c.+	c #4F2C26",
"d.+	c #57302B",
"e.+	c #552825",
"f.+	c #4B1F1E",
"g.+	c #815957",
"h.+	c #512E2A",
"i.+	c #240500",
"j.+	c #2A0809",
"k.+	c #321011",
"l.+	c #381617",
"m.+	c #3D1A1E",
"n.+	c #2F0D0C",
"o.+	c #31100B",
"p.+	c #420B06",
"q.+	c #6D0907",
"r.+	c #9A1A19",
"s.+	c #C12528",
"t.+	c #DF1016",
"u.+	c #E9080E",
"v.+	c #FC0607",
"w.+	c #E30D0F",
"x.+	c #D81012",
"y.+	c #B41511",
"z.+	c #980905",
"A.+	c #A00A09",
"B.+	c #AA0708",
"C.+	c #AD0E0B",
"D.+	c #9E0B03",
"E.+	c #970601",
"F.+	c #9B0707",
"G.+	c #A50C11",
"H.+	c #AB1215",
"I.+	c #AC1B18",
"J.+	c #A91C15",
"K.+	c #A81D16",
"L.+	c #A82219",
"M.+	c #A6211A",
"N.+	c #9D1D14",
"O.+	c #95190F",
"P.+	c #92190E",
"Q.+	c #901B11",
"R.+	c #8D1B10",
"S.+	c #8F1D13",
"T.+	c #941E12",
"U.+	c #A32413",
"V.+	c #A5200D",
"W.+	c #A51D0D",
"X.+	c #A3190C",
"Y.+	c #A41A0F",
"Z.+	c #A61C12",
"`.+	c #A61D13",
" ++	c #9C130B",
".++	c #A61B14",
"+++	c #A1160F",
"@++	c #9F1209",
"#++	c #A3130B",
"$++	c #A5120A",
"%++	c #9D0A03",
"&++	c #9D0905",
"*++	c #A81A18",
"=++	c #A81E1C",
"-++	c #A01A19",
";++	c #971311",
">++	c #8F0F0E",
",++	c #830705",
"'++	c #7E0401",
")++	c #8A1410",
"!++	c #88120E",
"~++	c #88150E",
"{++	c #82130A",
"]++	c #8B2519",
"^++	c #96271C",
"/++	c #A02921",
"(++	c #A11A17",
"_++	c #9A100E",
":++	c #8F0906",
"<++	c #97100C",
"[++	c #9E1211",
"}++	c #9F0F0E",
"|++	c #A50F11",
"1++	c #AC1413",
"2++	c #AB100E",
"3++	c #AB100B",
"4++	c #A80F09",
"5++	c #A50C04",
"6++	c #A60C04",
"7++	c #C61F19",
"8++	c #D82721",
"9++	c #D71A14",
"0++	c #EC221E",
"a++	c #F92521",
"b++	c #F41913",
"c++	c #3A2A2A",
"d++	c #554343",
"e++	c #301C1D",
"f++	c #150609",
"g++	c #12060A",
"h++	c #0F0307",
"i++	c #0A0003",
"j++	c #050102",
"k++	c #030102",
"l++	c #020001",
"m++	c #020003",
"n++	c #020005",
"o++	c #030104",
"p++	c #010204",
"q++	c #000304",
"r++	c #000203",
"s++	c #010506",
"t++	c #030406",
"u++	c #020305",
"v++	c #020307",
"w++	c #030408",
"x++	c #1C1412",
"y++	c #2D1F1C",
"z++	c #4E433F",
"A++	c #47302A",
"B++	c #472E29",
"C++	c #402722",
"D++	c #3E2521",
"E++	c #4A312D",
"F++	c #4F332F",
"G++	c #41231B",
"H++	c #522721",
"I++	c #562624",
"J++	c #522220",
"K++	c #461A17",
"L++	c #754E49",
"M++	c #603D39",
"N++	c #351A13",
"O++	c #260903",
"P++	c #2F0F10",
"Q++	c #361619",
"R++	c #3C1C1F",
"S++	c #39161C",
"T++	c #351216",
"U++	c #310F10",
"V++	c #310E0C",
"W++	c #490000",
"X++	c #670502",
"Y++	c #961819",
"Z++	c #BE2426",
"`++	c #D52025",
" @+	c #DE1317",
".@+	c #E80B10",
"+@+	c #EE0509",
"@@+	c #F2080B",
"#@+	c #EE0C0E",
"$@+	c #E81011",
"%@+	c #DD1112",
"&@+	c #CB0F0E",
"*@+	c #B40F0D",
"=@+	c #950B08",
"-@+	c #8D0603",
";@+	c #910302",
">@+	c #980404",
",@+	c #9C0204",
"'@+	c #9D0504",
")@+	c #9A0904",
"!@+	c #940902",
"~@+	c #8D0300",
"{@+	c #8D0100",
"]@+	c #9B080E",
"^@+	c #A71518",
"/@+	c #AB1D19",
"(@+	c #9E1B11",
"_@+	c #9B1B10",
":@+	c #961A0E",
"<@+	c #941A0D",
"[@+	c #951C11",
"}@+	c #911B0F",
"|@+	c #8F190D",
"1@+	c #8C180B",
"2@+	c #8A1609",
"3@+	c #881709",
"4@+	c #8A150B",
"5@+	c #A52210",
"6@+	c #A61D0B",
"7@+	c #A71B0C",
"8@+	c #A71B0E",
"9@+	c #A81B11",
"0@+	c #A91C13",
"a@+	c #A81E14",
"b@+	c #9D120B",
"c@+	c #9C110A",
"d@+	c #AF221B",
"e@+	c #B92A22",
"f@+	c #BA2B23",
"g@+	c #BA2A22",
"h@+	c #B82921",
"i@+	c #C23430",
"j@+	c #BD322F",
"k@+	c #BF3532",
"l@+	c #C23B38",
"m@+	c #BD3937",
"n@+	c #A82827",
"o@+	c #7D0302",
"p@+	c #83120E",
"q@+	c #83140D",
"r@+	c #85160F",
"s@+	c #9C2F28",
"t@+	c #983025",
"u@+	c #963427",
"v@+	c #9F3329",
"w@+	c #A7322B",
"x@+	c #AA2D29",
"y@+	c #AB2927",
"z@+	c #AF2B29",
"A@+	c #B12F2D",
"B@+	c #981B17",
"C@+	c #8D120B",
"D@+	c #8B1009",
"E@+	c #93110F",
"F@+	c #97100D",
"G@+	c #9E0D10",
"H@+	c #A51111",
"I@+	c #A8130D",
"J@+	c #A6110B",
"K@+	c #A30E07",
"L@+	c #A40D06",
"M@+	c #B31009",
"N@+	c #BD100A",
"O@+	c #D01510",
"P@+	c #DE1815",
"Q@+	c #EC1C18",
"R@+	c #F31C17",
"S@+	c #F1140C",
"T@+	c #483A39",
"U@+	c #0F0305",
"V@+	c #0D0206",
"W@+	c #0B0004",
"X@+	c #080405",
"Y@+	c #010101",
"Z@+	c #020401",
"`@+	c #000400",
" #+	c #000504",
".#+	c #000506",
"+#+	c #000405",
"@#+	c #000305",
"##+	c #000403",
"$#+	c #000508",
"%#+	c #000505",
"&#+	c #000407",
"*#+	c #010206",
"=#+	c #120202",
"-#+	c #100000",
";#+	c #140404",
">#+	c #25170C",
",#+	c #342017",
"'#+	c #402921",
")#+	c #4F3631",
"!#+	c #402420",
"~#+	c #3E211D",
"{#+	c #452725",
"]#+	c #3D211E",
"^#+	c #3A1D19",
"/#+	c #4A211B",
"(#+	c #4E211C",
"_#+	c #5C2A29",
":#+	c #623230",
"<#+	c #633A36",
"[#+	c #6A4743",
"}#+	c #280B03",
"|#+	c #311112",
"1#+	c #331316",
"2#+	c #341419",
"3#+	c #36161B",
"4#+	c #331016",
"5#+	c #310E14",
"6#+	c #2F0C10",
"7#+	c #2F0801",
"8#+	c #3A0F08",
"9#+	c #640503",
"0#+	c #931719",
"a#+	c #BE282A",
"b#+	c #D21F25",
"c#+	c #D40D12",
"d#+	c #E81015",
"e#+	c #D10F0F",
"f#+	c #B80808",
"g#+	c #8F0502",
"h#+	c #820503",
"i#+	c #850001",
"j#+	c #950505",
"k#+	c #940403",
"l#+	c #890503",
"m#+	c #8E060A",
"n#+	c #AC2722",
"o#+	c #A01D13",
"p#+	c #8C0C01",
"q#+	c #8B1106",
"r#+	c #90160B",
"s#+	c #8C160C",
"t#+	c #8D170D",
"u#+	c #8E190F",
"v#+	c #921D13",
"w#+	c #952318",
"x#+	c #99271D",
"y#+	c #A0271C",
"z#+	c #B02C1D",
"A#+	c #B62F1C",
"B#+	c #BA3526",
"C#+	c #B93327",
"D#+	c #AF2920",
"E#+	c #AB251C",
"F#+	c #AF2822",
"G#+	c #AD2620",
"H#+	c #AF2620",
"I#+	c #B42B25",
"J#+	c #B7302A",
"K#+	c #B73128",
"L#+	c #B12B22",
"M#+	c #AB261F",
"N#+	c #AC2B25",
"O#+	c #A72822",
"P#+	c #A52A25",
"Q#+	c #A02623",
"R#+	c #7C0906",
"S#+	c #740704",
"T#+	c #780C09",
"U#+	c #801411",
"V#+	c #811812",
"W#+	c #912A21",
"X#+	c #882A1E",
"Y#+	c #8B2E1F",
"Z#+	c #952D22",
"`#+	c #9E2D25",
" $+	c #AE312D",
".$+	c #B53937",
"+$+	c #BB413C",
"@$+	c #A12E29",
"#$+	c #94251C",
"$$+	c #8C1D16",
"%$+	c #8F1E16",
"&$+	c #97201C",
"*$+	c #9F1F1C",
"=$+	c #A61E20",
"-$+	c #AE201F",
";$+	c #AF1F1E",
">$+	c #AD1E18",
",$+	c #AB1C16",
"'$+	c #AA1B13",
")$+	c #AB1B13",
"!$+	c #B01912",
"~$+	c #B51610",
"{$+	c #BB120D",
"]$+	c #F11A15",
"^$+	c #201615",
"/$+	c #403434",
"($+	c #392B2B",
"_$+	c #160607",
":$+	c #160808",
"<$+	c #0F0506",
"[$+	c #060405",
"}$+	c #050505",
"|$+	c #020403",
"1$+	c #000501",
"2$+	c #000404",
"3$+	c #000402",
"4$+	c #010302",
"5$+	c #120606",
"6$+	c #211111",
"7$+	c #302221",
"8$+	c #201513",
"9$+	c #3F3533",
"0$+	c #312016",
"a$+	c #3C2A20",
"b$+	c #422E25",
"c$+	c #473028",
"d$+	c #4E322E",
"e$+	c #4E2F2C",
"f$+	c #4A2B28",
"g$+	c #401E1D",
"h$+	c #381615",
"i$+	c #2C0701",
"j$+	c #421510",
"k$+	c #592824",
"l$+	c #683733",
"m$+	c #73504A",
"n$+	c #2E1010",
"o$+	c #301015",
"p$+	c #300F16",
"q$+	c #300D14",
"r$+	c #2F0C12",
"s$+	c #300C10",
"t$+	c #320B0E",
"u$+	c #320B0C",
"v$+	c #340701",
"w$+	c #440702",
"x$+	c #510200",
"y$+	c #690505",
"z$+	c #901416",
"A$+	c #BB2227",
"B$+	c #D32228",
"C$+	c #DC070D",
"D$+	c #EA0B0E",
"E$+	c #D7110E",
"F$+	c #BE0B07",
"G$+	c #A20300",
"H$+	c #880000",
"I$+	c #7B0000",
"J$+	c #770705",
"K$+	c #8A0403",
"L$+	c #870A04",
"M$+	c #8F160E",
"N$+	c #8D1811",
"O$+	c #87100C",
"P$+	c #84080A",
"Q$+	c #9A1F18",
"R$+	c #971E15",
"S$+	c #981F16",
"T$+	c #9A2118",
"U$+	c #992017",
"V$+	c #982218",
"W$+	c #9C251D",
"X$+	c #A32C24",
"Y$+	c #98231A",
"Z$+	c #942218",
"`$+	c #921F18",
" %+	c #901F17",
".%+	c #912018",
"+%+	c #93221A",
"@%+	c #97261E",
"#%+	c #9C271E",
"$%+	c #A82A1C",
"%%+	c #A8291A",
"&%+	c #A52719",
"*%+	c #9F2415",
"=%+	c #9A2013",
"-%+	c #961C11",
";%+	c #931810",
">%+	c #91160F",
",%+	c #971A16",
"'%+	c #991C18",
")%+	c #8C110C",
"!%+	c #8A100B",
"~%+	c #8B140C",
"{%+	c #860F07",
"]%+	c #7A0800",
"^%+	c #790A01",
"/%+	c #740901",
"(%+	c #740D06",
"_%+	c #700904",
":%+	c #6E0803",
"<%+	c #6D0A05",
"[%+	c #640100",
"}%+	c #7C1611",
"|%+	c #6B0900",
"1%+	c #6D1406",
"2%+	c #781309",
"3%+	c #7E110A",
"4%+	c #8D1612",
"5%+	c #921C1A",
"6%+	c #93221C",
"7%+	c #881F19",
"8%+	c #78160D",
"9%+	c #7D160D",
"0%+	c #891915",
"a%+	c #941D19",
"b%+	c #9F1D1F",
"c%+	c #A61E1E",
"d%+	c #AE2221",
"e%+	c #AB201B",
"f%+	c #A91E19",
"g%+	c #AA1D16",
"h%+	c #AC1B16",
"i%+	c #B01712",
"j%+	c #CA0E0C",
"k%+	c #D71110",
"l%+	c #E31613",
"m%+	c #1B1714",
"n%+	c #2A201F",
"o%+	c #1E1212",
"p%+	c #1B0F11",
"q%+	c #0C0809",
"r%+	c #090506",
"s%+	c #070506",
"t%+	c #000503",
"u%+	c #010602",
"v%+	c #050706",
"w%+	c #040605",
"x%+	c #040603",
"y%+	c #251D1A",
"z%+	c #3D2B21",
"A%+	c #432F26",
"B%+	c #523932",
"C%+	c #4A2D29",
"D%+	c #4B2927",
"E%+	c #452220",
"F%+	c #2E0A0A",
"G%+	c #340D0E",
"H%+	c #320E0E",
"I%+	c #330F0F",
"J%+	c #300701",
"K%+	c #330802",
"L%+	c #3A0A06",
"M%+	c #4B1A16",
"N%+	c #5B2A26",
"O%+	c #4E1E1C",
"P%+	c #411512",
"Q%+	c #78534D",
"R%+	c #220500",
"S%+	c #230704",
"T%+	c #280A0C",
"U%+	c #2D0C13",
"V%+	c #320D14",
"W%+	c #340C14",
"X%+	c #340D10",
"Y%+	c #330C0D",
"Z%+	c #340D08",
"`%+	c #3E0905",
" &+	c #6A0304",
".&+	c #8E1115",
"+&+	c #B01B21",
"@&+	c #C61620",
"#&+	c #D20F17",
"$&+	c #E00A12",
"%&+	c #E60406",
"&&+	c #FF0406",
"*&+	c #EC0C0C",
"=&+	c #CB0E08",
"-&+	c #AC0500",
";&+	c #920100",
">&+	c #6F0904",
",&+	c #710B07",
"'&+	c #7F080A",
")&+	c #820405",
"!&+	c #7F0301",
"~&+	c #871C14",
"{&+	c #841913",
"]&+	c #800E0E",
"^&+	c #7B0908",
"/&+	c #750400",
"(&+	c #800F07",
"_&+	c #9F2E26",
":&+	c #A13028",
"<&+	c #9C2922",
"[&+	c #97241F",
"}&+	c #901F19",
"|&+	c #8C1B15",
"1&+	c #861612",
"2&+	c #80100C",
"3&+	c #7B0E09",
"4&+	c #820C02",
"5&+	c #810B00",
"6&+	c #7F0B00",
"7&+	c #7B0900",
"8&+	c #720100",
"9&+	c #740300",
"0&+	c #6A0000",
"a&+	c #730A04",
"b&+	c #730E06",
"c&+	c #6A0A00",
"d&+	c #6C1406",
"e&+	c #6C1408",
"f&+	c #6C140A",
"g&+	c #691107",
"h&+	c #660D07",
"i&+	c #6D100B",
"j&+	c #781915",
"k&+	c #7C1B15",
"l&+	c #74110C",
"m&+	c #670500",
"n&+	c #690900",
"o&+	c #6E0600",
"p&+	c #780D07",
"q&+	c #670B00",
"r&+	c #670900",
"s&+	c #6F0801",
"t&+	c #790804",
"u&+	c #830506",
"v&+	c #8A0506",
"w&+	c #940D0A",
"x&+	c #940D09",
"y&+	c #9B120C",
"z&+	c #A0120E",
"A&+	c #BF1311",
"B&+	c #CD1716",
"C&+	c #DB1919",
"D&+	c #E21713",
"E&+	c #1A1112",
"F&+	c #1D1815",
"G&+	c #100404",
"H&+	c #1A1011",
"I&+	c #130D0F",
"J&+	c #0C070B",
"K&+	c #070508",
"L&+	c #060608",
"M&+	c #050507",
"N&+	c #000002",
"O&+	c #020204",
"P&+	c #010200",
"Q&+	c #020605",
"R&+	c #211916",
"S&+	c #3D261E",
"T&+	c #432421",
"U&+	c #421F1D",
"V&+	c #3F1918",
"W&+	c #350E0F",
"X&+	c #3E1718",
"Y&+	c #492322",
"Z&+	c #401711",
"`&+	c #400F0B",
" *+	c #491814",
".*+	c #3E120F",
"+*+	c #6C4741",
"@*+	c #52312A",
"#*+	c #1D0200",
"$*+	c #200300",
"%*+	c #220605",
"&*+	c #26080A",
"**+	c #2B0A11",
"=*+	c #2E0D14",
"-*+	c #450A06",
";*+	c #610103",
">*+	c #8C0F15",
",*+	c #B01D25",
"'*+	c #C31922",
")*+	c #CF0D18",
"!*+	c #DB0713",
"~*+	c #E70A13",
"{*+	c #EF0D11",
"]*+	c #E40203",
"^*+	c #E60501",
"/*+	c #F80003",
"(*+	c #E90E0C",
"_*+	c #C30C06",
":*+	c #9F0200",
"<*+	c #890400",
"[*+	c #720D05",
"}*+	c #6C120A",
"|*+	c #6E110C",
"1*+	c #750D0E",
"2*+	c #7C0E0F",
"3*+	c #7C0606",
"4*+	c #7B0805",
"5*+	c #780B04",
"6*+	c #79170E",
"7*+	c #7C1B14",
"8*+	c #7D1512",
"9*+	c #79100D",
"0*+	c #720905",
"a*+	c #780F09",
"b*+	c #7C0F0C",
"c*+	c #6F0200",
"d*+	c #6B0200",
"e*+	c #710908",
"f*+	c #700400",
"g*+	c #720800",
"h*+	c #730D01",
"i*+	c #711007",
"j*+	c #700D08",
"k*+	c #791311",
"l*+	c #740E0C",
"m*+	c #6B0705",
"n*+	c #660904",
"o*+	c #670E08",
"p*+	c #640F08",
"q*+	c #601005",
"r*+	c #5B1201",
"s*+	c #560F00",
"t*+	c #560E00",
"u*+	c #591102",
"v*+	c #5A1204",
"w*+	c #580B01",
"x*+	c #64110B",
"y*+	c #6C130D",
"z*+	c #73160F",
"A*+	c #6E0D07",
"B*+	c #720C07",
"C*+	c #6F0E05",
"D*+	c #671104",
"E*+	c #661305",
"F*+	c #6B0D03",
"G*+	c #700B03",
"H*+	c #6E1109",
"I*+	c #6C150B",
"J*+	c #6B170C",
"K*+	c #6B1309",
"L*+	c #730603",
"M*+	c #800001",
"N*+	c #830000",
"O*+	c #8A0601",
"P*+	c #8E0904",
"Q*+	c #9C0806",
"R*+	c #A40605",
"S*+	c #B8100F",
"T*+	c #C61414",
"U*+	c #D01212",
"V*+	c #D20E0F",
"W*+	c #373131",
"X*+	c #2C2626",
"Y*+	c #1E1A17",
"Z*+	c #100A0C",
"`*+	c #090408",
" =+	c #040205",
".=+	c #000103",
"+=+	c #010103",
"@=+	c #000201",
"#=+	c #1B1112",
"$=+	c #2A201E",
"%=+	c #322014",
"&=+	c #382419",
"*=+	c #422922",
"==+	c #512929",
"-=+	c #492223",
";=+	c #4C2526",
">=+	c #502C2C",
",=+	c #351614",
"'=+	c #331412",
")=+	c #3E0B08",
"!=+	c #420C0A",
"~=+	c #592623",
"{=+	c #613630",
"]=+	c #5C372F",
"^=+	c #1F0300",
"/=+	c #1E0A00",
"(=+	c #210E00",
"_=+	c #2A0A0B",
":=+	c #2B080C",
"<=+	c #2A070E",
"[=+	c #2F0C13",
"}=+	c #300C0E",
"|=+	c #330B0B",
"1=+	c #380808",
"2=+	c #3E0605",
"3=+	c #440704",
"4=+	c #560200",
"5=+	c #890E11",
"6=+	c #B21D23",
"7=+	c #C8272F",
"8=+	c #CB1D26",
"9=+	c #D41620",
"0=+	c #E41B23",
"a=+	c #E9181D",
"b=+	c #E30B0C",
"c=+	c #E20705",
"d=+	c #EB0D0C",
"e=+	c #C40904",
"f=+	c #9D0000",
"g=+	c #8B0600",
"h=+	c #820D04",
"i=+	c #7C140B",
"j=+	c #70110D",
"k=+	c #7B0F0F",
"l=+	c #7F0F0D",
"m=+	c #720B04",
"n=+	c #78170E",
"o=+	c #730D09",
"p=+	c #76100C",
"q=+	c #74100E",
"r=+	c #6F0B0B",
"s=+	c #6C0808",
"t=+	c #670504",
"u=+	c #670506",
"v=+	c #650604",
"w=+	c #660403",
"x=+	c #630402",
"y=+	c #620203",
"z=+	c #640200",
"A=+	c #690801",
"B=+	c #630500",
"C=+	c #610400",
"D=+	c #69100A",
"E=+	c #731815",
"F=+	c #650A07",
"G=+	c #5D0201",
"H=+	c #60110A",
"I=+	c #5F120A",
"J=+	c #60170E",
"K=+	c #632010",
"L=+	c #5A1907",
"M=+	c #561303",
"N=+	c #591606",
"O=+	c #5B150B",
"P=+	c #590F06",
"Q=+	c #580B03",
"R=+	c #6F140F",
"S=+	c #6A0B07",
"T=+	c #680603",
"U=+	c #6F0C07",
"V=+	c #691208",
"W=+	c #671006",
"X=+	c #670A02",
"Y=+	c #680600",
"Z=+	c #740B05",
"`=+	c #6F0A02",
" -+	c #640300",
".-+	c #671308",
"+-+	c #6A180C",
"@-+	c #6C0E06",
"#-+	c #750302",
"$-+	c #790100",
"%-+	c #850600",
"&-+	c #880903",
"*-+	c #8A0B05",
"=-+	c #8B0401",
"--+	c #930000",
";-+	c #9F0304",
">-+	c #C61618",
",-+	c #C70F0F",
"'-+	c #CF0E0F",
")-+	c #251F1F",
"!-+	c #060407",
"~-+	c #000302",
"{-+	c #080307",
"]-+	c #120C0E",
"^-+	c #150F0F",
"/-+	c #160D10",
"(-+	c #190F10",
"_-+	c #100605",
":-+	c #2F190E",
"<-+	c #33170C",
"[-+	c #3D1C13",
"}-+	c #43201A",
"|-+	c #3C1510",
"1-+	c #562A29",
"2-+	c #623637",
"3-+	c #4D2525",
"4-+	c #1F0504",
"5-+	c #150000",
"6-+	c #150300",
"7-+	c #401A19",
"8-+	c #471413",
"9-+	c #440A09",
"0-+	c #612524",
"a-+	c #470D0B",
"b-+	c #5A251F",
"c-+	c #6E3F37",
"d-+	c #2B0500",
"e-+	c #1C0300",
"f-+	c #1D0F02",
"g-+	c #201303",
"h-+	c #35080D",
"i-+	c #3A0B13",
"j-+	c #350A14",
"k-+	c #2D0810",
"l-+	c #2E0F14",
"m-+	c #2A0E0D",
"n-+	c #6C0604",
"o-+	c #951718",
"p-+	c #BF1E23",
"q-+	c #C71A1E",
"r-+	c #C2191E",
"s-+	c #B81317",
"t-+	c #B41112",
"u-+	c #D12121",
"v-+	c #DA0A08",
"w-+	c #E90B0A",
"x-+	c #BA120F",
"y-+	c #9D0E08",
"z-+	c #880300",
"A-+	c #7D0A07",
"B-+	c #7D0F0E",
"C-+	c #7A0C0D",
"D-+	c #75070A",
"E-+	c #780709",
"F-+	c #790908",
"G-+	c #790E04",
"H-+	c #7A1003",
"I-+	c #781011",
"J-+	c #730F0F",
"K-+	c #6D0B0C",
"L-+	c #650708",
"M-+	c #5F0706",
"N-+	c #5E0A0A",
"O-+	c #5F0E0D",
"P-+	c #570706",
"Q-+	c #5E1010",
"R-+	c #611110",
"S-+	c #621110",
"T-+	c #630F0F",
"U-+	c #630D0C",
"V-+	c #5E0904",
"W-+	c #5E0B05",
"X-+	c #610E06",
"Y-+	c #620F07",
"Z-+	c #600B04",
"`-+	c #5C0C05",
" ;+	c #60130D",
".;+	c #580E05",
"+;+	c #520900",
"@;+	c #5B1108",
"#;+	c #550800",
"$;+	c #620D0A",
"%;+	c #6A1210",
"&;+	c #6D1312",
"*;+	c #680D0A",
"=;+	c #660806",
"-;+	c #6D0B0A",
";;+	c #721510",
">;+	c #751811",
",;+	c #71120C",
"';+	c #6D0F07",
");+	c #6D0C03",
"!;+	c #660800",
"~;+	c #680C00",
"{;+	c #691002",
"];+	c #6F170B",
"^;+	c #6B1508",
"/;+	c #740500",
"(;+	c #7D0801",
"_;+	c #850B06",
":;+	c #880C0A",
"<;+	c #880606",
"[;+	c #870000",
"};+	c #9D0D0D",
"|;+	c #AC1013",
"1;+	c #AD0407",
"2;+	c #BA0308",
"3;+	c #121210",
"4;+	c #1B1515",
"5;+	c #1B1718",
"6;+	c #161115",
"7;+	c #030002",
"8;+	c #010002",
"9;+	c #030106",
"0;+	c #161012",
"a;+	c #3C1A11",
"b;+	c #4F2121",
"c;+	c #592D2C",
"d;+	c #4F2324",
"e;+	c #280605",
"f;+	c #180501",
"g;+	c #0A0100",
"h;+	c #4A1414",
"i;+	c #4D1111",
"j;+	c #5B1E1D",
"k;+	c #501310",
"l;+	c #5E2420",
"m;+	c #6A3831",
"n;+	c #280300",
"o;+	c #270803",
"p;+	c #1F1104",
"q;+	c #2E0606",
"r;+	c #35040A",
"s;+	c #38060F",
"t;+	c #350711",
"u;+	c #2C070E",
"v;+	c #27090B",
"w;+	c #410A03",
"x;+	c #940F10",
"y;+	c #B91D20",
"z;+	c #D41F24",
"A;+	c #D21A1C",
"B;+	c #C21819",
"C;+	c #AC0C0C",
"D;+	c #990302",
"E;+	c #A40F0B",
"F;+	c #BC1D1A",
"G;+	c #CA1B18",
"H;+	c #D50E0B",
"I;+	c #E30D0D",
"J;+	c #C61211",
"K;+	c #B0110E",
"L;+	c #9E0807",
"M;+	c #900200",
"N;+	c #840200",
"O;+	c #7E0403",
"P;+	c #7A0609",
"Q;+	c #78070B",
"R;+	c #7A090D",
"S;+	c #7B0A0C",
"T;+	c #7E0F04",
"U;+	c #780E01",
"V;+	c #7C1310",
"W;+	c #7B1314",
"X;+	c #751113",
"Y;+	c #6D0F10",
"Z;+	c #650B0B",
"`;+	c #5C0B0A",
" >+	c #5B0D0D",
".>+	c #570F10",
"+>+	c #551110",
"@>+	c #560F0D",
"#>+	c #570D0C",
"$>+	c #5B0B0A",
"%>+	c #580A06",
"&>+	c #580902",
"*>+	c #5D0D04",
"=>+	c #5C0D06",
"->+	c #60120E",
";>+	c #5E100C",
">>+	c #570A04",
",>+	c #641510",
"'>+	c #6E1F1A",
")>+	c #651410",
"!>+	c #5A0905",
"~>+	c #5D0A06",
"{>+	c #5F0A07",
"]>+	c #690F0E",
"^>+	c #690E0D",
"/>+	c #711313",
"(>+	c #7A1C1C",
"_>+	c #812220",
":>+	c #8D2E2C",
"<>+	c #862723",
"[>+	c #751610",
"}>+	c #6E1008",
"|>+	c #6C1005",
"1>+	c #761D0F",
"2>+	c #781F11",
"3>+	c #6D1308",
"4>+	c #670D05",
"5>+	c #640904",
"6>+	c #670802",
"7>+	c #7C1107",
"8>+	c #790A03",
"9>+	c #7B0100",
"0>+	c #7C0405",
"a>+	c #890908",
"b>+	c #960C0C",
"c>+	c #AE030B",
"d>+	c #0C0C0A",
"e>+	c #191411",
"f>+	c #1C1714",
"g>+	c #2D292A",
"h>+	c #221E1F",
"i>+	c #0B0708",
"j>+	c #0E0A0B",
"k>+	c #552D2B",
"l>+	c #5B3132",
"m>+	c #4E2626",
"n>+	c #2A0606",
"o>+	c #200305",
"p>+	c #401415",
"q>+	c #4D1619",
"r>+	c #5B1F1F",
"s>+	c #541716",
"t>+	c #5E2120",
"u>+	c #511A17",
"v>+	c #602F2A",
"w>+	c #240000",
"x>+	c #230908",
"y>+	c #2E0607",
"z>+	c #32050A",
"A>+	c #35080F",
"B>+	c #330A10",
"C>+	c #2F0B0D",
"D>+	c #4B0500",
"E>+	c #B3181C",
"F>+	c #D61D22",
"G>+	c #8B0000",
"H>+	c #B2130F",
"I>+	c #CF201B",
"J>+	c #C71515",
"K>+	c #B81010",
"L>+	c #A20607",
"M>+	c #7E0000",
"N>+	c #780508",
"O>+	c #7C0B0F",
"P>+	c #7B0D0E",
"Q>+	c #790B0C",
"R>+	c #760906",
"S>+	c #770A05",
"T>+	c #7A1213",
"U>+	c #751111",
"V>+	c #5D0C0B",
"W>+	c #550E0C",
"X>+	c #5D1715",
"Y>+	c #5A1412",
"Z>+	c #57110F",
"`>+	c #57100C",
" ,+	c #5B100B",
".,+	c #5F100C",
"+,+	c #5F110D",
"@,+	c #5D0E09",
"#,+	c #5F0F06",
"$,+	c #61130F",
"%,+	c #590E08",
"&,+	c #762923",
"*,+	c #5D0C08",
"=,+	c #620F0B",
"-,+	c #66110E",
";,+	c #6D1513",
">,+	c #6B1110",
",,+	c #7B201F",
"',+	c #852725",
"),+	c #872826",
"!,+	c #801E1B",
"~,+	c #6D0C05",
"{,+	c #6D0F05",
"],+	c #660A00",
"^,+	c #6C1003",
"/,+	c #650900",
"(,+	c #5E0200",
"_,+	c #731307",
":,+	c #700701",
"<,+	c #720603",
"[,+	c #750501",
"},+	c #850502",
"|,+	c #900403",
"1,+	c #9D0104",
"2,+	c #191512",
"3,+	c #1E1916",
"4,+	c #2E2A2B",
"5,+	c #262223",
"6,+	c #0F0B0C",
"7,+	c #1E1D1B",
"8,+	c #312622",
"9,+	c #5A3836",
"0,+	c #53302E",
"a,+	c #1F0101",
"b,+	c #170000",
"c,+	c #1B0002",
"d,+	c #290507",
"e,+	c #3D1013",
"f,+	c #4D191B",
"g,+	c #4E1011",
"h,+	c #662A29",
"i,+	c #460F0C",
"j,+	c #673632",
"k,+	c #250000",
"l,+	c #31090A",
"m,+	c #33090D",
"n,+	c #330A0E",
"o,+	c #360E0E",
"p,+	c #400B05",
"q,+	c #4A0300",
"r,+	c #640500",
"s,+	c #B81E20",
"t,+	c #CD1A1E",
"u,+	c #CE0F14",
"v,+	c #CD1515",
"w,+	c #C51919",
"x,+	c #AD0B09",
"y,+	c #8C0000",
"z,+	c #D82622",
"A,+	c #E50E13",
"B,+	c #DB1218",
"C,+	c #CF1216",
"D,+	c #B90C0E",
"E,+	c #9D0305",
"F,+	c #750102",
"G,+	c #790D0D",
"H,+	c #740B08",
"I,+	c #710804",
"J,+	c #710802",
"K,+	c #740C03",
"L,+	c #720C00",
"M,+	c #6E0800",
"N,+	c #750D0C",
"O,+	c #720E0E",
"P,+	c #6C0E0C",
"Q,+	c #600C0A",
"R,+	c #5A0C08",
"S,+	c #560C09",
"T,+	c #5B1611",
"U,+	c #641B15",
"V,+	c #661B16",
"W,+	c #691A16",
"X,+	c #681915",
"Y,+	c #661814",
"Z,+	c #63130A",
"`,+	c #62120B",
" '+	c #62130E",
".'+	c #621410",
"+'+	c #601510",
"@'+	c #611610",
"#'+	c #661913",
"$'+	c #5A0B06",
"%'+	c #60110C",
"&'+	c #6C1915",
"*'+	c #6F1A17",
"='+	c #6F1514",
"-'+	c #741A19",
";'+	c #791E1B",
">'+	c #7D1E1C",
",'+	c #82201D",
"''+	c #7E1B16",
")'+	c #7D1C15",
"!'+	c #84211B",
"~'+	c #822118",
"{'+	c #7B1B0F",
"]'+	c #7B1D11",
"^'+	c #7A1C10",
"/'+	c #812317",
"('+	c #771B10",
"_'+	c #72130D",
":'+	c #72150E",
"<'+	c #6C0B02",
"['+	c #720903",
"}'+	c #760602",
"|'+	c #840000",
"1'+	c #920000",
"2'+	c #211C19",
"3'+	c #171314",
"4'+	c #15100A",
"5'+	c #6D645F",
"6'+	c #524944",
"7'+	c #422925",
"8'+	c #210504",
"9'+	c #120001",
"0'+	c #180001",
"a'+	c #240105",
"b'+	c #370D11",
"c'+	c #461417",
"d'+	c #592124",
"e'+	c #44090B",
"f'+	c #501A18",
"g'+	c #855551",
"h'+	c #1D0100",
"i'+	c #2F1312",
"j'+	c #240606",
"k'+	c #290505",
"l'+	c #330B0C",
"m'+	c #30090A",
"n'+	c #320A0A",
"o'+	c #380B08",
"p'+	c #8E130E",
"q'+	c #B71D1B",
"r'+	c #D11D1E",
"s'+	c #E01519",
"t'+	c #E21116",
"u'+	c #CC1310",
"v'+	c #C61915",
"w'+	c #B00D08",
"x'+	c #B8130D",
"y'+	c #F4050A",
"z'+	c #F10710",
"A'+	c #EB0B15",
"B'+	c #DD0E16",
"C'+	c #CC0F15",
"D'+	c #B20C10",
"E'+	c #980607",
"F'+	c #740607",
"G'+	c #6F0905",
"H'+	c #740F05",
"I'+	c #740F03",
"J'+	c #6E0C09",
"K'+	c #5D0F0B",
"L'+	c #59100A",
"M'+	c #560F09",
"N'+	c #58130C",
"O'+	c #5D1610",
"P'+	c #6A1B16",
"Q'+	c #631511",
"R'+	c #5F0F08",
"S'+	c #5B120B",
"T'+	c #651A14",
"U'+	c #5C110B",
"V'+	c #681511",
"W'+	c #701816",
"X'+	c #6E1511",
"Y'+	c #72100F",
"Z'+	c #801C1A",
"`'+	c #892620",
" )+	c #8D2722",
".)+	c #85231A",
"+)+	c #7E1C11",
"@)+	c #822015",
"#)+	c #8E2C21",
"$)+	c #913027",
"%)+	c #93352B",
"&)+	c #8E2D27",
"*)+	c #771812",
"=)+	c #7F221B",
"-)+	c #6B0E06",
";)+	c #77100B",
">)+	c #7D0000",
",)+	c #241F1C",
"')+	c #272324",
"))+	c #211D1E",
"!)+	c #070707",
"~)+	c #080808",
"{)+	c #413A34",
"])+	c #605752",
"^)+	c #504742",
"/)+	c #150100",
"()+	c #130304",
"_)+	c #180003",
":)+	c #200005",
"<)+	c #2E070C",
"[)+	c #3B0A0E",
"})+	c #441014",
"|)+	c #3E070A",
"1)+	c #9F7370",
"2)+	c #633D3A",
"3)+	c #2D1312",
"4)+	c #2D0408",
"5)+	c #2F0509",
"6)+	c #31080C",
"7)+	c #2E0503",
"8)+	c #340400",
"9)+	c #400501",
"0)+	c #690A04",
"a)+	c #921813",
"b)+	c #B7221E",
"c)+	c #CC1A18",
"d)+	c #D50D0D",
"e)+	c #E40A0B",
"f)+	c #EE1214",
"g)+	c #DC100F",
"h)+	c #CA1713",
"i)+	c #B60A06",
"j)+	c #9C0000",
"k)+	c #C61913",
"l)+	c #E32A25",
"m)+	c #F8030B",
"n)+	c #F1040E",
"o)+	c #C51719",
"p)+	c #A81213",
"q)+	c #6D0401",
"r)+	c #6B0A04",
"s)+	c #6F0E07",
"t)+	c #77150A",
"u)+	c #751308",
"v)+	c #6C0F0A",
"w)+	c #6A130C",
"x)+	c #520B05",
"y)+	c #551009",
"z)+	c #601710",
"A)+	c #621711",
"B)+	c #62180F",
"C)+	c #65160F",
"D)+	c #651810",
"E)+	c #671A14",
"F)+	c #661712",
"G)+	c #64150E",
"H)+	c #5B0C07",
"I)+	c #5F1911",
"J)+	c #561008",
"K)+	c #59130B",
"L)+	c #611811",
"M)+	c #5A110A",
"N)+	c #62110D",
"O)+	c #600D09",
"P)+	c #620A06",
"Q)+	c #5E0000",
"R)+	c #750F0A",
"S)+	c #7B1510",
"T)+	c #730E04",
"U)+	c #721005",
"V)+	c #85241B",
"W)+	c #902F29",
"X)+	c #872620",
"Y)+	c #7E1F1B",
"Z)+	c #872A25",
"`)+	c #832921",
" !+	c #7E241B",
".!+	c #83221B",
"+!+	c #79110E",
"@!+	c #760D09",
"#!+	c #7A0E0B",
"$!+	c #760904",
"%!+	c #7D0C08",
"&!+	c #810704",
"*!+	c #960A0B",
"=!+	c #181310",
"-!+	c #231E1B",
";!+	c #282222",
">!+	c #292323",
",!+	c #060807",
"'!+	c #070906",
")!+	c #27241D",
"!!+	c #38352E",
"~!+	c #2E2923",
"{!+	c #36312B",
"]!+	c #5A534D",
"^!+	c #140103",
"/!+	c #1C0205",
"(!+	c #250508",
"_!+	c #31070B",
":!+	c #320407",
"<!+	c #441316",
"[!+	c #491D1C",
"}!+	c #926C69",
"|!+	c #7D5C57",
"1!+	c #30060A",
"2!+	c #30070B",
"3!+	c #33090A",
"4!+	c #330706",
"5!+	c #360501",
"6!+	c #440500",
"7!+	c #570803",
"8!+	c #791610",
"9!+	c #9B2019",
"0!+	c #BD2822",
"a!+	c #CE211D",
"b!+	c #D6100D",
"c!+	c #C40E0A",
"d!+	c #B30401",
"e!+	c #C10F0D",
"f!+	c #D9211F",
"g!+	c #E72422",
"h!+	c #CC1C1E",
"i!+	c #B01A19",
"j!+	c #8E0E0B",
"k!+	c #6D0703",
"l!+	c #731209",
"m!+	c #75130A",
"n!+	c #721007",
"o!+	c #700E05",
"p!+	c #6E0B05",
"q!+	c #690F07",
"r!+	c #62150D",
"s!+	c #5D140D",
"t!+	c #5A140C",
"u!+	c #5D170F",
"v!+	c #5E140B",
"w!+	c #60160B",
"x!+	c #6A1C12",
"y!+	c #70231B",
"z!+	c #742721",
"A!+	c #641006",
"B!+	c #61140C",
"C!+	c #5B150D",
"D!+	c #551108",
"E!+	c #58140B",
"F!+	c #591009",
"G!+	c #721311",
"H!+	c #851E19",
"I!+	c #872019",
"J!+	c #7B140B",
"K!+	c #700900",
"L!+	c #700E0B",
"M!+	c #8A221F",
"N!+	c #922926",
"O!+	c #831312",
"P!+	c #8A100F",
"Q!+	c #890B0C",
"R!+	c #A9171A",
"S!+	c #1F1B18",
"T!+	c #221D1A",
"U!+	c #272121",
"V!+	c #2A2424",
"W!+	c #030504",
"X!+	c #050704",
"Y!+	c #302D26",
"Z!+	c #3B3630",
"`!+	c #58514B",
" ~+	c #24241C",
".~+	c #080500",
"+~+	c #0D0103",
"@~+	c #180406",
"#~+	c #200609",
"$~+	c #2C090D",
"%~+	c #2A0105",
"&~+	c #4C2224",
"*~+	c #270100",
"=~+	c #74534E",
"-~+	c #886B67",
";~+	c #3A211D",
">~+	c #2C0E0E",
",~+	c #2F080B",
"'~+	c #300607",
")~+	c #3C0703",
"!~+	c #460501",
"~~+	c #5C0903",
"{~+	c #A1221C",
"]~+	c #D2251F",
"^~+	c #D61510",
"/~+	c #E30804",
"(~+	c #D71513",
"_~+	c #DD1F1F",
":~+	c #EA2627",
"<~+	c #EA1C1C",
"[~+	c #DD1515",
"}~+	c #CC201E",
"|~+	c #8E130C",
"1~+	c #740903",
"2~+	c #6A1008",
"3~+	c #6D0A04",
"4~+	c #6A0800",
"5~+	c #680B03",
"6~+	c #670D04",
"7~+	c #671E17",
"8~+	c #671E15",
"9~+	c #621910",
"0~+	c #681B11",
"a~+	c #82352B",
"b~+	c #7C3229",
"c~+	c #762B25",
"d~+	c #66110A",
"e~+	c #6C1C15",
"f~+	c #661D16",
"g~+	c #57130A",
"h~+	c #5E1810",
"i~+	c #510801",
"j~+	c #5B100A",
"k~+	c #5E130D",
"l~+	c #7D2A24",
"m~+	c #983937",
"n~+	c #902A28",
"o~+	c #7F1915",
"p~+	c #841D18",
"q~+	c #99322D",
"r~+	c #99322B",
"s~+	c #771007",
"t~+	c #882118",
"u~+	c #831E16",
"v~+	c #6C0A01",
"w~+	c #650400",
"x~+	c #6D0B08",
"y~+	c #811110",
"z~+	c #7C0808",
"A~+	c #8E1212",
"B~+	c #9A1A1B",
"C~+	c #930E0F",
"D~+	c #970C0F",
"E~+	c #AA191E",
"F~+	c #B52024",
"G~+	c #211C18",
"H~+	c #2B2623",
"I~+	c #070908",
"J~+	c #0E100D",
"K~+	c #141613",
"L~+	c #131512",
"M~+	c #0A0B06",
"N~+	c #060701",
"O~+	c #2E2E26",
"P~+	c #29261F",
"Q~+	c #322F28",
"R~+	c #39342E",
"S~+	c #59504B",
"T~+	c #220507",
"U~+	c #482B27",
"V~+	c #7E625E",
"W~+	c #2D0E0C",
"X~+	c #2B0303",
"Y~+	c #350503",
"Z~+	c #490200",
"`~+	c #5A0100",
" {+	c #A7231E",
".{+	c #BF241F",
"+{+	c #C61712",
"@{+	c #D10E08",
"#{+	c #F51106",
"${+	c #F7140B",
"%{+	c #DE0E0C",
"&{+	c #DE0C0F",
"*{+	c #7E0900",
"={+	c #76150C",
"-{+	c #690C04",
";{+	c #671309",
">{+	c #5D130A",
",{+	c #61180F",
"'{+	c #601309",
"){+	c #72251B",
"!{+	c #691F16",
"~{+	c #671C16",
"{{+	c #681912",
"]{+	c #66160F",
"^{+	c #6F160E",
"/{+	c #6E170E",
"({+	c #691912",
"_{+	c #762921",
":{+	c #6F261F",
"<{+	c #57140B",
"[{+	c #561209",
"}{+	c #571109",
"|{+	c #58120A",
"1{+	c #5E150E",
"2{+	c #5C130C",
"3{+	c #752822",
"4{+	c #803029",
"5{+	c #8C2E2C",
"6{+	c #8E2A28",
"7{+	c #892621",
"8{+	c #87211C",
"9{+	c #7A130A",
"0{+	c #801B13",
"a{+	c #710D0B",
"b{+	c #6F0706",
"c{+	c #770B09",
"d{+	c #821210",
"e{+	c #8E1011",
"f{+	c #9D181B",
"g{+	c #A21A1C",
"h{+	c #AA1E21",
"i{+	c #AE1D20",
"j{+	c #1E1915",
"k{+	c #312C29",
"l{+	c #4C4744",
"m{+	c #423D3A",
"n{+	c #0A0C0B",
"o{+	c #121411",
"p{+	c #171916",
"q{+	c #1C1E1B",
"r{+	c #23231B",
"s{+	c #25251D",
"t{+	c #49423C",
"u{+	c #3B322D",
"v{+	c #574C48",
"w{+	c #4C413D",
"x{+	c #341415",
"y{+	c #442723",
"z{+	c #7C605C",
"A{+	c #543834",
"B{+	c #3B0B07",
"C{+	c #AC211E",
"D{+	c #C01E1B",
"E{+	c #D41E1A",
"F{+	c #DB1610",
"G{+	c #F01109",
"H{+	c #EE0E02",
"I{+	c #F10F03",
"J{+	c #E70B0B",
"K{+	c #E30B0E",
"L{+	c #E50A0E",
"M{+	c #E8090E",
"N{+	c #CA110C",
"O{+	c #AD1009",
"P{+	c #900B02",
"Q{+	c #650E05",
"R{+	c #71100A",
"S{+	c #77110D",
"T{+	c #7F1E15",
"U{+	c #690F06",
"V{+	c #660E04",
"W{+	c #67170E",
"X{+	c #5E1109",
"Y{+	c #64170D",
"Z{+	c #63160C",
"`{+	c #68180F",
" ]+	c #60150F",
".]+	c #751A17",
"+]+	c #771814",
"@]+	c #781711",
"#]+	c #7A140F",
"$]+	c #7E190F",
"%]+	c #6C110C",
"&]+	c #690C07",
"*]+	c #72130F",
"=]+	c #6B0803",
"-]+	c #800A08",
";]+	c #941212",
">]+	c #9A1212",
",]+	c #A21617",
"']+	c #A8191B",
")]+	c #A31416",
"!]+	c #201D18",
"~]+	c #221D19",
"{]+	c #48433F",
"]]+	c #534E4A",
"^]+	c #110C08",
"/]+	c #1E1D18",
"(]+	c #4C453F",
"_]+	c #463D38",
":]+	c #3E3530",
"<]+	c #564845",
"[]+	c #5B4D4A",
"}]+	c #483A37",
"|]+	c #311313",
"1]+	c #5B3E38",
"2]+	c #694A45",
"3]+	c #3B0804",
"4]+	c #490A05",
"5]+	c #570804",
"6]+	c #6C0806",
"7]+	c #911513",
"8]+	c #B92523",
"9]+	c #CF2623",
"0]+	c #D61A18",
"a]+	c #E11610",
"b]+	c #EE140B",
"c]+	c #F21208",
"d]+	c #EB0B00",
"e]+	c #EE090E",
"f]+	c #EC0E0B",
"g]+	c #DA0F0B",
"h]+	c #BD0A03",
"i]+	c #9B0400",
"j]+	c #800200",
"k]+	c #720700",
"l]+	c #7A1712",
"m]+	c #7F1C16",
"n]+	c #7C1E14",
"o]+	c #6D130A",
"p]+	c #66190F",
"q]+	c #651B12",
"r]+	c #641A11",
"s]+	c #66160D",
"t]+	c #6C1209",
"u]+	c #600C02",
"v]+	c #611108",
"w]+	c #5F150C",
"x]+	c #540E04",
"y]+	c #59150C",
"z]+	c #59160D",
"A]+	c #5A160D",
"B]+	c #520C04",
"C]+	c #580F08",
"D]+	c #6B0E09",
"E]+	c #73120B",
"F]+	c #761409",
"G]+	c #6C0E04",
"H]+	c #680E06",
"I]+	c #720D03",
"J]+	c #861108",
"K]+	c #8C0F09",
"L]+	c #8E0A06",
"M]+	c #930C09",
"N]+	c #920E0A",
"O]+	c #25201C",
"P]+	c #28201D",
"Q]+	c #443F3B",
"R]+	c #3F3A36",
"S]+	c #26211D",
"T]+	c #22211C",
"U]+	c #1A1A12",
"V]+	c #544B46",
"W]+	c #4D423E",
"X]+	c #4F413E",
"Y]+	c #5A4B48",
"Z]+	c #564744",
"`]+	c #3D2E2B",
" ^+	c #2E1211",
".^+	c #260500",
"+^+	c #5A3733",
"@^+	c #401713",
"#^+	c #3C0B07",
"$^+	c #400604",
"%^+	c #740C09",
"&^+	c #A0201F",
"*^+	c #C32929",
"=^+	c #D32121",
"-^+	c #DA1715",
";^+	c #E3120E",
">^+	c #F31307",
",^+	c #F11107",
"'^+	c #F50E04",
")^+	c #F60808",
"!^+	c #F8050B",
"~^+	c #D7100B",
"{^+	c #6F0400",
"]^+	c #6B1108",
"^^+	c #651009",
"/^+	c #6E1916",
"(^+	c #71140F",
"_^+	c #781613",
":^+	c #7D1F17",
"<^+	c #782016",
"[^+	c #721D16",
"}^+	c #5D0E07",
"|^+	c #61170E",
"1^+	c #64170F",
"2^+	c #61140A",
"3^+	c #5F1208",
"4^+	c #5E1409",
"5^+	c #651107",
"6^+	c #6E140B",
"7^+	c #571107",
"8^+	c #5B170E",
"9^+	c #67120D",
"0^+	c #73150D",
"a^+	c #7C1C10",
"b^+	c #6A1005",
"c^+	c #631407",
"d^+	c #6B180A",
"e^+	c #7D0B00",
"f^+	c #8D1109",
"g^+	c #8B0800",
"h^+	c #860500",
"i^+	c #14140C",
"j^+	c #1F1F17",
"k^+	c #27271F",
"l^+	c #282820",
"m^+	c #4A453F",
"n^+	c #3F3A34",
"o^+	c #5A4C49",
"p^+	c #4E403D",
"q^+	c #544240",
"r^+	c #655351",
"s^+	c #574543",
"t^+	c #3E2C2A",
"u^+	c #0E0903",
"v^+	c #351111",
"w^+	c #320C0B",
"x^+	c #5E3533",
"y^+	c #7C504D",
"z^+	c #6B3B37",
"A^+	c #3A0704",
"B^+	c #4B1411",
"C^+	c #500605",
"D^+	c #7C0B07",
"E^+	c #A01916",
"F^+	c #C82828",
"G^+	c #E11315",
"H^+	c #E40808",
"I^+	c #EE1003",
"J^+	c #FA0700",
"K^+	c #E7100E",
"L^+	c #BB0905",
"M^+	c #6A0D06",
"N^+	c #630B07",
"O^+	c #6B1715",
"P^+	c #6F120B",
"Q^+	c #80231B",
"R^+	c #7F261E",
"S^+	c #6C1710",
"T^+	c #671612",
"U^+	c #6B1B12",
"V^+	c #5C160C",
"W^+	c #6E1207",
"X^+	c #7D1F13",
"Y^+	c #731509",
"Z^+	c #6F1306",
"`^+	c #6B1106",
" /+	c #6A1206",
"./+	c #661208",
"+/+	c #611106",
"@/+	c #601104",
"#/+	c #680F00",
"$/+	c #781707",
"%/+	c #871B0E",
"&/+	c #891005",
"*/+	c #8F0600",
"=/+	c #870400",
"-/+	c #16160E",
";/+	c #292921",
">/+	c #3D3832",
",/+	c #48433D",
"'/+	c #4B3D3A",
")/+	c #594B48",
"!/+	c #5B4C49",
"~/+	c #4C3A38",
"{/+	c #473533",
"]/+	c #584443",
"^/+	c #614D4C",
"//+	c #3E2A2C",
"(/+	c #261315",
"_/+	c #150204",
":/+	c #120404",
"</+	c #260808",
"[/+	c #300C0C",
"}/+	c #421617",
"|/+	c #653737",
"1/+	c #7C4C4A",
"2/+	c #6B3835",
"3/+	c #4C1512",
"4/+	c #420504",
"5/+	c #550D0E",
"6/+	c #610908",
"7/+	c #A91E1B",
"8/+	c #C92526",
"9/+	c #D61C1F",
"0/+	c #E51016",
"a/+	c #F10C0F",
"b/+	c #F50909",
"c/+	c #EE1202",
"d/+	c #EA0E00",
"e/+	c #F9060A",
"f/+	c #DB1313",
"g/+	c #C30F0E",
"h/+	c #A20806",
"i/+	c #661210",
"j/+	c #681310",
"k/+	c #650C06",
"l/+	c #731B11",
"m/+	c #5F0A05",
"n/+	c #63100A",
"o/+	c #64130F",
"p/+	c #671814",
"q/+	c #73160E",
"r/+	c #781B13",
"s/+	c #741A11",
"t/+	c #5E150C",
"u/+	c #621C14",
"v/+	c #611B13",
"w/+	c #661409",
"x/+	c #6C180D",
"y/+	c #6D150B",
"z/+	c #771B0E",
"A/+	c #73170A",
"B/+	c #6B1204",
"C/+	c #681004",
"D/+	c #5E1004",
"E/+	c #671509",
"F/+	c #650F02",
"G/+	c #691304",
"H/+	c #680B00",
"I/+	c #861F10",
"J/+	c #A02C1F",
"K/+	c #9C1C11",
"L/+	c #950100",
"M/+	c #950400",
"N/+	c #8F0400",
"O/+	c #201F1D",
"P/+	c #22211F",
"Q/+	c #1F1E19",
"R/+	c #2A251F",
"S/+	c #060300",
"T/+	c #231B18",
"U/+	c #614F4D",
"V/+	c #5F4D4B",
"W/+	c #463231",
"X/+	c #442F2E",
"Y/+	c #5B4645",
"Z/+	c #675251",
"`/+	c #5D4448",
" (+	c #422C2F",
".(+	c #250F12",
"+(+	c #0B0200",
"@(+	c #4C1E20",
"#(+	c #633235",
"$(+	c #7F4B4D",
"%(+	c #632D2D",
"&(+	c #460C0B",
"*(+	c #420202",
"=(+	c #560A0A",
"-(+	c #621012",
";(+	c #7C1516",
">(+	c #A82020",
",(+	c #DB1E24",
"'(+	c #E31016",
")(+	c #FC070C",
"!(+	c #FF0909",
"~(+	c #F91103",
"{(+	c #F41504",
"](+	c #ED1403",
"^(+	c #FA0800",
"/(+	c #E90C11",
"((+	c #DF1316",
"_(+	c #6A0402",
":(+	c #640908",
"<(+	c #600A09",
"[(+	c #64110D",
"}(+	c #65100B",
"|(+	c #630E07",
"1(+	c #630C05",
"2(+	c #650C04",
"3(+	c #671613",
"4(+	c #651514",
"5(+	c #661C13",
"6(+	c #6F120A",
"7(+	c #71130B",
"8(+	c #6F150D",
"9(+	c #5C160E",
"0(+	c #641B14",
"a(+	c #62140A",
"b(+	c #7B2214",
"c(+	c #741B0D",
"d(+	c #5E160A",
"e(+	c #6E0D04",
"f(+	c #730E02",
"g(+	c #740A00",
"h(+	c #AF2F26",
"i(+	c #A70805",
"j(+	c #B00E0C",
"k(+	c #9B0602",
"l(+	c #262523",
"m(+	c #272322",
"n(+	c #201C1B",
"o(+	c #211D1C",
"p(+	c #25241F",
"q(+	c #16110B",
"r(+	c #312C26",
"s(+	c #26231A",
"t(+	c #513D3C",
"u(+	c #685350",
"v(+	c #553D3D",
"w(+	c #482E2D",
"x(+	c #563C3D",
"y(+	c #5F4244",
"z(+	c #5F4045",
"A(+	c #533439",
"B(+	c #3D2024",
"C(+	c #240B0E",
"D(+	c #150303",
"E(+	c #643233",
"F(+	c #885252",
"G(+	c #612525",
"H(+	c #51100E",
"I(+	c #510706",
"J(+	c #630807",
"K(+	c #650100",
"L(+	c #A52323",
"M(+	c #CB2726",
"N(+	c #D41616",
"O(+	c #DF0E13",
"P(+	c #F00F13",
"Q(+	c #FD0C12",
"R(+	c #FE0B05",
"S(+	c #F81004",
"T(+	c #F31405",
"U(+	c #EC1002",
"V(+	c #FB0D0B",
"W(+	c #FF060A",
"X(+	c #E31215",
"Y(+	c #A50F10",
"Z(+	c #65100D",
"`(+	c #6D160F",
" _+	c #6C150E",
"._+	c #711C15",
"+_+	c #75221E",
"@_+	c #6F1E1A",
"#_+	c #691815",
"$_+	c #651411",
"%_+	c #651612",
"&_+	c #6F2117",
"*_+	c #67190F",
"=_+	c #69170C",
"-_+	c #6A0C04",
";_+	c #690B01",
">_+	c #771911",
",_+	c #72150D",
"'_+	c #661B15",
")_+	c #691910",
"!_+	c #7B2315",
"~_+	c #8B3325",
"{_+	c #751D0F",
"]_+	c #6B1305",
"^_+	c #661003",
"/_+	c #691608",
"(_+	c #66170A",
"__+	c #611508",
":_+	c #63190C",
"<_+	c #821109",
"[_+	c #840B03",
"}_+	c #A42119",
"|_+	c #B4251F",
"1_+	c #9E0500",
"2_+	c #B00E0B",
"3_+	c #BF1716",
"4_+	c #C51C19",
"5_+	c #BB120F",
"6_+	c #AC0904",
"7_+	c #232220",
"8_+	c #292826",
"9_+	c #2B2A28",
"0_+	c #2C2B29",
"a_+	c #2A2927",
"b_+	c #221E1B",
"c_+	c #292522",
"d_+	c #24201D",
"e_+	c #110E07",
"f_+	c #2F2A24",
"g_+	c #434039",
"h_+	c #36332C",
"i_+	c #050500",
"j_+	c #060600",
"k_+	c #2A221F",
"l_+	c #261C1A",
"m_+	c #111308",
"n_+	c #15190B",
"o_+	c #202014",
"p_+	c #44322E",
"q_+	c #3A2220",
"r_+	c #573E3A",
"s_+	c #553737",
"t_+	c #532F31",
"u_+	c #481E22",
"v_+	c #562B32",
"w_+	c #633F43",
"x_+	c #3C1E20",
"y_+	c #1A0202",
"z_+	c #451916",
"A_+	c #7D4A47",
"B_+	c #4F0804",
"C_+	c #A71C17",
"D_+	c #BE2621",
"E_+	c #CD211D",
"F_+	c #F31007",
"G_+	c #F6130A",
"H_+	c #F71008",
"I_+	c #F90C06",
"J_+	c #F6050B",
"K_+	c #EA1011",
"L_+	c #D41316",
"M_+	c #BB0D0E",
"N_+	c #9C0403",
"O_+	c #651111",
"P_+	c #6B1214",
"Q_+	c #6A1211",
"R_+	c #731C15",
"S_+	c #701912",
"T_+	c #5C0B08",
"U_+	c #5B0C08",
"V_+	c #6A1916",
"W_+	c #6C1913",
"X_+	c #6E1E15",
"Y_+	c #6D1106",
"Z_+	c #6E0E02",
"`_+	c #77160D",
" :+	c #6A0E03",
".:+	c #64160A",
"+:+	c #641511",
"@:+	c #601208",
"#:+	c #691B11",
"$:+	c #65170D",
"%:+	c #661710",
"&:+	c #691A15",
"*:+	c #6A1A11",
"=:+	c #6C1D10",
"-:+	c #6A180A",
";:+	c #751C0E",
">:+	c #71170C",
",:+	c #712316",
"':+	c #901915",
"):+	c #961412",
"!:+	c #A51716",
"~:+	c #BE2625",
"{:+	c #B91919",
"]:+	c #AC0806",
"^:+	c #C31811",
"/:+	c #C81B14",
"(:+	c #CC1B11",
"_:+	c #CA150C",
"::+	c #1D1C1A",
"<:+	c #24201F",
"[:+	c #27221F",
"}:+	c #2B2724",
"|:+	c #282421",
"1:+	c #26221F",
"2:+	c #3A3730",
"3:+	c #46433C",
"4:+	c #4D4A43",
"5:+	c #403D36",
"6:+	c #12120A",
"7:+	c #090901",
"8:+	c #030300",
"9:+	c #211715",
"0:+	c #281E1C",
"a:+	c #17190E",
"b:+	c #181E10",
"c:+	c #1F2315",
"d:+	c #222417",
"e:+	c #252317",
"f:+	c #2A2319",
"g:+	c #3F2622",
"h:+	c #4F2D2C",
"i:+	c #411A1B",
"j:+	c #3E0F15",
"k:+	c #4E1F25",
"l:+	c #673E42",
"m:+	c #4B2B2C",
"n:+	c #341912",
"o:+	c #3F1C16",
"p:+	c #5D302B",
"q:+	c #69322F",
"r:+	c #730200",
"s:+	c #B21D16",
"t:+	c #D32F26",
"u:+	c #DA2923",
"v:+	c #D8150F",
"w:+	c #E70E07",
"x:+	c #F6110B",
"y:+	c #F70D06",
"z:+	c #F80902",
"A:+	c #FA070D",
"B:+	c #F8070D",
"C:+	c #F7060F",
"D:+	c #D60E10",
"E:+	c #C3090A",
"F:+	c #AC0404",
"G:+	c #960200",
"H:+	c #661013",
"I:+	c #671112",
"J:+	c #68130E",
"K:+	c #5E0D09",
"L:+	c #5D0E0A",
"M:+	c #671410",
"N:+	c #6B1D13",
"O:+	c #731C12",
"P:+	c #76160A",
"Q:+	c #77170B",
"R:+	c #75170B",
"S:+	c #690D02",
"T:+	c #631509",
"U:+	c #752318",
"V:+	c #6D1A12",
"W:+	c #6D1A14",
"X:+	c #681A0E",
"Y:+	c #6C1D0E",
"Z:+	c #873527",
"`:+	c #8E3829",
" <+	c #791D12",
".<+	c #722316",
"+<+	c #7A1711",
"@<+	c #871713",
"#<+	c #A12523",
"$<+	c #A41C1C",
"%<+	c #AB1517",
"&<+	c #BE1E20",
"*<+	c #BC1618",
"=<+	c #B60C0C",
"-<+	c #C1140D",
";<+	c #C8170D",
"><+	c #D11B10",
",<+	c #D8180D",
"'<+	c #2C2723",
")<+	c #2F2A26",
"!<+	c #292420",
"~<+	c #35322B",
"{<+	c #3E3B34",
"]<+	c #13130B",
"^<+	c #040100",
"/<+	c #352D2A",
"(<+	c #1B1B11",
"_<+	c #422F2B",
":<+	c #49312F",
"<<+	c #442A29",
"[<+	c #3D1F1F",
"}<+	c #442425",
"|<+	c #330C0F",
"1<+	c #35060C",
"2<+	c #411218",
"3<+	c #653C40",
"4<+	c #583839",
"5<+	c #2B1112",
"6<+	c #41261F",
"7<+	c #542F29",
"8<+	c #6F3F3B",
"9<+	c #561918",
"0<+	c #540A09",
"a<+	c #7E1511",
"b<+	c #9A1D17",
"c<+	c #B02119",
"d<+	c #DD2219",
"e<+	c #E31811",
"f<+	c #F8110B",
"g<+	c #FB0709",
"h<+	c #F50810",
"i<+	c #F10B0E",
"j<+	c #D91312",
"k<+	c #BB0B0D",
"l<+	c #A80808",
"m<+	c #650000",
"n<+	c #69140F",
"o<+	c #671009",
"p<+	c #5F0E0B",
"q<+	c #63120F",
"r<+	c #6E1710",
"s<+	c #751E15",
"t<+	c #7B241A",
"u<+	c #741C12",
"v<+	c #7A1C12",
"w<+	c #7D1B10",
"x<+	c #6B0F04",
"y<+	c #671A10",
"z<+	c #5A170E",
"A<+	c #56160C",
"B<+	c #5B170C",
"C<+	c #631B0F",
"D<+	c #691B0F",
"E<+	c #691A0D",
"F<+	c #742516",
"G<+	c #8C3A2C",
"H<+	c #721A0C",
"I<+	c #81271C",
"J<+	c #681409",
"K<+	c #752317",
"L<+	c #80291F",
"M<+	c #A72D2A",
"N<+	c #A6201F",
"O<+	c #A20D0F",
"P<+	c #AF1112",
"Q<+	c #B10D0E",
"R<+	c #B40A0A",
"S<+	c #BC100C",
"T<+	c #BE0F0A",
"U<+	c #C7120B",
"V<+	c #E21912",
"W<+	c #3B3B33",
"X<+	c #404038",
"Y<+	c #34342C",
"Z<+	c #040400",
"`<+	c #29211E",
" [+	c #39312E",
".[+	c #201D14",
"+[+	c #221E15",
"@[+	c #231C14",
"#[+	c #3C2422",
"$[+	c #573B3A",
"%[+	c #4D2F2F",
"&[+	c #361617",
"*[+	c #29090A",
"=[+	c #2E0A0C",
"-[+	c #33060B",
";[+	c #380B10",
">[+	c #5E3539",
",[+	c #624041",
"'[+	c #321517",
")[+	c #472B27",
"![+	c #653D3B",
"~[+	c #4B0A08",
"{[+	c #631211",
"][+	c #6F0B09",
"^[+	c #96201C",
"/[+	c #BC332D",
"([+	c #C82E26",
"_[+	c #CA1E14",
":[+	c #DD170C",
"<[+	c #EE1B12",
"[[+	c #F70C09",
"}[+	c #F70E07",
"|[+	c #F80E05",
"1[+	c #FC0D08",
"2[+	c #D70E07",
"3[+	c #DD1714",
"4[+	c #DD1B19",
"5[+	c #D51918",
"6[+	c #BC0F11",
"7[+	c #B10E11",
"8[+	c #9D080A",
"9[+	c #880203",
"0[+	c #68150F",
"a[+	c #67120B",
"b[+	c #81291F",
"c[+	c #76231B",
"d[+	c #741D14",
"e[+	c #781A12",
"f[+	c #7C1A0F",
"g[+	c #842217",
"h[+	c #812115",
"i[+	c #6F1308",
"j[+	c #6D1509",
"k[+	c #5B1509",
"l[+	c #581D0F",
"m[+	c #541C0D",
"n[+	c #561B0D",
"o[+	c #5D1E0F",
"p[+	c #6C2314",
"q[+	c #70180E",
"r[+	c #71211A",
"s[+	c #702015",
"t[+	c #8E3B2D",
"u[+	c #70180A",
"v[+	c #83291E",
"w[+	c #6B140A",
"x[+	c #742216",
"y[+	c #81140D",
"z[+	c #A12A26",
"A[+	c #A11D1B",
"B[+	c #970707",
"C[+	c #A10707",
"D[+	c #A70405",
"E[+	c #AD0505",
"F[+	c #B60D0A",
"G[+	c #0C0703",
"H[+	c #34312C",
"I[+	c #383530",
"J[+	c #201F1A",
"K[+	c #322F2A",
"L[+	c #282520",
"M[+	c #25221D",
"N[+	c #271E17",
"O[+	c #422A28",
"P[+	c #402423",
"Q[+	c #2C100F",
"R[+	c #270909",
"S[+	c #2D0B0C",
"T[+	c #310709",
"U[+	c #330609",
"V[+	c #562E2F",
"W[+	c #694746",
"X[+	c #3F2121",
"Y[+	c #3F231F",
"Z[+	c #390100",
"`[+	c #5B1112",
" }+	c #8F1F1E",
".}+	c #A4201E",
"+}+	c #DA1E15",
"@}+	c #E61C10",
"#}+	c #EC180C",
"$}+	c #F7080B",
"%}+	c #F60D09",
"&}+	c #F70F05",
"*}+	c #FC0F09",
"=}+	c #E30709",
"-}+	c #D11611",
";}+	c #D31716",
">}+	c #D11418",
",}+	c #CE1B21",
"'}+	c #BD141B",
")}+	c #AB1016",
"!}+	c #971112",
"~}+	c #7D0D09",
"{}+	c #610700",
"]}+	c #560E02",
"^}+	c #69100C",
"/}+	c #6D1813",
"(}+	c #7C251C",
"_}+	c #772019",
":}+	c #791811",
"<}+	c #862419",
"[}+	c #832317",
"}}+	c #67170C",
"|}+	c #5D190C",
"1}+	c #592110",
"2}+	c #54210C",
"3}+	c #561F0B",
"4}+	c #5E210E",
"5}+	c #682313",
"6}+	c #6E2212",
"7}+	c #701D0F",
"8}+	c #701709",
"9}+	c #77190F",
"0}+	c #731A12",
"a}+	c #701B14",
"b}+	c #8D3A2C",
"c}+	c #893324",
"d}+	c #6E1608",
"e}+	c #741C0E",
"f}+	c #6E1A0F",
"g}+	c #732115",
"h}+	c #7D1009",
"i}+	c #9A231F",
"j}+	c #9A1816",
"k}+	c #960807",
"l}+	c #9F0908",
"m}+	c #A90705",
"n}+	c #B10908",
"o}+	c #B50706",
"p}+	c #BF0705",
"q}+	c #CE0A0B",
"r}+	c #DE090D",
"s}+	c #090400",
"t}+	c #2F2E29",
"u}+	c #31302B",
"v}+	c #272621",
"w}+	c #1C1B16",
"x}+	c #2E2D28",
"y}+	c #3E3D38",
"z}+	c #383732",
"A}+	c #33322D",
"B}+	c #35342F",
"C}+	c #2C2B26",
"D}+	c #2A2722",
"E}+	c #302D28",
"F}+	c #33302B",
"G}+	c #37342F",
"H}+	c #413E39",
"I}+	c #3E3B36",
"J}+	c #26231E",
"K}+	c #27221E",
"L}+	c #392622",
"M}+	c #3E2926",
"N}+	c #38201E",
"O}+	c #200403",
"P}+	c #240807",
"Q}+	c #2B0D0D",
"R}+	c #2E0406",
"S}+	c #4C2425",
"T}+	c #6D4949",
"U}+	c #503031",
"V}+	c #0B0603",
"W}+	c #583030",
"X}+	c #380000",
"Y}+	c #7C2E2E",
"Z}+	c #993738",
"`}+	c #AD3234",
" |+	c #B52524",
".|+	c #BE1915",
"+|+	c #CE1510",
"@|+	c #E3190F",
"#|+	c #F01A0F",
"$|+	c #F21304",
"%|+	c #F00A00",
"&|+	c #F30D0D",
"*|+	c #F20E05",
"=|+	c #FB0E06",
"-|+	c #FB0C05",
";|+	c #EA0508",
">|+	c #E70509",
",|+	c #DF0708",
"'|+	c #C20600",
")|+	c #B90100",
"!|+	c #B80100",
"~|+	c #BD0600",
"{|+	c #C50E0A",
"]|+	c #D21318",
"^|+	c #D91A22",
"/|+	c #D01820",
"(|+	c #C81F26",
"_|+	c #BC2729",
":|+	c #591103",
"<|+	c #6B120E",
"[|+	c #6F1612",
"}|+	c #69110F",
"||+	c #6E1612",
"1|+	c #731C13",
"2|+	c #781F17",
"3|+	c #761B16",
"4|+	c #75170F",
"5|+	c #832116",
"6|+	c #72180D",
"7|+	c #621C10",
"8|+	c #581F0C",
"9|+	c #54200A",
"0|+	c #581E0A",
"a|+	c #601F0B",
"b|+	c #691D0D",
"c|+	c #6F1C0C",
"d|+	c #7C150C",
"e|+	c #751008",
"f|+	c #74130C",
"g|+	c #751C16",
"h|+	c #731E17",
"i|+	c #721F11",
"j|+	c #8D3728",
"k|+	c #6E1809",
"l|+	c #6D1A0C",
"m|+	c #69150A",
"n|+	c #780C02",
"o|+	c #8F1812",
"p|+	c #91100B",
"q|+	c #920704",
"r|+	c #A00C0C",
"s|+	c #A10908",
"t|+	c #B00606",
"u|+	c #B70302",
"v|+	c #C60405",
"w|+	c #D6030A",
"x|+	c #3B3833",
"y|+	c #3A3732",
"z|+	c #3C3934",
"A|+	c #3F3C37",
"B|+	c #393631",
"C|+	c #35322D",
"D|+	c #2D1A16",
"E|+	c #230B09",
"F|+	c #320A0B",
"G|+	c #2F0506",
"H|+	c #6B4343",
"I|+	c #5D3939",
"J|+	c #1D0302",
"K|+	c #321D1A",
"L|+	c #3F0706",
"M|+	c #7F2F30",
"N|+	c #A94142",
"O|+	c #B63436",
"P|+	c #C22828",
"Q|+	c #CE1C1A",
"R|+	c #DA150F",
"S|+	c #F40B00",
"T|+	c #FA0A00",
"U|+	c #F90908",
"V|+	c #ED0F0C",
"W|+	c #F10E07",
"X|+	c #F90D02",
"Y|+	c #F70801",
"Z|+	c #E8090A",
"`|+	c #E5090B",
" 1+	c #E00B0D",
".1+	c #CF0805",
"+1+	c #C20500",
"@1+	c #B70000",
"#1+	c #BC0B05",
"$1+	c #C60E0C",
"%1+	c #CC1011",
"&1+	c #D21116",
"*1+	c #CF1018",
"=1+	c #D21D24",
"-1+	c #CC2C2E",
";1+	c #AC2522",
">1+	c #5E0800",
",1+	c #5D1000",
"'1+	c #6B100D",
")1+	c #6E1310",
"!1+	c #6A120E",
"~1+	c #711812",
"{1+	c #771E16",
"]1+	c #791C17",
"^1+	c #7A1B15",
"/1+	c #71150A",
"(1+	c #71190D",
"_1+	c #69190E",
":1+	c #5D1A09",
"<1+	c #5D1C08",
"[1+	c #681908",
"}1+	c #761407",
"|1+	c #7A1207",
"11+	c #7F1007",
"21+	c #84130B",
"31+	c #790C05",
"41+	c #760D07",
"51+	c #79130E",
"61+	c #6C1F17",
"71+	c #873124",
"81+	c #711B0C",
"91+	c #6A1707",
"01+	c #6C1A0C",
"a1+	c #711D12",
"b1+	c #70160B",
"c1+	c #890803",
"d1+	c #9B0B0A",
"e1+	c #9D0907",
"f1+	c #9D0804",
"g1+	c #AA110C",
"h1+	c #A90704",
"i1+	c #AD0100",
"j1+	c #BC0203",
"k1+	c #D1060C",
"l1+	c #2E2B26",
"m1+	c #292621",
"n1+	c #2B1311",
"o1+	c #391312",
"p1+	c #320809",
"q1+	c #623839",
"r1+	c #61393A",
"s1+	c #220404",
"t1+	c #390301",
"u1+	c #9D3536",
"v1+	c #B32D2E",
"w1+	c #C02020",
"x1+	c #DC0F0A",
"y1+	c #F70E00",
"z1+	c #FE0C00",
"A1+	c #FF0B00",
"B1+	c #FF0907",
"C1+	c #FD0909",
"D1+	c #DB120B",
"E1+	c #D8130B",
"F1+	c #D6140B",
"G1+	c #F60C05",
"H1+	c #F90C04",
"I1+	c #F80C01",
"J1+	c #EB0C0D",
"K1+	c #E70D0E",
"L1+	c #D20806",
"M1+	c #C80604",
"N1+	c #BF0601",
"O1+	c #BA0901",
"P1+	c #C20C09",
"Q1+	c #C80A0C",
"R1+	c #C7080D",
"S1+	c #CD141A",
"T1+	c #CC2326",
"U1+	c #6D0F0D",
"V1+	c #6F110F",
"W1+	c #721911",
"X1+	c #82211B",
"Y1+	c #801D17",
"Z1+	c #7E1813",
"`1+	c #852318",
" 2+	c #721A0E",
".2+	c #6F1B11",
"+2+	c #681A10",
"@2+	c #5F1105",
"#2+	c #6F1608",
"$2+	c #751507",
"%2+	c #860F09",
"&2+	c #931813",
"*2+	c #8F1510",
"=2+	c #891611",
"-2+	c #891C15",
";2+	c #8C2520",
">2+	c #8A2922",
",2+	c #81271F",
"'2+	c #772319",
")2+	c #6F221A",
"!2+	c #722015",
"~2+	c #822A1E",
"{2+	c #721F0F",
"]2+	c #6A1908",
"^2+	c #761A0F",
"/2+	c #790600",
"(2+	c #870C05",
"_2+	c #870601",
":2+	c #8A0300",
"<2+	c #9A0C08",
"[2+	c #9B0C06",
"}2+	c #A7170F",
"|2+	c #A20A05",
"12+	c #A10200",
"22+	c #B20403",
"32+	c #CC0B10",
"42+	c #2A2623",
"52+	c #312D2A",
"62+	c #34302D",
"72+	c #332F2C",
"82+	c #302B27",
"92+	c #2E2925",
"02+	c #2B2622",
"a2+	c #361E1E",
"b2+	c #35201F",
"c2+	c #301C1B",
"d2+	c #2B1917",
"e2+	c #180403",
"f2+	c #180302",
"g2+	c #190101",
"h2+	c #210909",
"i2+	c #301212",
"j2+	c #2E0807",
"k2+	c #2E0201",
"l2+	c #2F0101",
"m2+	c #592B2B",
"n2+	c #663A3B",
"o2+	c #431B1C",
"p2+	c #3E0000",
"q2+	c #851E1F",
"r2+	c #B53031",
"s2+	c #C32323",
"t2+	c #F31009",
"u2+	c #FF1105",
"v2+	c #FD0A00",
"w2+	c #FE0600",
"x2+	c #FD0708",
"y2+	c #F50D0B",
"z2+	c #EB120D",
"A2+	c #FB1106",
"B2+	c #FA0E03",
"C2+	c #E20E0D",
"D2+	c #DB0B0B",
"E2+	c #DC0B0E",
"F2+	c #D80E0E",
"G2+	c #CB0E0A",
"H2+	c #BF0E06",
"I2+	c #B81206",
"J2+	c #B30D01",
"K2+	c #AF0400",
"L2+	c #C20C0B",
"M2+	c #C41013",
"N2+	c #C41A1B",
"O2+	c #6F100C",
"P2+	c #7C231B",
"Q2+	c #80211D",
"R2+	c #7D1712",
"S2+	c #791B0F",
"T2+	c #8E0805",
"U2+	c #930D0A",
"V2+	c #95110F",
"W2+	c #9C1C19",
"X2+	c #9E2723",
"Y2+	c #992A23",
"Z2+	c #8F2823",
"`2+	c #84261E",
" 3+	c #681F16",
".3+	c #6C1E14",
"+3+	c #6C1A0F",
"@3+	c #761C11",
"#3+	c #893123",
"$3+	c #701D0D",
"%3+	c #6A1D0D",
"&3+	c #7C1006",
"*3+	c #8F0804",
"=3+	c #9C120F",
"-3+	c #950C06",
";3+	c #940B03",
">3+	c #980F05",
",3+	c #980E04",
"'3+	c #B90909",
")3+	c #120807",
"!3+	c #25100F",
"~3+	c #2B0E10",
"{3+	c #2F1516",
"]3+	c #362120",
"^3+	c #160201",
"/3+	c #320202",
"(3+	c #582627",
"_3+	c #6C3A3D",
":3+	c #4B1D1F",
"<3+	c #2E0708",
"[3+	c #100607",
"}3+	c #26211E",
"|3+	c #3B231F",
"13+	c #400000",
"23+	c #A62829",
"33+	c #C02425",
"43+	c #D01818",
"53+	c #FD1106",
"63+	c #FD0900",
"73+	c #FF0A00",
"83+	c #D8170E",
"93+	c #B30B00",
"03+	c #A80200",
"a3+	c #B20400",
"b3+	c #DA130C",
"c3+	c #FF0E07",
"d3+	c #FF1409",
"e3+	c #F70B00",
"f3+	c #DD1110",
"g3+	c #DC1011",
"h3+	c #DE1014",
"i3+	c #B71105",
"j3+	c #B21204",
"k3+	c #B80D05",
"l3+	c #BA0D07",
"m3+	c #BC0E0D",
"n3+	c #BD1816",
"o3+	c #B51B19",
"p3+	c #970C07",
"q3+	c #7B0C03",
"r3+	c #72110B",
"s3+	c #6D130B",
"t3+	c #6D1B10",
"u3+	c #74251E",
"v3+	c #7A1B17",
"w3+	c #7C1816",
"x3+	c #7D1713",
"y3+	c #79170C",
"z3+	c #791D10",
"A3+	c #6F180F",
"B3+	c #880604",
"C3+	c #8F0805",
"D3+	c #970D0B",
"E3+	c #A01211",
"F3+	c #A21615",
"G3+	c #9C1414",
"H3+	c #9D1B19",
"I3+	c #961F1B",
"J3+	c #8C1C18",
"K3+	c #662016",
"L3+	c #672117",
"M3+	c #6C1F15",
"N3+	c #82281D",
"O3+	c #6F1E0D",
"P3+	c #671A08",
"Q3+	c #6A1E0E",
"R3+	c #66180B",
"S3+	c #79180F",
"T3+	c #7E0F06",
"U3+	c #810A02",
"V3+	c #8E0F09",
"W3+	c #8E0703",
"X3+	c #9D140E",
"Y3+	c #9E180F",
"Z3+	c #A62118",
"`3+	c #981609",
" 4+	c #941003",
".4+	c #9B0800",
"+4+	c #130908",
"@4+	c #251A18",
"#4+	c #2D1012",
"$4+	c #33191A",
"%4+	c #3A2222",
"&4+	c #281413",
"*4+	c #3B0E09",
"=4+	c #330100",
"-4+	c #521C1C",
";4+	c #70393C",
">4+	c #542024",
",4+	c #300306",
"'4+	c #200000",
")4+	c #0E0206",
"!4+	c #0D0105",
"~4+	c #2B2320",
"{4+	c #410C08",
"]4+	c #942021",
"^4+	c #BA2527",
"/4+	c #D12123",
"(4+	c #DE1616",
"_4+	c #F50900",
":4+	c #FD0B00",
"<4+	c #E2130D",
"[4+	c #D41910",
"}4+	c #C11509",
"|4+	c #AB0700",
"14+	c #AE0000",
"24+	c #E01612",
"34+	c #ED1613",
"44+	c #FE0C08",
"54+	c #FF160E",
"64+	c #F00C0B",
"74+	c #E40F15",
"84+	c #E41117",
"94+	c #B60E03",
"04+	c #B01004",
"a4+	c #B00D04",
"b4+	c #AF0C07",
"c4+	c #B21A17",
"d4+	c #9B0D09",
"e4+	c #830904",
"f4+	c #74110B",
"g4+	c #71190F",
"h4+	c #731F15",
"i4+	c #5C1209",
"j4+	c #6D241D",
"k4+	c #70211C",
"l4+	c #741614",
"m4+	c #7C1614",
"n4+	c #671507",
"o4+	c #900A0B",
"p4+	c #950D0D",
"q4+	c #A5191A",
"r4+	c #AB1C1E",
"s4+	c #AC1E1D",
"t4+	c #8B1813",
"u4+	c #662217",
"v4+	c #82261B",
"w4+	c #872F21",
"x4+	c #6E1F0E",
"y4+	c #671C09",
"z4+	c #67200E",
"A4+	c #601706",
"B4+	c #611507",
"C4+	c #830C04",
"D4+	c #890500",
"E4+	c #9C130D",
"F4+	c #A31D14",
"G4+	c #B12C23",
"H4+	c #9D1D10",
"I4+	c #8D0B00",
"J4+	c #A00C00",
"K4+	c #29211F",
"L4+	c #231717",
"M4+	c #301818",
"N4+	c #381B1D",
"O4+	c #3D2324",
"P4+	c #3D2525",
"Q4+	c #1F0302",
"R4+	c #370101",
"S4+	c #4E1315",
"T4+	c #74373C",
"U4+	c #5E2629",
"V4+	c #320105",
"W4+	c #260000",
"X4+	c #1C0404",
"Y4+	c #0D0003",
"Z4+	c #3F0000",
"`4+	c #AF2729",
" 5+	c #CD2729",
".5+	c #D91819",
"+5+	c #ED0900",
"@5+	c #D2170E",
"#5+	c #C2140B",
"$5+	c #B40901",
"%5+	c #AD0000",
"&5+	c #BE0502",
"*5+	c #D30D0C",
"=5+	c #EA1615",
"-5+	c #F41615",
";5+	c #F40F0C",
">5+	c #FD100A",
",5+	c #FF170F",
"'5+	c #FF180F",
")5+	c #FD150B",
"!5+	c #F90F06",
"~5+	c #F60901",
"{5+	c #F8080B",
"]5+	c #F9090A",
"^5+	c #E00907",
"/5+	c #D50805",
"(5+	c #D00A07",
"_5+	c #E00F15",
":5+	c #E21117",
"<5+	c #D81213",
"[5+	c #C80F0C",
"}5+	c #BB0F05",
"|5+	c #A80E02",
"15+	c #A40A00",
"25+	c #AC1814",
"35+	c #9C0E0C",
"45+	c #771009",
"55+	c #771208",
"65+	c #721A10",
"75+	c #6E2016",
"85+	c #4F0A03",
"95+	c #6B201B",
"05+	c #7D1715",
"a5+	c #801A16",
"b5+	c #7B190E",
"c5+	c #781C0F",
"d5+	c #761E10",
"e5+	c #651607",
"f5+	c #9B1013",
"g5+	c #A81E1E",
"h5+	c #B22828",
"i5+	c #B52B2B",
"j5+	c #B02626",
"k5+	c #A51E1B",
"l5+	c #9C1814",
"m5+	c #8F1915",
"n5+	c #641E14",
"o5+	c #632115",
"p5+	c #631F14",
"q5+	c #7E2217",
"r5+	c #832B1D",
"s5+	c #5F1305",
"t5+	c #6A1208",
"u5+	c #77150C",
"v5+	c #890D05",
"w5+	c #8E0500",
"x5+	c #9E130C",
"y5+	c #A0170F",
"z5+	c #A72116",
"A5+	c #9E1F10",
"B5+	c #951806",
"C5+	c #8F1000",
"D5+	c #920D00",
"E5+	c #9B0E00",
"F5+	c #180F10",
"G5+	c #1E1818",
"H5+	c #291F20",
"I5+	c #231719",
"J5+	c #412428",
"K5+	c #402629",
"L5+	c #362022",
"M5+	c #160002",
"N5+	c #310A05",
"O5+	c #3F0E09",
"P5+	c #3C0403",
"Q5+	c #4D0F12",
"R5+	c #75343A",
"S5+	c #692B30",
"T5+	c #3A050B",
"U5+	c #2D0506",
"V5+	c #1F0506",
"W5+	c #120107",
"X5+	c #120005",
"Y5+	c #32332D",
"Z5+	c #3A0000",
"`5+	c #A12628",
" 6+	c #C2282A",
".6+	c #CD191C",
"+6+	c #DA1214",
"@6+	c #F70F0B",
"#6+	c #F4100D",
"$6+	c #E7120C",
"%6+	c #C70E09",
"&6+	c #C60D0A",
"*6+	c #CC0A0B",
"=6+	c #D70A0F",
"-6+	c #E30A12",
";6+	c #EF0C13",
">6+	c #F60D11",
",6+	c #F60C0D",
"'6+	c #F9120A",
")6+	c #FF160F",
"!6+	c #FC130C",
"~6+	c #F80E07",
"{6+	c #CB0100",
"]6+	c #CA0D09",
"^6+	c #D0130F",
"/6+	c #CE110F",
"(6+	c #C8130C",
"_6+	c #C2160A",
":6+	c #A51103",
"<6+	c #9C0C01",
"[6+	c #9F1008",
"}6+	c #A31813",
"|6+	c #960F0B",
"16+	c #890302",
"26+	c #830604",
"36+	c #791108",
"46+	c #5A170F",
"56+	c #531611",
"66+	c #651E1A",
"76+	c #741916",
"86+	c #7E1615",
"96+	c #731D0E",
"06+	c #641707",
"a6+	c #661E10",
"b6+	c #9A1516",
"c6+	c #AA2526",
"d6+	c #AF2D2D",
"e6+	c #A92725",
"f6+	c #850E08",
"g6+	c #86150F",
"h6+	c #7E160D",
"i6+	c #601A10",
"j6+	c #622014",
"k6+	c #5F2114",
"l6+	c #611F13",
"m6+	c #70130C",
"n6+	c #7E2016",
"o6+	c #80281A",
"p6+	c #6C1F0D",
"q6+	c #621B07",
"r6+	c #63200D",
"s6+	c #5D1906",
"t6+	c #680E05",
"u6+	c #81160C",
"v6+	c #970E08",
"w6+	c #A1140D",
"x6+	c #9B1107",
"y6+	c #9B1708",
"z6+	c #971603",
"A6+	c #971601",
"B6+	c #9B1702",
"C6+	c #A01301",
"D6+	c #1C1314",
"E6+	c #231A1B",
"F6+	c #281E1F",
"G6+	c #25191B",
"H6+	c #221616",
"I6+	c #382224",
"J6+	c #3A2023",
"K6+	c #351C1F",
"L6+	c #291315",
"M6+	c #190305",
"N6+	c #430908",
"O6+	c #712C31",
"P6+	c #6F2E34",
"Q6+	c #450C12",
"R6+	c #350B0D",
"S6+	c #230706",
"T6+	c #150208",
"U6+	c #19040B",
"V6+	c #120205",
"W6+	c #302F2B",
"X6+	c #2D322B",
"Y6+	c #242A20",
"Z6+	c #5B0D09",
"`6+	c #932322",
" 7+	c #B72629",
".7+	c #C41A1D",
"+7+	c #D41618",
"@7+	c #E41819",
"#7+	c #EA130E",
"$7+	c #CD0A06",
"%7+	c #CD090A",
"&7+	c #D70C10",
"*7+	c #E10E15",
"=7+	c #E80813",
"-7+	c #EE0411",
";7+	c #F2020D",
">7+	c #F5040B",
",7+	c #F20801",
"'7+	c #CA0300",
")7+	c #C50500",
"!7+	c #C40B06",
"~7+	c #D41213",
"{7+	c #D41411",
"]7+	c #CE1910",
"^7+	c #990F02",
"/7+	c #981207",
"(7+	c #9B1810",
"_7+	c #820604",
":7+	c #7A1205",
"<7+	c #7B1308",
"[7+	c #7A1408",
"}7+	c #731607",
"|7+	c #6A2015",
"17+	c #6C281F",
"27+	c #450B07",
"37+	c #601C19",
"47+	c #751A19",
"57+	c #7D1514",
"67+	c #77140E",
"77+	c #77190D",
"87+	c #711E0E",
"97+	c #681E11",
"07+	c #981E1B",
"a7+	c #951E1A",
"b7+	c #740C01",
"c7+	c #67190D",
"d7+	c #5A1A10",
"e7+	c #5C2113",
"f7+	c #5F1F13",
"g7+	c #601905",
"h7+	c #611E0B",
"i7+	c #5C1906",
"j7+	c #601708",
"k7+	c #81190E",
"l7+	c #7F0600",
"m7+	c #870700",
"n7+	c #A01711",
"o7+	c #B52620",
"p7+	c #A81810",
"q7+	c #9C1205",
"r7+	c #9B1603",
"s7+	c #060606",
"t7+	c #0F090B",
"u7+	c #231A1D",
"v7+	c #291E22",
"w7+	c #251A1E",
"x7+	c #171111",
"y7+	c #201614",
"z7+	c #221816",
"A7+	c #382A29",
"B7+	c #2E181A",
"C7+	c #2A1013",
"D7+	c #22090C",
"E7+	c #1F090B",
"F7+	c #290D0C",
"G7+	c #3C130F",
"H7+	c #3E0B07",
"I7+	c #470B0B",
"J7+	c #4A080A",
"K7+	c #641D23",
"L7+	c #6F2931",
"M7+	c #4D1218",
"N7+	c #3B0E11",
"O7+	c #100003",
"P7+	c #140006",
"Q7+	c #170408",
"R7+	c #3B3A36",
"S7+	c #232A22",
"T7+	c #1E2A1E",
"U7+	c #171D11",
"V7+	c #1A1006",
"W7+	c #37150C",
"X7+	c #470400",
"Y7+	c #851F1D",
"Z7+	c #B1292B",
"`7+	c #BE1B1E",
" 8+	c #CC1519",
".8+	c #DB1719",
"+8+	c #E01413",
"@8+	c #D40A08",
"#8+	c #E40812",
"$8+	c #EE0717",
"%8+	c #F50214",
"&8+	c #F70011",
"*8+	c #F9000F",
"=8+	c #F9020D",
"-8+	c #EA1205",
";8+	c #F3020B",
">8+	c #F4040D",
",8+	c #F6050C",
"'8+	c #CD0D08",
")8+	c #D61615",
"!8+	c #D61412",
"~8+	c #D2150F",
"{8+	c #C9140B",
"]8+	c #BD1208",
"^8+	c #A61407",
"/8+	c #971105",
"(8+	c #941409",
"_8+	c #951911",
":8+	c #8D120D",
"<8+	c #800905",
"[8+	c #811209",
"}8+	c #7E1406",
"|8+	c #7C1506",
"18+	c #7B1507",
"28+	c #771606",
"38+	c #681507",
"48+	c #76281C",
"58+	c #6B2820",
"68+	c #400602",
"78+	c #370200",
"88+	c #5B1B19",
"98+	c #761B1A",
"08+	c #76180C",
"a8+	c #72190B",
"b8+	c #721C0D",
"c8+	c #701F0E",
"d8+	c #68190A",
"e8+	c #651909",
"f8+	c #682012",
"g8+	c #601C0F",
"h8+	c #6E0900",
"i8+	c #701407",
"j8+	c #611C0D",
"k8+	c #57170D",
"l8+	c #54180E",
"m8+	c #581C11",
"n8+	c #591F11",
"o8+	c #5E1E12",
"p8+	c #781913",
"q8+	c #7E1D14",
"r8+	c #7F2719",
"s8+	c #5B1702",
"t8+	c #5D1A07",
"u8+	c #631A0B",
"v8+	c #7E190D",
"w8+	c #AB1811",
"x8+	c #A51208",
"y8+	c #AA1C0E",
"z8+	c #A71B0A",
"A8+	c #AB1E0C",
"B8+	c #B5200C",
"C8+	c #030502",
"D8+	c #130A0D",
"E8+	c #291D1F",
"F8+	c #14080A",
"G8+	c #0E0405",
"H8+	c #302624",
"I8+	c #3B2D2C",
"J8+	c #231111",
"K8+	c #130505",
"L8+	c #321213",
"M8+	c #431613",
"N8+	c #3E0704",
"O8+	c #470004",
"P8+	c #5A0F14",
"Q8+	c #6A2329",
"R8+	c #4F1315",
"S8+	c #3B0D0D",
"T8+	c #2D1E19",
"U8+	c #0F0001",
"V8+	c #41423D",
"W8+	c #1C261D",
"X8+	c #24271E",
"Y8+	c #1A1108",
"Z8+	c #350000",
"`8+	c #77221F",
" 9+	c #A63030",
".9+	c #B12121",
"+9+	c #BE1518",
"@9+	c #CB1315",
"#9+	c #D10D0F",
"$9+	c #D30706",
"%9+	c #D60A03",
"&9+	c #D70800",
"*9+	c #DE0C0B",
"=9+	c #EB050F",
"-9+	c #F1010E",
";9+	c #FB0313",
">9+	c #FE0211",
",9+	c #FF0210",
"'9+	c #FF060E",
")9+	c #E60C00",
"!9+	c #F00C03",
"~9+	c #EB090D",
"{9+	c #EC070E",
"]9+	c #EF020C",
"^9+	c #F4020E",
"/9+	c #D6150E",
"(9+	c #D01915",
"_9+	c #CF1611",
":9+	c #CD120D",
"<9+	c #CB120D",
"[9+	c #C6130C",
"}9+	c #BF140C",
"|9+	c #AB0D02",
"19+	c #941911",
"29+	c #8C120D",
"39+	c #830906",
"49+	c #841208",
"59+	c #821407",
"69+	c #801407",
"79+	c #7F1507",
"89+	c #7B1506",
"99+	c #751404",
"09+	c #741406",
"a9+	c #80281E",
"b9+	c #702F29",
"c9+	c #561C1A",
"d9+	c #811C12",
"e9+	c #7E1C0F",
"f9+	c #7A180B",
"g9+	c #741708",
"h9+	c #6B2114",
"i9+	c #692113",
"j9+	c #641C0E",
"k9+	c #70130B",
"l9+	c #641A0D",
"m9+	c #611B0F",
"n9+	c #5D190E",
"o9+	c #5B1B11",
"p9+	c #5B1C0D",
"q9+	c #641A0F",
"r9+	c #771A13",
"s9+	c #6B1C0D",
"t9+	c #5C1302",
"u9+	c #5E1A07",
"v9+	c #671B0D",
"w9+	c #7C170B",
"x9+	c #7E0C02",
"y9+	c #810500",
"z9+	c #A5150C",
"A9+	c #A7170C",
"B9+	c #B92A1C",
"C9+	c #B22312",
"D9+	c #B3220F",
"E9+	c #B92410",
"F9+	c #BD200D",
"G9+	c #0A0408",
"H9+	c #361A19",
"I9+	c #000700",
"J9+	c #000800",
"K9+	c #000600",
"L9+	c #120306",
"M9+	c #261C1B",
"N9+	c #3F3432",
"O9+	c #413634",
"P9+	c #220205",
"Q9+	c #3D0705",
"R9+	c #450503",
"S9+	c #530B0C",
"T9+	c #55090D",
"U9+	c #63171B",
"V9+	c #722A2D",
"W9+	c #5B1F1E",
"X9+	c #41140F",
"Y9+	c #4E4B44",
"Z9+	c #544C49",
"`9+	c #423434",
" 0+	c #341D23",
".0+	c #2E191E",
"+0+	c #3B3D38",
"@0+	c #434540",
"#0+	c #2C2E29",
"$0+	c #3C130D",
"%0+	c #7C231F",
"&0+	c #9D2725",
"*0+	c #A41213",
"=0+	c #B3090A",
"-0+	c #BA0000",
";0+	c #CE0306",
">0+	c #EA0605",
",0+	c #F50204",
"'0+	c #F70706",
")0+	c #F9020A",
"!0+	c #F5040D",
"~0+	c #ED080F",
"{0+	c #E40C11",
"]0+	c #D51314",
"^0+	c #D50D0F",
"/0+	c #E0070F",
"(0+	c #EE0812",
"_0+	c #FC0615",
":0+	c #FF0310",
"<0+	c #EE0E0C",
"[0+	c #CF130A",
"}0+	c #B91307",
"|0+	c #C31D11",
"10+	c #C82015",
"20+	c #CF271E",
"30+	c #C31C14",
"40+	c #B1140D",
"50+	c #AA150E",
"60+	c #A2150C",
"70+	c #971108",
"80+	c #850F03",
"90+	c #841003",
"00+	c #821206",
"a0+	c #7E1609",
"b0+	c #7D1508",
"c0+	c #7D0E03",
"d0+	c #801005",
"e0+	c #8B1C13",
"f0+	c #851E17",
"g0+	c #400906",
"h0+	c #2A0200",
"i0+	c #3F120D",
"j0+	c #6A1F1A",
"k0+	c #771A15",
"l0+	c #82180B",
"m0+	c #841A0C",
"n0+	c #781C0D",
"o0+	c #6F2013",
"p0+	c #6D1D12",
"q0+	c #67150A",
"r0+	c #65150A",
"s0+	c #61120B",
"t0+	c #5C1207",
"u0+	c #5C1A0C",
"v0+	c #5B1C0B",
"w0+	c #631B0D",
"x0+	c #751E14",
"y0+	c #641506",
"z0+	c #7B1509",
"A0+	c #740800",
"B0+	c #870E05",
"C0+	c #880800",
"D0+	c #A61E12",
"E0+	c #C22D19",
"F0+	c #B61906",
"G0+	c #C51E0B",
"H0+	c #5B3937",
"I0+	c #4C2927",
"J0+	c #290604",
"K0+	c #140100",
"L0+	c #000900",
"M0+	c #140405",
"N0+	c #271B1B",
"O0+	c #1D1910",
"P0+	c #372C2A",
"Q0+	c #070802",
"R0+	c #150103",
"S0+	c #1A0001",
"T0+	c #280509",
"U0+	c #421518",
"V0+	c #490504",
"W0+	c #560C0D",
"X0+	c #530709",
"Y0+	c #5E1214",
"Z0+	c #702A2A",
"`0+	c #5A201C",
" a+	c #380D06",
".a+	c #1C180C",
"+a+	c #29261D",
"@a+	c #6A5C5C",
"#a+	c #796066",
"$a+	c #715C61",
"%a+	c #575350",
"&a+	c #545952",
"*a+	c #393532",
"=a+	c #221817",
"-a+	c #3D0B04",
";a+	c #910A07",
">a+	c #A40001",
",a+	c #B90002",
"'a+	c #DB0608",
")a+	c #E30908",
"!a+	c #FB040D",
"~a+	c #F30610",
"{a+	c #DA0D12",
"]a+	c #CA1011",
"^a+	c #BC0D0A",
"/a+	c #B40502",
"(a+	c #D3070A",
"_a+	c #EC0C16",
":a+	c #F90715",
"<a+	c #F9000A",
"[a+	c #EB110F",
"}a+	c #E0140D",
"|a+	c #B51809",
"1a+	c #BA1A0C",
"2a+	c #BF1D10",
"3a+	c #C62419",
"4a+	c #CA281D",
"5a+	c #C5221B",
"6a+	c #B91B12",
"7a+	c #AA0F0A",
"8a+	c #931008",
"9a+	c #8F1309",
"0a+	c #8B1209",
"aa+	c #861006",
"ba+	c #880E03",
"ca+	c #87150A",
"da+	c #871D10",
"ea+	c #851308",
"fa+	c #8F1C15",
"ga+	c #641D19",
"ha+	c #7E180C",
"ia+	c #86180B",
"ja+	c #891A09",
"ka+	c #861809",
"la+	c #7E1708",
"ma+	c #7B1B0D",
"na+	c #5C1909",
"oa+	c #5C1A0A",
"pa+	c #7F221A",
"qa+	c #761E14",
"ra+	c #6A1709",
"sa+	c #760600",
"ta+	c #871008",
"ua+	c #8A0F07",
"va+	c #8C0D04",
"wa+	c #9E1C0F",
"xa+	c #9E1A0D",
"ya+	c #971201",
"za+	c #A01705",
"Aa+	c #BF2815",
"Ba+	c #CF2412",
"Ca+	c #070206",
"Da+	c #462826",
"Ea+	c #664442",
"Fa+	c #5B3836",
"Ga+	c #240100",
"Ha+	c #020901",
"Ia+	c #000901",
"Ja+	c #1F1013",
"Ka+	c #211B1B",
"La+	c #291E1C",
"Ma+	c #1F0206",
"Na+	c #2D0A0E",
"Oa+	c #471A1D",
"Pa+	c #460405",
"Qa+	c #4F0506",
"Ra+	c #580E0F",
"Sa+	c #702C2B",
"Ta+	c #5C2522",
"Ua+	c #310901",
"Va+	c #2C1408",
"Wa+	c #14140A",
"Xa+	c #302222",
"Ya+	c #52393F",
"Za+	c #624B51",
"`a+	c #524847",
" b+	c #45403C",
".b+	c #362C2B",
"+b+	c #362C2D",
"@b+	c #35292B",
"#b+	c #312122",
"$b+	c #7C2E2A",
"%b+	c #B54C48",
"&b+	c #A31917",
"*b+	c #B20C0C",
"=b+	c #CF1113",
"-b+	c #D80A0C",
";b+	c #E20809",
">b+	c #F0090F",
",b+	c #E20B10",
"'b+	c #D40D10",
")b+	c #C10B0A",
"!b+	c #B10501",
"~b+	c #A50000",
"{b+	c #C60203",
"]b+	c #E20B12",
"^b+	c #F30914",
"/b+	c #F7010C",
"(b+	c #ED0F0E",
"_b+	c #C90F03",
":b+	c #BC1409",
"<b+	c #C31B12",
"[b+	c #CA231A",
"}b+	c #C9241E",
"|b+	c #B1140F",
"1b+	c #920901",
"2b+	c #941109",
"3b+	c #91150B",
"4b+	c #8A1108",
"5b+	c #850B00",
"6b+	c #870E03",
"7b+	c #891A0F",
"8b+	c #871B0F",
"9b+	c #881208",
"0b+	c #880D05",
"ab+	c #8B0B02",
"bb+	c #911A12",
"cb+	c #8B241D",
"db+	c #7B2822",
"eb+	c #4D100B",
"fb+	c #7B1D15",
"gb+	c #8A1A0C",
"hb+	c #87190A",
"ib+	c #7F1809",
"jb+	c #7C1C0E",
"kb+	c #6D1D14",
"lb+	c #701D15",
"mb+	c #651305",
"nb+	c #A21E12",
"ob+	c #A11B0F",
"pb+	c #AA2111",
"qb+	c #B72110",
"rb+	c #220D0C",
"sb+	c #4C2A29",
"tb+	c #050A03",
"ub+	c #000A01",
"vb+	c #000A02",
"wb+	c #040903",
"xb+	c #1A0E10",
"yb+	c #251619",
"zb+	c #2C1D20",
"Ab+	c #1C1616",
"Bb+	c #322826",
"Cb+	c #46191C",
"Db+	c #481011",
"Eb+	c #410101",
"Fb+	c #571111",
"Gb+	c #733331",
"Hb+	c #5E2B27",
"Ib+	c #351F14",
"Jb+	c #161407",
"Kb+	c #1C1C12",
"Lb+	c #2B1518",
"Mb+	c #381F23",
"Nb+	c #251717",
"Ob+	c #322326",
"Pb+	c #3D2E33",
"Qb+	c #3B2C31",
"Rb+	c #342427",
"Sb+	c #361D20",
"Tb+	c #47110F",
"Ub+	c #7B2C28",
"Vb+	c #B94D4A",
"Wb+	c #B32825",
"Xb+	c #F30A0D",
"Yb+	c #DF0D10",
"Zb+	c #D00E0E",
"`b+	c #B30400",
" c+	c #AB0400",
".c+	c #A60200",
"+c+	c #BE0100",
"@c+	c #D70609",
"#c+	c #EC0B11",
"$c+	c #FB0B14",
"%c+	c #DD0D09",
"&c+	c #BD0D00",
"*c+	c #C1130A",
"=c+	c #B81913",
"-c+	c #840B02",
";c+	c #891007",
">c+	c #871209",
",c+	c #85150A",
"'c+	c #831409",
")c+	c #851309",
"!c+	c #901007",
"~c+	c #8F0A01",
"{c+	c #931610",
"]c+	c #842C28",
"^c+	c #581713",
"/c+	c #310100",
"(c+	c #320200",
"_c+	c #5A1311",
":c+	c #851E15",
"<c+	c #8C1B0D",
"[c+	c #82180A",
"}c+	c #731B0F",
"|c+	c #6A160B",
"1c+	c #630F04",
"2c+	c #61190D",
"3c+	c #742015",
"4c+	c #631103",
"5c+	c #6C1607",
"6c+	c #851007",
"7c+	c #850901",
"8c+	c #900F09",
"9c+	c #920C03",
"0c+	c #A51C12",
"ac+	c #AE261A",
"bc+	c #B62D1D",
"cc+	c #B52413",
"dc+	c #BB1B0B",
"ec+	c #210301",
"fc+	c #19090A",
"gc+	c #080A05",
"hc+	c #2B1C1F",
"ic+	c #25191D",
"jc+	c #1A0F13",
"kc+	c #1F0204",
"lc+	c #2A070B",
"mc+	c #461010",
"nc+	c #460606",
"oc+	c #490708",
"pc+	c #5B1B1B",
"qc+	c #723836",
"rc+	c #19170A",
"sc+	c #302923",
"tc+	c #311B1E",
"uc+	c #3B2226",
"vc+	c #2F191B",
"wc+	c #321E20",
"xc+	c #3A272B",
"yc+	c #392830",
"zc+	c #2D1E25",
"Ac+	c #25141C",
"Bc+	c #2B1218",
"Cc+	c #3D191D",
"Dc+	c #4A1213",
"Ec+	c #6A1918",
"Fc+	c #A93937",
"Gc+	c #BE2D2A",
"Hc+	c #CA1D19",
"Ic+	c #ED1312",
"Jc+	c #EC0C02",
"Kc+	c #E80E0F",
"Lc+	c #DB0F0E",
"Mc+	c #CF1210",
"Nc+	c #A30100",
"Oc+	c #AC0400",
"Pc+	c #C00702",
"Qc+	c #D30C09",
"Rc+	c #E60E11",
"Sc+	c #F40E11",
"Tc+	c #C30B01",
"Uc+	c #C71A14",
"Vc+	c #B81611",
"Wc+	c #9A0700",
"Xc+	c #8D140C",
"Yc+	c #8F140C",
"Zc+	c #821006",
"`c+	c #871107",
" d+	c #93140B",
".d+	c #9D180F",
"+d+	c #9C0F06",
"@d+	c #9E140A",
"#d+	c #97130E",
"$d+	c #951F1B",
"%d+	c #8A2D28",
"&d+	c #380200",
"*d+	c #360300",
"=d+	c #882319",
"-d+	c #8B1C11",
";d+	c #8E1C11",
">d+	c #8D1C0E",
",d+	c #85190C",
"'d+	c #7F1E0E",
")d+	c #6D1F13",
"!d+	c #621004",
"~d+	c #6A1B0C",
"{d+	c #621505",
"]d+	c #691807",
"^d+	c #6F190A",
"/d+	c #731708",
"(d+	c #761608",
"_d+	c #840902",
":d+	c #99120E",
"<d+	c #9F160C",
"[d+	c #B22A1E",
"}d+	c #B42F20",
"|d+	c #B72E1E",
"1d+	c #B72818",
"2d+	c #2B0707",
"3d+	c #1E0F12",
"4d+	c #150A0E",
"5d+	c #1E0201",
"6d+	c #260405",
"7d+	c #430706",
"8d+	c #490D0C",
"9d+	c #622826",
"0d+	c #6C3936",
"ad+	c #49201A",
"bd+	c #252116",
"cd+	c #1B180F",
"dd+	c #371D1E",
"ed+	c #362023",
"fd+	c #341F24",
"gd+	c #28171F",
"hd+	c #1C0C16",
"id+	c #1B0A12",
"jd+	c #270E14",
"kd+	c #391016",
"ld+	c #4C0E13",
"md+	c #680E10",
"nd+	c #A42C2B",
"od+	c #C52B29",
"pd+	c #F31311",
"qd+	c #D31612",
"rd+	c #AD0200",
"sd+	c #C91109",
"td+	c #DD1611",
"ud+	c #E50F0F",
"vd+	c #D30E06",
"wd+	c #CA0E05",
"xd+	c #C1160F",
"yd+	c #BD1A13",
"zd+	c #B01510",
"Ad+	c #A10E07",
"Bd+	c #930801",
"Cd+	c #91150D",
"Dd+	c #8E120A",
"Ed+	c #880F07",
"Fd+	c #9A150C",
"Gd+	c #971C17",
"Hd+	c #390000",
"Id+	c #822722",
"Jd+	c #811D0E",
"Kd+	c #67180B",
"Ld+	c #62150B",
"Md+	c #6B1C0F",
"Nd+	c #6C1E11",
"Od+	c #661B08",
"Pd+	c #761F0E",
"Qd+	c #781B0A",
"Rd+	c #791808",
"Sd+	c #840800",
"Td+	c #A11812",
"Ud+	c #980F07",
"Vd+	c #961007",
"Wd+	c #AC281C",
"Xd+	c #BB392B",
"Yd+	c #9B1C0D",
"Zd+	c #B02B1C",
"`d+	c #B72B1C",
" e+	c #361715",
".e+	c #3A1616",
"+e+	c #220203",
"@e+	c #110102",
"#e+	c #160609",
"$e+	c #16070A",
"%e+	c #11060A",
"&e+	c #0A0509",
"*e+	c #240203",
"=e+	c #360C0D",
"-e+	c #3F0E0A",
";e+	c #491110",
">e+	c #683532",
",e+	c #653833",
"'e+	c #161207",
")e+	c #2B1718",
"!e+	c #281415",
"~e+	c #251216",
"{e+	c #1D0E15",
"]e+	c #1B0C13",
"^e+	c #220E17",
"/e+	c #2F1119",
"(e+	c #31020A",
"_e+	c #470006",
":e+	c #751014",
"<e+	c #B42F30",
"[e+	c #C21D1B",
"}e+	c #F2050B",
"|e+	c #F00B08",
"1e+	c #C30C04",
"2e+	c #B10300",
"3e+	c #BA0800",
"4e+	c #E21814",
"5e+	c #E60405",
"6e+	c #F40A0D",
"7e+	c #C20C08",
"8e+	c #C11C16",
"9e+	c #B61914",
"0e+	c #9B0E07",
"ae+	c #890A04",
"be+	c #8B0A04",
"ce+	c #880C04",
"de+	c #910E06",
"ee+	c #AD1A12",
"fe+	c #B1170F",
"ge+	c #B0170F",
"he+	c #A2110C",
"ie+	c #9A1914",
"je+	c #8C231F",
"ke+	c #651516",
"le+	c #87241E",
"me+	c #891A11",
"ne+	c #851509",
"oe+	c #821C0E",
"pe+	c #721C0F",
"qe+	c #67190C",
"re+	c #5F170B",
"se+	c #6B1F11",
"te+	c #6B2213",
"ue+	c #68210F",
"ve+	c #661F0B",
"we+	c #6A1F0C",
"xe+	c #71230F",
"ye+	c #792211",
"ze+	c #7A1D0C",
"Ae+	c #7C1608",
"Be+	c #801205",
"Ce+	c #A7221B",
"De+	c #A11A14",
"Ee+	c #96110A",
"Fe+	c #A6281C",
"Ge+	c #C74D40",
"He+	c #951D0D",
"Ie+	c #941C0C",
"Je+	c #A02214",
"Ke+	c #3C1D1B",
"Le+	c #573534",
"Me+	c #492525",
"Ne+	c #1F1315",
"Oe+	c #2E2020",
"Pe+	c #170103",
"Qe+	c #1A0608",
"Re+	c #0D0709",
"Se+	c #1E0200",
"Te+	c #250101",
"Ue+	c #350B0C",
"Ve+	c #390804",
"We+	c #461511",
"Xe+	c #6B3E39",
"Ye+	c #5F3833",
"Ze+	c #2C281F",
"`e+	c #201114",
" f+	c #231218",
".f+	c #2C121B",
"+f+	c #370F18",
"@f+	c #3E050C",
"#f+	c #530107",
"$f+	c #962328",
"%f+	c #D64445",
"&f+	c #CD1B1B",
"*f+	c #DE130F",
"=f+	c #F3120E",
"-f+	c #F7120F",
";f+	c #ED0908",
">f+	c #F0070B",
",f+	c #E70507",
"'f+	c #E61916",
")f+	c #D4130E",
"!f+	c #CE0D06",
"~f+	c #C30A05",
"{f+	c #BC0E07",
"]f+	c #BD1610",
"^f+	c #B1120C",
"/f+	c #A60F08",
"(f+	c #97100A",
"_f+	c #8C0803",
":f+	c #8A0500",
"<f+	c #8F0E08",
"[f+	c #911108",
"}f+	c #9D140C",
"|f+	c #B51C14",
"1f+	c #B3120A",
"2f+	c #A30E08",
"3f+	c #9B1611",
"4f+	c #8E211E",
"5f+	c #3B0000",
"6f+	c #84231D",
"7f+	c #87180F",
"8f+	c #8B160C",
"9f+	c #831307",
"0f+	c #851B0E",
"af+	c #6D1B0F",
"bf+	c #681A0D",
"cf+	c #651B0E",
"df+	c #691A13",
"ef+	c #6D2113",
"ff+	c #67200C",
"gf+	c #651E0A",
"hf+	c #68200A",
"if+	c #7A2310",
"jf+	c #791C0B",
"kf+	c #791304",
"lf+	c #7D0F02",
"mf+	c #830A01",
"nf+	c #911209",
"of+	c #860C01",
"pf+	c #9F291D",
"qf+	c #CB5A4C",
"rf+	c #8D1F10",
"sf+	c #831808",
"tf+	c #801505",
"uf+	c #89190B",
"vf+	c #341616",
"wf+	c #543233",
"xf+	c #1F0F10",
"yf+	c #2F1B1C",
"zf+	c #1D0002",
"Af+	c #1F0103",
"Bf+	c #250709",
"Cf+	c #402A2C",
"Df+	c #060105",
"Ef+	c #340807",
"Ff+	c #40100E",
"Gf+	c #370602",
"Hf+	c #60332E",
"If+	c #704743",
"Jf+	c #472420",
"Kf+	c #371C15",
"Lf+	c #210B0E",
"Mf+	c #2B080E",
"Nf+	c #300004",
"Of+	c #801B21",
"Pf+	c #BE393E",
"Qf+	c #DB383B",
"Rf+	c #E22122",
"Sf+	c #F40000",
"Tf+	c #EB090B",
"Uf+	c #F1060B",
"Vf+	c #DE150E",
"Wf+	c #D30E08",
"Xf+	c #CA0F0A",
"Yf+	c #C00F09",
"Zf+	c #BA110A",
"`f+	c #B00F07",
" g+	c #A50C06",
".g+	c #A0110B",
"+g+	c #920702",
"@g+	c #950A03",
"#g+	c #A6170F",
"$g+	c #B41B13",
"%g+	c #B9140E",
"&g+	c #AF140F",
"*g+	c #A01613",
"=g+	c #932321",
"-g+	c #3D0000",
";g+	c #3C0201",
">g+	c #500A0C",
",g+	c #852622",
"'g+	c #8A1D16",
")g+	c #840F05",
"!g+	c #861004",
"~g+	c #8C1A0F",
"{g+	c #7D1B0E",
"]g+	c #741A0F",
"^g+	c #6E1C0E",
"/g+	c #6A1C0F",
"(g+	c #691D0F",
"_g+	c #69220E",
":g+	c #68210D",
"<g+	c #69210B",
"[g+	c #6F220E",
"}g+	c #78230F",
"|g+	c #7E2110",
"1g+	c #8C170D",
"2g+	c #921C12",
"3g+	c #931D13",
"4g+	c #962117",
"5g+	c #942418",
"6g+	c #B85243",
"7g+	c #9C3B2A",
"8g+	c #7F200E",
"9g+	c #791A08",
"0g+	c #7F1E0D",
"ag+	c #422223",
"bg+	c #432120",
"cg+	c #2D1110",
"dg+	c #1B0B0C",
"eg+	c #221010",
"fg+	c #1F0002",
"gg+	c #290004",
"hg+	c #310D0F",
"ig+	c #422426",
"jg+	c #442C2C",
"kg+	c #2A1818",
"lg+	c #080607",
"mg+	c #1F0602",
"ng+	c #270805",
"og+	c #300808",
"pg+	c #350908",
"qg+	c #6C433F",
"rg+	c #674440",
"sg+	c #28100E",
"tg+	c #3C0B0E",
"ug+	c #690A10",
"vg+	c #9D242B",
"wg+	c #CB3237",
"xg+	c #DA0C0E",
"yg+	c #D60100",
"zg+	c #D70200",
"Ag+	c #F2070C",
"Bg+	c #ED0B0D",
"Cg+	c #E7110F",
"Dg+	c #FC0309",
"Eg+	c #DF0F0B",
"Fg+	c #CA1710",
"Gg+	c #B41108",
"Hg+	c #A70E08",
"Ig+	c #A6130C",
"Jg+	c #A10D09",
"Kg+	c #9F0E09",
"Lg+	c #990C05",
"Mg+	c #AB140B",
"Ng+	c #B81109",
"Og+	c #B30600",
"Pg+	c #BC130C",
"Qg+	c #410000",
"Rg+	c #3E0607",
"Sg+	c #490709",
"Tg+	c #7E231E",
"Ug+	c #8A1F17",
"Vg+	c #88130A",
"Wg+	c #8B1207",
"Xg+	c #901A0E",
"Yg+	c #801B0F",
"Zg+	c #6D1E11",
"`g+	c #6A1E10",
" h+	c #681C0C",
".h+	c #6C2010",
"+h+	c #74210F",
"@h+	c #781F0D",
"#h+	c #781808",
"$h+	c #891D11",
"%h+	c #8E1F14",
"&h+	c #92261A",
"*h+	c #922A1D",
"=h+	c #8F2B1C",
"-h+	c #9E4132",
";h+	c #943B29",
">h+	c #7D2716",
",h+	c #6E1807",
"'h+	c #701707",
")h+	c #1E0908",
"!h+	c #230D0F",
"~h+	c #2F1113",
"{h+	c #2F060A",
"]h+	c #441317",
"^h+	c #532629",
"/h+	c #532F2F",
"(h+	c #2A0705",
"_h+	c #350707",
":h+	c #300000",
"<h+	c #3D0D09",
"[h+	c #613C36",
"}h+	c #52332E",
"|h+	c #380502",
"1h+	c #440000",
"2h+	c #520000",
"3h+	c #8B1217",
"4h+	c #B62329",
"5h+	c #D2232A",
"6h+	c #D2090F",
"7h+	c #D90001",
"8h+	c #FF0B0A",
"9h+	c #E30907",
"0h+	c #FB040C",
"ah+	c #FC030B",
"bh+	c #F70008",
"ch+	c #F60108",
"dh+	c #E41410",
"eh+	c #DB1E18",
"fh+	c #D11E17",
"gh+	c #B51108",
"hh+	c #AC0F08",
"ih+	c #B0130C",
"jh+	c #AB100C",
"kh+	c #A50C07",
"lh+	c #AF1611",
"mh+	c #A51009",
"nh+	c #A60D05",
"oh+	c #AC0F06",
"ph+	c #BB140C",
"qh+	c #C91C15",
"rh+	c #A3332F",
"sh+	c #390605",
"th+	c #330003",
"uh+	c #3F0406",
"vh+	c #771F1B",
"wh+	c #89201A",
"xh+	c #8D180F",
"yh+	c #8F160B",
"zh+	c #941B10",
"Ah+	c #7F170A",
"Bh+	c #671A0A",
"Ch+	c #68190C",
"Dh+	c #6D2010",
"Eh+	c #681F0C",
"Fh+	c #671E0B",
"Gh+	c #6A1F0A",
"Hh+	c #6F1E0B",
"Ih+	c #701A09",
"Jh+	c #6F1304",
"Kh+	c #6B0E00",
"Lh+	c #6D1102",
"Mh+	c #721504",
"Nh+	c #771709",
"Oh+	c #88281A",
"Ph+	c #872B1C",
"Qh+	c #7C2617",
"Rh+	c #782918",
"Sh+	c #611201",
"Th+	c #600D00",
"Uh+	c #1E0405",
"Vh+	c #240405",
"Wh+	c #331112",
"Xh+	c #3C1F21",
"Yh+	c #1D0505",
"Zh+	c #501F23",
"`h+	c #4C1319",
" i+	c #591E24",
".i+	c #6A3235",
"+i+	c #693738",
"@i+	c #512728",
"#i+	c #310504",
"$i+	c #3A0905",
"%i+	c #370703",
"&i+	c #2F0602",
"*i+	c #421F1B",
"=i+	c #3C201C",
"-i+	c #2F1715",
";i+	c #341208",
">i+	c #370000",
",i+	c #590000",
"'i+	c #C81920",
")i+	c #DC151C",
"!i+	c #E0050D",
"~i+	c #EA110C",
"{i+	c #FA050C",
"]i+	c #FB060D",
"^i+	c #E1110F",
"/i+	c #D61B14",
"(i+	c #B60B01",
"_i+	c #B40D04",
":i+	c #B30F06",
"<i+	c #B5120B",
"[i+	c #AF150D",
"}i+	c #AE1007",
"|i+	c #AE0A01",
"1i+	c #CF1A11",
"2i+	c #C71910",
"3i+	c #BD1C14",
"4i+	c #9E2E2C",
"5i+	c #330505",
"6i+	c #300205",
"7i+	c #360204",
"8i+	c #4F0B0C",
"9i+	c #87201B",
"0i+	c #91180D",
"ai+	c #6A1B0E",
"bi+	c #65190C",
"ci+	c #6C1D0C",
"di+	c #732113",
"ei+	c #6A1D0B",
"fi+	c #631A07",
"gi+	c #651A07",
"hi+	c #661907",
"ii+	c #681704",
"ji+	c #671102",
"ki+	c #610E00",
"li+	c #631000",
"mi+	c #661001",
"ni+	c #6E1205",
"oi+	c #74180B",
"pi+	c #7B2516",
"qi+	c #742717",
"ri+	c #601303",
"si+	c #600E00",
"ti+	c #1C0001",
"ui+	c #1E0001",
"vi+	c #2E0B0F",
"wi+	c #3D2022",
"xi+	c #551E23",
"yi+	c #612328",
"zi+	c #723034",
"Ai+	c #7D3C40",
"Bi+	c #622A2B",
"Ci+	c #302020",
"Di+	c #342424",
"Ei+	c #050600",
"Fi+	c #0E0204",
"Gi+	c #390909",
"Hi+	c #3A0807",
"Ii+	c #451410",
"Ji+	c #360904",
"Ki+	c #341817",
"Li+	c #360700",
"Mi+	c #340000",
"Ni+	c #550600",
"Oi+	c #A91314",
"Pi+	c #CC191D",
"Qi+	c #F3080F",
"Ri+	c #E70302",
"Si+	c #DC0B07",
"Ti+	c #DB0E09",
"Ui+	c #E51410",
"Vi+	c #EC1512",
"Wi+	c #F01211",
"Xi+	c #F6070D",
"Yi+	c #DD0707",
"Zi+	c #D40905",
"`i+	c #C70F07",
" j+	c #B10600",
".j+	c #B50D04",
"+j+	c #BA130A",
"@j+	c #BA130B",
"#j+	c #B80F08",
"$j+	c #B90D09",
"%j+	c #BE110D",
"&j+	c #AE0903",
"*j+	c #B9180E",
"=j+	c #B00800",
"-j+	c #B90800",
";j+	c #8C201D",
">j+	c #5A0A09",
",j+	c #380001",
"'j+	c #2E0509",
")j+	c #320104",
"!j+	c #470708",
"~j+	c #851F1A",
"{j+	c #8E1D15",
"]j+	c #91170A",
"^j+	c #911C12",
"/j+	c #811C10",
"(j+	c #7A1E13",
"_j+	c #711F13",
":j+	c #6E1F10",
"<j+	c #6C1E0A",
"[j+	c #731C0B",
"}j+	c #771E10",
"|j+	c #762011",
"1j+	c #6B1C0B",
"2j+	c #5D1403",
"3j+	c #601404",
"4j+	c #621503",
"5j+	c #621304",
"6j+	c #611203",
"7j+	c #5A1100",
"8j+	c #610F01",
"9j+	c #722314",
"0j+	c #712215",
"aj+	c #260307",
"bj+	c #311416",
"cj+	c #2B0000",
"dj+	c #460B0F",
"ej+	c #843C40",
"fj+	c #793236",
"gj+	c #541617",
"hj+	c #290300",
"ij+	c #3A110F",
"jj+	c #410F0E",
"kj+	c #43100F",
"lj+	c #380B06",
"mj+	c #200C0B",
"nj+	c #2D0F0F",
"oj+	c #340100",
"pj+	c #450803",
"qj+	c #5A150E",
"rj+	c #86201B",
"sj+	c #9B201B",
"tj+	c #B21C1B",
"uj+	c #E1161A",
"vj+	c #EF0208",
"wj+	c #FB060B",
"xj+	c #ED0001",
"yj+	c #D60000",
"zj+	c #D80B08",
"Aj+	c #E81411",
"Bj+	c #E10507",
"Cj+	c #CA0000",
"Dj+	c #B40900",
"Ej+	c #B91106",
"Fj+	c #C0180F",
"Gj+	c #C0150D",
"Hj+	c #BF120C",
"Ij+	c #B30B02",
"Jj+	c #B71008",
"Kj+	c #C01910",
"Lj+	c #BA1209",
"Mj+	c #B60A00",
"Nj+	c #BD0800",
"Oj+	c #A51C16",
"Pj+	c #530505",
"Qj+	c #350103",
"Rj+	c #30090C",
"Sj+	c #2D090D",
"Tj+	c #2E0104",
"Uj+	c #400404",
"Vj+	c #621211",
"Wj+	c #801D18",
"Xj+	c #8D1C14",
"Yj+	c #90170C",
"Zj+	c #8F1508",
"`j+	c #8A1B10",
" k+	c #821C10",
".k+	c #721E13",
"+k+	c #701E10",
"@k+	c #691C0A",
"#k+	c #6B1D07",
"$k+	c #6F1C0A",
"%k+	c #721B0A",
"&k+	c #75190A",
"*k+	c #6E1B0B",
"=k+	c #671807",
"-k+	c #5D1604",
";k+	c #5E1506",
">k+	c #561302",
",k+	c #541100",
"'k+	c #570F00",
")k+	c #5C1002",
"!k+	c #5D0E01",
"~k+	c #620E03",
"{k+	c #1D0304",
"]k+	c #1D0001",
"^k+	c #230004",
"/k+	c #25080A",
"(k+	c #400205",
"_k+	c #722A2E",
":k+	c #87383D",
"<k+	c #6D2226",
"[k+	c #4A0809",
"}k+	c #2E0604",
"|k+	c #230F0E",
"1k+	c #020500",
"2k+	c #110205",
"3k+	c #401413",
"4k+	c #330B09",
"5k+	c #2A0C0C",
"6k+	c #6D1F1D",
"7k+	c #8D3835",
"8k+	c #9F3935",
"9k+	c #A62F2B",
"0k+	c #B32420",
"ak+	c #C41818",
"bk+	c #D40E0F",
"ck+	c #F10208",
"dk+	c #F90E0B",
"ek+	c #EF0003",
"fk+	c #E70104",
"gk+	c #D70000",
"hk+	c #DA0A0A",
"ik+	c #E91716",
"jk+	c #E81210",
"kk+	c #F10D0C",
"lk+	c #EA0300",
"mk+	c #EB0400",
"nk+	c #F50800",
"ok+	c #EA0107",
"pk+	c #E30208",
"qk+	c #DA0003",
"rk+	c #CD0000",
"sk+	c #C60000",
"tk+	c #C10100",
"uk+	c #B60800",
"vk+	c #BA0E02",
"wk+	c #C2170D",
"xk+	c #C4160D",
"yk+	c #C31009",
"zk+	c #C30E07",
"Ak+	c #C7100A",
"Bk+	c #BE1208",
"Ck+	c #D0160A",
"Dk+	c #C7150B",
"Ek+	c #BE1D15",
"Fk+	c #4D0101",
"Gk+	c #270506",
"Hk+	c #29090C",
"Ik+	c #3D0204",
"Jk+	c #5E100E",
"Kk+	c #8C1B13",
"Lk+	c #901408",
"Mk+	c #8F160D",
"Nk+	c #87170C",
"Ok+	c #7D170B",
"Pk+	c #6B190B",
"Qk+	c #6A1D09",
"Rk+	c #6C1E07",
"Sk+	c #741B09",
"Tk+	c #761908",
"Uk+	c #7B1E0F",
"Vk+	c #71190B",
"Wk+	c #631707",
"Xk+	c #5E1909",
"Yk+	c #5D1808",
"Zk+	c #5B1606",
"`k+	c #571404",
" l+	c #541504",
".l+	c #521302",
"+l+	c #571203",
"@l+	c #5C1205",
"#l+	c #5D0F03",
"$l+	c #190400",
"%l+	c #1A0500",
"&l+	c #36080A",
"*l+	c #45070C",
"=l+	c #6A2128",
"-l+	c #772A30",
";l+	c #61191C",
">l+	c #280200",
",l+	c #2C1410",
"'l+	c #2B1611",
")l+	c #2C1A1A",
"!l+	c #382626",
"~l+	c #030801",
"{l+	c #431311",
"]l+	c #48100F",
"^l+	c #450F0D",
"/l+	c #260402",
"(l+	c #311512",
"_l+	c #4F1410",
":l+	c #7E2D29",
"<l+	c #94332D",
"[l+	c #A13431",
"}l+	c #A62B26",
"|l+	c #B52622",
"1l+	c #CA2523",
"2l+	c #DC1C1B",
"3l+	c #E20C0C",
"4l+	c #FD070C",
"5l+	c #FF080D",
"6l+	c #ED0101",
"7l+	c #F1060D",
"8l+	c #ED040A",
"9l+	c #E40206",
"0l+	c #DD0103",
"al+	c #DC0407",
"bl+	c #E00A0C",
"cl+	c #F01A1A",
"dl+	c #EE1212",
"el+	c #FC0A09",
"fl+	c #F30F0E",
"gl+	c #F00F0B",
"hl+	c #E70200",
"il+	c #E60100",
"jl+	c #EA0200",
"kl+	c #D30000",
"ll+	c #C10400",
"ml+	c #C10A04",
"nl+	c #BD0C04",
"ol+	c #C5140C",
"pl+	c #CB140E",
"ql+	c #CC140C",
"rl+	c #CE110B",
"sl+	c #C9170B",
"tl+	c #CE1207",
"ul+	c #C4130B",
"vl+	c #BD1E1A",
"wl+	c #A41E1B",
"xl+	c #720B0C",
"yl+	c #480001",
"zl+	c #300204",
"Al+	c #230304",
"Bl+	c #3C0000",
"Cl+	c #801815",
"Dl+	c #92160C",
"El+	c #701A0D",
"Fl+	c #721C0B",
"Gl+	c #731E09",
"Hl+	c #761E0A",
"Il+	c #781D0A",
"Jl+	c #7A1A0A",
"Kl+	c #7B1B0B",
"Ll+	c #7C2011",
"Ml+	c #701A0B",
"Nl+	c #691A09",
"Ol+	c #661A0A",
"Pl+	c #631C0A",
"Ql+	c #5F1A0A",
"Rl+	c #5A1505",
"Sl+	c #551001",
"Tl+	c #5B1607",
"Ul+	c #5F1003",
"Vl+	c #600E03",
"Wl+	c #641206",
"Xl+	c #1B0800",
"Yl+	c #130300",
"Zl+	c #0D0500",
"`l+	c #41080E",
" m+	c #5F1E26",
".m+	c #722C34",
"+m+	c #67262C",
"@m+	c #310000",
"#m+	c #340402",
"$m+	c #39100C",
"%m+	c #2D0601",
"&m+	c #51100C",
"*m+	c #48180E",
"=m+	c #3F1B0F",
"-m+	c #2C1005",
";m+	c #0A0501",
">m+	c #2E1C1C",
",m+	c #310D0D",
"'m+	c #4A1310",
")m+	c #4C1210",
"!m+	c #350505",
"~m+	c #2C0605",
"{m+	c #181911",
"]m+	c #1B170C",
"^m+	c #280A00",
"/m+	c #300100",
"(m+	c #460700",
"_m+	c #9C423A",
":m+	c #A4392F",
"<m+	c #9A2015",
"[m+	c #B21913",
"}m+	c #E81615",
"|m+	c #F2050F",
"1m+	c #EF030F",
"2m+	c #EC020D",
"3m+	c #EA030D",
"4m+	c #EA040E",
"5m+	c #E8070D",
"6m+	c #E7080D",
"7m+	c #F10D0E",
"8m+	c #E90401",
"9m+	c #EC0201",
"0m+	c #D30400",
"am+	c #C40200",
"bm+	c #C50806",
"cm+	c #C30B09",
"dm+	c #C10B08",
"em+	c #C00D09",
"fm+	c #C7110D",
"gm+	c #CD1610",
"hm+	c #D21A12",
"im+	c #D5160C",
"jm+	c #D4130A",
"km+	c #CE1004",
"lm+	c #BA0D09",
"mm+	c #B01817",
"nm+	c #9A1C1D",
"om+	c #68080A",
"pm+	c #430001",
"qm+	c #340608",
"rm+	c #8C1517",
"sm+	c #9D1B1B",
"tm+	c #801609",
"um+	c #652116",
"vm+	c #621E13",
"wm+	c #862119",
"xm+	c #801A0C",
"ym+	c #7F1B0B",
"zm+	c #801C0C",
"Am+	c #7E1D0C",
"Bm+	c #7B1E0D",
"Cm+	c #751E0D",
"Dm+	c #6B1D09",
"Em+	c #661B06",
"Fm+	c #5F1603",
"Gm+	c #5C1501",
"Hm+	c #5C1503",
"Im+	c #5E1705",
"Jm+	c #5F1104",
"Km+	c #5E1202",
"Lm+	c #5E1003",
"Mm+	c #0E0C0D",
"Nm+	c #110B0D",
"Om+	c #19060C",
"Pm+	c #180308",
"Qm+	c #150506",
"Rm+	c #300800",
"Sm+	c #2A0D00",
"Tm+	c #100A00",
"Um+	c #41040B",
"Vm+	c #530B16",
"Wm+	c #6D242D",
"Xm+	c #7C333A",
"Ym+	c #531216",
"Zm+	c #440E0C",
"`m+	c #4F1A16",
" n+	c #541A18",
".n+	c #561616",
"+n+	c #571113",
"@n+	c #550707",
"#n+	c #6E1817",
"$n+	c #53170D",
"%n+	c #4E2013",
"&n+	c #39170B",
"*n+	c #2D2522",
"=n+	c #030600",
"-n+	c #020902",
";n+	c #380E10",
">n+	c #4A1819",
",n+	c #4A0D0A",
"'n+	c #420606",
")n+	c #310B0A",
"!n+	c #2B1110",
"~n+	c #13150A",
"{n+	c #200E02",
"]n+	c #450A02",
"^n+	c #792A23",
"/n+	c #9C3D37",
"(n+	c #AA3B34",
"_n+	c #AE2F26",
":n+	c #AA1D13",
"<n+	c #AB120A",
"[n+	c #C40806",
"}n+	c #D60B07",
"|n+	c #F31210",
"1n+	c #F10511",
"2n+	c #EE040F",
"3n+	c #EE070F",
"4n+	c #EF1009",
"5n+	c #ED0302",
"6n+	c #EF0303",
"7n+	c #F3040A",
"8n+	c #CA0100",
"9n+	c #C60100",
"0n+	c #C60301",
"an+	c #C80807",
"bn+	c #C60A09",
"cn+	c #C30A08",
"dn+	c #C10708",
"en+	c #CF140F",
"fn+	c #D81A0E",
"gn+	c #B71210",
"hn+	c #AA1C1B",
"in+	c #8F181A",
"jn+	c #5C0305",
"kn+	c #220E03",
"ln+	c #311104",
"mn+	c #460200",
"nn+	c #660608",
"on+	c #971C21",
"pn+	c #971513",
"qn+	c #8A1A0E",
"rn+	c #751D11",
"sn+	c #6A1E11",
"tn+	c #5F190F",
"un+	c #611B11",
"vn+	c #8A1F19",
"wn+	c #831F0F",
"xn+	c #812111",
"yn+	c #7C2311",
"zn+	c #762512",
"An+	c #6D200C",
"Bn+	c #691E09",
"Cn+	c #641906",
"Dn+	c #611603",
"En+	c #611404",
"Fn+	c #641204",
"Gn+	c #681203",
"Hn+	c #1A070B",
"In+	c #1E030A",
"Jn+	c #1E0308",
"Kn+	c #220207",
"Ln+	c #3D0005",
"Mn+	c #650F18",
"Nn+	c #7A1D25",
"On+	c #762428",
"Pn+	c #571717",
"Qn+	c #2C0405",
"Rn+	c #42090F",
"Sn+	c #4A0008",
"Tn+	c #530005",
"Un+	c #70131D",
"Vn+	c #8C2D35",
"Wn+	c #7D2227",
"Xn+	c #5D080B",
"Yn+	c #560607",
"Zn+	c #6C1E1E",
"`n+	c #752526",
" o+	c #6F1D1F",
".o+	c #6F191C",
"+o+	c #72171C",
"@o+	c #7E2021",
"#o+	c #68100E",
"$o+	c #59160E",
"%o+	c #552018",
"&o+	c #421A10",
"*o+	c #200605",
"=o+	c #2F1D1D",
"-o+	c #4B1719",
";o+	c #501517",
">o+	c #4B0E0D",
",o+	c #4A0A08",
"'o+	c #390D0C",
")o+	c #3F0E07",
"!o+	c #702B26",
"~o+	c #A34A46",
"{o+	c #AE4444",
"]o+	c #A22827",
"^o+	c #B52A27",
"/o+	c #BD2522",
"(o+	c #BD100C",
"_o+	c #C70B0A",
":o+	c #CD0603",
"<o+	c #F1080C",
"[o+	c #F51410",
"}o+	c #F6150F",
"|o+	c #FB130F",
"1o+	c #D20300",
"2o+	c #CD0301",
"3o+	c #CD0706",
"4o+	c #CA0808",
"5o+	c #C90908",
"6o+	c #C40606",
"7o+	c #D2120D",
"8o+	c #DB190F",
"9o+	c #DC180C",
"0o+	c #DC1405",
"ao+	c #D31B11",
"bo+	c #C41912",
"co+	c #B71E19",
"do+	c #A4231E",
"eo+	c #360000",
"fo+	c #470803",
"go+	c #680E0E",
"ho+	c #982427",
"io+	c #A7262A",
"jo+	c #9A1818",
"ko+	c #951812",
"lo+	c #861A0D",
"mo+	c #711611",
"no+	c #882017",
"oo+	c #881C0F",
"po+	c #881E10",
"qo+	c #872112",
"ro+	c #852414",
"so+	c #812614",
"to+	c #7E2714",
"uo+	c #7D2814",
"vo+	c #73220F",
"wo+	c #651403",
"xo+	c #641302",
"yo+	c #651202",
"zo+	c #670F01",
"Ao+	c #711309",
"Bo+	c #75190E",
"Co+	c #5F1401",
"Do+	c #631403",
"Eo+	c #650D00",
"Fo+	c #210409",
"Go+	c #230209",
"Ho+	c #2C010A",
"Io+	c #40030B",
"Jo+	c #590310",
"Ko+	c #901C2F",
"Lo+	c #A4293D",
"Mo+	c #9D2D3D",
"No+	c #741A24",
"Oo+	c #3B0709",
"Po+	c #320508",
"Qo+	c #46050B",
"Ro+	c #58020B",
"So+	c #6E0911",
"To+	c #881922",
"Uo+	c #962129",
"Vo+	c #A02D32",
"Wo+	c #790F11",
"Xo+	c #731013",
"Yo+	c #821D23",
"Zo+	c #811A1E",
"`o+	c #521912",
" p+	c #300608",
".p+	c #2A0306",
"+p+	c #220406",
"@p+	c #1E1E16",
"#p+	c #2D191A",
"$p+	c #301A1C",
"%p+	c #270E11",
"&p+	c #170001",
"*p+	c #341012",
"=p+	c #460F12",
"-p+	c #531719",
";p+	c #5A1A1A",
">p+	c #541213",
",p+	c #2E1614",
"'p+	c #682C2B",
")p+	c #964645",
"!p+	c #A74546",
"~p+	c #A23133",
"{p+	c #A01D22",
"]p+	c #B51F21",
"^p+	c #C92629",
"/p+	c #CB2122",
"(p+	c #CC1A1A",
"_p+	c #D20C0B",
":p+	c #CC0100",
"<p+	c #E20701",
"[p+	c #F40A0B",
"}p+	c #F00005",
"|p+	c #F41915",
"1p+	c #FA1C17",
"2p+	c #F2130E",
"3p+	c #F91512",
"4p+	c #F6110E",
"5p+	c #D40402",
"6p+	c #D20605",
"7p+	c #D10707",
"8p+	c #CE0807",
"9p+	c #CB0504",
"0p+	c #CA0705",
"ap+	c #E0180B",
"bp+	c #D5150A",
"cp+	c #CE1C12",
"dp+	c #C12018",
"ep+	c #B62B24",
"fp+	c #9D2A23",
"gp+	c #6E150F",
"hp+	c #320000",
"ip+	c #2A160B",
"jp+	c #33150A",
"kp+	c #420902",
"lp+	c #61100D",
"mp+	c #932629",
"np+	c #A32729",
"op+	c #991813",
"pp+	c #931C14",
"qp+	c #8B1D10",
"rp+	c #730B08",
"sp+	c #7F1D14",
"tp+	c #871D0F",
"up+	c #822111",
"vp+	c #7F2211",
"wp+	c #7E2311",
"xp+	c #711B0A",
"yp+	c #6B0D01",
"zp+	c #741209",
"Ap+	c #601502",
"Bp+	c #621302",
"Cp+	c #631201",
"Dp+	c #1E0407",
"Ep+	c #2D0007",
"Fp+	c #460410",
"Gp+	c #640618",
"Hp+	c #A1213A",
"Ip+	c #B22641",
"Jp+	c #A5233B",
"Kp+	c #7A1122",
"Lp+	c #410008",
"Mp+	c #200001",
"Np+	c #431518",
"Op+	c #4D080D",
"Pp+	c #64080D",
"Qp+	c #8F1E24",
"Rp+	c #AC2B30",
"Sp+	c #AD2227",
"Tp+	c #BB2F32",
"Up+	c #AE2326",
"Vp+	c #A82324",
"Wp+	c #710001",
"Xp+	c #7B0D10",
"Yp+	c #8B1E23",
"Zp+	c #85161D",
"`p+	c #811C22",
" q+	c #6B1B1C",
".q+	c #50100E",
"+q+	c #3D0A07",
"@q+	c #360906",
"#q+	c #330507",
"$q+	c #310407",
"%q+	c #280003",
"&q+	c #210104",
"*q+	c #1A1B13",
"=q+	c #2C0C0F",
"-q+	c #2B0409",
";q+	c #2A0107",
">q+	c #2C0108",
",q+	c #2A050C",
"'q+	c #230608",
")q+	c #400E11",
"!q+	c #41060A",
"~q+	c #5A1C1F",
"{q+	c #702E2F",
"]q+	c #631F20",
"^q+	c #3B0E08",
"/q+	c #270A0C",
"(q+	c #572121",
"_q+	c #864042",
":q+	c #9F464A",
"<q+	c #993035",
"[q+	c #961F25",
"}q+	c #A51C23",
"|q+	c #AF0F17",
"1q+	c #C81A23",
"2q+	c #CD1C22",
"3q+	c #DE2022",
"4q+	c #D10A07",
"5q+	c #D80D07",
"6q+	c #DF130C",
"7q+	c #E50200",
"8q+	c #EE1E1A",
"9q+	c #F62521",
"0q+	c #F01C19",
"aq+	c #EE1915",
"bq+	c #F41A18",
"cq+	c #E20202",
"dq+	c #F60A0A",
"eq+	c #E50400",
"fq+	c #E10300",
"gq+	c #D50707",
"hq+	c #D20404",
"iq+	c #D90D06",
"jq+	c #E41609",
"kq+	c #DE0E01",
"lq+	c #C91D13",
"mq+	c #BB271D",
"nq+	c #AD3328",
"oq+	c #280F0B",
"pq+	c #390801",
"qq+	c #5A110B",
"rq+	c #8C2828",
"sq+	c #9E2729",
"tq+	c #991717",
"uq+	c #9B1E18",
"vq+	c #801F0F",
"wq+	c #781F0F",
"xq+	c #830D0D",
"yq+	c #820A0C",
"zq+	c #7E0A0A",
"Aq+	c #730C05",
"Bq+	c #6E1507",
"Cq+	c #75190C",
"Dq+	c #81170A",
"Eq+	c #83170A",
"Fq+	c #7F190A",
"Gq+	c #7E1A0A",
"Hq+	c #7B1C0A",
"Iq+	c #751A08",
"Jq+	c #721705",
"Kq+	c #701304",
"Lq+	c #720D01",
"Mq+	c #711307",
"Nq+	c #611402",
"Oq+	c #641101",
"Pq+	c #161209",
"Qq+	c #1C0306",
"Rq+	c #1B0104",
"Sq+	c #230003",
"Tq+	c #3A020B",
"Uq+	c #590715",
"Vq+	c #921E33",
"Wq+	c #9F1D35",
"Xq+	c #92182F",
"Yq+	c #6B081A",
"Zq+	c #3E0109",
"`q+	c #240107",
" r+	c #19060A",
".r+	c #12070B",
"+r+	c #4D2325",
"@r+	c #510F11",
"#r+	c #630506",
"$r+	c #90191B",
"%r+	c #B32728",
"&r+	c #B61C1E",
"*r+	c #BD1D1D",
"=r+	c #BE1E1E",
"-r+	c #BE2424",
";r+	c #AD1B1B",
">r+	c #850E10",
",r+	c #911D26",
"'r+	c #902831",
")r+	c #4E0C0D",
"!r+	c #3B0B0B",
"~r+	c #360509",
"{r+	c #320309",
"]r+	c #2A0006",
"^r+	c #230308",
"/r+	c #2C1A18",
"(r+	c #320E12",
"_r+	c #3A0D14",
":r+	c #400E17",
"<r+	c #45101A",
"[r+	c #41141B",
"}r+	c #420E12",
"|r+	c #45090B",
"1r+	c #69282C",
"2r+	c #803B3E",
"3r+	c #6A2426",
"4r+	c #371813",
"5r+	c #280102",
"6r+	c #4D1F21",
"7r+	c #7E4244",
"8r+	c #984D51",
"9r+	c #9A3E43",
"0r+	c #91262C",
"ar+	c #8E161F",
"br+	c #970E16",
"cr+	c #AF0D18",
"dr+	c #C4141E",
"er+	c #CC1821",
"fr+	c #D1171C",
"gr+	c #DA1415",
"hr+	c #DC110B",
"ir+	c #E40300",
"jr+	c #E20500",
"kr+	c #E40400",
"lr+	c #E60600",
"mr+	c #D01712",
"nr+	c #DF2621",
"or+	c #EA2E2C",
"pr+	c #E72A26",
"qr+	c #E72523",
"rr+	c #E82521",
"sr+	c #E71D1B",
"tr+	c #DE0A09",
"ur+	c #E20A0B",
"vr+	c #F30D0F",
"wr+	c #EA0502",
"xr+	c #DF0806",
"yr+	c #DE0B04",
"zr+	c #E81B0A",
"Ar+	c #E51606",
"Br+	c #DA1D17",
"Cr+	c #9C3225",
"Dr+	c #320700",
"Er+	c #2D0A04",
"Fr+	c #370B02",
"Gr+	c #56150F",
"Hr+	c #882D2A",
"Ir+	c #9C2A2A",
"Jr+	c #9E1D17",
"Kr+	c #812010",
"Lr+	c #78210E",
"Mr+	c #772112",
"Nr+	c #850408",
"Or+	c #940C10",
"Pr+	c #9A1317",
"Qr+	c #9C171A",
"Rr+	c #731A0C",
"Sr+	c #7A1606",
"Tr+	c #781706",
"Ur+	c #761705",
"Vr+	c #731605",
"Wr+	c #741706",
"Xr+	c #731303",
"Yr+	c #721101",
"Zr+	c #730F00",
"`r+	c #740E02",
" s+	c #790D03",
".s+	c #671404",
"+s+	c #651605",
"@s+	c #601301",
"#s+	c #61141E",
"$s+	c #6E121F",
"%s+	c #640C1A",
"&s+	c #4B030E",
"*s+	c #26070D",
"=s+	c #200911",
"-s+	c #180910",
";s+	c #421E1E",
">s+	c #551918",
",s+	c #670C0B",
"'s+	c #AB1A17",
")s+	c #BA1614",
"!s+	c #C31411",
"~s+	c #C2100E",
"{s+	c #C41816",
"]s+	c #9A0606",
"^s+	c #931F22",
"/s+	c #9A252E",
"(s+	c #902630",
"_s+	c #6C151B",
":s+	c #4A0607",
"<s+	c #420A0B",
"[s+	c #3C0A0B",
"}s+	c #340106",
"|s+	c #30050C",
"1s+	c #27070C",
"2s+	c #2C1817",
"3s+	c #371315",
"4s+	c #401318",
"5s+	c #47141B",
"6s+	c #4C141D",
"7s+	c #4A191F",
"8s+	c #3A1E1D",
"9s+	c #372523",
"0s+	c #260204",
"as+	c #411316",
"bs+	c #460F14",
"cs+	c #541619",
"ds+	c #7B393D",
"es+	c #853E42",
"fs+	c #641E20",
"gs+	c #460A09",
"hs+	c #34180C",
"is+	c #3C1D18",
"js+	c #341010",
"ks+	c #3F1718",
"ls+	c #3C0F12",
"ms+	c #69373A",
"ns+	c #905358",
"os+	c #93484D",
"ps+	c #862D33",
"qs+	c #7F1A20",
"rs+	c #7E0F16",
"ss+	c #85030B",
"ts+	c #AA1018",
"us+	c #CC1B21",
"vs+	c #D2181D",
"ws+	c #CF0B0F",
"xs+	c #D60C0C",
"ys+	c #E60A0A",
"zs+	c #E20D0F",
"As+	c #D81415",
"Bs+	c #CF1614",
"Cs+	c #BA130D",
"Ds+	c #B0110B",
"Es+	c #AC120A",
"Fs+	c #AF1811",
"Gs+	c #BA231C",
"Hs+	c #C52C27",
"Is+	c #CA2D28",
"Js+	c #CE2925",
"Ks+	c #D12521",
"Ls+	c #D21E1D",
"Ms+	c #D21615",
"Ns+	c #D61415",
"Os+	c #DB1013",
"Ps+	c #E30C11",
"Qs+	c #E70A11",
"Rs+	c #E10803",
"Ss+	c #E50C03",
"Ts+	c #E91814",
"Us+	c #D91E19",
"Vs+	c #C0211B",
"Ws+	c #A82C22",
"Xs+	c #892D20",
"Ys+	c #330500",
"Zs+	c #2E0C02",
"`s+	c #32160B",
" t+	c #561B13",
".t+	c #8C3430",
"+t+	c #9D2D2C",
"@t+	c #9C1617",
"#t+	c #A11312",
"$t+	c #821E0E",
"%t+	c #79220F",
"&t+	c #8F0004",
"*t+	c #9B040B",
"=t+	c #A81118",
"-t+	c #B11E24",
";t+	c #B52429",
">t+	c #931312",
",t+	c #800B04",
"'t+	c #6F1807",
")t+	c #721909",
"!t+	c #711405",
"~t+	c #761505",
"{t+	c #781404",
"]t+	c #771605",
"^t+	c #741705",
"/t+	c #731805",
"(t+	c #731604",
"_t+	c #741503",
":t+	c #751101",
"<t+	c #750F00",
"[t+	c #790F02",
"}t+	c #7C0E01",
"|t+	c #7C0C01",
"1t+	c #7B0B00",
"2t+	c #7C0D02",
"3t+	c #711103",
"4t+	c #6B1202",
"5t+	c #6A1403",
"6t+	c #691805",
"7t+	c #621501",
"8t+	c #611400",
"9t+	c #601300",
"0t+	c #310506",
"at+	c #3C0508",
"bt+	c #370305",
"ct+	c #280000",
"dt+	c #1E080B",
"et+	c #230914",
"ft+	c #1D0811",
"gt+	c #5B211F",
"ht+	c #7A1F1C",
"it+	c #B11914",
"jt+	c #DD201C",
"kt+	c #D20F0D",
"lt+	c #D01311",
"mt+	c #B10E0F",
"nt+	c #860402",
"ot+	c #870F11",
"pt+	c #9D252F",
"qt+	c #871D27",
"rt+	c #5D060E",
"st+	c #39080B",
"tt+	c #300002",
"ut+	c #33040A",
"vt+	c #350C12",
"wt+	c #2A0B10",
"xt+	c #1A0A0B",
"yt+	c #351717",
"zt+	c #3C1317",
"At+	c #401117",
"Bt+	c #451219",
"Ct+	c #43141A",
"Dt+	c #381A1A",
"Et+	c #4A3834",
"Ft+	c #290203",
"Gt+	c #4A1117",
"Ht+	c #622427",
"It+	c #894449",
"Jt+	c #823B3F",
"Kt+	c #5C1618",
"Lt+	c #3C1E14",
"Mt+	c #401F18",
"Nt+	c #451B1D",
"Ot+	c #673A3D",
"Pt+	c #7F4D50",
"Qt+	c #8A4F53",
"Rt+	c #763436",
"St+	c #621316",
"Tt+	c #61060B",
"Ut+	c #6E0B10",
"Vt+	c #820D13",
"Wt+	c #960A0D",
"Xt+	c #CA2023",
"Yt+	c #CE0A0C",
"Zt+	c #D90B0B",
"`t+	c #EE1715",
" u+	c #F21411",
".u+	c #E51610",
"+u+	c #DF160C",
"@u+	c #DD120B",
"#u+	c #DD100D",
"$u+	c #D71112",
"%u+	c #D11A1C",
"&u+	c #C71D1D",
"*u+	c #BA1B18",
"=u+	c #AA1612",
"-u+	c #99100A",
";u+	c #891810",
">u+	c #94211A",
",u+	c #9D261E",
"'u+	c #A32620",
")u+	c #A92520",
"!u+	c #AF241F",
"~u+	c #B82422",
"{u+	c #C22423",
"]u+	c #C8181B",
"^u+	c #CB1217",
"/u+	c #D00E16",
"(u+	c #D50D17",
"_u+	c #DA0E17",
":u+	c #DE0F15",
"<u+	c #F30304",
"[u+	c #E60700",
"}u+	c #EA0C01",
"|u+	c #EB0D02",
"1u+	c #EB1105",
"2u+	c #E61616",
"3u+	c #D31B1B",
"4u+	c #B8201B",
"5u+	c #A12F25",
"6u+	c #471204",
"7u+	c #32140A",
"8u+	c #360E04",
"9u+	c #592017",
"0u+	c #9B1315",
"au+	c #A00E0F",
"bu+	c #9B100B",
"cu+	c #841D0C",
"du+	c #7E2310",
"eu+	c #890206",
"fu+	c #9C0308",
"gu+	c #A8070F",
"hu+	c #B4141C",
"iu+	c #BD2228",
"ju+	c #BE272C",
"ku+	c #B02123",
"lu+	c #981412",
"mu+	c #820B05",
"nu+	c #741205",
"ou+	c #711506",
"pu+	c #711A09",
"qu+	c #6D1200",
"ru+	c #721503",
"su+	c #741906",
"tu+	c #731B07",
"uu+	c #741C08",
"vu+	c #751A07",
"wu+	c #761907",
"xu+	c #771303",
"yu+	c #7D0D01",
"zu+	c #7C0A00",
"Au+	c #7C0C00",
"Bu+	c #7B0F03",
"Cu+	c #7B1104",
"Du+	c #771103",
"Eu+	c #701000",
"Fu+	c #6C1100",
"Gu+	c #641602",
"Hu+	c #5F1200",
"Iu+	c #402421",
"Ju+	c #4C3231",
"Ku+	c #131007",
"Lu+	c #1C020D",
"Mu+	c #200410",
"Nu+	c #1C0D12",
"Ou+	c #7B1E19",
"Pu+	c #B91A14",
"Qu+	c #CF1613",
"Ru+	c #D70B0A",
"Su+	c #E61211",
"Tu+	c #E31112",
"Uu+	c #C91619",
"Vu+	c #B41416",
"Wu+	c #9E100F",
"Xu+	c #931216",
"Yu+	c #941C26",
"Zu+	c #882029",
"`u+	c #69141B",
" v+	c #450305",
".v+	c #37060A",
"+v+	c #360D13",
"@v+	c #301214",
"#v+	c #25211E",
"$v+	c #1F2018",
"%v+	c #202119",
"&v+	c #1D0000",
"*v+	c #430A10",
"=v+	c #783A3D",
"-v+	c #99575B",
";v+	c #692427",
">v+	c #500C0D",
",v+	c #401B15",
"'v+	c #441C1A",
")v+	c #3C1412",
"!v+	c #431B1B",
"~v+	c #593131",
"{v+	c #7C5253",
"]v+	c #764A4B",
"^v+	c #470F0E",
"/v+	c #4F0F0F",
"(v+	c #4C0203",
"_v+	c #6C1A1C",
":v+	c #AD0F0C",
"<v+	c #C21413",
"[v+	c #D81616",
"}v+	c #E61413",
"|v+	c #EE0E0E",
"1v+	c #DA1A15",
"2v+	c #D31A15",
"3v+	c #D21916",
"4v+	c #D31A18",
"5v+	c #CF1717",
"6v+	c #C71014",
"7v+	c #BB0D0F",
"8v+	c #B30E12",
"9v+	c #AE1416",
"0v+	c #9D1D1C",
"av+	c #921F1C",
"bv+	c #7E2018",
"cv+	c #762218",
"dv+	c #73291E",
"ev+	c #6A241A",
"fv+	c #6C2217",
"gv+	c #73251B",
"hv+	c #8F1514",
"iv+	c #AC1D21",
"jv+	c #B92025",
"kv+	c #BF1B24",
"lv+	c #BF151E",
"mv+	c #C71722",
"nv+	c #D41F28",
"ov+	c #DB1917",
"pv+	c #FC0609",
"qv+	c #EC0C00",
"rv+	c #F4110B",
"sv+	c #F61415",
"tv+	c #EC1213",
"uv+	c #D80D11",
"vv+	c #C6181A",
"wv+	c #B92B29",
"xv+	c #8F2620",
"yv+	c #2C0C01",
"zv+	c #2D0607",
"Av+	c #301005",
"Bv+	c #2C0100",
"Cv+	c #963E3A",
"Dv+	c #A21818",
"Ev+	c #9E0F0B",
"Fv+	c #99160C",
"Gv+	c #842310",
"Hv+	c #83180E",
"Iv+	c #8E110D",
"Jv+	c #A60910",
"Kv+	c #B51017",
"Lv+	c #BB171E",
"Mv+	c #BA1B20",
"Nv+	c #AC1C1C",
"Ov+	c #991511",
"Pv+	c #6D1402",
"Qv+	c #6C1703",
"Rv+	c #6E1704",
"Sv+	c #701705",
"Tv+	c #731806",
"Uv+	c #711905",
"Vv+	c #721A06",
"Wv+	c #721C05",
"Xv+	c #731D06",
"Yv+	c #721E06",
"Zv+	c #711B04",
"`v+	c #721702",
" w+	c #731702",
".w+	c #761502",
"+w+	c #791402",
"@w+	c #7C1101",
"#w+	c #7E0E00",
"$w+	c #7E0D00",
"%w+	c #801002",
"&w+	c #7D1104",
"*w+	c #7C1204",
"=w+	c #751403",
"-w+	c #701502",
";w+	c #6B1401",
">w+	c #681601",
",w+	c #671601",
"'w+	c #661802",
")w+	c #671905",
"!w+	c #611300",
"~w+	c #170D01",
"{w+	c #4D2D30",
"]w+	c #3D2427",
"^w+	c #0B0900",
"/w+	c #0C0A00",
"(w+	c #0A0E00",
"_w+	c #060B04",
":w+	c #1E040F",
"<w+	c #240612",
"[w+	c #200B12",
"}w+	c #1B0206",
"|w+	c #470705",
"1w+	c #731611",
"2w+	c #9D1E18",
"3w+	c #ED0A11",
"4w+	c #E50E15",
"5w+	c #C7181D",
"6w+	c #A92125",
"7w+	c #9B222B",
"8w+	c #7E161F",
"9w+	c #5E0C10",
"0w+	c #3D0A09",
"aw+	c #34070A",
"bw+	c #360D11",
"cw+	c #1F2217",
"dw+	c #222419",
"ew+	c #35201B",
"fw+	c #3D1E1C",
"gw+	c #3D1E1B",
"hw+	c #3F221E",
"iw+	c #3A211A",
"jw+	c #6A5750",
"kw+	c #6D5A53",
"lw+	c #230A06",
"mw+	c #280001",
"nw+	c #450D10",
"ow+	c #783A3F",
"pw+	c #935256",
"qw+	c #622022",
"rw+	c #4C0A0C",
"sw+	c #451A11",
"tw+	c #341206",
"uw+	c #451C18",
"vw+	c #785251",
"ww+	c #593332",
"xw+	c #4E2827",
"yw+	c #310907",
"zw+	c #501D1A",
"Aw+	c #4E1211",
"Bw+	c #601F1D",
"Cw+	c #701F1B",
"Dw+	c #96170E",
"Ew+	c #C3201B",
"Fw+	c #E01310",
"Gw+	c #EB0200",
"Hw+	c #D8120F",
"Iw+	c #BF1D1A",
"Jw+	c #BD1918",
"Kw+	c #BB1716",
"Lw+	c #BA1718",
"Mw+	c #B41617",
"Nw+	c #AB1014",
"Ow+	c #A20D11",
"Pw+	c #881817",
"Qw+	c #811D1B",
"Rw+	c #7A2520",
"Sw+	c #6D372B",
"Tw+	c #6A3E33",
"Uw+	c #613B2E",
"Vw+	c #61372B",
"Ww+	c #66372D",
"Xw+	c #642921",
"Yw+	c #830A0F",
"Zw+	c #97141C",
"`w+	c #A81C25",
" x+	c #AD1B28",
".x+	c #AE1720",
"+x+	c #C52726",
"@x+	c #CF2A26",
"#x+	c #DA2826",
"$x+	c #DF1E1F",
"%x+	c #EE0005",
"&x+	c #F10000",
"*x+	c #F41311",
"=x+	c #EF1315",
"-x+	c #E7141A",
";x+	c #D8191E",
">x+	c #C42126",
",x+	c #AB2929",
"'x+	c #751612",
")x+	c #53130A",
"!x+	c #270900",
"~x+	c #2F0809",
"{x+	c #351007",
"]x+	c #390900",
"^x+	c #8E1816",
"/x+	c #AA1211",
"(x+	c #A81410",
"_x+	c #911E0C",
":x+	c #881D0B",
"<x+	c #9A1411",
"[x+	c #A51314",
"}x+	c #B7131A",
"|x+	c #B6151B",
"1x+	c #B01418",
"2x+	c #A91315",
"3x+	c #9F1312",
"4x+	c #900F0A",
"5x+	c #800B02",
"6x+	c #6D1603",
"7x+	c #6D1804",
"8x+	c #6E1905",
"9x+	c #701906",
"0x+	c #731C08",
"ax+	c #741E07",
"bx+	c #742008",
"cx+	c #722008",
"dx+	c #731F07",
"ex+	c #731B05",
"fx+	c #751904",
"gx+	c #781704",
"hx+	c #7A1503",
"ix+	c #7D1202",
"jx+	c #7F1100",
"kx+	c #800F01",
"lx+	c #7B1101",
"mx+	c #7A1302",
"nx+	c #761504",
"ox+	c #6A1803",
"px+	c #6A1904",
"qx+	c #6A1906",
"rx+	c #661804",
"sx+	c #661502",
"tx+	c #161002",
"ux+	c #361413",
"vx+	c #3F181D",
"wx+	c #37141A",
"xx+	c #240A0D",
"yx+	c #0E0A00",
"zx+	c #040F01",
"Ax+	c #040E05",
"Bx+	c #1B060D",
"Cx+	c #230310",
"Dx+	c #23050F",
"Ex+	c #2A070D",
"Fx+	c #37090C",
"Gx+	c #4E0A0B",
"Hx+	c #971714",
"Ix+	c #BC1817",
"Jx+	c #D61214",
"Kx+	c #E2020A",
"Lx+	c #F50512",
"Mx+	c #ED0714",
"Nx+	c #E2101D",
"Ox+	c #CE131C",
"Px+	c #BD161D",
"Qx+	c #B4232A",
"Rx+	c #921922",
"Sx+	c #620005",
"Tx+	c #450000",
"Ux+	c #3A090C",
"Vx+	c #32080A",
"Wx+	c #1F2116",
"Xx+	c #23251A",
"Yx+	c #242418",
"Zx+	c #272318",
"`x+	c #39201B",
" y+	c #442920",
".y+	c #49322A",
"+y+	c #7D6960",
"@y+	c #57433C",
"#y+	c #310708",
"$y+	c #48171A",
"%y+	c #4C1417",
"&y+	c #76393E",
"*y+	c #87494C",
"=y+	c #581819",
"-y+	c #440607",
";y+	c #41150C",
">y+	c #3A1409",
",y+	c #481F1B",
"'y+	c #522B26",
")y+	c #603A37",
"!y+	c #6B4A45",
"~y+	c #452623",
"{y+	c #3F201D",
"]y+	c #461711",
"^y+	c #531E1A",
"/y+	c #68251D",
"(y+	c #912518",
"_y+	c #AD2D24",
":y+	c #C32C25",
"<y+	c #D0211E",
"[y+	c #C71813",
"}y+	c #C11916",
"|y+	c #B81D19",
"1y+	c #A41614",
"2y+	c #9A1415",
"3y+	c #9B1A1E",
"4y+	c #911D20",
"5y+	c #881B1E",
"6y+	c #7D1D1E",
"7y+	c #751F1E",
"8y+	c #6C221F",
"9y+	c #612F26",
"0y+	c #60352C",
"ay+	c #5B3B30",
"by+	c #554538",
"cy+	c #564438",
"dy+	c #5D473A",
"ey+	c #61463B",
"fy+	c #614037",
"gy+	c #603830",
"hy+	c #64332E",
"iy+	c #602622",
"jy+	c #5D1916",
"ky+	c #580A0A",
"ly+	c #5C0307",
"my+	c #6F0B13",
"ny+	c #821920",
"oy+	c #8C1C28",
"py+	c #8F1A22",
"qy+	c #A02424",
"ry+	c #A8221F",
"sy+	c #B62424",
"ty+	c #D51E22",
"uy+	c #DD1218",
"vy+	c #E4070E",
"wy+	c #ED0209",
"xy+	c #FB060E",
"yy+	c #F60903",
"zy+	c #F1120D",
"Ay+	c #EF1313",
"By+	c #E61417",
"Cy+	c #DE1B21",
"Dy+	c #D22529",
"Ey+	c #922020",
"Fy+	c #590503",
"Gy+	c #2D0400",
"Hy+	c #4B1209",
"Iy+	c #80332D",
"Jy+	c #9A322F",
"Ky+	c #911412",
"Ly+	c #A61414",
"My+	c #AD1311",
"Ny+	c #B11C15",
"Oy+	c #981A0B",
"Py+	c #911909",
"Qy+	c #93190C",
"Ry+	c #A71917",
"Sy+	c #AD1919",
"Ty+	c #B01719",
"Uy+	c #AF1517",
"Vy+	c #A91012",
"Wy+	c #9F0B0B",
"Xy+	c #980A08",
"Yy+	c #910C07",
"Zy+	c #880D06",
"`y+	c #7D0D02",
" z+	c #711604",
".z+	c #6F1908",
"+z+	c #761A0B",
"@z+	c #751D09",
"#z+	c #751F08",
"$z+	c #762009",
"%z+	c #76220A",
"&z+	c #752107",
"*z+	c #751F06",
"=z+	c #751D05",
"-z+	c #771B04",
";z+	c #791903",
">z+	c #7B1602",
",z+	c #7D1401",
"'z+	c #801300",
")z+	c #831202",
"!z+	c #821302",
"~z+	c #7C1300",
"{z+	c #7A1300",
"]z+	c #791400",
"^z+	c #791603",
"/z+	c #761703",
"(z+	c #731803",
"_z+	c #701B06",
":z+	c #6B1903",
"<z+	c #6C1A04",
"[z+	c #6C1A05",
"}z+	c #131102",
"|z+	c #290006",
"1z+	c #240007",
"2z+	c #200107",
"3z+	c #190306",
"4z+	c #0D0D01",
"5z+	c #080E02",
"6z+	c #160309",
"7z+	c #1E000A",
"8z+	c #1B0004",
"9z+	c #351017",
"0z+	c #4E2023",
"az+	c #650D0B",
"bz+	c #AD1112",
"cz+	c #E00410",
"dz+	c #F10414",
"ez+	c #F30213",
"fz+	c #ED0515",
"gz+	c #E10D1B",
"hz+	c #CF0F1A",
"iz+	c #BE151C",
"jz+	c #B6252C",
"kz+	c #9C232C",
"lz+	c #6C070F",
"mz+	c #500003",
"nz+	c #2E0000",
"oz+	c #481617",
"pz+	c #202217",
"qz+	c #232317",
"rz+	c #242216",
"sz+	c #311D14",
"tz+	c #391D12",
"uz+	c #3E2016",
"vz+	c #44291E",
"wz+	c #2D150B",
"xz+	c #644D45",
"yz+	c #836C64",
"zz+	c #451417",
"Az+	c #4C1518",
"Bz+	c #6F3438",
"Cz+	c #793D3F",
"Dz+	c #501416",
"Ez+	c #4B1612",
"Fz+	c #451910",
"Gz+	c #481E12",
"Hz+	c #471C13",
"Iz+	c #3F140D",
"Jz+	c #411812",
"Kz+	c #522F2B",
"Lz+	c #41221D",
"Mz+	c #3B221D",
"Nz+	c #3F261F",
"Oz+	c #521510",
"Pz+	c #77291D",
"Qz+	c #8C2C20",
"Rz+	c #A23026",
"Sz+	c #B62D25",
"Tz+	c #C52320",
"Uz+	c #CF1918",
"Vz+	c #DB1512",
"Wz+	c #D01714",
"Xz+	c #B51813",
"Yz+	c #AB1713",
"Zz+	c #A31916",
"`z+	c #9D1D1A",
" A+	c #841211",
".A+	c #7A1010",
"+A+	c #7D1313",
"@A+	c #811A1B",
"#A+	c #852324",
"$A+	c #87292A",
"%A+	c #852C2E",
"&A+	c #762F2D",
"*A+	c #6D2D2B",
"=A+	c #57322A",
"-A+	c #484035",
";A+	c #494136",
">A+	c #4F4539",
",A+	c #574940",
"'A+	c #5C4B41",
")A+	c #614A42",
"!A+	c #654840",
"~A+	c #63403A",
"{A+	c #623633",
"]A+	c #602A28",
"^A+	c #5C1E1F",
"/A+	c #5A1317",
"(A+	c #601319",
"_A+	c #74232A",
":A+	c #8C353B",
"<A+	c #A01E1E",
"[A+	c #BA2426",
"}A+	c #E8171D",
"|A+	c #F2090F",
"1A+	c #FA070B",
"2A+	c #DD191B",
"3A+	c #D42427",
"4A+	c #BE2528",
"5A+	c #981A1D",
"6A+	c #721011",
"7A+	c #470000",
"8A+	c #3A1816",
"9A+	c #3E0F05",
"0A+	c #5B1812",
"aA+	c #9E2A2A",
"bA+	c #9B1313",
"cA+	c #AC1615",
"dA+	c #AF1410",
"eA+	c #B31C13",
"fA+	c #AA1A0F",
"gA+	c #A1190B",
"hA+	c #9D190C",
"iA+	c #A01A0F",
"jA+	c #AD1915",
"kA+	c #AD1716",
"lA+	c #A10F0F",
"mA+	c #910704",
"nA+	c #8D0803",
"oA+	c #7C1205",
"pA+	c #6D1706",
"qA+	c #6C1907",
"rA+	c #731A0A",
"sA+	c #781B0C",
"tA+	c #791C0A",
"uA+	c #791E09",
"vA+	c #7A1F0A",
"wA+	c #79210B",
"xA+	c #78220B",
"yA+	c #772108",
"zA+	c #771F07",
"AA+	c #781E06",
"BA+	c #7A1B05",
"CA+	c #7B1803",
"DA+	c #7B1700",
"EA+	c #7E1300",
"FA+	c #811400",
"GA+	c #841301",
"HA+	c #841502",
"IA+	c #7C1600",
"JA+	c #7A1702",
"KA+	c #781802",
"LA+	c #771701",
"MA+	c #741904",
"NA+	c #721B07",
"OA+	c #6E1904",
"PA+	c #0F1002",
"QA+	c #210708",
"RA+	c #200003",
"SA+	c #1C0004",
"TA+	c #1E0008",
"UA+	c #1C070C",
"VA+	c #0E0B02",
"WA+	c #080E04",
"XA+	c #140407",
"YA+	c #190008",
"ZA+	c #180004",
"`A+	c #321318",
" B+	c #BB1114",
".B+	c #D40814",
"+B+	c #E60719",
"@B+	c #EE071B",
"#B+	c #EB0A1C",
"$B+	c #E01322",
"%B+	c #CC141E",
"&B+	c #BC1B20",
"*B+	c #BA2D33",
"=B+	c #AD343D",
"-B+	c #8F2A30",
";B+	c #792729",
">B+	c #5B1716",
",B+	c #420F0C",
"'B+	c #562020",
")B+	c #4B1417",
"!B+	c #35090A",
"~B+	c #280604",
"{B+	c #282419",
"]B+	c #391B10",
"^B+	c #3A1A0F",
"/B+	c #462A1F",
"(B+	c #361B10",
"_B+	c #483026",
":B+	c #81695F",
"<B+	c #684B45",
"[B+	c #3D0C0F",
"}B+	c #461214",
"|B+	c #60282B",
"1B+	c #672F30",
"2B+	c #4D1516",
"3B+	c #4A1713",
"4B+	c #55261E",
"5B+	c #471B10",
"6B+	c #44180F",
"7B+	c #421710",
"8B+	c #47221A",
"9B+	c #400E0D",
"0B+	c #5D221E",
"aB+	c #7E251D",
"bB+	c #8C231D",
"cB+	c #9D221D",
"dB+	c #B0201F",
"eB+	c #BE1F1C",
"fB+	c #C61D1A",
"gB+	c #9F1610",
"hB+	c #861511",
"iB+	c #811815",
"jB+	c #7C1D1B",
"kB+	c #721F1B",
"lB+	c #692321",
"mB+	c #6B2A26",
"nB+	c #6B2E2B",
"oB+	c #6A302E",
"pB+	c #63302C",
"qB+	c #5E312B",
"rB+	c #5B342D",
"sB+	c #59382F",
"tB+	c #573A32",
"uB+	c #563B32",
"vB+	c #503C31",
"wB+	c #4B3D34",
"xB+	c #483B33",
"yB+	c #4C3F37",
"zB+	c #584A41",
"AB+	c #5C4B43",
"BB+	c #5C453F",
"CB+	c #5C413A",
"DB+	c #62413C",
"EB+	c #663E3C",
"FB+	c #5A2C2C",
"GB+	c #501E1F",
"HB+	c #622B2E",
"IB+	c #83484A",
"JB+	c #6E2725",
"KB+	c #A82422",
"LB+	c #B82221",
"MB+	c #C82020",
"NB+	c #D01617",
"OB+	c #E21818",
"PB+	c #F51515",
"QB+	c #D61011",
"RB+	c #D72324",
"SB+	c #C62A2D",
"TB+	c #9E1C1E",
"UB+	c #720A0B",
"VB+	c #550305",
"WB+	c #441005",
"XB+	c #691B17",
"YB+	c #932D2B",
"ZB+	c #A32324",
"`B+	c #B21816",
" C+	c #AF170C",
".C+	c #AD160B",
"+C+	c #AB190C",
"@C+	c #AD1B0E",
"#C+	c #B01C12",
"$C+	c #AF1A13",
"%C+	c #AD140F",
"&C+	c #A5110D",
"*C+	c #8E0701",
"=C+	c #890802",
"-C+	c #870E06",
";C+	c #6E1505",
">C+	c #6B1A09",
",C+	c #781A0E",
"'C+	c #7C1A0D",
")C+	c #7B1A09",
"!C+	c #7B1C08",
"~C+	c #7C1D09",
"{C+	c #7B1F0A",
"]C+	c #7C2009",
"^C+	c #7B1F08",
"/C+	c #791F07",
"(C+	c #7A1E07",
"_C+	c #7B1D04",
":C+	c #7B1B03",
"<C+	c #7C1801",
"[C+	c #831400",
"}C+	c #871401",
"|C+	c #851602",
"1C+	c #7E1A02",
"2C+	c #791B02",
"3C+	c #781A01",
"4C+	c #751900",
"5C+	c #731901",
"6C+	c #711901",
"7C+	c #6F1804",
"8C+	c #6E1703",
"9C+	c #6F1805",
"0C+	c #711808",
"aC+	c #100C01",
"bC+	c #1E0509",
"cC+	c #18030A",
"dC+	c #15040A",
"eC+	c #0D0E06",
"fC+	c #180509",
"gC+	c #A71113",
"hC+	c #CA121C",
"iC+	c #DD101F",
"jC+	c #E40D1F",
"kC+	c #E10E1F",
"lC+	c #D1111E",
"mC+	c #B80D15",
"nC+	c #A32123",
"oC+	c #A93238",
"pC+	c #A43C43",
"qC+	c #984346",
"rC+	c #783230",
"sC+	c #571C18",
"tC+	c #6A302F",
"uC+	c #612527",
"vC+	c #591E22",
"wC+	c #2C2825",
"xC+	c #36241A",
"yC+	c #3E1E13",
"zC+	c #3E1C10",
"AC+	c #4F3328",
"BC+	c #43281F",
"CC+	c #5E433A",
"DC+	c #92736E",
"EC+	c #340A0B",
"FC+	c #471315",
"GC+	c #531C1F",
"HC+	c #592323",
"IC+	c #4C1918",
"JC+	c #410E0B",
"KC+	c #42110C",
"LC+	c #4F2018",
"MC+	c #360A00",
"NC+	c #5D3229",
"OC+	c #562E26",
"PC+	c #442219",
"QC+	c #1A0300",
"RC+	c #652929",
"SC+	c #651E1C",
"TC+	c #731110",
"UC+	c #AA201E",
"VC+	c #B01F1C",
"WC+	c #AD1C17",
"XC+	c #AB1E17",
"YC+	c #A01D15",
"ZC+	c #921B13",
"`C+	c #701B18",
" D+	c #6E2020",
".D+	c #6B2726",
"+D+	c #56251E",
"@D+	c #54231C",
"#D+	c #552822",
"$D+	c #582D26",
"%D+	c #593129",
"&D+	c #533229",
"*D+	c #54362C",
"=D+	c #593E35",
"-D+	c #563E34",
";D+	c #543C32",
">D+	c #4E3B35",
",D+	c #4C3D36",
"'D+	c #53463E",
")D+	c #5A4D45",
"!D+	c #4F3E36",
"~D+	c #56433C",
"{D+	c #634C46",
"]D+	c #5D413D",
"^D+	c #4C2F2B",
"/D+	c #4E2C2A",
"(D+	c #5C3937",
"_D+	c #734A48",
":D+	c #643432",
"<D+	c #591814",
"[D+	c #7D1E18",
"}D+	c #8E1D17",
"|D+	c #9D1A12",
"1D+	c #D1261F",
"2D+	c #E82825",
"3D+	c #EF1F1D",
"4D+	c #EB0303",
"5D+	c #D5090A",
"6D+	c #CD1314",
"7D+	c #C92524",
"8D+	c #AF2525",
"9D+	c #7F0F0E",
"0D+	c #560001",
"aD+	c #440203",
"bD+	c #3B090A",
"cD+	c #391112",
"dD+	c #3D170C",
"eD+	c #491309",
"fD+	c #75201D",
"gD+	c #9A2828",
"hD+	c #A61A1D",
"iD+	c #B61815",
"jD+	c #AC1206",
"kD+	c #B81C10",
"lD+	c #B4150F",
"mD+	c #AB0E09",
"nD+	c #9F0C05",
"oD+	c #870800",
"pD+	c #800B01",
"qD+	c #821005",
"rD+	c #741303",
"sD+	c #701503",
"tD+	c #6B1806",
"uD+	c #681A06",
"vD+	c #79190D",
"wD+	c #7E1809",
"xD+	c #7F1A08",
"yD+	c #801B09",
"zD+	c #801D0A",
"AD+	c #801D08",
"BD+	c #7E1E08",
"CD+	c #7D1D07",
"DD+	c #7C1C06",
"ED+	c #7E1B04",
"FD+	c #7E1A03",
"GD+	c #7E1802",
"HD+	c #801501",
"ID+	c #851501",
"JD+	c #861703",
"KD+	c #7E1C03",
"LD+	c #771D02",
"MD+	c #751B01",
"ND+	c #741A00",
"OD+	c #701A03",
"PD+	c #6E1503",
"QD+	c #741809",
"RD+	c #0C0A0B",
"SD+	c #040807",
"TD+	c #000904",
"UD+	c #171006",
"VD+	c #1F0F02",
"WD+	c #2E0E01",
"XD+	c #460E01",
"YD+	c #8C0F0D",
"ZD+	c #CC1622",
"`D+	c #D3101E",
" E+	c #CD0E1D",
".E+	c #BA0C15",
"+E+	c #990003",
"@E+	c #952026",
"#E+	c #9A2F35",
"$E+	c #933A3C",
"%E+	c #7E3433",
"&E+	c #6E2E2C",
"*E+	c #6E3231",
"=E+	c #773738",
"-E+	c #77363A",
";E+	c #5B1A1E",
">E+	c #44090D",
",E+	c #360D09",
"'E+	c #2A0100",
")E+	c #2E2D2B",
"!E+	c #201B18",
"~E+	c #39221A",
"{E+	c #3F1D13",
"]E+	c #421E12",
"^E+	c #321207",
"/E+	c #4D2F24",
"(E+	c #492E25",
"_E+	c #876863",
":E+	c #694642",
"<E+	c #471516",
"[E+	c #542120",
"}E+	c #5A2827",
"|E+	c #4F1F1B",
"1E+	c #471812",
"2E+	c #40140B",
"3E+	c #370B00",
"4E+	c #542920",
"5E+	c #71493F",
"6E+	c #5E382F",
"7E+	c #3F2119",
"8E+	c #5C3D38",
"9E+	c #704745",
"0E+	c #461415",
"aE+	c #4F0D11",
"bE+	c #560B0F",
"cE+	c #5C070A",
"dE+	c #66070B",
"eE+	c #771011",
"fE+	c #8D1B1B",
"gE+	c #992120",
"hE+	c #9A201B",
"iE+	c #902118",
"jE+	c #872218",
"kE+	c #672320",
"lE+	c #622625",
"mE+	c #612A2D",
"nE+	c #5E3030",
"oE+	c #4D3125",
"pE+	c #4D3227",
"qE+	c #51362B",
"rE+	c #573B30",
"sE+	c #53352D",
"tE+	c #593632",
"uE+	c #5C3935",
"vE+	c #593A37",
"wE+	c #553A33",
"xE+	c #553E38",
"yE+	c #5A4740",
"zE+	c #5E5047",
"AE+	c #5E5148",
"BE+	c #554B41",
"CE+	c #52483E",
"DE+	c #50463D",
"EE+	c #554840",
"FE+	c #55463F",
"GE+	c #503F38",
"HE+	c #412C27",
"IE+	c #59413F",
"JE+	c #553936",
"KE+	c #4C2B26",
"LE+	c #461F18",
"ME+	c #4E1C13",
"NE+	c #992113",
"OE+	c #B5251A",
"PE+	c #D12821",
"QE+	c #E1211C",
"RE+	c #E71310",
"SE+	c #C71717",
"TE+	c #8E1413",
"UE+	c #610301",
"VE+	c #3D0707",
"WE+	c #360C0E",
"XE+	c #2B0B0E",
"YE+	c #472116",
"ZE+	c #541A0F",
"`E+	c #A12629",
" F+	c #B01012",
".F+	c #B51613",
"+F+	c #A90C03",
"@F+	c #B11808",
"#F+	c #B30E08",
"$F+	c #A90A04",
"%F+	c #880F04",
"&F+	c #7A1002",
"*F+	c #7A1406",
"=F+	c #701405",
"-F+	c #6A1B0A",
";F+	c #6C1B0A",
">F+	c #821609",
",F+	c #851A0A",
"'F+	c #851B0B",
")F+	c #831C09",
"!F+	c #811C08",
"~F+	c #801B07",
"{F+	c #801A04",
"]F+	c #821904",
"^F+	c #831903",
"/F+	c #851803",
"(F+	c #871703",
"_F+	c #8A1503",
":F+	c #8D1602",
"<F+	c #881802",
"[F+	c #7B1B02",
"}F+	c #741D01",
"|F+	c #721B00",
"1F+	c #711A00",
"2F+	c #6F1900",
"3F+	c #701A00",
"4F+	c #711B02",
"5F+	c #701804",
"6F+	c #131309",
"7F+	c #090E0A",
"8F+	c #000B07",
"9F+	c #000B04",
"0F+	c #070C06",
"aF+	c #0C0E01",
"bF+	c #0E1204",
"cF+	c #151203",
"dF+	c #BE131B",
"eF+	c #C51019",
"fF+	c #C00F17",
"gF+	c #A90D11",
"hF+	c #6C0000",
"iF+	c #6E0806",
"jF+	c #6E050A",
"kF+	c #710D15",
"lF+	c #671215",
"mF+	c #5C1415",
"nF+	c #561A19",
"oF+	c #5C1C1D",
"pF+	c #642327",
"qF+	c #3A0003",
"rF+	c #49211F",
"sF+	c #320605",
"tF+	c #312D2C",
"uF+	c #2B2726",
"vF+	c #3A1F16",
"wF+	c #3F221A",
"xF+	c #42241A",
"yF+	c #411B10",
"zF+	c #401A0F",
"AF+	c #442014",
"BF+	c #38160C",
"CF+	c #66433D",
"DF+	c #855E59",
"EF+	c #370504",
"FF+	c #450F0F",
"GF+	c #491313",
"HF+	c #5C2624",
"IF+	c #723F3B",
"JF+	c #6B3A35",
"KF+	c #602F28",
"LF+	c #47150C",
"MF+	c #511F16",
"NF+	c #6D3E36",
"OF+	c #6C4138",
"PF+	c #49231A",
"QF+	c #3C1B12",
"RF+	c #321C11",
"SF+	c #4F2725",
"TF+	c #370707",
"UF+	c #5A191D",
"VF+	c #490105",
"WF+	c #510006",
"XF+	c #5E080B",
"YF+	c #6F1515",
"ZF+	c #892523",
"`F+	c #632822",
" G+	c #542C2D",
".G+	c #52302F",
"+G+	c #4A362B",
"@G+	c #4B382A",
"#G+	c #4D3A2C",
"$G+	c #4E362A",
"%G+	c #57392F",
"&G+	c #56352C",
"*G+	c #59342E",
"=G+	c #5E3634",
"-G+	c #5B3834",
";G+	c #553631",
">G+	c #563F37",
",G+	c #56443A",
"'G+	c #53453A",
")G+	c #5D5145",
"!G+	c #5D5347",
"~G+	c #544C41",
"{G+	c #4D4339",
"]G+	c #54473E",
"^G+	c #473A31",
"/G+	c #442E23",
"(G+	c #432318",
"_G+	c #4D2315",
":G+	c #592112",
"<G+	c #631B0C",
"[G+	c #912113",
"}G+	c #C8231D",
"|G+	c #D81817",
"1G+	c #BB1D1C",
"2G+	c #981410",
"3G+	c #6C0602",
"4G+	c #2F1111",
"5G+	c #53241A",
"6G+	c #922C2A",
"7G+	c #A62627",
"8G+	c #AC0D0A",
"9G+	c #A50D00",
"0G+	c #B21B0A",
"aG+	c #BB1B0F",
"bG+	c #BB170E",
"cG+	c #B7100A",
"dG+	c #9A1005",
"eG+	c #871608",
"fG+	c #7A1304",
"gG+	c #741D0C",
"hG+	c #80180D",
"iG+	c #85170A",
"jG+	c #88180A",
"kG+	c #861B09",
"lG+	c #851A08",
"mG+	c #851A06",
"nG+	c #841905",
"oG+	c #861904",
"pG+	c #881905",
"qG+	c #891905",
"rG+	c #8D1806",
"sG+	c #8E1605",
"tG+	c #8F1605",
"uG+	c #8B1805",
"vG+	c #7B1801",
"wG+	c #731900",
"xG+	c #701900",
"yG+	c #701800",
"zG+	c #721A02",
"AG+	c #731B03",
"BG+	c #751D07",
"CG+	c #761606",
"DG+	c #100D00",
"EG+	c #0F1200",
"FG+	c #090D00",
"GG+	c #230000",
"HG+	c #730609",
"IG+	c #A31114",
"JG+	c #C1181D",
"KG+	c #CF1C20",
"LG+	c #BC1215",
"MG+	c #970508",
"NG+	c #770101",
"OG+	c #560808",
"PG+	c #570209",
"QG+	c #4D0002",
"RG+	c #4C0106",
"SG+	c #4A0508",
"TG+	c #410306",
"UG+	c #4B1012",
"VG+	c #53181C",
"WG+	c #430B0E",
"XG+	c #370005",
"YG+	c #5A3B39",
"ZG+	c #150008",
"`G+	c #1D0713",
" H+	c #17040A",
".H+	c #1E0B0F",
"+H+	c #0C0004",
"@H+	c #2C2724",
"#H+	c #292421",
"$H+	c #0D0B0C",
"%H+	c #0B0B0B",
"&H+	c #45221C",
"*H+	c #4C261D",
"=H+	c #3C1206",
"-H+	c #44180D",
";H+	c #4D2317",
">H+	c #451F14",
",H+	c #411B12",
"'H+	c #8E615C",
")H+	c #612E2B",
"!H+	c #460E0D",
"~H+	c #501612",
"{H+	c #703932",
"]H+	c #723E33",
"^H+	c #743E34",
"/H+	c #7E3F38",
"(H+	c #7E3F3A",
"_H+	c #7D433F",
":H+	c #3F170F",
"<H+	c #3A1C12",
"[H+	c #4B1515",
"}H+	c #671F20",
"|H+	c #671D1C",
"1H+	c #722724",
"2H+	c #7F312D",
"3H+	c #772925",
"4H+	c #6B221B",
"5H+	c #63241D",
"6H+	c #5B241F",
"7H+	c #572822",
"8H+	c #552F2C",
"9H+	c #543231",
"0H+	c #523432",
"aH+	c #513531",
"bH+	c #5E433C",
"cH+	c #4C3128",
"dH+	c #583D34",
"eH+	c #482D24",
"fH+	c #51362D",
"gH+	c #553A2F",
"hH+	c #53372C",
"iH+	c #513529",
"jH+	c #53372B",
"kH+	c #583A30",
"lH+	c #57362F",
"mH+	c #583730",
"nH+	c #5B3D35",
"oH+	c #59473B",
"pH+	c #544639",
"qH+	c #544737",
"rH+	c #564939",
"sH+	c #534636",
"tH+	c #4D4433",
"uH+	c #464833",
"vH+	c #41442F",
"wH+	c #433E2B",
"xH+	c #442D1F",
"yH+	c #46241A",
"zH+	c #59281A",
"AH+	c #612318",
"BH+	c #98140F",
"CH+	c #BC191A",
"DH+	c #E5121B",
"EH+	c #EA0813",
"FH+	c #F60001",
"GH+	c #D82626",
"HH+	c #520E0B",
"IH+	c #9C2A29",
"JH+	c #B12B28",
"KH+	c #AC1409",
"LH+	c #AA1707",
"MH+	c #AD1E0D",
"NH+	c #AD1C0B",
"OH+	c #9C1207",
"PH+	c #921406",
"QH+	c #7D1607",
"RH+	c #771707",
"SH+	c #7B1A0A",
"TH+	c #86160A",
"UH+	c #8E1A0D",
"VH+	c #901C0F",
"WH+	c #8F1B0C",
"XH+	c #8B1A08",
"YH+	c #8A1907",
"ZH+	c #891603",
"`H+	c #8A1704",
" I+	c #8C1705",
".I+	c #901808",
"+I+	c #911708",
"@I+	c #8F1506",
"#I+	c #7F1505",
"$I+	c #791805",
"%I+	c #771804",
"&I+	c #761A05",
"*I+	c #771B06",
"=I+	c #771C07",
"-I+	c #7A1F0C",
";I+	c #771A08",
">I+	c #771806",
",I+	c #7C1808",
"'I+	c #110B00",
")I+	c #111000",
"!I+	c #220001",
"~I+	c #430003",
"{I+	c #6D0409",
"]I+	c #A41519",
"^I+	c #C21C1E",
"/I+	c #D02224",
"(I+	c #9C1011",
"_I+	c #590709",
":I+	c #4D080B",
"<I+	c #4E070D",
"[I+	c #4B060B",
"}I+	c #4D0C10",
"|I+	c #470B0D",
"1I+	c #3E0609",
"2I+	c #451113",
"3I+	c #491519",
"4I+	c #380609",
"5I+	c #350408",
"6I+	c #2C0001",
"7I+	c #2C0204",
"8I+	c #391515",
"9I+	c #180410",
"0I+	c #1C0716",
"aI+	c #140009",
"bI+	c #18090C",
"cI+	c #100408",
"dI+	c #0B090A",
"eI+	c #262626",
"fI+	c #424240",
"gI+	c #241A1B",
"hI+	c #441A0E",
"iI+	c #461A0D",
"jI+	c #4A2014",
"kI+	c #451D13",
"lI+	c #451D15",
"mI+	c #441912",
"nI+	c #552521",
"oI+	c #8C5753",
"pI+	c #905453",
"qI+	c #81413F",
"rI+	c #732F2E",
"sI+	c #581210",
"tI+	c #500D07",
"uI+	c #672B20",
"vI+	c #73352A",
"wI+	c #924D48",
"xI+	c #BE7A77",
"yI+	c #884D49",
"zI+	c #48160F",
"AI+	c #411A13",
"BI+	c #4B1B19",
"CI+	c #804443",
"DI+	c #773634",
"EI+	c #6D2926",
"FI+	c #753430",
"GI+	c #884743",
"HI+	c #83443D",
"II+	c #6F332B",
"JI+	c #662D24",
"KI+	c #5C251E",
"LI+	c #532620",
"MI+	c #502922",
"NI+	c #4F2C28",
"OI+	c #4E322F",
"PI+	c #4D302C",
"QI+	c #462925",
"RI+	c #492C28",
"SI+	c #51342E",
"TI+	c #553830",
"UI+	c #472A22",
"VI+	c #52362B",
"WI+	c #4A2E23",
"XI+	c #4A2E22",
"YI+	c #593D31",
"ZI+	c #583A32",
"`I+	c #5B3E36",
" J+	c #60433B",
".J+	c #584537",
"+J+	c #554335",
"@J+	c #5D4D3D",
"#J+	c #5C4B3B",
"$J+	c #4C412F",
"%J+	c #43472E",
"&J+	c #42482E",
"*J+	c #46442F",
"=J+	c #4A3427",
"-J+	c #4B2B20",
";J+	c #4D291D",
">J+	c #52261B",
",J+	c #9F1815",
"'J+	c #D1131D",
")J+	c #E60B0F",
"!J+	c #FB0001",
"~J+	c #FD090B",
"{J+	c #D21914",
"]J+	c #C32927",
"^J+	c #A01E1C",
"/J+	c #3E0200",
"(J+	c #290100",
"_J+	c #240D00",
":J+	c #831C1D",
"<J+	c #A72B2B",
"[J+	c #AD2320",
"}J+	c #AF1B11",
"|J+	c #B31B0D",
"1J+	c #A31501",
"2J+	c #A51606",
"3J+	c #A70F0A",
"4J+	c #841609",
"5J+	c #831508",
"6J+	c #811508",
"7J+	c #7C1607",
"8J+	c #7B1707",
"9J+	c #88180C",
"0J+	c #8E180E",
"aJ+	c #8F1B0E",
"bJ+	c #901C0D",
"cJ+	c #8D1A08",
"dJ+	c #8D1A07",
"eJ+	c #8D1A05",
"fJ+	c #8E1907",
"gJ+	c #7C1B0A",
"hJ+	c #7A1D0B",
"iJ+	c #7B1E0C",
"jJ+	c #7C1F0D",
"kJ+	c #7A1B09",
"lJ+	c #7D1708",
"mJ+	c #130D00",
"nJ+	c #0B0B00",
"oJ+	c #680105",
"pJ+	c #A5181E",
"qJ+	c #CC1F23",
"rJ+	c #C11B1D",
"sJ+	c #9C0D0F",
"tJ+	c #720001",
"uJ+	c #550000",
"vJ+	c #480204",
"wJ+	c #4D0D0E",
"xJ+	c #4B1110",
"yJ+	c #4C1616",
"zJ+	c #360808",
"AJ+	c #2D0102",
"BJ+	c #290001",
"CJ+	c #260002",
"DJ+	c #26090B",
"EJ+	c #0E040C",
"FJ+	c #11070F",
"GJ+	c #010504",
"HJ+	c #050A06",
"IJ+	c #0C0E09",
"JJ+	c #2D2825",
"KJ+	c #3C3C3C",
"LJ+	c #5A5A58",
"MJ+	c #271D1E",
"NJ+	c #421D15",
"OJ+	c #441E11",
"PJ+	c #431F13",
"QJ+	c #421C11",
"RJ+	c #471F17",
"SJ+	c #481B15",
"TJ+	c #874B4A",
"UJ+	c #853F41",
"VJ+	c #873B3D",
"WJ+	c #8F3F40",
"XJ+	c #7A2928",
"YJ+	c #5D140B",
"ZJ+	c #75302B",
"`J+	c #B97874",
" K+	c #8F5551",
".K+	c #4E1D16",
"+K+	c #2F1409",
"@K+	c #612725",
"#K+	c #61211F",
"$K+	c #5E211E",
"%K+	c #6F322D",
"&K+	c #804740",
"*K+	c #763F38",
"=K+	c #4D1D13",
"-K+	c #52261D",
";K+	c #4F271D",
">K+	c #4D281F",
",K+	c #4C2A21",
"'K+	c #4A2B26",
")K+	c #492E27",
"!K+	c #482F2B",
"~K+	c #452824",
"{K+	c #543532",
"]K+	c #684944",
"^K+	c #65473F",
"/K+	c #55372F",
"(K+	c #563830",
"_K+	c #53352B",
":K+	c #503228",
"<K+	c #56382D",
"[K+	c #62453D",
"}K+	c #442C22",
"|K+	c #544234",
"1K+	c #534334",
"2K+	c #5A4A3B",
"3K+	c #514132",
"4K+	c #5C4C3C",
"5K+	c #615040",
"6K+	c #4F4432",
"7K+	c #46462E",
"8K+	c #474931",
"9K+	c #4C4532",
"0K+	c #4C2A1E",
"aK+	c #56281B",
"bK+	c #622417",
"cK+	c #86130E",
"dK+	c #9D1110",
"eK+	c #B61318",
"fK+	c #CD1318",
"gK+	c #FE0509",
"hK+	c #DE1412",
"iK+	c #DA1A17",
"jK+	c #CB221D",
"kK+	c #A21D18",
"lK+	c #480200",
"mK+	c #330300",
"nK+	c #260600",
"oK+	c #241103",
"pK+	c #2A1C0F",
"qK+	c #2E120F",
"rK+	c #340C0C",
"sK+	c #440807",
"tK+	c #992D2D",
"uK+	c #B33131",
"vK+	c #B51A15",
"wK+	c #BE2015",
"xK+	c #B2190B",
"yK+	c #A71100",
"zK+	c #A30F03",
"AK+	c #A40B06",
"BK+	c #A30B08",
"CK+	c #A10D0B",
"DK+	c #95160D",
"EK+	c #8E180C",
"FK+	c #88160B",
"GK+	c #821207",
"HK+	c #821308",
"IK+	c #801408",
"JK+	c #7D1306",
"KK+	c #7C1407",
"LK+	c #7A1607",
"MK+	c #7F190B",
"NK+	c #8D1C0C",
"OK+	c #8B1B07",
"PK+	c #8C1C08",
"QK+	c #8D1D09",
"RK+	c #8D1C0A",
"SK+	c #8F1E0C",
"TK+	c #901F0F",
"UK+	c #8F1E10",
"VK+	c #8C1C0E",
"WK+	c #8B1F12",
"XK+	c #831C0D",
"YK+	c #7D1909",
"ZK+	c #7C1D0B",
"`K+	c #7D1C0B",
" L+	c #811709",
".L+	c #120600",
"+L+	c #5F0003",
"@L+	c #9A151A",
"#L+	c #B2161A",
"$L+	c #C01A1E",
"%L+	c #B71417",
"&L+	c #940509",
"*L+	c #6F0000",
"=L+	c #52070B",
"-L+	c #4A100F",
";L+	c #41110D",
">L+	c #3B140F",
",L+	c #2B0407",
"'L+	c #240002",
")L+	c #180405",
"!L+	c #080609",
"~L+	c #1F0601",
"{L+	c #230800",
"]L+	c #020703",
"^L+	c #000601",
"/L+	c #080D07",
"(L+	c #2A2522",
"_L+	c #3A3A3A",
":L+	c #555553",
"<L+	c #251B1C",
"[L+	c #45281A",
"}L+	c #3E2113",
"|L+	c #3E1E11",
"1L+	c #3D1B0F",
"2L+	c #461E16",
"3L+	c #491813",
"4L+	c #864241",
"5L+	c #792A2D",
"6L+	c #762023",
"7L+	c #903437",
"8L+	c #9A3C3D",
"9L+	c #8D3231",
"0L+	c #852C28",
"aL+	c #76211A",
"bL+	c #7F403B",
"cL+	c #965F5A",
"dL+	c #6C3D37",
"eL+	c #210F05",
"fL+	c #22160A",
"gL+	c #471A17",
"hL+	c #450E0B",
"iL+	c #5D231F",
"jL+	c #67302B",
"kL+	c #6B3930",
"lL+	c #5C2D23",
"mL+	c #491F13",
"nL+	c #461E12",
"oL+	c #4A261A",
"pL+	c #48281D",
"qL+	c #482A20",
"rL+	c #462B24",
"sL+	c #442B24",
"tL+	c #442D27",
"uL+	c #452C28",
"vL+	c #472A26",
"wL+	c #5B3C39",
"xL+	c #654641",
"yL+	c #6C4D48",
"zL+	c #70514C",
"AL+	c #61423D",
"BL+	c #62443C",
"CL+	c #55372D",
"DL+	c #5A3C32",
"EL+	c #56382E",
"FL+	c #5B3D33",
"GL+	c #5D4038",
"HL+	c #63483F",
"IL+	c #50382E",
"JL+	c #5A483A",
"KL+	c #4F3F30",
"LL+	c #5E4E3F",
"ML+	c #5C4C3D",
"NL+	c #413121",
"OL+	c #5A4939",
"PL+	c #544736",
"QL+	c #4C4630",
"RL+	c #4F4A34",
"SL+	c #514433",
"TL+	c #4C3B2B",
"UL+	c #594135",
"VL+	c #573F33",
"WL+	c #4B3122",
"XL+	c #503021",
"YL+	c #5A2C1D",
"ZL+	c #B21214",
"`L+	c #D20E10",
" M+	c #E4090D",
".M+	c #C91D1B",
"+M+	c #780902",
"@M+	c #3B0600",
"#M+	c #300C00",
"$M+	c #271002",
"%M+	c #251508",
"&M+	c #370909",
"*M+	c #360302",
"=M+	c #AB3535",
"-M+	c #B82E2E",
";M+	c #AF1513",
">M+	c #BC1713",
",M+	c #C01911",
"'M+	c #B10F04",
")M+	c #A90F05",
"!M+	c #A40907",
"~M+	c #9E0A0A",
"{M+	c #980E0B",
"]M+	c #8F130B",
"^M+	c #811106",
"/M+	c #801106",
"(M+	c #7F1307",
"_M+	c #7F1508",
":M+	c #7D1709",
"<M+	c #8A1C0F",
"[M+	c #8B1B0D",
"}M+	c #881908",
"|M+	c #881906",
"1M+	c #8A1B07",
"2M+	c #8A1B08",
"3M+	c #8B1E0A",
"4M+	c #8C1E0D",
"5M+	c #8A1F0D",
"6M+	c #881D0D",
"7M+	c #200204",
"8M+	c #8D1215",
"9M+	c #A8171A",
"0M+	c #BB1F22",
"aM+	c #B61B1F",
"bM+	c #980B11",
"cM+	c #780004",
"dM+	c #640007",
"eM+	c #5B0C11",
"fM+	c #2F0A02",
"gM+	c #1F0400",
"hM+	c #412220",
"iM+	c #371718",
"jM+	c #28080B",
"kM+	c #170406",
"lM+	c #300300",
"mM+	c #280C09",
"nM+	c #040905",
"oM+	c #010A05",
"pM+	c #000803",
"qM+	c #030A03",
"rM+	c #2E302D",
"sM+	c #50504E",
"tM+	c #2B2219",
"uM+	c #3B221B",
"vM+	c #3A1E13",
"wM+	c #3D2618",
"xM+	c #382113",
"yM+	c #3A2013",
"zM+	c #3B1B10",
"AM+	c #431B13",
"BM+	c #883C3E",
"CM+	c #92393D",
"DM+	c #79161B",
"EM+	c #8D2428",
"FM+	c #A3393B",
"GM+	c #9B3332",
"HM+	c #8F2C27",
"IM+	c #852620",
"JM+	c #802B24",
"KM+	c #661F1B",
"LM+	c #753A36",
"MM+	c #A26D69",
"NM+	c #673A34",
"OM+	c #37110E",
"PM+	c #471B18",
"QM+	c #511B19",
"RM+	c #5B2421",
"SM+	c #592720",
"TM+	c #4F241B",
"UM+	c #411F13",
"VM+	c #4A2D1F",
"WM+	c #41271A",
"XM+	c #412A1C",
"YM+	c #3F2B22",
"ZM+	c #402C25",
"`M+	c #4F322E",
" N+	c #4D2E2B",
".N+	c #745550",
"+N+	c #45271F",
"@N+	c #62443A",
"#N+	c #5F4137",
"$N+	c #5F423A",
"%N+	c #60453E",
"&N+	c #5F443D",
"*N+	c #503730",
"=N+	c #483227",
"-N+	c #5D4B3F",
";N+	c #594C3C",
">N+	c #5B4E3E",
",N+	c #514431",
"'N+	c #574A37",
")N+	c #584737",
"!N+	c #513F33",
"~N+	c #433324",
"{N+	c #433625",
"]N+	c #4D321F",
"^N+	c #552C1A",
"/N+	c #961210",
"(N+	c #C51114",
"_N+	c #DD0C11",
":N+	c #D91718",
"<N+	c #BD1F20",
"[N+	c #A31313",
"}N+	c #560100",
"|N+	c #420400",
"1N+	c #310B00",
"2N+	c #2C1203",
"3N+	c #261406",
"4N+	c #3F0B0D",
"5N+	c #3B0304",
"6N+	c #3E0204",
"7N+	c #550909",
"8N+	c #8D2323",
"9N+	c #B23030",
"0N+	c #B30F0E",
"aN+	c #B20600",
"bN+	c #AA0B07",
"cN+	c #A70709",
"dN+	c #A20609",
"eN+	c #960C0A",
"fN+	c #89140B",
"gN+	c #89120C",
"hN+	c #820F08",
"iN+	c #801108",
"jN+	c #80150B",
"kN+	c #7C1409",
"lN+	c #80180B",
"mN+	c #851B0D",
"nN+	c #861B0B",
"oN+	c #881A0B",
"pN+	c #871807",
"qN+	c #851605",
"rN+	c #871604",
"sN+	c #8A1A06",
"tN+	c #871804",
"uN+	c #861905",
"vN+	c #861D0A",
"wN+	c #801A0B",
"xN+	c #7F1306",
"yN+	c #771001",
"zN+	c #771102",
"AN+	c #7A1405",
"BN+	c #80190A",
"CN+	c #821518",
"DN+	c #BB2C2E",
"EN+	c #B8272C",
"FN+	c #A0191F",
"GN+	c #810811",
"HN+	c #660007",
"IN+	c #4E0003",
"JN+	c #3B0A06",
"KN+	c #210500",
"LN+	c #412824",
"MN+	c #543837",
"NN+	c #2B0E12",
"ON+	c #160003",
"PN+	c #521012",
"QN+	c #672527",
"RN+	c #63282A",
"SN+	c #3A1012",
"TN+	c #0A0C09",
"UN+	c #080A07",
"VN+	c #272926",
"WN+	c #545550",
"XN+	c #2D2C28",
"YN+	c #3A302F",
"ZN+	c #321E17",
"`N+	c #382517",
" O+	c #381A0F",
".O+	c #401810",
"+O+	c #430E0A",
"@O+	c #54100F",
"#O+	c #893739",
"$O+	c #98383C",
"%O+	c #780F14",
"&O+	c #8B1D20",
"*O+	c #9E2D2F",
"=O+	c #8A1E1C",
"-O+	c #7C130F",
";O+	c #761D17",
">O+	c #9E635F",
",O+	c #A16C68",
"'O+	c #481B16",
")O+	c #290400",
"!O+	c #381B15",
"~O+	c #431714",
"{O+	c #4E1B18",
"]O+	c #4B1A15",
"^O+	c #441910",
"/O+	c #441F16",
"(O+	c #402013",
"_O+	c #3D2D20",
":O+	c #3F2B24",
"<O+	c #452C27",
"[O+	c #492A25",
"}O+	c #452621",
"|O+	c #6D4E49",
"1O+	c #866762",
"2O+	c #72534E",
"3O+	c #573931",
"4O+	c #462820",
"5O+	c #61433B",
"6O+	c #6A4C44",
"7O+	c #5B423B",
"8O+	c #543D35",
"9O+	c #5A4A3D",
"0O+	c #4F4134",
"aO+	c #514434",
"bO+	c #504333",
"cO+	c #574A3A",
"dO+	c #584839",
"eO+	c #4E3E2F",
"fO+	c #493929",
"gO+	c #554432",
"hO+	c #5B4A38",
"iO+	c #604A3C",
"jO+	c #5D4739",
"kO+	c #3D3624",
"lO+	c #3D3623",
"mO+	c #423522",
"nO+	c #4D3420",
"oO+	c #632B1E",
"pO+	c #B21415",
"qO+	c #DC1417",
"rO+	c #E51316",
"sO+	c #E70708",
"tO+	c #C71F1F",
"uO+	c #B42223",
"vO+	c #9B1B1C",
"wO+	c #770706",
"xO+	c #2E0A00",
"yO+	c #280C00",
"zO+	c #231002",
"AO+	c #221205",
"BO+	c #3D0B0C",
"CO+	c #3F0708",
"DO+	c #420203",
"EO+	c #5E0D0C",
"FO+	c #A32F2F",
"GO+	c #C20B05",
"HO+	c #CC1B15",
"IO+	c #B70B07",
"JO+	c #AB0509",
"KO+	c #A50409",
"LO+	c #A0070A",
"MO+	c #990D0C",
"NO+	c #8F120C",
"OO+	c #8C130B",
"PO+	c #82170D",
"QO+	c #7F170C",
"RO+	c #871606",
"SO+	c #881503",
"TO+	c #881302",
"UO+	c #8C1403",
"VO+	c #881502",
"WO+	c #851603",
"XO+	c #831804",
"YO+	c #831909",
"ZO+	c #781203",
"`O+	c #841207",
" P+	c #1D0503",
".P+	c #290101",
"+P+	c #6C1212",
"@P+	c #8D1F20",
"#P+	c #A82A2D",
"$P+	c #AB2A2E",
"%P+	c #A2272C",
"&P+	c #922028",
"*P+	c #730D18",
"=P+	c #4F0004",
"-P+	c #230600",
";P+	c #412927",
">P+	c #23090C",
",P+	c #1C0609",
"'P+	c #0E0307",
")P+	c #280201",
"!P+	c #400507",
"~P+	c #5B0A10",
"{P+	c #7E232C",
"]P+	c #903640",
"^P+	c #82323B",
"/P+	c #490D15",
"(P+	c #2F060C",
"_P+	c #170305",
":P+	c #4B4140",
"<P+	c #49413F",
"[P+	c #3B1F1B",
"}P+	c #440D0A",
"|P+	c #530D0D",
"1P+	c #873235",
"2P+	c #912E31",
"3P+	c #790F13",
"4P+	c #922123",
"5P+	c #9F2F2E",
"6P+	c #881C19",
"7P+	c #801E15",
"8P+	c #803B36",
"9P+	c #BE8281",
"0P+	c #8E5856",
"aP+	c #34110F",
"bP+	c #3E110E",
"cP+	c #481814",
"dP+	c #441C14",
"eP+	c #48261D",
"fP+	c #43271B",
"gP+	c #342415",
"hP+	c #35291B",
"iP+	c #492C26",
"jP+	c #41241E",
"kP+	c #694C46",
"lP+	c #846761",
"mP+	c #70534D",
"nP+	c #4B2E28",
"oP+	c #5D403A",
"pP+	c #5F423C",
"qP+	c #5F463F",
"rP+	c #5D463E",
"sP+	c #5B473E",
"tP+	c #524036",
"uP+	c #514036",
"vP+	c #57493C",
"wP+	c #544333",
"xP+	c #5C4736",
"yP+	c #4A3E32",
"zP+	c #3B3827",
"AP+	c #3D3A27",
"BP+	c #413C28",
"CP+	c #473A27",
"DP+	c #553020",
"EP+	c #59291D",
"FP+	c #981211",
"GP+	c #B61012",
"HP+	c #D51719",
"IP+	c #E00A0A",
"JP+	c #B91A17",
"KP+	c #881615",
"LP+	c #350802",
"MP+	c #390303",
"NP+	c #4C0608",
"OP+	c #711717",
"PP+	c #B33833",
"QP+	c #C02922",
"RP+	c #C91D19",
"SP+	c #D51917",
"TP+	c #D4150D",
"UP+	c #D41B16",
"VP+	c #C20F0B",
"WP+	c #BB0B0B",
"XP+	c #B5060B",
"YP+	c #AD0409",
"ZP+	c #A50708",
"`P+	c #9C0B08",
" Q+	c #8D1308",
".Q+	c #8B160D",
"+Q+	c #85160B",
"@Q+	c #8A1909",
"#Q+	c #8D1304",
"$Q+	c #8D1202",
"%Q+	c #901203",
"&Q+	c #921304",
"*Q+	c #8D0F00",
"=Q+	c #8A0F00",
"-Q+	c #881000",
";Q+	c #811606",
">Q+	c #7D1605",
",Q+	c #790F01",
"'Q+	c #7A0E01",
")Q+	c #791203",
"!Q+	c #892122",
"~Q+	c #96282B",
"{Q+	c #A0353B",
"]Q+	c #A43F45",
"^Q+	c #8D3038",
"/Q+	c #671A20",
"(Q+	c #170002",
"_Q+	c #1C0C0F",
":Q+	c #310303",
"<Q+	c #510C0F",
"[Q+	c #6F141D",
"}Q+	c #8F2934",
"|Q+	c #95303E",
"1Q+	c #78202C",
"2Q+	c #4D0914",
"3Q+	c #2F0008",
"4Q+	c #110104",
"5Q+	c #180204",
"6Q+	c #1E080A",
"7Q+	c #1D1C18",
"8Q+	c #1C1C1A",
"9Q+	c #363531",
"0Q+	c #453B3A",
"aQ+	c #504846",
"bQ+	c #2E211B",
"cQ+	c #361D18",
"dQ+	c #301C15",
"eQ+	c #421913",
"fQ+	c #440F0B",
"gQ+	c #520C0C",
"hQ+	c #832F2F",
"iQ+	c #8D2D2F",
"jQ+	c #8C2020",
"kQ+	c #922623",
"lQ+	c #8C2B22",
"mQ+	c #8D3426",
"nQ+	c #944F4A",
"oQ+	c #CA8E8D",
"pQ+	c #7D4745",
"qQ+	c #3E0C0B",
"rQ+	c #381F1B",
"sQ+	c #39201C",
"tQ+	c #401818",
"uQ+	c #441817",
"vQ+	c #4B1817",
"wQ+	c #4F1C19",
"xQ+	c #441712",
"yQ+	c #2F170B",
"zQ+	c #2C190B",
"AQ+	c #4C2F29",
"BQ+	c #533630",
"CQ+	c #654842",
"DQ+	c #866963",
"EQ+	c #694E47",
"FQ+	c #604740",
"GQ+	c #5A463D",
"HQ+	c #604C43",
"IQ+	c #614F45",
"JQ+	c #544339",
"KQ+	c #4A3C2F",
"LQ+	c #4F4335",
"MQ+	c #504436",
"NQ+	c #59493A",
"OQ+	c #675547",
"PQ+	c #5A4738",
"QQ+	c #574133",
"RQ+	c #564033",
"SQ+	c #4F3F32",
"TQ+	c #52463A",
"UQ+	c #574F42",
"VQ+	c #3F3C2B",
"WQ+	c #41402E",
"XQ+	c #444130",
"YQ+	c #463D2C",
"ZQ+	c #482E1F",
"`Q+	c #9C1210",
" R+	c #C01C1B",
".R+	c #CA110F",
"+R+	c #CC0F0D",
"@R+	c #C9120E",
"#R+	c #BB221D",
"$R+	c #9B1A15",
"%R+	c #590805",
"&R+	c #230200",
"*R+	c #470101",
"=R+	c #5C1213",
"-R+	c #862826",
";R+	c #B9362E",
">R+	c #C3251A",
",R+	c #D01D16",
"'R+	c #DA1912",
")R+	c #D0100B",
"!R+	c #CC1511",
"~R+	c #C4100F",
"{R+	c #BE0A0D",
"]R+	c #B40608",
"^R+	c #AA0404",
"/R+	c #940B01",
"(R+	c #8D0D00",
"_R+	c #8E0F06",
":R+	c #8C1008",
"<R+	c #89140A",
"[R+	c #831107",
"}R+	c #801004",
"|R+	c #86170C",
"1R+	c #83170B",
"2R+	c #8E1908",
"3R+	c #911607",
"4R+	c #941204",
"5R+	c #980E03",
"6R+	c #990F04",
"7R+	c #8E0800",
"8R+	c #870D00",
"9R+	c #821101",
"0R+	c #780E00",
"aR+	c #751604",
"bR+	c #3B0602",
"cR+	c #540302",
"dR+	c #7A2125",
"eR+	c #822D32",
"fR+	c #8F3E45",
"gR+	c #975056",
"hR+	c #683232",
"iR+	c #140105",
"jR+	c #110207",
"kR+	c #120E0F",
"lR+	c #5D181B",
"mR+	c #892E37",
"nR+	c #97313C",
"oR+	c #841F2D",
"pR+	c #670F1B",
"qR+	c #3D0004",
"rR+	c #33040C",
"sR+	c #1C0106",
"tR+	c #180507",
"uR+	c #302C29",
"vR+	c #463C3B",
"wR+	c #3E3433",
"xR+	c #2F1B12",
"yR+	c #833533",
"zR+	c #7C2222",
"AR+	c #600100",
"BR+	c #7A1614",
"CR+	c #742715",
"DR+	c #8F4739",
"ER+	c #AF7373",
"FR+	c #5F2728",
"GR+	c #461818",
"HR+	c #3D1515",
"IR+	c #3D1A18",
"JR+	c #451312",
"KR+	c #491615",
"LR+	c #3D100D",
"MR+	c #29150A",
"NR+	c #322117",
"OR+	c #372018",
"PR+	c #40231D",
"QR+	c #42251F",
"RR+	c #4A2D27",
"SR+	c #472C25",
"TR+	c #482D26",
"UR+	c #4E332C",
"VR+	c #51362F",
"WR+	c #7A5F58",
"XR+	c #412521",
"YR+	c #432723",
"ZR+	c #321612",
"`R+	c #5B423D",
" S+	c #6F5852",
".S+	c #65514A",
"+S+	c #56453B",
"@S+	c #5E5045",
"#S+	c #55493B",
"$S+	c #4F4637",
"%S+	c #594D3F",
"&S+	c #6B5849",
"*S+	c #483527",
"=S+	c #5F4D3F",
"-S+	c #68564A",
";S+	c #4E3E31",
">S+	c #52483C",
",S+	c #4A4235",
"'S+	c #453F31",
")S+	c #41392C",
"!S+	c #BC2723",
"~S+	c #C62825",
"{S+	c #C2231F",
"]S+	c #B81F1A",
"^S+	c #B0251E",
"/S+	c #8E170F",
"(S+	c #6A0900",
"_S+	c #530A01",
":S+	c #4D1812",
"<S+	c #45221E",
"[S+	c #290B09",
"}S+	c #280906",
"|S+	c #300403",
"1S+	c #3B0908",
"2S+	c #681C1E",
"3S+	c #8F2D2A",
"4S+	c #B22C21",
"5S+	c #C62417",
"6S+	c #D62116",
"7S+	c #E52017",
"8S+	c #E91D14",
"9S+	c #E71810",
"0S+	c #E31D14",
"aS+	c #D61B16",
"bS+	c #D31B19",
"cS+	c #CF1719",
"dS+	c #C50E10",
"eS+	c #9C0800",
"fS+	c #950C00",
"gS+	c #8A0A01",
"hS+	c #820D03",
"iS+	c #811306",
"jS+	c #841607",
"kS+	c #8A1202",
"lS+	c #8C1101",
"mS+	c #921002",
"nS+	c #A11508",
"oS+	c #A9160C",
"pS+	c #AE170E",
"qS+	c #AF160E",
"rS+	c #A80F07",
"sS+	c #A71309",
"tS+	c #8D0700",
"uS+	c #851102",
"vS+	c #811103",
"wS+	c #780D00",
"xS+	c #760F00",
"yS+	c #761001",
"zS+	c #761202",
"AS+	c #731402",
"BS+	c #711402",
"CS+	c #721301",
"DS+	c #1E0904",
"ES+	c #260300",
"FS+	c #480607",
"GS+	c #500B0E",
"HS+	c #521014",
"IS+	c #601E22",
"JS+	c #6B2E33",
"KS+	c #8A5358",
"LS+	c #7F4E51",
"MS+	c #471D1E",
"NS+	c #2A100F",
"OS+	c #250C0F",
"PS+	c #5E2023",
"QS+	c #7F2E34",
"RS+	c #7D232C",
"SS+	c #660F18",
"TS+	c #4F030D",
"US+	c #3B0209",
"VS+	c #330C11",
"WS+	c #200A0D",
"XS+	c #130407",
"YS+	c #250B0C",
"ZS+	c #2F2724",
"`S+	c #48231D",
" T+	c #511612",
".T+	c #7F3834",
"+T+	c #72211E",
"@T+	c #722918",
"#T+	c #682512",
"$T+	c #824334",
"%T+	c #C78A85",
"&T+	c #965C5B",
"*T+	c #4C2223",
"=T+	c #2C0A09",
"-T+	c #3E1817",
";T+	c #3F1516",
">T+	c #401212",
",T+	c #401010",
"'T+	c #3C100D",
")T+	c #3F221C",
"!T+	c #442922",
"~T+	c #553C35",
"{T+	c #7B5F5B",
"]T+	c #4C332E",
"^T+	c #331713",
"/T+	c #59403B",
"(T+	c #75615A",
"_T+	c #514539",
":T+	c #564A3E",
"<T+	c #5B4F43",
"[T+	c #52493A",
"}T+	c #4E4536",
"|T+	c #574B3D",
"1T+	c #4D3D2E",
"2T+	c #5F4F3F",
"3T+	c #69594A",
"4T+	c #5E5043",
"5T+	c #54463B",
"6T+	c #5C2217",
"7T+	c #8E251F",
"8T+	c #AE3731",
"9T+	c #B73832",
"0T+	c #AC2B26",
"aT+	c #5C0200",
"bT+	c #4C0800",
"cT+	c #59291F",
"dT+	c #5C3E36",
"eT+	c #2F0C0A",
"fT+	c #300A09",
"gT+	c #7A2A2B",
"hT+	c #9E3B36",
"iT+	c #B12D20",
"jT+	c #C42414",
"kT+	c #D01E10",
"lT+	c #DA1A0F",
"mT+	c #D1150C",
"nT+	c #DA211C",
"oT+	c #D5191A",
"pT+	c #CC1213",
"qT+	c #A80B00",
"rT+	c #9E0B00",
"sT+	c #940E05",
"tT+	c #941107",
"uT+	c #8F0F04",
"vT+	c #880C00",
"wT+	c #860E00",
"xT+	c #871304",
"yT+	c #820E00",
"zT+	c #851404",
"AT+	c #8C1B0B",
"BT+	c #8F1E0E",
"CT+	c #951708",
"DT+	c #981405",
"ET+	c #A51608",
"FT+	c #B71910",
"GT+	c #C01913",
"HT+	c #C31C16",
"IT+	c #9B0B02",
"JT+	c #870F01",
"KT+	c #711603",
"LT+	c #1D0400",
"MT+	c #160203",
"NT+	c #2A0401",
"OT+	c #2E0002",
"PT+	c #420F14",
"QT+	c #835256",
"RT+	c #805658",
"ST+	c #583436",
"TT+	c #3A1C1C",
"UT+	c #1B0102",
"VT+	c #190507",
"WT+	c #1E0B0D",
"XT+	c #4B1E1B",
"YT+	c #5E2222",
"ZT+	c #501011",
"`T+	c #3D0002",
" U+	c #340002",
".U+	c #2A1114",
"+U+	c #282320",
"@U+	c #3F3734",
"#U+	c #4F4543",
"$U+	c #3F3534",
"%U+	c #493F3D",
"&U+	c #3E160E",
"*U+	c #4D1B14",
"=U+	c #773B33",
"-U+	c #712F1F",
";U+	c #6D3220",
">U+	c #8B5344",
",U+	c #B97F7B",
"'U+	c #743E3E",
")U+	c #3F1314",
"!U+	c #3C1414",
"~U+	c #411718",
"{U+	c #431515",
"]U+	c #3C0C0A",
"^U+	c #36221B",
"/U+	c #412A22",
"(U+	c #49302B",
"_U+	c #4A332D",
":U+	c #3D241F",
"<U+	c #513A34",
"[U+	c #3B221E",
"}U+	c #604D46",
"|U+	c #615048",
"1U+	c #605448",
"2U+	c #4C4236",
"3U+	c #54483A",
"4U+	c #5A4E40",
"5U+	c #56483B",
"6U+	c #59493C",
"7U+	c #4A3D2D",
"8U+	c #65574A",
"9U+	c #514336",
"0U+	c #534238",
"aU+	c #49382E",
"bU+	c #4A332B",
"cU+	c #4F3830",
"dU+	c #583C31",
"eU+	c #623C2F",
"fU+	c #5B2A1C",
"gU+	c #5E2015",
"hU+	c #72251D",
"iU+	c #812621",
"jU+	c #670400",
"kU+	c #500100",
"lU+	c #4F1007",
"mU+	c #5A2E23",
"nU+	c #62463B",
"oU+	c #4C3E35",
"pU+	c #2D0909",
"qU+	c #390803",
"rU+	c #5F1411",
"sU+	c #A33D39",
"tU+	c #BC3D2E",
"uU+	c #CB3524",
"vU+	c #D83121",
"wU+	c #E32D20",
"xU+	c #E82A1E",
"yU+	c #E6281C",
"zU+	c #E22A1E",
"AU+	c #E32E25",
"BU+	c #D4231D",
"CU+	c #B60C00",
"DU+	c #A90A00",
"EU+	c #9C0E04",
"FU+	c #980B01",
"GU+	c #960E02",
"HU+	c #951104",
"IU+	c #8D1403",
"JU+	c #921A09",
"KU+	c #961E0D",
"LU+	c #971E0D",
"MU+	c #931808",
"NU+	c #941705",
"OU+	c #9E1B09",
"PU+	c #A21909",
"QU+	c #B0180B",
"RU+	c #D8221F",
"SU+	c #D32421",
"TU+	c #AF120B",
"UU+	c #9D0A02",
"VU+	c #8E0E03",
"WU+	c #230401",
"XU+	c #0F0800",
"YU+	c #250506",
"ZU+	c #32070E",
"`U+	c #380D14",
" V+	c #532C31",
".V+	c #412728",
"+V+	c #271113",
"@V+	c #1C0809",
"#V+	c #160204",
"$V+	c #17070A",
"%V+	c #403835",
"&V+	c #5C5451",
"*V+	c #4A403E",
"=V+	c #453B39",
"-V+	c #2F140B",
";V+	c #331107",
">V+	c #471B12",
",V+	c #601C13",
"'V+	c #7A4130",
")V+	c #9F6A5C",
"!V+	c #9A6763",
"~V+	c #532321",
"{V+	c #2F0908",
"]V+	c #381513",
"^V+	c #3A0E0B",
"/V+	c #341E13",
"(V+	c #4D3932",
"_V+	c #5A463F",
":V+	c #503B36",
"<V+	c #7C6E65",
"[V+	c #493B32",
"}V+	c #63594F",
"|V+	c #574D41",
"1V+	c #564C40",
"2V+	c #554B3F",
"3V+	c #5B4D40",
"4V+	c #5B4B3E",
"5V+	c #5C4E41",
"6V+	c #4B3F2F",
"7V+	c #776B5D",
"8V+	c #67594C",
"9V+	c #4E3A31",
"0V+	c #51271B",
"aV+	c #5F261F",
"bV+	c #5F1A15",
"cV+	c #550705",
"dV+	c #510603",
"eV+	c #58130E",
"fV+	c #4C120E",
"gV+	c #5E332C",
"hV+	c #664941",
"iV+	c #280C0B",
"jV+	c #2F0708",
"kV+	c #2F0803",
"lV+	c #2E0600",
"mV+	c #3F0801",
"nV+	c #450200",
"oV+	c #702220",
"pV+	c #8D2725",
"qV+	c #891103",
"rV+	c #960D00",
"sV+	c #A50900",
"tV+	c #B10900",
"uV+	c #B70900",
"vV+	c #BB1104",
"wV+	c #C11A12",
"xV+	c #CE1817",
"yV+	c #B60B00",
"zV+	c #A70500",
"AV+	c #A70D03",
"BV+	c #A00900",
"CV+	c #A00E01",
"DV+	c #A7190B",
"EV+	c #991604",
"FV+	c #991805",
"GV+	c #9A1705",
"HV+	c #9B1806",
"IV+	c #9F1707",
"JV+	c #A31A08",
"KV+	c #B6160A",
"LV+	c #D91918",
"MV+	c #DA1E1D",
"NV+	c #D2201C",
"OV+	c #A11108",
"PV+	c #991006",
"QV+	c #8E1206",
"RV+	c #821204",
"SV+	c #0F0500",
"TV+	c #1C0E0E",
"UV+	c #2F1015",
"VV+	c #23060A",
"WV+	c #341E20",
"XV+	c #716161",
"YV+	c #4A3C3C",
"ZV+	c #302021",
"`V+	c #372426",
" W+	c #2F1B1D",
".W+	c #240E11",
"+W+	c #1B0508",
"@W+	c #160200",
"#W+	c #524846",
"$W+	c #443A38",
"%W+	c #271C1A",
"&W+	c #3E3331",
"*W+	c #403533",
"=W+	c #531A11",
"-W+	c #55150C",
";W+	c #631F16",
">W+	c #81453A",
",W+	c #A26C62",
"'W+	c #835651",
")W+	c #2B0504",
"!W+	c #351312",
"~W+	c #402222",
"{W+	c #351918",
"]W+	c #371B1A",
"^W+	c #27120F",
"/W+	c #2A190F",
"(W+	c #2C1B11",
"_W+	c #2F1F12",
":W+	c #3A2721",
"<W+	c #4D3A36",
"[W+	c #5A4C43",
"}W+	c #5F554B",
"|W+	c #493F35",
"1W+	c #5B5348",
"2W+	c #585043",
"3W+	c #524A3D",
"4W+	c #54483C",
"5W+	c #594B3E",
"6W+	c #5F5144",
"7W+	c #5E5244",
"8W+	c #534A3B",
"9W+	c #453C2D",
"0W+	c #5D4F42",
"aW+	c #504033",
"bW+	c #513B30",
"cW+	c #503A2F",
"dW+	c #4D4133",
"eW+	c #443828",
"fW+	c #4D3126",
"gW+	c #5C332D",
"hW+	c #5E2828",
"iW+	c #571B1D",
"jW+	c #5D2224",
"kW+	c #6A3638",
"lW+	c #542B29",
"mW+	c #3D2A24",
"nW+	c #2F0D03",
"oW+	c #320C01",
"pW+	c #3C1005",
"qW+	c #3C0600",
"rW+	c #500B06",
"sW+	c #81302F",
"tW+	c #923435",
"uW+	c #7B0C01",
"vW+	c #8F0500",
"wW+	c #980100",
"xW+	c #9E0100",
"yW+	c #A10500",
"zW+	c #A00800",
"AW+	c #9F0800",
"BW+	c #A60D07",
"CW+	c #B2100D",
"DW+	c #C51517",
"EW+	c #D21819",
"FW+	c #CA0B03",
"GW+	c #BB1008",
"HW+	c #B81007",
"IW+	c #AE0A00",
"JW+	c #B71E10",
"KW+	c #A71A06",
"LW+	c #AE1505",
"MW+	c #D80E0C",
"NW+	c #D70D0D",
"OW+	c #D91614",
"PW+	c #D81F1C",
"QW+	c #CE1F1A",
"RW+	c #AD160F",
"SW+	c #A11309",
"TW+	c #951306",
"UW+	c #851104",
"VW+	c #230602",
"WW+	c #2D2523",
"XW+	c #261617",
"YW+	c #261013",
"ZW+	c #1D0408",
"`W+	c #170104",
" X+	c #1B0507",
".X+	c #150200",
"+X+	c #140300",
"@X+	c #120B03",
"#X+	c #5D5351",
"$X+	c #3D3230",
"%X+	c #2A1206",
"&X+	c #311106",
"*X+	c #43180F",
"=X+	c #4E1911",
"-X+	c #54110B",
";X+	c #93524C",
">X+	c #9C635C",
",X+	c #5D342E",
"'X+	c #220100",
")X+	c #301816",
"!X+	c #2C1412",
"~X+	c #270F0D",
"{X+	c #291411",
"]X+	c #413029",
"^X+	c #483632",
"/X+	c #574541",
"(X+	c #574F44",
"_X+	c #55473A",
":X+	c #584C3E",
"<X+	c #504738",
"[X+	c #685A4D",
"}X+	c #4A4434",
"|X+	c #4C493A",
"1X+	c #563432",
"2X+	c #5A2D30",
"3X+	c #512026",
"4X+	c #491A20",
"5X+	c #471E24",
"6X+	c #482A2C",
"7X+	c #2D1817",
"8X+	c #260E0C",
"9X+	c #2D0B0A",
"0X+	c #2C0E03",
"aX+	c #2C0F01",
"bX+	c #260900",
"cX+	c #341304",
"dX+	c #3A1002",
"eX+	c #3E0800",
"fX+	c #8D3738",
"gX+	c #8D2A2D",
"hX+	c #820600",
"iX+	c #880200",
"jX+	c #8F0200",
"kX+	c #910800",
"lX+	c #D51415",
"mX+	c #CD0C07",
"nX+	c #CD160E",
"oX+	c #C8160C",
"pX+	c #C02010",
"qX+	c #B91C0B",
"rX+	c #B41B09",
"sX+	c #B41D0A",
"tX+	c #B61F0C",
"uX+	c #B9200E",
"vX+	c #BA210F",
"wX+	c #B91E0C",
"xX+	c #AD1D05",
"yX+	c #C81308",
"zX+	c #D11009",
"AX+	c #D80E0A",
"BX+	c #DB0B09",
"CX+	c #DD1311",
"DX+	c #D51F1B",
"EX+	c #C41D17",
"FX+	c #A20F05",
"GX+	c #930D02",
"HX+	c #7E0E02",
"IX+	c #891309",
"JX+	c #2C0307",
"KX+	c #270303",
"LX+	c #05090A",
"MX+	c #04090C",
"NX+	c #050A0D",
"OX+	c #090D0E",
"PX+	c #0C0E0D",
"QX+	c #25080C",
"RX+	c #1F0508",
"SX+	c #1D0004",
"TX+	c #28030B",
"UX+	c #29040C",
"VX+	c #230507",
"WX+	c #110A00",
"XX+	c #110002",
"YX+	c #220509",
"ZX+	c #250304",
"`X+	c #260301",
" Y+	c #2A0608",
".Y+	c #594F4D",
"+Y+	c #504644",
"@Y+	c #3E3432",
"#Y+	c #332826",
"$Y+	c #625755",
"%Y+	c #514644",
"&Y+	c #261305",
"*Y+	c #4D1B12",
"=Y+	c #5C2119",
"-Y+	c #5A1711",
";Y+	c #7D3330",
">Y+	c #B06967",
",Y+	c #905551",
"'Y+	c #2A1514",
")Y+	c #261E11",
"!Y+	c #282212",
"~Y+	c #2C2515",
"{Y+	c #3C2D28",
"]Y+	c #60534A",
"^Y+	c #4B4338",
"/Y+	c #70685D",
"(Y+	c #4F473C",
"_Y+	c #595144",
":Y+	c #51473B",
"<Y+	c #473B2F",
"[Y+	c #5C5246",
"}Y+	c #614E40",
"|Y+	c #3A3724",
"1Y+	c #444533",
"2Y+	c #464739",
"3Y+	c #3F382E",
"4Y+	c #462A29",
"5Y+	c #512A2F",
"6Y+	c #4E252D",
"7Y+	c #431B24",
"8Y+	c #38141E",
"9Y+	c #32191F",
"0Y+	c #271315",
"aY+	c #2B0F0E",
"bY+	c #2A1003",
"cY+	c #271000",
"dY+	c #371001",
"eY+	c #461006",
"fY+	c #8E3635",
"gY+	c #861F23",
"hY+	c #70070B",
"iY+	c #7A0A06",
"jY+	c #7E0400",
"kY+	c #830600",
"lY+	c #8A0B04",
"mY+	c #850A03",
"nY+	c #860603",
"oY+	c #970908",
"pY+	c #B41116",
"qY+	c #D7170C",
"rY+	c #D91811",
"sY+	c #D4180F",
"tY+	c #CB1309",
"uY+	c #C5180A",
"vY+	c #C51F0F",
"wY+	c #BF1E0C",
"xY+	c #C01F0D",
"yY+	c #C62312",
"zY+	c #C72111",
"AY+	c #C31D0D",
"BY+	c #B5230C",
"CY+	c #B22208",
"DY+	c #B81D09",
"EY+	c #C01907",
"FY+	c #CB1508",
"GY+	c #D41209",
"HY+	c #C0150E",
"IY+	c #9E0A00",
"JY+	c #800A00",
"KY+	c #7F0D02",
"LY+	c #841408",
"MY+	c #861409",
"NY+	c #8C130A",
"OY+	c #230400",
"PY+	c #0A0A0A",
"QY+	c #090A0C",
"RY+	c #050B0B",
"SY+	c #050B09",
"TY+	c #090F0B",
"UY+	c #0F1410",
"VY+	c #030802",
"WY+	c #282722",
"XY+	c #4E4741",
"YY+	c #311F1D",
"ZY+	c #291413",
"`Y+	c #3E2425",
" Z+	c #553739",
".Z+	c #523235",
"+Z+	c #441F26",
"@Z+	c #3A1117",
"#Z+	c #34020B",
"$Z+	c #280002",
"%Z+	c #1E0105",
"&Z+	c #210207",
"*Z+	c #270408",
"=Z+	c #341210",
"-Z+	c #5A524F",
";Z+	c #534846",
">Z+	c #615654",
",Z+	c #2D0800",
"'Z+	c #44150F",
")Z+	c #58211C",
"!Z+	c #5D1717",
"~Z+	c #5A1213",
"{Z+	c #863E3F",
"]Z+	c #BE7677",
"^Z+	c #7E4442",
"/Z+	c #262012",
"(Z+	c #42332E",
"_Z+	c #493F33",
":Z+	c #655B51",
"<Z+	c #675F54",
"[Z+	c #594F43",
"}Z+	c #4B4135",
"|Z+	c #584C40",
"1Z+	c #5C4E43",
"2Z+	c #57493E",
"3Z+	c #5D4F44",
"4Z+	c #574B3F",
"5Z+	c #614F41",
"6Z+	c #4F3B30",
"7Z+	c #383522",
"8Z+	c #444331",
"9Z+	c #534F43",
"0Z+	c #4C433A",
"aZ+	c #473531",
"bZ+	c #472F2D",
"cZ+	c #502D33",
"dZ+	c #4A2A2F",
"eZ+	c #44252A",
"fZ+	c #2C1116",
"gZ+	c #321C1E",
"hZ+	c #321D1C",
"iZ+	c #3B0D0F",
"jZ+	c #220C00",
"kZ+	c #261002",
"lZ+	c #2B1404",
"mZ+	c #2B1402",
"nZ+	c #391C0C",
"oZ+	c #411D0D",
"pZ+	c #3D0F02",
"qZ+	c #52160C",
"rZ+	c #7F342F",
"sZ+	c #89312F",
"tZ+	c #7C181A",
"uZ+	c #7A1616",
"vZ+	c #80130E",
"wZ+	c #810B07",
"xZ+	c #7C0D04",
"yZ+	c #7F0A01",
"zZ+	c #A8100D",
"AZ+	c #D41B19",
"BZ+	c #CB1507",
"CZ+	c #D01C0D",
"DZ+	c #D32210",
"EZ+	c #C91806",
"FZ+	c #CF200F",
"GZ+	c #CB220F",
"HZ+	c #BE240C",
"IZ+	c #BA220A",
"JZ+	c #BF1F09",
"KZ+	c #CB100B",
"LZ+	c #B00F05",
"MZ+	c #A20B00",
"NZ+	c #950900",
"OZ+	c #8B0F03",
"PZ+	c #8C1207",
"QZ+	c #8D1409",
"RZ+	c #8E150A",
"SZ+	c #92130A",
"TZ+	c #1B0802",
"UZ+	c #210905",
"VZ+	c #030D04",
"WZ+	c #041006",
"XZ+	c #080F07",
"YZ+	c #070A03",
"ZZ+	c #0F1509",
"`Z+	c #121407",
" `+	c #4A382E",
".`+	c #371F1B",
"+`+	c #6B4449",
"@`+	c #75434E",
"#`+	c #723A45",
"$`+	c #682C2E",
"%`+	c #551B1A",
"&`+	c #430C0F",
"*`+	c #2D0002",
"=`+	c #1A0808",
"-`+	c #250B0E",
";`+	c #270A0E",
">`+	c #26090D",
",`+	c #393430",
"'`+	c #433E3A",
")`+	c #473C38",
"!`+	c #6A5F5B",
"~`+	c #41221F",
"{`+	c #4A1817",
"]`+	c #5E2325",
"^`+	c #531516",
"/`+	c #652526",
"(`+	c #995959",
"_`+	c #955555",
":`+	c #5B2825",
"<`+	c #2E1A19",
"[`+	c #7D7367",
"}`+	c #564940",
"|`+	c #55473E",
"1`+	c #5D4F46",
"2`+	c #55443C",
"3`+	c #5D4A43",
"4`+	c #503430",
"5`+	c #422320",
"6`+	c #231103",
"7`+	c #291808",
"8`+	c #301909",
"9`+	c #331606",
"0`+	c #4A2216",
"a`+	c #55160D",
"b`+	c #772E27",
"c`+	c #812C27",
"d`+	c #90150D",
"e`+	c #831106",
"f`+	c #720F00",
"g`+	c #7D1603",
"h`+	c #840F00",
"i`+	c #9E1203",
"j`+	c #CF1A0F",
"k`+	c #D00F00",
"l`+	c #DF1A0A",
"m`+	c #E61914",
"n`+	c #DF160E",
"o`+	c #DB1605",
"p`+	c #D91403",
"q`+	c #E01F0D",
"r`+	c #DE210D",
"s`+	c #D9200C",
"t`+	c #CE240D",
"u`+	c #CC230E",
"v`+	c #CC200C",
"w`+	c #D3190A",
"x`+	c #D7190B",
"y`+	c #D9190E",
"z`+	c #D91A10",
"A`+	c #B10A01",
"B`+	c #A00600",
"C`+	c #8A1001",
"D`+	c #861100",
"E`+	c #8B1302",
"F`+	c #991B0C",
"G`+	c #941407",
"H`+	c #AE281F",
"I`+	c #B02923",
"J`+	c #A7201A",
"K`+	c #8F0F06",
"L`+	c #901108",
"M`+	c #94180C",
"N`+	c #050B01",
"O`+	c #030F03",
"P`+	c #080D06",
"Q`+	c #1E1010",
"R`+	c #090A02",
"S`+	c #0E0E02",
"T`+	c #170300",
"U`+	c #2F0E05",
"V`+	c #381A12",
"W`+	c #340B11",
"X`+	c #46101D",
"Y`+	c #5E202D",
"Z`+	c #692B2E",
"``+	c #6B2A28",
"  @	c #6A2625",
". @	c #6F272A",
"+ @	c #752D30",
"@ @	c #71292D",
"# @	c #652025",
"$ @	c #521117",
"% @	c #420A0D",
"& @	c #2F0103",
"* @	c #1D0709",
"= @	c #25060B",
"- @	c #26060B",
"; @	c #29060C",
"> @	c #1F0609",
", @	c #180606",
"' @	c #322D29",
") @	c #4A3F3B",
"! @	c #3A2C29",
"~ @	c #372825",
"{ @	c #6E504E",
"] @	c #431D1C",
"^ @	c #521E20",
"/ @	c #561E1F",
"( @	c #713736",
"_ @	c #A16766",
": @	c #874D4B",
"< @	c #471715",
"[ @	c #3E3121",
"} @	c #55493D",
"| @	c #75685F",
"1 @	c #685B52",
"2 @	c #4E443A",
"3 @	c #51433A",
"4 @	c #504239",
"5 @	c #3F3126",
"6 @	c #5A493F",
"7 @	c #4C3B31",
"8 @	c #58413B",
"9 @	c #67504A",
"0 @	c #503C33",
"a @	c #564239",
"b @	c #432F24",
"c @	c #362015",
"d @	c #7C5E54",
"e @	c #350C08",
"f @	c #260E02",
"g @	c #281302",
"h @	c #301406",
"i @	c #381205",
"j @	c #471308",
"k @	c #440100",
"l @	c #8D3531",
"m @	c #802520",
"n @	c #891307",
"o @	c #94150E",
"p @	c #7D1804",
"q @	c #781200",
"r @	c #D41E10",
"s @	c #D51405",
"t @	c #E51B0D",
"u @	c #E91A14",
"v @	c #DD170A",
"w @	c #DB1A09",
"x @	c #DF1E0D",
"y @	c #E01B08",
"z @	c #E71A09",
"A @	c #E81D0C",
"B @	c #E82010",
"C @	c #E3200E",
"D @	c #DF200D",
"E @	c #DD230E",
"F @	c #D31E0B",
"G @	c #D41908",
"H @	c #D6180A",
"I @	c #AA0C00",
"J @	c #9C0A00",
"K @	c #930E00",
"L @	c #881405",
"M @	c #851402",
"N @	c #8C1703",
"O @	c #971D08",
"P @	c #9A1B08",
"Q @	c #A1170C",
"R @	c #B0231A",
"S @	c #931006",
"T @	c #961809",
"U @	c #2A0304",
"V @	c #280404",
"W @	c #0B0800",
"X @	c #090B00",
"Y @	c #120800",
"Z @	c #3F0F0D",
"` @	c #260004",
" .@	c #2C0005",
"..@	c #3E0611",
"+.@	c #511413",
"@.@	c #5F1F1F",
"#.@	c #702B2E",
"$.@	c #7C3539",
"%.@	c #7A3339",
"&.@	c #6E2C30",
"*.@	c #65272C",
"=.@	c #5B2326",
"-.@	c #451719",
";.@	c #27080D",
">.@	c #28080D",
",.@	c #20070A",
"'.@	c #4B403C",
").@	c #655A56",
"!.@	c #3E302F",
"~.@	c #3C312F",
"{.@	c #745855",
"].@	c #654240",
"^.@	c #421011",
"/.@	c #6F3C39",
"(.@	c #9D6A67",
"_.@	c #72413C",
":.@	c #3C3022",
"<.@	c #81776D",
"[.@	c #9A9086",
"}.@	c #534940",
"|.@	c #4C4239",
"1.@	c #4E443B",
"2.@	c #634F48",
"3.@	c #41261D",
"4.@	c #4D2F25",
"5.@	c #856058",
"6.@	c #714640",
"7.@	c #2B0A01",
"8.@	c #290B01",
"9.@	c #2F0F02",
"0.@	c #430F04",
"a.@	c #8E312C",
"b.@	c #9E3834",
"c.@	c #821613",
"d.@	c #790C09",
"e.@	c #851813",
"f.@	c #800F09",
"g.@	c #9A0C0B",
"h.@	c #9C1813",
"i.@	c #810E00",
"j.@	c #C6180D",
"k.@	c #DE1C13",
"l.@	c #EA170C",
"m.@	c #E2130B",
"n.@	c #E21A0D",
"o.@	c #E72211",
"p.@	c #E82312",
"q.@	c #E62111",
"r.@	c #E11D0D",
"s.@	c #E02011",
"t.@	c #DA1D0A",
"u.@	c #AC0800",
"v.@	c #901506",
"w.@	c #A1200D",
"x.@	c #9D1809",
"y.@	c #A1190D",
"z.@	c #AA2016",
"A.@	c #AC1F16",
"B.@	c #A4170E",
"C.@	c #9B120A",
"D.@	c #961005",
"E.@	c #961406",
"F.@	c #971507",
"G.@	c #2A0202",
"H.@	c #2D0305",
"I.@	c #2B0405",
"J.@	c #68262A",
"K.@	c #783338",
"L.@	c #55171C",
"M.@	c #300001",
"N.@	c #2A0203",
"O.@	c #330F13",
"P.@	c #2C020C",
"Q.@	c #32030B",
"R.@	c #601E20",
"S.@	c #5E1C20",
"T.@	c #57161A",
"U.@	c #5E2126",
"V.@	c #60292C",
"W.@	c #552729",
"X.@	c #6F6460",
"Y.@	c #634A45",
"Z.@	c #8A6765",
"`.@	c #4F1F1D",
" +@	c #794945",
".+@	c #976A65",
"++@	c #280500",
"@+@	c #50463C",
"#+@	c #857B71",
"$+@	c #574D44",
"%+@	c #4B4138",
"&+@	c #473D34",
"*+@	c #5F4B44",
"=+@	c #4F372D",
"-+@	c #512C24",
";+@	c #865B55",
">+@	c #8A5955",
",+@	c #340606",
"'+@	c #540701",
")+@	c #8C312C",
"!+@	c #AD4441",
"~+@	c #992623",
"{+@	c #850D0C",
"]+@	c #941914",
"^+@	c #910D08",
"/+@	c #910603",
"(+@	c #970204",
"_+@	c #A1080B",
":+@	c #A11514",
"<+@	c #961710",
"[+@	c #91170C",
"}+@	c #911307",
"|+@	c #A90600",
"1+@	c #CA130D",
"2+@	c #E31814",
"3+@	c #DE0F05",
"4+@	c #DB1303",
"5+@	c #E32211",
"6+@	c #DF200E",
"7+@	c #DE2012",
"8+@	c #DB1B10",
"9+@	c #DC170E",
"0+@	c #DD180F",
"a+@	c #DD190B",
"b+@	c #9C0E02",
"c+@	c #991307",
"d+@	c #981606",
"e+@	c #A52710",
"f+@	c #A82511",
"g+@	c #A51D0F",
"h+@	c #A61C11",
"i+@	c #A4170D",
"j+@	c #9B1307",
"k+@	c #991105",
"l+@	c #991103",
"m+@	c #9B1104",
"n+@	c #260202",
"o+@	c #2F0205",
"p+@	c #2B0103",
"q+@	c #2B0304",
"r+@	c #431114",
"s+@	c #6F2830",
"t+@	c #8B3744",
"u+@	c #8F3946",
"v+@	c #772A34",
"w+@	c #4D1017",
"x+@	c #2F0104",
"y+@	c #29060D",
"z+@	c #340D12",
"A+@	c #410B09",
"B+@	c #400809",
"C+@	c #480C0E",
"D+@	c #490C11",
"E+@	c #46090E",
"F+@	c #3F060C",
"G+@	c #461216",
"H+@	c #46181B",
"I+@	c #2F2422",
"J+@	c #3A2F2D",
"K+@	c #605553",
"L+@	c #493E3C",
"M+@	c #423836",
"N+@	c #37241E",
"O+@	c #6C504C",
"P+@	c #967472",
"Q+@	c #4B2321",
"R+@	c #8F6660",
"S+@	c #936C65",
"T+@	c #4B2920",
"U+@	c #1E0300",
"V+@	c #322423",
"W+@	c #190F06",
"X+@	c #443A31",
"Y+@	c #5D534A",
"Z+@	c #4A3B34",
"`+@	c #43352C",
" @@	c #2E1C10",
".@@	c #4C3932",
"+@@	c #462D26",
"@@@	c #4D3028",
"#@@	c #532822",
"$@@	c #8E5B57",
"%@@	c #A36967",
"&@@	c #6A2E2D",
"*@@	c #310806",
"=@@	c #320B06",
"-@@	c #4C0500",
";@@	c #AA4742",
">@@	c #AC3B37",
",@@	c #8A0F0A",
"'@@	c #94100E",
")@@	c #9E1815",
"!@@	c #940B05",
"~@@	c #9E1310",
"{@@	c #9C0A0A",
"]@@	c #A2080A",
"^@@	c #AC0D11",
"/@@	c #AE1317",
"(@@	c #95100B",
"_@@	c #9C170E",
":@@	c #9C0C03",
"<@@	c #AF0601",
"[@@	c #E51209",
"}@@	c #E41106",
"|@@	c #EE1A0F",
"1@@	c #F11B11",
"2@@	c #E11306",
"3@@	c #DC1707",
"4@@	c #D81D0C",
"5@@	c #CB190B",
"6@@	c #D51F14",
"7@@	c #D91E17",
"8@@	c #DB1816",
"9@@	c #E2160D",
"0@@	c #E10E03",
"a@@	c #D90D04",
"b@@	c #CA0B01",
"c@@	c #BC0700",
"d@@	c #B00600",
"e@@	c #A80600",
"f@@	c #A50B00",
"g@@	c #A51105",
"h@@	c #A41608",
"i@@	c #A8240F",
"j@@	c #AB2712",
"k@@	c #AC2512",
"l@@	c #A9220F",
"m@@	c #A41C0C",
"n@@	c #9F1508",
"o@@	c #9A1003",
"p@@	c #A0160B",
"q@@	c #A01206",
"r@@	c #A01005",
"s@@	c #1E0403",
"t@@	c #2D0003",
"u@@	c #2F0707",
"v@@	c #2C0907",
"w@@	c #1A0100",
"x@@	c #270003",
"y@@	c #4C131A",
"z@@	c #7D2F3C",
"A@@	c #963E4C",
"B@@	c #8E3342",
"C@@	c #7E2E3B",
"D@@	c #53161E",
"E@@	c #2B0003",
"F@@	c #1D0306",
"G@@	c #22070C",
"H@@	c #300401",
"I@@	c #350302",
"J@@	c #3A0306",
"K@@	c #3D060B",
"L@@	c #310003",
"M@@	c #210B0D",
"N@@	c #271718",
"O@@	c #241415",
"P@@	c #392E2C",
"Q@@	c #463B39",
"R@@	c #524745",
"S@@	c #664943",
"T@@	c #A07A77",
"U@@	c #5F3632",
"V@@	c #663A37",
"W@@	c #977069",
"X@@	c #826057",
"Y@@	c #3E2217",
"Z@@	c #100600",
"`@@	c #675D54",
" #@	c #493F36",
".#@	c #241208",
"+#@	c #231105",
"@#@	c #534137",
"##@	c #4E2D24",
"$#@	c #542D26",
"%#@	c #54231E",
"&#@	c #8B514F",
"*#@	c #B27272",
"=#@	c #8A4849",
"-#@	c #521213",
";#@	c #3F0504",
">#@	c #480902",
",#@	c #540903",
"'#@	c #A9403A",
")#@	c #920500",
"!#@	c #A81915",
"~#@	c #BB1B1D",
"{#@	c #BB1C20",
"]#@	c #AA1415",
"^#@	c #970D0A",
"/#@	c #9D140A",
"(#@	c #9F0B01",
"_#@	c #B20700",
":#@	c #F4150E",
"<#@	c #F5160E",
"[#@	c #B00A00",
"}#@	c #DA1E1F",
"|#@	c #DF191A",
"1#@	c #E9130B",
"2#@	c #E91007",
"3#@	c #B70B01",
"4#@	c #B21107",
"5#@	c #AF1509",
"6#@	c #A81A06",
"7#@	c #AD2411",
"8#@	c #A9220E",
"9#@	c #A01707",
"0#@	c #A11506",
"a#@	c #A51709",
"b#@	c #A61709",
"c#@	c #A8140A",
"d#@	c #A71005",
"e#@	c #AA1006",
"f#@	c #270305",
"g#@	c #290205",
"h#@	c #2F0304",
"i#@	c #300405",
"j#@	c #250001",
"k#@	c #430E14",
"l#@	c #6E2530",
"m#@	c #7D2B39",
"n#@	c #752331",
"o#@	c #641C27",
"p#@	c #3D080E",
"q#@	c #390B0D",
"r#@	c #360508",
"s#@	c #2F0002",
"t#@	c #2B0206",
"u#@	c #2B0709",
"v#@	c #201011",
"w#@	c #403531",
"x#@	c #57312E",
"y#@	c #AD817E",
"z#@	c #7C4C48",
"A#@	c #673A35",
"B#@	c #9B746D",
"C#@	c #704F46",
"D#@	c #34190E",
"E#@	c #2A211A",
"F#@	c #362F25",
"G#@	c #453C33",
"H#@	c #50473E",
"I#@	c #382F26",
"J#@	c #574C46",
"K#@	c #463931",
"L#@	c #473831",
"M#@	c #352118",
"N#@	c #562924",
"O#@	c #58211E",
"P#@	c #945454",
"Q#@	c #B56F6F",
"R#@	c #A75F60",
"S#@	c #712B2D",
"T#@	c #3B0503",
"U#@	c #310400",
"V#@	c #320500",
"W#@	c #511108",
"X#@	c #9B3E37",
"Y#@	c #9E1006",
"Z#@	c #A9190E",
"`#@	c #AC1912",
" $@	c #BC1E1D",
".$@	c #C52728",
"+$@	c #B11916",
"@$@	c #910D01",
"#$@	c #B30800",
"$$@	c #D1110C",
"%$@	c #E61511",
"&$@	c #AD0800",
"*$@	c #A20700",
"=$@	c #C41C19",
"-$@	c #CE1B1E",
";$@	c #EC130C",
">$@	c #C0140A",
",$@	c #BA160A",
"'$@	c #AA1C06",
")$@	c #AA1F0A",
"!$@	c #A01502",
"~$@	c #AE180A",
"{$@	c #AF150B",
"]$@	c #2B0806",
"^$@	c #4E1118",
"/$@	c #531019",
"($@	c #4B0811",
"_$@	c #3F060D",
":$@	c #402E2C",
"<$@	c #3F3130",
"[$@	c #181914",
"}$@	c #1E1F1A",
"|$@	c #261214",
"1$@	c #4F4442",
"2$@	c #392B2A",
"3$@	c #B4817E",
"4$@	c #945E5C",
"5$@	c #794844",
"6$@	c #AE857F",
"7$@	c #6E4D44",
"8$@	c #29221A",
"9$@	c #312A20",
"0$@	c #483F36",
"a$@	c #5C534A",
"b$@	c #61584F",
"c$@	c #4C413B",
"d$@	c #331F16",
"e$@	c #37231A",
"f$@	c #3B271C",
"g$@	c #4F2A22",
"h$@	c #4B1C16",
"i$@	c #5F2322",
"j$@	c #B4706F",
"k$@	c #B16768",
"l$@	c #B86C6E",
"m$@	c #591315",
"n$@	c #330200",
"o$@	c #330D0A",
"p$@	c #3F0200",
"q$@	c #86312A",
"r$@	c #97342E",
"s$@	c #840901",
"t$@	c #910E04",
"u$@	c #950C02",
"v$@	c #A5170B",
"w$@	c #AF1C12",
"x$@	c #A8150B",
"y$@	c #C0211D",
"z$@	c #D12D2B",
"A$@	c #CE2C2A",
"B$@	c #B71C18",
"C$@	c #970F03",
"D$@	c #940800",
"E$@	c #9E0600",
"F$@	c #B80A01",
"G$@	c #EB1811",
"H$@	c #F0120D",
"I$@	c #F90E0A",
"J$@	c #BC0800",
"K$@	c #A80700",
"L$@	c #9C0F00",
"M$@	c #A61309",
"N$@	c #B11612",
"O$@	c #BD1719",
"P$@	c #CE1719",
"Q$@	c #E31515",
"R$@	c #F2140F",
"S$@	c #E61A11",
"T$@	c #E21C13",
"U$@	c #DB1A11",
"V$@	c #C3150A",
"W$@	c #A81A04",
"X$@	c #A21501",
"Y$@	c #9A0F00",
"Z$@	c #A41504",
"`$@	c #AC1608",
" %@	c #B1170B",
".%@	c #B7160C",
"+%@	c #190100",
"@%@	c #2D090B",
"#%@	c #290708",
"$%@	c #2C0A0B",
"%%@	c #341213",
"&%@	c #351518",
"*%@	c #2E1918",
"=%@	c #392725",
"-%@	c #332524",
";%@	c #1C0C0D",
">%@	c #251113",
",%@	c #2C1E1E",
"'%@	c #372B2B",
")%@	c #281A1A",
"!%@	c #382425",
"~%@	c #3B2625",
"{%@	c #3F0F0F",
"]%@	c #743C3D",
"^%@	c #AD7171",
"/%@	c #995C5B",
"(%@	c #602423",
"_%@	c #834E4A",
":%@	c #91645F",
"<%@	c #704B43",
"[%@	c #3C2015",
"}%@	c #2B2620",
"|%@	c #3A332B",
"1%@	c #3E372F",
"2%@	c #615A52",
"3%@	c #786F68",
"4%@	c #564D46",
"5%@	c #4D423C",
"6%@	c #4A3D35",
"7%@	c #4E4139",
"8%@	c #3D2A23",
"9%@	c #342019",
"0%@	c #341D15",
"a%@	c #53362E",
"b%@	c #4A231C",
"c%@	c #6D302F",
"d%@	c #C17B7B",
"e%@	c #BA6B6E",
"f%@	c #AF5F60",
"g%@	c #B06061",
"h%@	c #641A1B",
"i%@	c #3F0A06",
"j%@	c #451812",
"k%@	c #2D0600",
"l%@	c #410908",
"m%@	c #751310",
"n%@	c #851815",
"o%@	c #950F06",
"p%@	c #A10E04",
"q%@	c #A40D04",
"r%@	c #A70F04",
"s%@	c #AD1105",
"t%@	c #C8211B",
"u%@	c #DA2E2A",
"v%@	c #CD2421",
"w%@	c #AF0D08",
"x%@	c #9F1002",
"y%@	c #A10D00",
"z%@	c #AB0B00",
"A%@	c #ED140D",
"B%@	c #F51108",
"C%@	c #F10E05",
"D%@	c #FF0A09",
"E%@	c #FF080A",
"F%@	c #E3140E",
"G%@	c #9B0C00",
"H%@	c #9A1202",
"I%@	c #9F170B",
"J%@	c #A5160E",
"K%@	c #DE1B19",
"L%@	c #F11310",
"M%@	c #E71E16",
"N%@	c #CB150A",
"O%@	c #BF1808",
"P%@	c #AB1300",
"Q%@	c #A21400",
"R%@	c #9F1100",
"S%@	c #A31200",
"T%@	c #A91604",
"U%@	c #BF1810",
"V%@	c #BE150E",
"W%@	c #BC130E",
"X%@	c #2D0706",
"Y%@	c #0B0C06",
"Z%@	c #0D0F0A",
"`%@	c #1D0D0E",
" &@	c #270F0F",
".&@	c #341A1B",
"+&@	c #010400",
"@&@	c #220F11",
"#&@	c #271416",
"$&@	c #261818",
"%&@	c #1C1010",
"&&@	c #261A1A",
"*&@	c #352929",
"=&@	c #352727",
"-&@	c #352224",
";&@	c #372123",
">&@	c #381E21",
",&@	c #331314",
"'&@	c #490E10",
")&@	c #814142",
"!&@	c #A86264",
"~&@	c #9B5557",
"{&@	c #611F20",
"]&@	c #84534F",
"^&@	c #7D564F",
"/&@	c #39322A",
"(&@	c #4F463F",
"_&@	c #4C433C",
":&@	c #39251E",
"<&@	c #361F17",
"[&@	c #4B2D23",
"}&@	c #501F1A",
"|&@	c #6F322F",
"1&@	c #AA6361",
"2&@	c #B86869",
"3&@	c #B56365",
"4&@	c #B46264",
"5&@	c #772B2B",
"6&@	c #4A0605",
"7&@	c #440905",
"8&@	c #360701",
"9&@	c #81393C",
"0&@	c #934143",
"a&@	c #741519",
"b&@	c #7F161A",
"c&@	c #881518",
"d&@	c #911716",
"e&@	c #8F0F0C",
"f&@	c #980A06",
"g&@	c #9B0B03",
"h&@	c #9C0700",
"i&@	c #A10800",
"j&@	c #A50B01",
"k&@	c #A60A00",
"l&@	c #B21206",
"m&@	c #C91E17",
"n&@	c #D2231E",
"o&@	c #AF0802",
"p&@	c #9F0500",
"q&@	c #A10A00",
"r&@	c #A81003",
"s&@	c #B10D01",
"t&@	c #F31510",
"u&@	c #F30E08",
"v&@	c #F7100A",
"w&@	c #FD0E0B",
"x&@	c #FF0C0D",
"y&@	c #FF0A0C",
"z&@	c #9C1706",
"A&@	c #9C180B",
"B&@	c #9C160B",
"C&@	c #AC110D",
"D&@	c #E01710",
"E&@	c #EC1713",
"F&@	c #ED140F",
"G&@	c #E50702",
"H&@	c #E61A13",
"I&@	c #DE180F",
"J&@	c #D5130A",
"K&@	c #B61000",
"L&@	c #AE1601",
"M&@	c #A51200",
"N&@	c #BB170D",
"O&@	c #C21710",
"P&@	c #040B03",
"Q&@	c #020E04",
"R&@	c #061008",
"S&@	c #251313",
"T&@	c #321E1F",
"U&@	c #291717",
"V&@	c #1E0E11",
"W&@	c #1F0F12",
"X&@	c #211114",
"Y&@	c #2A1E1E",
"Z&@	c #312525",
"`&@	c #342626",
" *@	c #352123",
".*@	c #30171A",
"+*@	c #311418",
"@*@	c #361214",
"#*@	c #411516",
"$*@	c #884043",
"%*@	c #A7585D",
"&*@	c #97484B",
"**@	c #6E2425",
"=*@	c #6D2B2C",
"-*@	c #915B59",
";*@	c #8F645E",
">*@	c #2F2C27",
",*@	c #403730",
"'*@	c #5B4E48",
")*@	c #51443E",
"!*@	c #433630",
"~*@	c #45322C",
"{*@	c #3C251F",
"]*@	c #46281E",
"^*@	c #5B2A25",
"/*@	c #703330",
"(*@	c #894341",
"_*@	c #B56767",
":*@	c #B86766",
"<*@	c #924241",
"[*@	c #450400",
"}*@	c #3B0200",
"|*@	c #3D0300",
"1*@	c #4E0E0E",
"2*@	c #6F1D21",
"3*@	c #BD6166",
"4*@	c #B44B52",
"5*@	c #901C25",
"6*@	c #A1252D",
"7*@	c #9A171D",
"8*@	c #9F181E",
"9*@	c #9E1316",
"0*@	c #9F1110",
"a*@	c #A00E0E",
"b*@	c #A10B0A",
"c*@	c #A80D09",
"d*@	c #B80F0C",
"e*@	c #B0160C",
"f*@	c #AA0E02",
"g*@	c #B40C03",
"h*@	c #CC0F09",
"i*@	c #E51511",
"j*@	c #FA0F0C",
"k*@	c #FE0E0F",
"l*@	c #FF0C0E",
"m*@	c #FC090B",
"n*@	c #C51B0E",
"o*@	c #B1190B",
"p*@	c #A61A09",
"q*@	c #9C1809",
"r*@	c #B41006",
"s*@	c #C6140A",
"t*@	c #D71C15",
"u*@	c #E21F19",
"v*@	c #E81D17",
"w*@	c #EA1612",
"x*@	c #E9120D",
"y*@	c #E61711",
"z*@	c #AC1100",
"A*@	c #AF0F01",
"B*@	c #C1140E",
"C*@	c #BD110D",
"D*@	c #000C02",
"E*@	c #010E04",
"F*@	c #040F07",
"G*@	c #2B1D1C",
"H*@	c #1E1214",
"I*@	c #1C0D10",
"J*@	c #2F2323",
"K*@	c #201414",
"L*@	c #2D1F1F",
"M*@	c #281416",
"N*@	c #461518",
"O*@	c #511618",
"P*@	c #5F181C",
"Q*@	c #853639",
"R*@	c #B05B60",
"S*@	c #88363A",
"T*@	c #732427",
"U*@	c #7B3736",
"V*@	c #9F6865",
"W*@	c #403933",
"X*@	c #514841",
"Y*@	c #534640",
"Z*@	c #42352F",
"`*@	c #412E28",
" =@	c #49322C",
".=@	c #180100",
"+=@	c #4B251C",
"@=@	c #5C2D25",
"#=@	c #693029",
"$=@	c #722F29",
"%=@	c #A35855",
"&=@	c #A75655",
"*=@	c #B76363",
"==@	c #A85756",
"-=@	c #580C0C",
";=@	c #691419",
">=@	c #9E3F45",
",=@	c #BC535A",
"'=@	c #9C2730",
")=@	c #91121D",
"!=@	c #AE2632",
"~=@	c #9F131C",
"{=@	c #9C1118",
"]=@	c #9E1117",
"^=@	c #9F1314",
"/=@	c #9E100E",
"(=@	c #9F0D0D",
"_=@	c #A5110F",
":=@	c #AA150F",
"<=@	c #BF2219",
"[=@	c #D52E28",
"}=@	c #D12523",
"|=@	c #BF1515",
"1=@	c #B4100E",
"2=@	c #AC150E",
"3=@	c #AE0D03",
"4=@	c #DC1510",
"5=@	c #EA1311",
"6=@	c #CF190E",
"7=@	c #B01D0D",
"8=@	c #A30F01",
"9=@	c #B41406",
"0=@	c #E2211A",
"a=@	c #E71C16",
"b=@	c #CB0C02",
"c=@	c #BF170A",
"d=@	c #BC0F08",
"e=@	c #BF100B",
"f=@	c #B81412",
"g=@	c #220809",
"h=@	c #070E07",
"i=@	c #051008",
"j=@	c #09120D",
"k=@	c #1D1314",
"l=@	c #2A1C1C",
"m=@	c #250F11",
"n=@	c #2E1115",
"o=@	c #2C080A",
"p=@	c #5C2022",
"q=@	c #6B2326",
"r=@	c #7F2F32",
"s=@	c #AA5359",
"t=@	c #7B2528",
"u=@	c #742427",
"v=@	c #7B3535",
"w=@	c #955E5B",
"x=@	c #724741",
"y=@	c #301C13",
"z=@	c #2C2827",
"A=@	c #2C2B27",
"B=@	c #24231E",
"C=@	c #322D27",
"D=@	c #5C534C",
"E=@	c #41342E",
"F=@	c #4B3E38",
"G=@	c #48352F",
"H=@	c #4A3731",
"I=@	c #45302B",
"J=@	c #4C271E",
"K=@	c #622B24",
"L=@	c #6A2B24",
"M=@	c #853B38",
"N=@	c #893A36",
"O=@	c #AE5D5A",
"P=@	c #B96865",
"Q=@	c #631513",
"R=@	c #8C3335",
"S=@	c #AB484B",
"T=@	c #9E2F35",
"U=@	c #850913",
"V=@	c #8B0712",
"W=@	c #A11822",
"X=@	c #981117",
"Y=@	c #9B1619",
"Z=@	c #9C1C1D",
"`=@	c #9A1D1B",
" -@	c #9A1A17",
".-@	c #9D190D",
"+-@	c #B93125",
"@-@	c #D23F38",
"#-@	c #CC3230",
"$-@	c #A61512",
"%-@	c #981408",
"&-@	c #A3150B",
"*-@	c #B9160F",
"=-@	c #CD1A15",
"--@	c #E0160C",
";-@	c #D11C13",
">-@	c #C31F13",
",-@	c #9F1805",
"'-@	c #961907",
")-@	c #961B09",
"!-@	c #C21E14",
"~-@	c #E4211B",
"{-@	c #EC1B17",
"]-@	c #EE1412",
"^-@	c #E4150D",
"/-@	c #CE0E03",
"(-@	c #D51510",
"_-@	c #CA150E",
":-@	c #BE0C0A",
"<-@	c #2A0D0F",
"[-@	c #200607",
"}-@	c #2F0507",
"|-@	c #080F08",
"1-@	c #0A100C",
"2-@	c #2D1316",
"3-@	c #762B2F",
"4-@	c #823034",
"5-@	c #943B3F",
"6-@	c #843236",
"7-@	c #813B3B",
"8-@	c #8E5754",
"9-@	c #6D453D",
"0-@	c #32140C",
"a-@	c #2F2E2C",
"b-@	c #2A2A28",
"c-@	c #33342F",
"d-@	c #2F312C",
"e-@	c #2B2C27",
"f-@	c #272622",
"g-@	c #524942",
"h-@	c #4B423B",
"i-@	c #463933",
"j-@	c #564943",
"k-@	c #4C3D38",
"l-@	c #442F2A",
"m-@	c #482F2A",
"n-@	c #4D342F",
"o-@	c #533733",
"p-@	c #4E2920",
"q-@	c #4B2115",
"r-@	c #A75653",
"s-@	c #C2716E",
"t-@	c #7F2F2E",
"u-@	c #570907",
"v-@	c #5A100D",
"w-@	c #4C0200",
"x-@	c #8A3C38",
"y-@	c #A4514D",
"z-@	c #A9494A",
"A-@	c #992C2F",
"B-@	c #921920",
"C-@	c #8E0F18",
"D-@	c #8B0810",
"E-@	c #870A0E",
"F-@	c #821711",
"G-@	c #962517",
"H-@	c #AE322A",
"I-@	c #AF2B26",
"J-@	c #A11D19",
"K-@	c #891F12",
"L-@	c #B71A13",
"M-@	c #C41713",
"N-@	c #CC150D",
"O-@	c #D71D11",
"P-@	c #D91B0F",
"Q-@	c #D9170D",
"R-@	c #DE1B15",
"S-@	c #D22117",
"T-@	c #BE2112",
"U-@	c #991B05",
"V-@	c #931F08",
"W-@	c #951B06",
"X-@	c #9E1606",
"Y-@	c #C71C12",
"Z-@	c #DA1F18",
"`-@	c #E71C18",
" ;@	c #ED1812",
".;@	c #DD190D",
"+;@	c #D4180D",
"@;@	c #DA1713",
"#;@	c #C30A07",
"$;@	c #C40B09",
"%;@	c #C00C0B",
"&;@	c #BB1111",
"*;@	c #B41B16",
"=;@	c #1B0303",
"-;@	c #2A0C0E",
";;@	c #28050B",
">;@	c #0B0D0A",
",;@	c #0D0F0C",
"';@	c #0D120E",
");@	c #131814",
"!;@	c #161B17",
"~;@	c #151A16",
"{;@	c #211517",
"];@	c #261A1C",
"^;@	c #1C1012",
"/;@	c #5E2423",
"(;@	c #783033",
"_;@	c #873539",
":;@	c #8A3135",
"<;@	c #731D1E",
"[;@	c #853335",
"};@	c #7A4541",
"|;@	c #613B32",
"1;@	c #100104",
"2;@	c #120308",
"3;@	c #262624",
"4;@	c #282826",
"5;@	c #1E201D",
"6;@	c #332E2A",
"7;@	c #4A413C",
"8;@	c #554641",
"9;@	c #3E2F2A",
"0;@	c #3F2A25",
"a;@	c #49312D",
"b;@	c #49302C",
"c;@	c #4C2A20",
"d;@	c #482014",
"e;@	c #5C2C22",
"f;@	c #61281F",
"g;@	c #6A271F",
"h;@	c #7A2F2A",
"i;@	c #954642",
"j;@	c #B86764",
"k;@	c #A55451",
"l;@	c #742B25",
"m;@	c #A66058",
"n;@	c #974D44",
"o;@	c #943C38",
"p;@	c #94322F",
"q;@	c #952728",
"r;@	c #881417",
"s;@	c #780105",
"t;@	c #760205",
"u;@	c #670100",
"v;@	c #5D0600",
"w;@	c #570100",
"x;@	c #5A0700",
"y;@	c #711F11",
"z;@	c #742111",
"A;@	c #7E2112",
"B;@	c #8F1D12",
"C;@	c #9D1A10",
"D;@	c #AE140C",
"E;@	c #CA1A0B",
"F;@	c #CF1B0D",
"G;@	c #D5190D",
"H;@	c #DB160D",
"I;@	c #EB1110",
"J;@	c #D91D14",
"K;@	c #C71F12",
"L;@	c #B31D0C",
"M;@	c #8D230B",
"N;@	c #8D2009",
"O;@	c #931904",
"P;@	c #B7150A",
"Q;@	c #CC1710",
"R;@	c #DE1712",
"S;@	c #EB1513",
"T;@	c #EA0F0D",
"U;@	c #ED1210",
"V;@	c #E61B14",
"W;@	c #DC1A10",
"X;@	c #D61C0F",
"Y;@	c #D91D12",
"Z;@	c #D81513",
"`;@	c #CD100C",
" >@	c #BC0B03",
".>@	c #C9120C",
"+>@	c #B41F1B",
"@>@	c #1D0407",
"#>@	c #26070C",
"$>@	c #39161A",
"%>@	c #280A0A",
"&>@	c #290705",
"*>@	c #210303",
"=>@	c #280408",
"->@	c #290509",
";>@	c #210106",
">>@	c #0F110E",
",>@	c #191B18",
"'>@	c #1E201B",
")>@	c #312E29",
"!>@	c #2F2526",
"~>@	c #1F1516",
"{>@	c #733333",
"]>@	c #833B3C",
"^>@	c #8C4040",
"/>@	c #651919",
"(>@	c #561916",
"_>@	c #51201B",
":>@	c #3E231C",
"<>@	c #3D3533",
"[>@	c #322D2A",
"}>@	c #2F2A27",
"|>@	c #3C352D",
"1>@	c #5D4E49",
"2>@	c #42302C",
"3>@	c #594743",
"4>@	c #564440",
"5>@	c #44312D",
"6>@	c #4D3430",
"7>@	c #4C2D2B",
"8>@	c #50312E",
"9>@	c #3F201E",
"0>@	c #48251F",
"a>@	c #502B22",
"b>@	c #4A221A",
"c>@	c #592D24",
"d>@	c #57221A",
"e>@	c #5C1F1A",
"f>@	c #7A302D",
"g>@	c #A35551",
"h>@	c #BF706C",
"i>@	c #6B1C18",
"j>@	c #6A1B17",
"k>@	c #AE605C",
"l>@	c #944E46",
"m>@	c #702A20",
"n>@	c #72231C",
"o>@	c #7E2720",
"p>@	c #590F04",
"q>@	c #561004",
"r>@	c #581409",
"s>@	c #682616",
"t>@	c #682514",
"u>@	c #702416",
"v>@	c #742A1D",
"w>@	c #6D2E1F",
"x>@	c #6A2D1A",
"y>@	c #712D1A",
"z>@	c #8F1F14",
"A>@	c #931D11",
"B>@	c #951D0F",
"C>@	c #A01B0A",
"D>@	c #B51F10",
"E>@	c #C12113",
"F>@	c #CC2016",
"G>@	c #E50D0E",
"H>@	c #D81710",
"I>@	c #CB1D12",
"J>@	c #BA1F0D",
"K>@	c #AD210A",
"L>@	c #A3270F",
"M>@	c #882209",
"N>@	c #8D1D07",
"O>@	c #951802",
"P>@	c #A21302",
"Q>@	c #CC170E",
"R>@	c #DC1913",
"S>@	c #DF0E0A",
"T>@	c #E51314",
"U>@	c #C8150E",
"V>@	c #CA1712",
"W>@	c #D21011",
"X>@	c #D50E11",
"Y>@	c #CD0B0B",
"Z>@	c #CD1209",
"`>@	c #CE130E",
" ,@	c #CB1511",
".,@	c #C51915",
"+,@	c #BB201B",
"@,@	c #AC251F",
"#,@	c #150206",
"$,@	c #160106",
"%,@	c #1D040A",
"&,@	c #260810",
"*,@	c #2E0B12",
"=,@	c #320A13",
"-,@	c #360D15",
";,@	c #33080F",
">,@	c #1E0D03",
",,@	c #1E0100",
"',@	c #1F0100",
"),@	c #261E1C",
"!,@	c #1F1617",
"~,@	c #201718",
"{,@	c #481913",
"],@	c #85534C",
"^,@	c #69322D",
"/,@	c #4D1A16",
"(,@	c #321E1D",
"_,@	c #2C1618",
":,@	c #311D1E",
"<,@	c #242015",
"[,@	c #3F2A27",
"},@	c #503232",
"|,@	c #522F33",
"1,@	c #401C20",
"2,@	c #311114",
"3,@	c #402627",
"4,@	c #564140",
"5,@	c #432E2D",
"6,@	c #4B2D2D",
"7,@	c #523031",
"8,@	c #553133",
"9,@	c #4F2B2D",
"0,@	c #401C1E",
"a,@	c #522927",
"b,@	c #582F2D",
"c,@	c #4D2621",
"d,@	c #512A25",
"e,@	c #53231F",
"f,@	c #582521",
"g,@	c #521814",
"h,@	c #72312D",
"i,@	c #97504C",
"j,@	c #B16661",
"k,@	c #853632",
"l,@	c #9C4945",
"m,@	c #984743",
"n,@	c #540A01",
"o,@	c #550C03",
"p,@	c #541408",
"q,@	c #54160B",
"r,@	c #541A0E",
"s,@	c #551C11",
"t,@	c #521910",
"u,@	c #50150F",
"v,@	c #531A13",
"w,@	c #622A1D",
"x,@	c #642C1D",
"y,@	c #662E1F",
"z,@	c #683021",
"A,@	c #673222",
"B,@	c #663524",
"C,@	c #693A28",
"D,@	c #6A3D2A",
"E,@	c #673A25",
"F,@	c #69301D",
"G,@	c #6C2D1C",
"H,@	c #6D2819",
"I,@	c #762917",
"J,@	c #752711",
"K,@	c #7C2511",
"L,@	c #882414",
"M,@	c #962215",
"N,@	c #A81F15",
"O,@	c #C81A19",
"P,@	c #D41819",
"Q,@	c #DF181B",
"R,@	c #C9180E",
"S,@	c #9D2610",
"T,@	c #891F07",
"U,@	c #861E05",
"V,@	c #8C2004",
"W,@	c #8F1D02",
"X,@	c #D81D16",
"Y,@	c #E31720",
"Z,@	c #D2131B",
"`,@	c #BD0A10",
" '@	c #B00D12",
".'@	c #BA1418",
"+'@	c #CB1017",
"@'@	c #D00B12",
"#'@	c #D0090C",
"$'@	c #D10909",
"%'@	c #CB1307",
"&'@	c #CB2114",
"*'@	c #C32B1E",
"='@	c #AB291C",
"-'@	c #22090F",
";'@	c #2A0B13",
">'@	c #310C14",
",'@	c #340B13",
"''@	c #28180B",
")'@	c #211716",
"!'@	c #785048",
"~'@	c #4C211A",
"{'@	c #461B14",
"]'@	c #401912",
"^'@	c #341F1E",
"/'@	c #380F13",
"('@	c #391215",
"_'@	c #3B1918",
":'@	c #3C281F",
"<'@	c #4C2528",
"['@	c #542A2E",
"}'@	c #4B2027",
"|'@	c #381418",
"1'@	c #341C1C",
"2'@	c #321A18",
"3'@	c #513534",
"4'@	c #542D30",
"5'@	c #52292D",
"6'@	c #53292D",
"7'@	c #582E32",
"8'@	c #4C2327",
"9'@	c #340A0C",
"0'@	c #3D1112",
"a'@	c #572B2A",
"b'@	c #532B29",
"c'@	c #522A28",
"d'@	c #5F2F2D",
"e'@	c #53201C",
"f'@	c #662B27",
"g'@	c #8B4A46",
"h'@	c #BF7572",
"i'@	c #9D4E4A",
"j'@	c #984541",
"k'@	c #802D29",
"l'@	c #551307",
"m'@	c #531508",
"n'@	c #551B0D",
"o'@	c #4D180A",
"p'@	c #4D1C0E",
"q'@	c #522015",
"r'@	c #57251E",
"s'@	c #5D2824",
"t'@	c #612E2A",
"u'@	c #653328",
"v'@	c #6B3B2D",
"w'@	c #714334",
"x'@	c #704535",
"y'@	c #693F2F",
"z'@	c #5F3926",
"A'@	c #57321F",
"B'@	c #55301D",
"C'@	c #583320",
"D'@	c #5C3621",
"E'@	c #633A26",
"F'@	c #683B28",
"G'@	c #612E1D",
"H'@	c #612C1C",
"I'@	c #672F1E",
"J'@	c #67331E",
"K'@	c #6F2718",
"L'@	c #7A2216",
"M'@	c #8B1F15",
"N'@	c #B01C1A",
"O'@	c #BD1A1B",
"P'@	c #C41719",
"Q'@	c #D1241D",
"R'@	c #CD261D",
"S'@	c #C62618",
"T'@	c #B12412",
"U'@	c #AC2F1D",
"V'@	c #942410",
"W'@	c #8A2006",
"X'@	c #861A00",
"Y'@	c #8D1A00",
"Z'@	c #A4220A",
"`'@	c #B82513",
" )@	c #CB241B",
".)@	c #D4221E",
"+)@	c #D92123",
"@)@	c #D11921",
"#)@	c #B80812",
"$)@	c #A00005",
"%)@	c #B2151C",
"&)@	c #CA121A",
"*)@	c #D20E12",
"=)@	c #D50D10",
"-)@	c #DA0D08",
";)@	c #C71A0A",
">)@	c #BF2314",
",)@	c #AC2718",
"')@	c #8E1E12",
"))@	c #250C10",
"!)@	c #2C0F14",
"~)@	c #2E0B11",
"{)@	c #2E0A0E",
"])@	c #301A0F",
"^)@	c #360F10",
"/)@	c #200100",
"()@	c #3B2F31",
"_)@	c #463C3D",
":)@	c #532B23",
"<)@	c #3B140D",
"[)@	c #332121",
"})@	c #45302F",
"|)@	c #3D0208",
"1)@	c #450209",
"2)@	c #4A090F",
"3)@	c #4F1416",
"4)@	c #4F1917",
"5)@	c #4D1E18",
"6)@	c #461913",
"7)@	c #461D17",
"8)@	c #4D261F",
"9)@	c #4E2624",
"0)@	c #4A2222",
"a)@	c #4A2021",
"b)@	c #4F2529",
"c)@	c #532A2E",
"d)@	c #431F21",
"e)@	c #4F2B2B",
"f)@	c #5B3334",
"g)@	c #5B2E31",
"h)@	c #582A2D",
"i)@	c #5C2E31",
"j)@	c #502326",
"k)@	c #4D2120",
"l)@	c #542C2A",
"m)@	c #502A27",
"n)@	c #5B2E2B",
"o)@	c #52211C",
"p)@	c #561C18",
"q)@	c #B7706C",
"r)@	c #9B4D49",
"s)@	c #7C2B27",
"t)@	c #571509",
"u)@	c #541609",
"v)@	c #551D0E",
"w)@	c #521D0F",
"x)@	c #4E1A0C",
"y)@	c #4B1A0C",
"z)@	c #4F1D12",
"A)@	c #5A2723",
"B)@	c #5F2D26",
"C)@	c #59271E",
"D)@	c #5C2C20",
"E)@	c #623427",
"F)@	c #683C2F",
"G)@	c #6C4234",
"H)@	c #6A4332",
"I)@	c #66412F",
"J)@	c #613E2B",
"K)@	c #67412E",
"L)@	c #6A412F",
"M)@	c #6A3C2C",
"N)@	c #643525",
"O)@	c #622E20",
"P)@	c #6E3627",
"Q)@	c #6F3A2A",
"R)@	c #6D3423",
"S)@	c #6E2C1E",
"T)@	c #9D1915",
"U)@	c #A71C19",
"V)@	c #AF1E1B",
"W)@	c #BB2723",
"X)@	c #BC2921",
"Y)@	c #C02D25",
"Z)@	c #B42419",
"`)@	c #BA3224",
" !@	c #C7493B",
".!@	c #A82E1F",
"+!@	c #9A2011",
"@!@	c #9E2313",
"#!@	c #9D1E0D",
"$!@	c #AB2313",
"%!@	c #B6281A",
"&!@	c #C83428",
"*!@	c #C52E25",
"=!@	c #BB231E",
"-!@	c #910506",
";!@	c #AE1517",
">!@	c #CD1517",
",!@	c #D6100F",
"'!@	c #C61A0E",
")!@	c #C02417",
"!!@	c #B0261B",
"~!@	c #951F15",
"{!@	c #280B0D",
"]!@	c #461E1E",
"^!@	c #461C1E",
"/!@	c #270001",
"(!@	c #371011",
"_!@	c #370F10",
":!@	c #322827",
"<!@	c #2B1F21",
"[!@	c #453B3C",
"}!@	c #3A3031",
"|!@	c #302728",
"1!@	c #3F1811",
"2!@	c #180E0F",
"3!@	c #160900",
"4!@	c #3B2B2B",
"5!@	c #3E2C2C",
"6!@	c #360E0F",
"7!@	c #4F040B",
"8!@	c #640A13",
"9!@	c #6D131C",
"0!@	c #6D161C",
"a!@	c #701B20",
"b!@	c #742224",
"c!@	c #6E2222",
"d!@	c #591210",
"e!@	c #4E1714",
"f!@	c #521C1A",
"g!@	c #51201C",
"h!@	c #542827",
"i!@	c #491F21",
"j!@	c #512A2D",
"k!@	c #492728",
"l!@	c #451E1F",
"m!@	c #5D3033",
"n!@	c #5F2E31",
"o!@	c #542126",
"p!@	c #522023",
"q!@	c #4F1C21",
"r!@	c #4C2321",
"s!@	c #512927",
"t!@	c #4F2926",
"u!@	c #572B28",
"v!@	c #7B322C",
"w!@	c #5A0B07",
"x!@	c #540500",
"y!@	c #5D170D",
"z!@	c #511306",
"A!@	c #501507",
"B!@	c #572214",
"C!@	c #501C0E",
"D!@	c #4E1A0D",
"E!@	c #4F1E10",
"F!@	c #532118",
"G!@	c #53211A",
"H!@	c #54221B",
"I!@	c #55231C",
"J!@	c #47190C",
"K!@	c #43170C",
"L!@	c #491F11",
"M!@	c #562E22",
"N!@	c #633E2E",
"O!@	c #684434",
"P!@	c #694633",
"Q!@	c #744F3F",
"R!@	c #5E3424",
"S!@	c #582A1A",
"T!@	c #552517",
"U!@	c #592517",
"V!@	c #642E22",
"W!@	c #6E382C",
"X!@	c #673125",
"Y!@	c #6A2E24",
"Z!@	c #772E25",
"`!@	c #7C2C23",
" ~@	c #8B221C",
".~@	c #95261F",
"+~@	c #9B261F",
"@~@	c #9C231B",
"#~@	c #A72C24",
"$~@	c #A2261C",
"%~@	c #A5261D",
"&~@	c #CD5147",
"*~@	c #E0675C",
"=~@	c #B2392E",
"-~@	c #9C1E12",
";~@	c #A8231A",
">~@	c #BA2F28",
",~@	c #BC3329",
"'~@	c #BB3D31",
")~@	c #7C0300",
"!~@	c #950E0B",
"~~@	c #CF1814",
"{~@	c #D5120C",
"]~@	c #D2110A",
"^~@	c #C31F15",
"/~@	c #BC2419",
"(~@	c #AC2319",
"_~@	c #961F17",
":~@	c #420200",
"<~@	c #461A1B",
"[~@	c #4D1F22",
"}~@	c #4A1C1F",
"|~@	c #310A0B",
"1~@	c #3C3231",
"2~@	c #382E2F",
"3~@	c #504647",
"4~@	c #403637",
"5~@	c #281F20",
"6~@	c #2F0A04",
"7~@	c #3D1812",
"8~@	c #322222",
"9~@	c #6A1019",
"0~@	c #891B24",
"a~@	c #962730",
"b~@	c #95262D",
"c~@	c #92232A",
"d~@	c #93242B",
"e~@	c #91242A",
"f~@	c #892024",
"g~@	c #61100F",
"h~@	c #510A08",
"i~@	c #480705",
"j~@	c #450B09",
"k~@	c #4D1A17",
"l~@	c #562926",
"m~@	c #471F20",
"n~@	c #472325",
"o~@	c #4D1C1F",
"p~@	c #552123",
"q~@	c #531C21",
"r~@	c #541D20",
"s~@	c #4C2623",
"t~@	c #522C29",
"u~@	c #45241F",
"v~@	c #4C2925",
"w~@	c #583531",
"x~@	c #623935",
"y~@	c #5B2E29",
"z~@	c #4D140D",
"A~@	c #7D3C36",
"B~@	c #5C180B",
"C~@	c #5A180A",
"D~@	c #57190A",
"E~@	c #581D0D",
"F~@	c #582313",
"G~@	c #53200F",
"H~@	c #531F11",
"I~@	c #592518",
"J~@	c #5C2A1F",
"K~@	c #5C2A23",
"L~@	c #5C2B24",
"M~@	c #53271C",
"N~@	c #4D2219",
"O~@	c #451D11",
"P~@	c #41190F",
"Q~@	c #431D10",
"R~@	c #482416",
"S~@	c #4E2A1A",
"T~@	c #512A1B",
"U~@	c #471D0F",
"V~@	c #481D0D",
"W~@	c #522216",
"X~@	c #5D291C",
"Y~@	c #642E24",
"Z~@	c #693329",
"`~@	c #612C24",
" {@	c #673328",
".{@	c #6C362A",
"+{@	c #6C2E23",
"@{@	c #6F2B20",
"#{@	c #7B291E",
"${@	c #8E2D26",
"%{@	c #932C25",
"&{@	c #9F342E",
"*{@	c #D0635C",
"={@	c #D56B5E",
"-{@	c #AE3E32",
";{@	c #9D221B",
">{@	c #AF2926",
",{@	c #C13234",
"'{@	c #C33738",
"){@	c #C23E3C",
"!{@	c #BA433D",
"~{@	c #972F24",
"{{@	c #822516",
"]{@	c #6C1301",
"^{@	c #710500",
"/{@	c #8A1005",
"({@	c #B81915",
"_{@	c #D21A10",
":{@	c #CE1D13",
"<{@	c #C62014",
"[{@	c #BA2014",
"}{@	c #AD1F15",
"|{@	c #9F2017",
"1{@	c #560804",
"2{@	c #450505",
"3{@	c #390708",
"4{@	c #3F0909",
"5{@	c #2B0301",
"6{@	c #451418",
"7{@	c #4E2124",
"8{@	c #42181A",
"9{@	c #260403",
"0{@	c #2C0506",
"a{@	c #371110",
"b{@	c #2C2221",
"c{@	c #1F1514",
"d{@	c #493F40",
"e{@	c #372E2F",
"f{@	c #231D1D",
"g{@	c #311C19",
"h{@	c #380C0B",
"i{@	c #70151A",
"j{@	c #921E27",
"k{@	c #A32B34",
"l{@	c #A52C35",
"m{@	c #A22630",
"n{@	c #A1232E",
"o{@	c #9F232B",
"p{@	c #992228",
"q{@	c #9B282F",
"r{@	c #92292E",
"s{@	c #85292C",
"t{@	c #732123",
"u{@	c #421512",
"v{@	c #402824",
"w{@	c #300202",
"x{@	c #551D20",
"y{@	c #692E32",
"z{@	c #73363B",
"A{@	c #62272B",
"B{@	c #3E0A0C",
"C{@	c #462520",
"D{@	c #4D2C27",
"E{@	c #56332F",
"F{@	c #67403B",
"G{@	c #5C312B",
"H{@	c #43120D",
"I{@	c #661D17",
"J{@	c #5F1D0F",
"K{@	c #5E2011",
"L{@	c #602515",
"M{@	c #612918",
"N{@	c #5F2718",
"O{@	c #5B2616",
"P{@	c #5C281A",
"Q{@	c #602F20",
"R{@	c #633126",
"S{@	c #60342B",
"T{@	c #693E35",
"U{@	c #6A423A",
"V{@	c #5A3429",
"W{@	c #421C13",
"X{@	c #341004",
"Y{@	c #3D190B",
"Z{@	c #3E180D",
"`{@	c #3A1407",
" ]@	c #3F170B",
".]@	c #53271A",
"+]@	c #69392F",
"@]@	c #713F34",
"#]@	c #6F3A32",
"$]@	c #6A352D",
"%]@	c #6B3834",
"&]@	c #683933",
"*]@	c #653832",
"=]@	c #62372E",
"-]@	c #5E382D",
";]@	c #5E3929",
">]@	c #603626",
",]@	c #633325",
"']@	c #6A3225",
")]@	c #6B281F",
"!]@	c #742A21",
"~]@	c #7A2721",
"{]@	c #A54B43",
"]]@	c #A64D3F",
"^]@	c #9B3B2D",
"/]@	c #A73831",
"(]@	c #BB4140",
"_]@	c #BC393E",
":]@	c #AE2D32",
"<]@	c #9F282A",
"[]@	c #902825",
"}]@	c #671E0F",
"|]@	c #601C09",
"1]@	c #981E13",
"2]@	c #CE1C0E",
"3]@	c #C42418",
"4]@	c #B52218",
"5]@	c #A11D11",
"6]@	c #620D08",
"7]@	c #3C0C0C",
"8]@	c #64171D",
"9]@	c #540D11",
"0]@	c #3C0405",
"a]@	c #2C0300",
"b]@	c #0F0B02",
"c]@	c #310306",
"d]@	c #482021",
"e]@	c #423837",
"f]@	c #2D2926",
"g]@	c #22211D",
"h]@	c #421C1B",
"i]@	c #5C4945",
"j]@	c #6B1619",
"k]@	c #841A1E",
"l]@	c #932228",
"m]@	c #98232B",
"n]@	c #9B1F29",
"o]@	c #981A25",
"p]@	c #971823",
"q]@	c #941822",
"r]@	c #931B25",
"s]@	c #94272D",
"t]@	c #933239",
"u]@	c #863438",
"v]@	c #6A2627",
"w]@	c #39211D",
"x]@	c #3B2720",
"y]@	c #511517",
"z]@	c #733538",
"A]@	c #8E5053",
"B]@	c #75373A",
"C]@	c #3B0505",
"D]@	c #3D1E19",
"E]@	c #4E2923",
"F]@	c #4F2620",
"G]@	c #41120C",
"H]@	c #71322B",
"I]@	c #601B14",
"J]@	c #5F190D",
"K]@	c #622010",
"L]@	c #622513",
"M]@	c #632816",
"N]@	c #632C18",
"O]@	c #612D1F",
"P]@	c #5D2D21",
"Q]@	c #62332B",
"R]@	c #623730",
"S]@	c #633D34",
"T]@	c #633C35",
"U]@	c #3A180C",
"V]@	c #340E03",
"W]@	c #6F4038",
"X]@	c #734339",
"Y]@	c #663731",
"Z]@	c #653A33",
"`]@	c #5E3C32",
" ^@	c #57392E",
".^@	c #59392A",
"+^@	c #623B2C",
"@^@	c #613125",
"#^@	c #62291E",
"$^@	c #66271E",
"%^@	c #67221B",
"&^@	c #763026",
"*^@	c #773423",
"=^@	c #793122",
"-^@	c #903930",
";^@	c #A33F3D",
">^@	c #9E3136",
",^@	c #8B2026",
"'^@	c #79191B",
")^@	c #691513",
"!^@	c #5D1E0D",
"~^@	c #681B0B",
"{^@	c #872113",
"]^@	c #C52A26",
"^^@	c #CB221F",
"/^@	c #C31C13",
"(^@	c #BD1D0F",
"_^@	c #B21C0E",
":^@	c #790E06",
"<^@	c #620702",
"[^@	c #450805",
"}^@	c #82222D",
"|^@	c #6A131B",
"1^@	c #4D0508",
"2^@	c #3A0201",
"3^@	c #140E02",
"4^@	c #41191A",
"5^@	c #431C1D",
"6^@	c #231918",
"7^@	c #291D1D",
"8^@	c #332727",
"9^@	c #4D4543",
"0^@	c #47423F",
"a^@	c #595552",
"b^@	c #4F4B48",
"c^@	c #573031",
"d^@	c #3D2F2E",
"e^@	c #473835",
"f^@	c #63514F",
"g^@	c #65524E",
"h^@	c #692323",
"i^@	c #771D1D",
"j^@	c #7E1E20",
"k^@	c #841D21",
"l^@	c #84171D",
"m^@	c #800E16",
"n^@	c #7C0710",
"o^@	c #790510",
"p^@	c #7A0B14",
"q^@	c #79141C",
"r^@	c #781E27",
"s^@	c #6D2026",
"t^@	c #55171A",
"u^@	c #622125",
"v^@	c #935354",
"w^@	c #8A4A4B",
"x^@	c #4E1615",
"y^@	c #401914",
"z^@	c #441D18",
"A^@	c #350200",
"B^@	c #541D18",
"C^@	c #743933",
"D^@	c #5C1911",
"E^@	c #510D02",
"F^@	c #622312",
"G^@	c #662917",
"H^@	c #67301C",
"I^@	c #622D1B",
"J^@	c #602D1C",
"K^@	c #5F2E1F",
"L^@	c #603121",
"M^@	c #5F2F23",
"N^@	c #5D2F22",
"O^@	c #623329",
"P^@	c #663B32",
"Q^@	c #674039",
"R^@	c #3B130B",
"S^@	c #4B2017",
"T^@	c #572B22",
"U^@	c #592A22",
"V^@	c #53221B",
"W^@	c #4C1D17",
"X^@	c #543228",
"Y^@	c #503D2C",
"Z^@	c #53402F",
"`^@	c #513728",
" /@	c #5C382A",
"./@	c #5A3022",
"+/@	c #643428",
"@/@	c #683228",
"#/@	c #6B3529",
"$/@	c #673421",
"%/@	c #5E2713",
"&/@	c #701C1C",
"*/@	c #731E23",
"=/@	c #73272B",
"-/@	c #6C2829",
";/@	c #6A332E",
">/@	c #5C281D",
",/@	c #53180A",
"'/@	c #8D261D",
")/@	c #BB3A34",
"!/@	c #CF3432",
"~/@	c #B8211A",
"{/@	c #911106",
"]/@	c #301413",
"^/@	c #932331",
"//@	c #8B232E",
"(/@	c #681119",
"_/@	c #450003",
":/@	c #0B0700",
"</@	c #2F2524",
"[/@	c #4F4A47",
"}/@	c #36322F",
"|/@	c #5A5653",
"1/@	c #353430",
"2/@	c #423232",
"3/@	c #4F2829",
"4/@	c #795152",
"5/@	c #3F302D",
"6/@	c #40312E",
"7/@	c #422622",
"8/@	c #764642",
"9/@	c #662926",
"0/@	c #561211",
"a/@	c #5A0E10",
"b/@	c #621014",
"c/@	c #62090F",
"d/@	c #5B0006",
"e/@	c #580001",
"f/@	c #570005",
"g/@	c #530006",
"h/@	c #490007",
"i/@	c #410308",
"j/@	c #3B2621",
"k/@	c #7F3F40",
"l/@	c #8D4F50",
"m/@	c #622C2A",
"n/@	c #40251C",
"o/@	c #512620",
"p/@	c #48130D",
"q/@	c #8F564F",
"r/@	c #5C211B",
"s/@	c #5A180C",
"t/@	c #5D1B0D",
"u/@	c #612213",
"v/@	c #5F2414",
"w/@	c #622918",
"x/@	c #68301F",
"y/@	c #5A2515",
"z/@	c #5D2A19",
"A/@	c #5D2C1D",
"B/@	c #5D2E1E",
"C/@	c #5F3326",
"D/@	c #643A2C",
"E/@	c #673D31",
"F/@	c #643C32",
"G/@	c #3B1A13",
"H/@	c #5B2E28",
"I/@	c #59332A",
"J/@	c #523024",
"K/@	c #4E3123",
"L/@	c #563A2C",
"M/@	c #5B3F31",
"N/@	c #563C2D",
"O/@	c #543928",
"P/@	c #5B3727",
"Q/@	c #5A3324",
"R/@	c #5B3123",
"S/@	c #5B3020",
"T/@	c #5F3421",
"U/@	c #5E2F1D",
"V/@	c #562014",
"W/@	c #612423",
"X/@	c #662A2A",
"Y/@	c #662E2F",
"Z/@	c #6A3736",
"`/@	c #62322E",
" (@	c #65291F",
".(@	c #7C2F25",
"+(@	c #A7413C",
"@(@	c #B63B36",
"#(@	c #C1322E",
"$(@	c #81100A",
"%(@	c #530803",
"&(@	c #9C2332",
"*(@	c #972735",
"=(@	c #761621",
"-(@	c #4C0005",
";(@	c #290602",
">(@	c #220A06",
",(@	c #221414",
"'(@	c #716D6A",
")(@	c #625E5B",
"!(@	c #43423E",
"~(@	c #795054",
"{(@	c #7C5254",
"](@	c #3A1314",
"^(@	c #3E2924",
"/(@	c #4F0F10",
"((@	c #4A0307",
"_(@	c #460005",
":(@	c #440005",
"<(@	c #3F0004",
"[(@	c #380006",
"}(@	c #270307",
"|(@	c #39241F",
"1(@	c #471717",
"2(@	c #4F1919",
"3(@	c #43080A",
"4(@	c #632727",
"5(@	c #6F3332",
"6(@	c #471411",
"7(@	c #4B1F1C",
"8(@	c #380804",
"9(@	c #491612",
"0(@	c #9B6660",
"a(@	c #6A302C",
"b(@	c #50150D",
"c(@	c #56180B",
"d(@	c #521407",
"e(@	c #5A1C0D",
"f(@	c #642919",
"g(@	c #672E1D",
"h(@	c #622A19",
"i(@	c #5C2715",
"j(@	c #5E2B1A",
"k(@	c #5E2D1E",
"l(@	c #5F3020",
"m(@	c #5D3529",
"n(@	c #593127",
"o(@	c #37160D",
"p(@	c #522720",
"q(@	c #735145",
"r(@	c #6E5143",
"s(@	c #65483A",
"t(@	c #5E4133",
"u(@	c #5E3E31",
"v(@	c #563629",
"w(@	c #513122",
"x(@	c #563627",
"y(@	c #5F3E2F",
"z(@	c #5A392A",
"A(@	c #5B3A29",
"B(@	c #5D3C2B",
"C(@	c #5C3B2A",
"D(@	c #573625",
"E(@	c #56311F",
"F(@	c #5B301F",
"G(@	c #613222",
"H(@	c #56261A",
"I(@	c #4B1B11",
"J(@	c #522829",
"K(@	c #542420",
"L(@	c #773C36",
"M(@	c #883F39",
"N(@	c #973C37",
"O(@	c #90251F",
"P(@	c #941A15",
"Q(@	c #840A05",
"R(@	c #A02A3A",
"S(@	c #A33542",
"T(@	c #862631",
"U(@	c #56090F",
"V(@	c #390102",
"W(@	c #2B1B1C",
"X(@	c #2B1D1D",
"Y(@	c #595451",
"Z(@	c #605C59",
"`(@	c #2F2B28",
" _@	c #43191D",
"._@	c #926568",
"+_@	c #6B3E41",
"@_@	c #380A0C",
"#_@	c #270005",
"$_@	c #190004",
"%_@	c #471F1D",
"&_@	c #532621",
"*_@	c #351C15",
"=_@	c #390C07",
"-_@	c #461510",
";_@	c #A6716B",
">_@	c #753E39",
",_@	c #4A110A",
"'_@	c #561C11",
")_@	c #55190E",
"!_@	c #5B2113",
"~_@	c #5A2213",
"{_@	c #5C2415",
"]_@	c #5D2818",
"^_@	c #5D3222",
"/_@	c #5D3325",
"(_@	c #5C3428",
"__@	c #39170D",
":_@	c #491C16",
"<_@	c #4B1E18",
"[_@	c #543427",
"}_@	c #6F5345",
"|_@	c #745749",
"1_@	c #664639",
"2_@	c #664536",
"3_@	c #664234",
"4_@	c #5B3528",
"5_@	c #5D3627",
"6_@	c #5B3626",
"7_@	c #5C3727",
"8_@	c #5D3929",
"9_@	c #5C3B28",
"0_@	c #5F3827",
"a_@	c #6C3227",
"b_@	c #602A20",
"c_@	c #4D1C15",
"d_@	c #4C211B",
"e_@	c #532D2C",
"f_@	c #552F2E",
"g_@	c #5F3634",
"h_@	c #5E312E",
"i_@	c #723B38",
"j_@	c #6E2D29",
"k_@	c #610900",
"l_@	c #480403",
"m_@	c #400403",
"n_@	c #902634",
"o_@	c #9B3743",
"p_@	c #842D36",
"q_@	c #560F15",
"r_@	c #382E2D",
"s_@	c #291F1E",
"t_@	c #2D2322",
"u_@	c #3F3A37",
"v_@	c #514947",
"w_@	c #3A3532",
"x_@	c #433E3B",
"y_@	c #39312F",
"z_@	c #5A2C2F",
"A_@	c #9C6B6F",
"B_@	c #552428",
"C_@	c #2A0000",
"D_@	c #0C0306",
"E_@	c #411E1C",
"F_@	c #511F1E",
"G_@	c #471514",
"H_@	c #572723",
"I_@	c #704741",
"J_@	c #6C4E46",
"K_@	c #40281E",
"L_@	c #AC7975",
"M_@	c #733E3A",
"N_@	c #4D160F",
"O_@	c #4D1409",
"P_@	c #51190C",
"Q_@	c #561E11",
"R_@	c #551D10",
"S_@	c #4E1909",
"T_@	c #531E10",
"U_@	c #5A2B1B",
"V_@	c #5B2D1E",
"W_@	c #593125",
"X_@	c #4D2B21",
"Y_@	c #3D170E",
"Z_@	c #451A13",
"`_@	c #51261F",
" :@	c #542721",
".:@	c #2D0F04",
"+:@	c #4F3327",
"@:@	c #604438",
"#:@	c #725245",
"$:@	c #6B493D",
"%:@	c #593328",
"&:@	c #542E21",
"*:@	c #583024",
"=:@	c #5E3728",
"-:@	c #5A3525",
";:@	c #593623",
">:@	c #5F3C29",
",:@	c #6B3126",
"':@	c #74352E",
"):@	c #6A312A",
"!:@	c #582720",
"~:@	c #4F241E",
"{:@	c #734B49",
"]:@	c #592D2A",
"^:@	c #420701",
"/:@	c #490B00",
"(:@	c #320C03",
"_:@	c #640D16",
"::@	c #672026",
"<:@	c #41090C",
"[:@	c #2A0001",
"}:@	c #312726",
"|:@	c #24181A",
"1:@	c #2A1B1E",
"2:@	c #5E5452",
"3:@	c #4E4442",
"4:@	c #543835",
"5:@	c #734045",
"6:@	c #A36E74",
"7:@	c #271B0D",
"8:@	c #281C0E",
"9:@	c #322920",
"0:@	c #2D2824",
"a:@	c #130004",
"b:@	c #421A1A",
"c:@	c #49201E",
"d:@	c #69423B",
"e:@	c #6F4D44",
"f:@	c #6A4D45",
"g:@	c #584036",
"h:@	c #390C09",
"i:@	c #63332F",
"j:@	c #BE8B87",
"k:@	c #6B3632",
"l:@	c #4B1610",
"m:@	c #4F1B10",
"n:@	c #4A1609",
"o:@	c #481206",
"p:@	c #4A1408",
"q:@	c #501A0E",
"r:@	c #542012",
"s:@	c #542617",
"t:@	c #55291C",
"u:@	c #502A1F",
"v:@	c #49271D",
"w:@	c #3D1F15",
"x:@	c #270C01",
"y:@	c #3C1E13",
"z:@	c #3F1F14",
"A:@	c #4A281E",
"B:@	c #4C261B",
"C:@	c #60382E",
"D:@	c #643930",
"E:@	c #583229",
"F:@	c #49281F",
"G:@	c #45291E",
"H:@	c #492D22",
"I:@	c #5E4237",
"J:@	c #6F5348",
"K:@	c #63453A",
"L:@	c #55372C",
"M:@	c #5F3B2D",
"N:@	c #623828",
"O:@	c #69392B",
"P:@	c #71362E",
"Q:@	c #71352D",
"R:@	c #6E352E",
"S:@	c #68362F",
"T:@	c #431A14",
"U:@	c #350805",
"V:@	c #2E0100",
"W:@	c #3C1408",
"X:@	c #330B01",
"Y:@	c #4A0C0F",
"Z:@	c #420E10",
"`:@	c #2E0203",
" <@	c #3C201D",
".<@	c #221618",
"+<@	c #574C4A",
"@<@	c #574D4B",
"#<@	c #726763",
"$<@	c #655852",
"%<@	c #4F3733",
"&<@	c #725452",
"*<@	c #491B1E",
"=<@	c #8F5A60",
"-<@	c #8F585E",
";<@	c #380106",
"><@	c #3F0D10",
",<@	c #180A00",
"'<@	c #261A0C",
")<@	c #261D0E",
"!<@	c #180809",
"~<@	c #19090C",
"{<@	c #623F39",
"]<@	c #6B4D43",
"^<@	c #654A41",
"/<@	c #6A5248",
"(<@	c #654D43",
"_<@	c #462E24",
":<@	c #290000",
"<<@	c #451815",
"[<@	c #7B4B49",
"}<@	c #CC9B97",
"|<@	c #400E07",
"1<@	c #46140B",
"2<@	c #48160B",
"3<@	c #481709",
"4<@	c #4C180B",
"5<@	c #4E1D0F",
"6<@	c #4E1E10",
"7<@	c #4C1E0F",
"8<@	c #4E2215",
"9<@	c #4E281D",
"0<@	c #1E0600",
"a<@	c #251204",
"b<@	c #250F02",
"c<@	c #281205",
"d<@	c #4F3126",
"e<@	c #5D3B31",
"f<@	c #623C31",
"g<@	c #5B352A",
"h<@	c #5D352B",
"i<@	c #663E34",
"j<@	c #683D34",
"k<@	c #5F3930",
"l<@	c #603F38",
"m<@	c #573A34",
"n<@	c #6C5649",
"o<@	c #755F52",
"p<@	c #685143",
"q<@	c #4A2A1D",
"r<@	c #522E20",
"s<@	c #6B3D30",
"t<@	c #6A3A2E",
"u<@	c #683429",
"v<@	c #713F36",
"w<@	c #693A32",
"x<@	c #4D201A",
"y<@	c #4C1F19",
"z<@	c #653A34",
"A<@	c #5A2F29",
"B<@	c #1F0200",
"C<@	c #3C1E1C",
"D<@	c #372728",
"E<@	c #4A3C3B",
"F<@	c #453734",
"G<@	c #684F4A",
"H<@	c #7C5D5A",
"I<@	c #6C3B3E",
"J<@	c #A46D72",
"K<@	c #71383E",
"L<@	c #380005",
"M<@	c #50191E",
"N<@	c #3F1111",
"O<@	c #260702",
"P<@	c #201408",
"Q<@	c #25190B",
"R<@	c #241B0C",
"S<@	c #282117",
"T<@	c #251E14",
"U<@	c #22090D",
"V<@	c #20050C",
"W<@	c #1C0307",
"X<@	c #130001",
"Y<@	c #120003",
"Z<@	c #7F675B",
"`<@	c #70584C",
" [@	c #5E463C",
".[@	c #5B4339",
"+[@	c #5B3F3B",
"@[@	c #644743",
"#[@	c #381916",
"$[@	c #4F221F",
"%[@	c #6F3F3D",
"&[@	c #BD8C88",
"*[@	c #5B2824",
"=[@	c #3B0B01",
"-[@	c #47170D",
";[@	c #4E1E14",
">[@	c #49190D",
",[@	c #451509",
"'[@	c #4D1D11",
")[@	c #532518",
"![@	c #4B1F14",
"~[@	c #4E261A",
"{[@	c #4C281C",
"][@	c #2D170C",
"^[@	c #342113",
"/[@	c #311E10",
"([@	c #331D10",
"_[@	c #3C2619",
":[@	c #482E21",
"<[@	c #603E32",
"[[@	c #633D32",
"}[@	c #583937",
"|[@	c #615348",
"1[@	c #716559",
"2[@	c #4D2B1F",
"3[@	c #5E332A",
"4[@	c #723932",
"5[@	c #6E382E",
"6[@	c #663A2D",
"7[@	c #542A1C",
"8[@	c #63372C",
"9[@	c #6F3F35",
"0[@	c #613029",
"a[@	c #754640",
"b[@	c #663934",
"c[@	c #421915",
"d[@	c #331110",
"e[@	c #482924",
"f[@	c #8A6461",
"g[@	c #744744",
"h[@	c #885554",
"i[@	c #A76F70",
"j[@	c #6C3133",
"k[@	c #4D1216",
"l[@	c #693235",
"m[@	c #512121",
"n[@	c #210F01",
"o[@	c #1C0C00",
"p[@	c #241D13",
"q[@	c #2E271D",
"r[@	c #3B2D2A",
"s[@	c #2D1418",
"t[@	c #260B10",
"u[@	c #463229",
"v[@	c #69554A",
"w[@	c #705C51",
"x[@	c #7F6B60",
"y[@	c #988479",
"z[@	c #967F77",
"A[@	c #8F746D",
"B[@	c #562423",
"C[@	c #53221E",
"D[@	c #9F6F6B",
"E[@	c #552620",
"F[@	c #3E110B",
"G[@	c #41120A",
"H[@	c #45160E",
"I[@	c #4C1D15",
"J[@	c #4B1F16",
"K[@	c #481D14",
"L[@	c #4D271E",
"M[@	c #4A281F",
"N[@	c #362315",
"O[@	c #4B3327",
"P[@	c #533326",
"Q[@	c #5D372A",
"R[@	c #593326",
"S[@	c #532D22",
"T[@	c #5D3A36",
"U[@	c #482C28",
"V[@	c #513A32",
"W[@	c #291D0D",
"X[@	c #543A2B",
"Y[@	c #593829",
"Z[@	c #5C3226",
"`[@	c #603026",
" }@	c #6C362C",
".}@	c #733F34",
"+}@	c #70493A",
"@}@	c #593525",
"#}@	c #472212",
"$}@	c #502618",
"%}@	c #62362B",
"&}@	c #693831",
"*}@	c #76473F",
"=}@	c #6A3D37",
"-}@	c #2B0804",
";}@	c #2D1509",
">}@	c #2C1609",
",}@	c #291306",
"'}@	c #2C1211",
")}@	c #391715",
"!}@	c #251516",
"~}@	c #231314",
"{}@	c #150B01",
"]}@	c #8E5F59",
"^}@	c #74423B",
"/}@	c #98615A",
"(}@	c #7F4440",
"_}@	c #591E1A",
":}@	c #8B5354",
"<}@	c #592728",
"[}@	c #291105",
"}}@	c #2B1508",
"|}@	c #1F180E",
"1}@	c #342D25",
"2}@	c #2D2620",
"3}@	c #312E25",
"4}@	c #70665A",
"5}@	c #AFA599",
"6}@	c #948B7C",
"7}@	c #574338",
"8}@	c #571D1C",
"9}@	c #703D3A",
"0}@	c #AE817C",
"a}@	c #2B0600",
"b}@	c #390D0A",
"c}@	c #411A15",
"d}@	c #462E2A",
"e}@	c #3A2419",
"f}@	c #462E22",
"g}@	c #563C2F",
"h}@	c #482B1D",
"i}@	c #543729",
"j}@	c #503023",
"k}@	c #533223",
"l}@	c #563524",
"m}@	c #573421",
"n}@	c #532E1C",
"o}@	c #4E2D1C",
"p}@	c #3A2216",
"q}@	c #6B5548",
"r}@	c #746153",
"s}@	c #5C4734",
"t}@	c #5E4531",
"u}@	c #604331",
"v}@	c #4C2B18",
"w}@	c #573220",
"x}@	c #6E4533",
"y}@	c #643626",
"z}@	c #663828",
"A}@	c #6B402F",
"B}@	c #724838",
"C}@	c #734C3B",
"D}@	c #3F1807",
"E}@	c #4A2314",
"F}@	c #694233",
"G}@	c #6C4236",
"H}@	c #653A31",
"I}@	c #491E18",
"J}@	c #271507",
"K}@	c #291608",
"L}@	c #491A14",
"M}@	c #271211",
"N}@	c #321613",
"O}@	c #3D1C17",
"P}@	c #40211C",
"Q}@	c #221213",
"R}@	c #382E25",
"S}@	c #312B1F",
"T}@	c #3F1C18",
"U}@	c #562A27",
"V}@	c #784943",
"W}@	c #845249",
"X}@	c #71382F",
"Y}@	c #B77D72",
"Z}@	c #81453D",
"`}@	c #430601",
" |@	c #945857",
".|@	c #955D5E",
"+|@	c #511F20",
"@|@	c #281004",
"#|@	c #2A231B",
"$|@	c #352E24",
"%|@	c #484236",
"&|@	c #837D71",
"*|@	c #746C5F",
"=|@	c #574436",
"-|@	c #6A4940",
";|@	c #440402",
">|@	c #4B090A",
",|@	c #430605",
"'|@	c #794341",
")|@	c #936862",
"!|@	c #543229",
"~|@	c #5C3E34",
"{|@	c #714C46",
"]|@	c #43191A",
"^|@	c #46201F",
"/|@	c #301B18",
"(|@	c #3D271C",
"_|@	c #442C20",
":|@	c #4E3226",
"<|@	c #492D21",
"[|@	c #533628",
"}|@	c #4F3224",
"||@	c #573623",
"1|@	c #563522",
"2|@	c #55321F",
"3|@	c #53301D",
"4|@	c #4E2F1D",
"5|@	c #573D2E",
"6|@	c #331C0E",
"7|@	c #7D6658",
"8|@	c #765F51",
"9|@	c #351F11",
"0|@	c #624B3B",
"a|@	c #614A38",
"b|@	c #533A26",
"c|@	c #4E331E",
"d|@	c #593D28",
"e|@	c #583823",
"f|@	c #5A3723",
"g|@	c #5A3620",
"h|@	c #542E1B",
"i|@	c #69402E",
"j|@	c #603524",
"k|@	c #916656",
"l|@	c #8A6352",
"m|@	c #46210F",
"n|@	c #3D1909",
"o|@	c #583424",
"p|@	c #704A3D",
"q|@	c #5B3329",
"r|@	c #582B25",
"s|@	c #251307",
"t|@	c #311509",
"u|@	c #381408",
"v|@	c #380C03",
"w|@	c #211313",
"x|@	c #5F322F",
"y|@	c #8F5E59",
"z|@	c #824D45",
"A|@	c #581E13",
"B|@	c #8B4F45",
"C|@	c #B07473",
"D|@	c #411111",
"E|@	c #371C13",
"F|@	c #2C211F",
"G|@	c #3B312F",
"H|@	c #090200",
"I|@	c #514A40",
"J|@	c #5A3F36",
"K|@	c #855E57",
"L|@	c #4E080A",
"M|@	c #601E1F",
"N|@	c #7C4443",
"O|@	c #764944",
"P|@	c #724D45",
"Q|@	c #8B6A61",
"R|@	c #A8857F",
"S|@	c #3D2823",
"T|@	c #4A3226",
"U|@	c #50382C",
"V|@	c #4B3124",
"W|@	c #4F3325",
"X|@	c #513220",
"Y|@	c #51301F",
"Z|@	c #8C7669",
"`|@	c #331D0F",
" 1@	c #624D3C",
".1@	c #5D4634",
"+1@	c #513623",
"@1@	c #5A3926",
"#1@	c #5A3322",
"$1@	c #704636",
"%1@	c #653B2B",
"&1@	c #916759",
"*1@	c #8A6555",
"=1@	c #623E2E",
"-1@	c #462214",
";1@	c #70483E",
">1@	c #6E433C",
",1@	c #643731",
"'1@	c #35100A",
")1@	c #241206",
"!1@	c #271406",
"~1@	c #2B1307",
"{1@	c #2B0F03",
"]1@	c #3D1209",
"^1@	c #44130C",
"/1@	c #440B04",
"(1@	c #0E0400",
"_1@	c #312D21",
":1@	c #262014",
"<1@	c #482722",
"[1@	c #6E3E3C",
"}1@	c #A06D69",
"|1@	c #743B34",
"11@	c #3F0300",
"21@	c #5A1A11",
"31@	c #A86964",
"41@	c #A56968",
"51@	c #6A3434",
"61@	c #7F524F",
"71@	c #672F2E",
"81@	c #561114",
"91@	c #6C2427",
"01@	c #672324",
"a1@	c #6B443D",
"b1@	c #816057",
"c1@	c #8C6B64",
"d1@	c #422C21",
"e1@	c #4B2E1E",
"f1@	c #4C2F1F",
"g1@	c #42271C",
"h1@	c #80685C",
"i1@	c #190300",
"j1@	c #634D3F",
"k1@	c #5A4031",
"l1@	c #583D2C",
"m1@	c #533422",
"n1@	c #5E3A2A",
"o1@	c #603B2B",
"p1@	c #5C3526",
"q1@	c #60382C",
"r1@	c #785044",
"s1@	c #815D4F",
"t1@	c #704F40",
"u1@	c #280600",
"v1@	c #532F23",
"w1@	c #815B50",
"x1@	c #80554E",
"y1@	c #754842",
"z1@	c #572A25",
"A1@	c #4B221C",
"B1@	c #241005",
"C1@	c #320A02",
"D1@	c #521B16",
"E1@	c #4F120D",
"F1@	c #321915",
"G1@	c #3F1A14",
"H1@	c #290200",
"I1@	c #1F1111",
"J1@	c #333125",
"K1@	c #323023",
"L1@	c #231D11",
"M1@	c #A5706A",
"N1@	c #5E1B12",
"O1@	c #89463E",
"P1@	c #BF7E78",
"Q1@	c #9D6160",
"R1@	c #562322",
"S1@	c #31160D",
"T1@	c #342C2A",
"U1@	c #7C484A",
"V1@	c #88474B",
"W1@	c #7B3337",
"X1@	c #82353B",
"Y1@	c #5E171B",
"Z1@	c #4E1212",
"`1@	c #572622",
" 2@	c #754E47",
".2@	c #8D6C63",
"+2@	c #3B1917",
"@2@	c #3F2C26",
"#2@	c #3C2821",
"$2@	c #4A3429",
"%2@	c #493125",
"&2@	c #4B2E20",
"*2@	c #4C2F21",
"=2@	c #492D1F",
"-2@	c #8C746A",
";2@	c #5B443C",
">2@	c #442E21",
",2@	c #4A3023",
"'2@	c #502E22",
")2@	c #583426",
"!2@	c #431D12",
"~2@	c #694539",
"{2@	c #8B695D",
"]2@	c #654538",
"^2@	c #5A382E",
"/2@	c #6E4940",
"(2@	c #734B43",
"_2@	c #875A54",
":2@	c #230B00",
"<2@	c #211104",
"[2@	c #1F1307",
"}2@	c #230F04",
"|2@	c #41100B",
"12@	c #4B0C07",
"22@	c #120100",
"32@	c #331B19",
"42@	c #181409",
"52@	c #2C2A1E",
"62@	c #1C1D0F",
"72@	c #2D2B1E",
"82@	c #383224",
"92@	c #5B2B29",
"02@	c #95625F",
"a2@	c #8B514D",
"b2@	c #6B251D",
"c2@	c #AA635D",
"d2@	c #B8756F",
"e2@	c #985C5B",
"f2@	c #2D0304",
"g2@	c #3F3333",
"h2@	c #37322E",
"i2@	c #2C181A",
"j2@	c #90575D",
"k2@	c #975159",
"l2@	c #792C34",
"m2@	c #601117",
"n2@	c #570A10",
"o2@	c #510A0E",
"p2@	c #4B0F0F",
"q2@	c #582723",
"r2@	c #704942",
"s2@	c #87665F",
"t2@	c #3A261F",
"u2@	c #442A1D",
"v2@	c #43281D",
"w2@	c #4B322B",
"x2@	c #674E47",
"y2@	c #4E3328",
"z2@	c #4E2C22",
"A2@	c #68433A",
"B2@	c #643F36",
"C2@	c #87665D",
"D2@	c #593B30",
"E2@	c #694B40",
"F2@	c #614136",
"G2@	c #5E3930",
"H2@	c #6B433B",
"I2@	c #7D524B",
"J2@	c #6D3E38",
"K2@	c #240A00",
"L2@	c #320D05",
"M2@	c #340300",
"N2@	c #460C08",
"O2@	c #420502",
"P2@	c #29040B",
"Q2@	c #29060A",
"R2@	c #40332D",
"S2@	c #100E02",
"T2@	c #121305",
"U2@	c #242517",
"V2@	c #403A2C",
"W2@	c #382016",
"X2@	c #4B1918",
"Y2@	c #6A3837",
"Z2@	c #9F6967",
"`2@	c #4C0903",
" 3@	c #B26963",
".3@	c #AB6862",
"+3@	c #854948",
"@3@	c #361D16",
"#3@	c #281C1E",
"$3@	c #211215",
"%3@	c #322626",
"&3@	c #362A2A",
"*3@	c #1D1417",
"=3@	c #240409",
"-3@	c #3B0C14",
";3@	c #884C54",
">3@	c #833D47",
",3@	c #60131D",
"'3@	c #490004",
")3@	c #5D3830",
"!3@	c #6C4F49",
"~3@	c #38251F",
"{3@	c #3E2A21",
"]3@	c #41291D",
"^3@	c #41291F",
"/3@	c #452D21",
"(3@	c #3F271D",
"_3@	c #51392F",
":3@	c #4B2A21",
"<3@	c #5B3930",
"[3@	c #76544B",
"}3@	c #634138",
"|3@	c #684B43",
"13@	c #593E33",
"23@	c #5F4439",
"33@	c #66483E",
"43@	c #663E36",
"53@	c #663B34",
"63@	c #65362E",
"73@	c #663A31",
"83@	c #6A3F36",
"93@	c #40180E",
"03@	c #260200",
"a3@	c #210D02",
"b3@	c #430907",
"c3@	c #490E0A",
"d3@	c #824741",
"e3@	c #27070A",
"f3@	c #371B17",
"g3@	c #3C1D1A",
"h3@	c #3E1616",
"i3@	c #433532",
"j3@	c #413330",
"k3@	c #332620",
"l3@	c #151106",
"m3@	c #1A180C",
"n3@	c #262719",
"o3@	c #303123",
"p3@	c #252314",
"q3@	c #421D17",
"r3@	c #8A5756",
"s3@	c #BA8281",
"t3@	c #4B0400",
"u3@	c #C57773",
"v3@	c #9C5752",
"w3@	c #703433",
"x3@	c #3B0B09",
"y3@	c #100509",
"z3@	c #392A2D",
"A3@	c #402F35",
"B3@	c #453538",
"C3@	c #403134",
"D3@	c #423731",
"E3@	c #2E2520",
"F3@	c #000102",
"G3@	c #131418",
"H3@	c #211B1F",
"I3@	c #26050C",
"J3@	c #390A12",
"K3@	c #61252F",
"L3@	c #5E1B24",
"M3@	c #500712",
"N3@	c #530A13",
"O3@	c #4F0A0F",
"P3@	c #561A1A",
"Q3@	c #3E0D09",
"R3@	c #A0837B",
"S3@	c #A48982",
"T3@	c #381F1A",
"U3@	c #3B241C",
"V3@	c #523E37",
"W3@	c #3F241D",
"X3@	c #6E4D46",
"Y3@	c #75544F",
"Z3@	c #74584D",
"`3@	c #6B4A41",
" 4@	c #532D24",
".4@	c #5C312A",
"+4@	c #5E2F27",
"@4@	c #6D4138",
"#4@	c #2B0B00",
"$4@	c #824B46",
"%4@	c #8A554D",
"&4@	c #250209",
"*4@	c #050702",
"=4@	c #0D090A",
"-4@	c #360A0B",
";4@	c #391111",
">4@	c #231C12",
",4@	c #141005",
"'4@	c #161709",
")4@	c #27281A",
"!4@	c #1B190A",
"~4@	c #27170A",
"{4@	c #4D1C18",
"]4@	c #8C5250",
"^4@	c #450100",
"/4@	c #A6514E",
"(4@	c #B2635F",
"_4@	c #A55E5A",
":4@	c #632726",
"<4@	c #390B0B",
"[4@	c #0E0508",
"}4@	c #1D080F",
"|4@	c #281519",
"14@	c #352629",
"24@	c #302424",
"34@	c #181D20",
"44@	c #1F191D",
"54@	c #210E14",
"64@	c #1D0005",
"74@	c #32030D",
"84@	c #571E27",
"94@	c #4C0D15",
"04@	c #520F18",
"a4@	c #49060D",
"b4@	c #360A07",
"c4@	c #7B5852",
"d4@	c #A58880",
"e4@	c #846C62",
"f4@	c #3C231C",
"g4@	c #3E2A23",
"h4@	c #452D29",
"i4@	c #755D59",
"j4@	c #4B2E2A",
"k4@	c #5F403B",
"l4@	c #523330",
"m4@	c #58372E",
"n4@	c #704139",
"o4@	c #67382E",
"p4@	c #461A0F",
"q4@	c #2F0700",
"r4@	c #270300",
"s4@	c #2F0302",
"t4@	c #4C0E0F",
"u4@	c #490C0B",
"v4@	c #7A433E",
"w4@	c #220308",
"x4@	c #252316",
"y4@	c #161405",
"z4@	c #232011",
"A4@	c #471713",
"B4@	c #713B39",
"C4@	c #B35A56",
"D4@	c #B86462",
"E4@	c #8F4542",
"F4@	c #3A3230",
"G4@	c #230D10",
"H4@	c #20090F",
"I4@	c #1B040C",
"J4@	c #190409",
"K4@	c #101616",
"L4@	c #060A0B",
"M4@	c #100A0E",
"N4@	c #1E0B11",
"O4@	c #200004",
"P4@	c #3F111B",
"Q4@	c #5E262F",
"R4@	c #450A10",
"S4@	c #44070E",
"T4@	c #4F1418",
"U4@	c #69443E",
"V4@	c #A88A82",
"W4@	c #93786F",
"X4@	c #472F2B",
"Y4@	c #6F5753",
"Z4@	c #3A2520",
"`4@	c #402B26",
" 5@	c #462F29",
".5@	c #3E221E",
"+5@	c #40251E",
"@5@	c #392318",
"#5@	c #3E281D",
"$5@	c #462B20",
"%5@	c #492B21",
"&5@	c #532E26",
"*5@	c #4B231B",
"=5@	c #66372F",
"-5@	c #5B2C24",
";5@	c #380E02",
">5@	c #450D0E",
",5@	c #490D0F",
"'5@	c #480A0B",
")5@	c #460607",
"!5@	c #7A403E",
"~5@	c #6E3C35",
"{5@	c #4E2219",
"]5@	c #391306",
"^5@	c #2E261B",
"/5@	c #521F1C",
"(5@	c #541D1A",
"_5@	c #5F221F",
":5@	c #8A2C2C",
"<5@	c #C16361",
"[5@	c #C16968",
"}5@	c #843936",
"|5@	c #261D1E",
"15@	c #1E1516",
"25@	c #2E1C1A",
"35@	c #290E13",
"45@	c #24090E",
"55@	c #1E050B",
"65@	c #131514",
"75@	c #1E1317",
"85@	c #210A10",
"95@	c #4B1E25",
"05@	c #653038",
"a5@	c #471015",
"b5@	c #40090E",
"c5@	c #3F120F",
"d5@	c #5A332E",
"e5@	c #94736C",
"f5@	c #8D7068",
"g5@	c #29180E",
"h5@	c #59413D",
"i5@	c #432B27",
"j5@	c #3E221F",
"k5@	c #391A15",
"l5@	c #402419",
"m5@	c #411F16",
"n5@	c #4F231A",
"o5@	c #51261D",
"p5@	c #330102",
"q5@	c #460B0D",
"r5@	c #4E1013",
"s5@	c #561617",
"t5@	c #743837",
"u5@	c #58231F",
"v5@	c #44150D",
"w5@	c #4E2D1E",
"x5@	c #140002",
"y5@	c #422017",
"z5@	c #551E1B",
"A5@	c #7A2C2C",
"B5@	c #832B2A",
"C5@	c #9B393A",
"D5@	c #C2605F",
"E5@	c #B35959",
"F5@	c #7E302E",
"G5@	c #372D2B",
"H5@	c #584848",
"I5@	c #634E4B",
"J5@	c #4B322E",
"K5@	c #190001",
"L5@	c #260F15",
"M5@	c #141213",
"N5@	c #140E10",
"O5@	c #1F0409",
"P5@	c #2C050A",
"Q5@	c #613238",
"R5@	c #622D33",
"S5@	c #451115",
"T5@	c #441616",
"U5@	c #502723",
"V5@	c #724F49",
"W5@	c #7B5D55",
"X5@	c #40231B",
"Y5@	c #3A1910",
"Z5@	c #441D16",
"`5@	c #592A24",
" 6@	c #5C3027",
".6@	c #643932",
"+6@	c #62352F",
"@6@	c #400C0E",
"#6@	c #3F080B",
"$6@	c #602426",
"%6@	c #703233",
"&6@	c #390602",
"*6@	c #3A0E05",
"=6@	c #2F1B10",
"-6@	c #422118",
";6@	c #431C15",
">6@	c #80302F",
",6@	c #9A4040",
"'6@	c #A23E40",
")6@	c #BD5959",
"!6@	c #963A3B",
"~6@	c #671917",
"{6@	c #584E4C",
"]6@	c #211917",
"^6@	c #5E423F",
"/6@	c #674543",
"(6@	c #2C080C",
"_6@	c #1E0004",
":6@	c #1E0106",
"<6@	c #54272C",
"[6@	c #4F1B1F",
"}6@	c #4B1B1B",
"|6@	c #5B3630",
"16@	c #56352E",
"26@	c #2B170C",
"36@	c #3D2420",
"46@	c #361E14",
"56@	c #33180F",
"66@	c #3E1D14",
"76@	c #522520",
"86@	c #481816",
"96@	c #40090C",
"06@	c #460E11",
"a6@	c #582021",
"b6@	c #723739",
"c6@	c #571F1E",
"d6@	c #420D09",
"e6@	c #5B2F26",
"f6@	c #351405",
"g6@	c #360A09",
"h6@	c #362825",
"i6@	c #30231D",
"j6@	c #190700",
"k6@	c #180600",
"l6@	c #2C1A0E",
"m6@	c #47251C",
"n6@	c #5F2825",
"o6@	c #662221",
"p6@	c #782726",
"q6@	c #A54747",
"r6@	c #B64F50",
"s6@	c #C96263",
"t6@	c #892B2B",
"u6@	c #530302",
"v6@	c #564C4A",
"w6@	c #451D1B",
"x6@	c #4C1C1A",
"y6@	c #4B191A",
"z6@	c #512325",
"A6@	c #4B2427",
"B6@	c #37171A",
"C6@	c #42352D",
"D6@	c #2B1517",
"E6@	c #40171B",
"F6@	c #642D32",
"G6@	c #542022",
"H6@	c #6A3D3A",
"I6@	c #532A26",
"J6@	c #401D17",
"K6@	c #37201A",
"L6@	c #331F14",
"M6@	c #441F17",
"N6@	c #4E231D",
"O6@	c #50231E",
"P6@	c #552823",
"Q6@	c #623731",
"R6@	c #603731",
"S6@	c #512522",
"T6@	c #380607",
"U6@	c #5A2628",
"V6@	c #602A2A",
"W6@	c #4B1513",
"X6@	c #430D0B",
"Y6@	c #54211D",
"Z6@	c #53241E",
"`6@	c #482016",
" 7@	c #230505",
".7@	c #340404",
"+7@	c #310305",
"@7@	c #341E11",
"#7@	c #402015",
"$7@	c #411911",
"%7@	c #5A1613",
"&7@	c #9D3F3F",
"*7@	c #C05859",
"=7@	c #CA6263",
"-7@	c #8C2C2D",
";7@	c #080206",
">7@	c #521616",
",7@	c #521415",
"'7@	c #521A1D",
")7@	c #572528",
"!7@	c #51272B",
"~7@	c #3E1B1F",
"{7@	c #24070B",
"]7@	c #2A2220",
"^7@	c #3D1F21",
"/7@	c #472023",
"(7@	c #65373A",
"_7@	c #7B444A",
":7@	c #5C2127",
"<7@	c #51161A",
"[7@	c #6E3838",
"}7@	c #683B38",
"|7@	c #271509",
"17@	c #281409",
"27@	c #361E12",
"37@	c #4A211D",
"47@	c #673B38",
"57@	c #673E3A",
"67@	c #582F2B",
"77@	c #562626",
"87@	c #340201",
"97@	c #3D0C08",
"07@	c #4F271B",
"a7@	c #330303",
"b7@	c #1F0D0D",
"c7@	c #3F2117",
"d7@	c #4F3528",
"e7@	c #382014",
"f7@	c #30150A",
"g7@	c #3C170E",
"h7@	c #511A13",
"i7@	c #530906",
"j7@	c #822726",
"k7@	c #93292B",
"l7@	c #BE4B4E",
"m7@	c #BD4F50",
"n7@	c #882A2A",
"o7@	c #0D070B",
"p7@	c #4B0F11",
"q7@	c #520D12",
"r7@	c #4B0E13",
"s7@	c #370E12",
"t7@	c #423431",
"u7@	c #53292B",
"v7@	c #5F2E32",
"w7@	c #764246",
"x7@	c #80454B",
"y7@	c #6D3236",
"z7@	c #70383B",
"A7@	c #6B3938",
"B7@	c #330D0C",
"C7@	c #331D12",
"D7@	c #341C12",
"E7@	c #49221D",
"F7@	c #653936",
"G7@	c #5A2E2B",
"H7@	c #4B1D1D",
"I7@	c #4A1D17",
"J7@	c #491E15",
"K7@	c #431B11",
"L7@	c #1E0103",
"M7@	c #2B0102",
"N7@	c #250103",
"O7@	c #230001",
"P7@	c #230102",
"Q7@	c #320607",
"R7@	c #1F0D01",
"S7@	c #1A0E00",
"T7@	c #1E1005",
"U7@	c #290F12",
"V7@	c #280E11",
"W7@	c #290700",
"X7@	c #643C30",
"Y7@	c #5F392C",
"Z7@	c #462617",
"`7@	c #331709",
" 8@	c #351E10",
".8@	c #392618",
"+8@	c #362418",
"@8@	c #3B1F13",
"#8@	c #5A0701",
"$8@	c #97292A",
"%8@	c #B6383C",
"&8@	c #BC393F",
"*8@	c #AC3539",
"=8@	c #470A05",
"-8@	c #3E2427",
";8@	c #4A2D32",
">8@	c #2D1217",
",8@	c #403436",
"'8@	c #410A0F",
")8@	c #56131C",
"!8@	c #4A010C",
"~8@	c #4D010D",
"{8@	c #510914",
"]8@	c #4C0A14",
"^8@	c #3B060E",
"/8@	c #47332C",
"(8@	c #503F37",
"_8@	c #532323",
":8@	c #7F4448",
"<8@	c #7A3D42",
"[8@	c #8D5256",
"}8@	c #81494C",
"|8@	c #6C3A3B",
"18@	c #341B14",
"28@	c #3E1913",
"38@	c #603330",
"48@	c #633331",
"58@	c #633130",
"68@	c #4C181A",
"78@	c #451316",
"88@	c #180002",
"98@	c #280106",
"08@	c #240407",
"a8@	c #360606",
"b8@	c #200C01",
"c8@	c #1D0D00",
"d8@	c #1C0F00",
"e8@	c #1B0F00",
"f8@	c #1E1003",
"g8@	c #2C0F11",
"h8@	c #35170C",
"i8@	c #54281B",
"j8@	c #623425",
"k8@	c #5B2F22",
"l8@	c #451F12",
"m8@	c #351508",
"n8@	c #341D0F",
"o8@	c #332113",
"p8@	c #381E11",
"q8@	c #A32B2D",
"r8@	c #BC333A",
"s8@	c #B42930",
"t8@	c #A52A2D",
"u8@	c #3C1D23",
"v8@	c #58343E",
"w8@	c #4D2E34",
"x8@	c #322628",
"y8@	c #382F32",
"z8@	c #463D40",
"A8@	c #241B1E",
"B8@	c #634543",
"C8@	c #745050",
"D8@	c #56282B",
"E8@	c #450E13",
"F8@	c #4D0C14",
"G8@	c #4A020D",
"H8@	c #4B000B",
"I8@	c #4F0611",
"J8@	c #4A0812",
"K8@	c #3C050B",
"L8@	c #2D0609",
"M8@	c #270D0E",
"N8@	c #3C2722",
"O8@	c #46322B",
"P8@	c #554138",
"Q8@	c #7D3B3F",
"R8@	c #7B3A3E",
"S8@	c #9D5F62",
"T8@	c #A3666B",
"U8@	c #6C3538",
"V8@	c #4C1C1C",
"W8@	c #552926",
"X8@	c #5C2F2C",
"Y8@	c #663332",
"Z8@	c #521E22",
"`8@	c #350407",
" 9@	c #5A352D",
".9@	c #280406",
"+9@	c #210305",
"@9@	c #1F0D00",
"#9@	c #1F0F00",
"$9@	c #210F03",
"%9@	c #2F1D1B",
"&9@	c #401F16",
"*9@	c #4A1E13",
"=9@	c #592B1E",
"-9@	c #582C1F",
";9@	c #3F1D11",
">9@	c #402418",
",9@	c #4E1409",
"'9@	c #A83032",
")9@	c #B93037",
"!9@	c #A51A21",
"~9@	c #9C2124",
"{9@	c #3D0600",
"]9@	c #220400",
"^9@	c #1C0003",
"/9@	c #2E0F15",
"(9@	c #54303A",
"_9@	c #593A40",
":9@	c #372325",
"<9@	c #534A4B",
"[9@	c #645B5C",
"}9@	c #221C1E",
"|9@	c #46282A",
"19@	c #836364",
"29@	c #967272",
"39@	c #683E3F",
"49@	c #3D0506",
"59@	c #430508",
"69@	c #420002",
"79@	c #480308",
"89@	c #430208",
"99@	c #55403B",
"09@	c #4F3832",
"a9@	c #593630",
"b9@	c #5E2627",
"c9@	c #743234",
"d9@	c #844246",
"e9@	c #B27175",
"f9@	c #A86C6E",
"g9@	c #5C2626",
"h9@	c #3A0A0A",
"i9@	c #412019",
"j9@	c #582B28",
"k9@	c #612F2E",
"l9@	c #643231",
"m9@	c #511F22",
"n9@	c #4F2821",
"o9@	c #0D0B0E",
"p9@	c #2E0C0D",
"q9@	c #4C2015",
"r9@	c #57291C",
"s9@	c #633327",
"t9@	c #50261A",
"u9@	c #4B271B",
"v9@	c #492B20",
"w9@	c #3E2318",
"x9@	c #4C1207",
"y9@	c #5C0500",
"z9@	c #A62F31",
"A9@	c #B72E35",
"B9@	c #9F141B",
"C9@	c #731B19",
"D9@	c #3E0500",
"E9@	c #1F0005",
"F9@	c #3C1621",
"G9@	c #45242B",
"H9@	c #463D3E",
"I9@	c #5F5657",
"J9@	c #3C1F23",
"K9@	c #634346",
"L9@	c #6E4C4B",
"M9@	c #470A07",
"N9@	c #4E0808",
"O9@	c #490506",
"P9@	c #3E0001",
"Q9@	c #402D29",
"R9@	c #3C2923",
"S9@	c #4E3934",
"T9@	c #432C26",
"U9@	c #381F18",
"V9@	c #5A2221",
"W9@	c #7A383A",
"X9@	c #914F51",
"Y9@	c #A8676B",
"Z9@	c #8E5254",
"`9@	c #45201A",
" 0@	c #592927",
".0@	c #592726",
"+0@	c #451515",
"@0@	c #360B05",
"#0@	c #100C0D",
"$0@	c #300E0F",
"%0@	c #360602",
"&0@	c #350600",
"*0@	c #3C241A",
"=0@	c #54251B",
"-0@	c #5D2D23",
";0@	c #4F291E",
">0@	c #3D2116",
",0@	c #411F15",
"'0@	c #4F150A",
")0@	c #A32C2E",
"!0@	c #B62D35",
"~0@	c #A1151E",
"{0@	c #9F2429",
"]0@	c #721A19",
"^0@	c #1C0002",
"/0@	c #29010A",
"(0@	c #2B1114",
"_0@	c #311D1C",
":0@	c #382423",
"<0@	c #483F40",
"[0@	c #3F3637",
"}0@	c #0F0002",
"|0@	c #351B1C",
"10@	c #360500",
"20@	c #490C07",
"30@	c #5F110F",
"40@	c #412E2A",
"50@	c #442824",
"60@	c #692F2E",
"70@	c #894748",
"80@	c #9F5F5F",
"90@	c #9D5F60",
"00@	c #75393B",
"a0@	c #440E0E",
"b0@	c #291013",
"c0@	c #422E27",
"d0@	c #544039",
"e0@	c #4B221E",
"f0@	c #522522",
"g0@	c #3D1410",
"h0@	c #2E0501",
"i0@	c #290C10",
"j0@	c #2D0D12",
"k0@	c #2E0E13",
"l0@	c #30090E",
"m0@	c #3A080B",
"n0@	c #3C0606",
"o0@	c #3B0401",
"p0@	c #2C0A00",
"q0@	c #260E04",
"r0@	c #35130A",
"s0@	c #451F16",
"t0@	c #4D2118",
"u0@	c #613127",
"v0@	c #512921",
"w0@	c #4E2921",
"x0@	c #402218",
"y0@	c #431E15",
"z0@	c #571D12",
"A0@	c #A22B2F",
"B0@	c #B42D34",
"C0@	c #A51922",
"D0@	c #9D2129",
"E0@	c #240009",
"F0@	c #280008",
"G0@	c #463130",
"H0@	c #4E3A39",
"I0@	c #544B4C",
"J0@	c #7D201B",
"K0@	c #4A0D0C",
"L0@	c #4C3E3D",
"M0@	c #4C3C3C",
"N0@	c #402D27",
"O0@	c #49342F",
"P0@	c #743A39",
"Q0@	c #8B4B4B",
"R0@	c #A66666",
"S0@	c #9F6261",
"T0@	c #6C3231",
"U0@	c #210E10",
"V0@	c #461D19",
"W0@	c #280B10",
"X0@	c #2D0A10",
"Y0@	c #2F080D",
"Z0@	c #35070A",
"`0@	c #3B090C",
" a@	c #400203",
".a@	c #3E0402",
"+a@	c #310900",
"@a@	c #2E0900",
"#a@	c #290B00",
"$a@	c #371108",
"%a@	c #412319",
"&a@	c #472219",
"*a@	c #51221A",
"=a@	c #5F2E27",
"-a@	c #66352E",
";a@	c #48271E",
">a@	c #49241B",
",a@	c #9D2A2D",
"'a@	c #B02A31",
")a@	c #A51C26",
"!a@	c #971B23",
"~a@	c #5F0608",
"{a@	c #25040B",
"]a@	c #29010C",
"^a@	c #2D020C",
"/a@	c #2A020A",
"(a@	c #3B2321",
"_a@	c #412C29",
":a@	c #2B2120",
"<a@	c #534948",
"[a@	c #4F4745",
"}a@	c #181818",
"|a@	c #422623",
"1a@	c #501F1B",
"2a@	c #57120D",
"3a@	c #670E0A",
"4a@	c #801713",
"5a@	c #901C1C",
"6a@	c #931D1D",
"7a@	c #861817",
"8a@	c #311C1B",
"9a@	c #453535",
"0a@	c #271E1F",
"aa@	c #4C4040",
"ba@	c #706261",
"ca@	c #46332D",
"da@	c #46312C",
"ea@	c #3C1A18",
"fa@	c #733937",
"ga@	c #894947",
"ha@	c #A86868",
"ia@	c #9A5E5D",
"ja@	c #1D0D10",
"ka@	c #210C11",
"la@	c #220E10",
"ma@	c #411814",
"na@	c #100900",
"oa@	c #0E0001",
"pa@	c #1D060C",
"qa@	c #27080E",
"ra@	c #3A090D",
"sa@	c #3C080C",
"ta@	c #410507",
"ua@	c #440204",
"va@	c #2F0900",
"wa@	c #2A0E02",
"xa@	c #3D100A",
"ya@	c #42251D",
"za@	c #49241C",
"Aa@	c #60332D",
"Ba@	c #4A2920",
"Ca@	c #4B261D",
"Da@	c #582216",
"Ea@	c #63140D",
"Fa@	c #982A2B",
"Ga@	c #AA2830",
"Ha@	c #A41C26",
"Ia@	c #901720",
"Ja@	c #570104",
"Ka@	c #210007",
"La@	c #250008",
"Ma@	c #2C030B",
"Na@	c #453939",
"Oa@	c #5A504F",
"Pa@	c #000908",
"Qa@	c #060C0C",
"Ra@	c #412522",
"Sa@	c #5E2B28",
"Ta@	c #631A14",
"Ua@	c #73110E",
"Va@	c #941A19",
"Wa@	c #630805",
"Xa@	c #550A05",
"Ya@	c #470C06",
"Za@	c #3B2120",
"`a@	c #493433",
" b@	c #413736",
".b@	c #7C7271",
"+b@	c #6F3835",
"@b@	c #8D504D",
"#b@	c #AB6E6D",
"$b@	c #8E5452",
"%b@	c #551D1C",
"&b@	c #461916",
"*b@	c #441211",
"=b@	c #0A0002",
"-b@	c #20070B",
";b@	c #390C11",
">b@	c #3E070C",
",b@	c #440609",
"'b@	c #460408",
")b@	c #460106",
"!b@	c #350400",
"~b@	c #330800",
"{b@	c #2F0D01",
"]b@	c #300E04",
"^b@	c #3B0C04",
"/b@	c #391308",
"(b@	c #3A140B",
"_b@	c #5B3029",
":b@	c #4F2920",
"<b@	c #45231A",
"[b@	c #43251B",
"}b@	c #452319",
"|b@	c #562517",
"1b@	c #891F1F",
"2b@	c #A2252B",
"3b@	c #A21E29",
"4b@	c #8C1720",
"5b@	c #580608",
"6b@	c #2C0611",
"7b@	c #331515",
"8b@	c #4C3732",
"9b@	c #281614",
"0b@	c #5C5250",
"ab@	c #605654",
"bb@	c #0B0C0E",
"cb@	c #572421",
"db@	c #722825",
"eb@	c #872524",
"fb@	c #AD2D2E",
"gb@	c #A92425",
"hb@	c #A52526",
"ib@	c #952121",
"jb@	c #4E0401",
"kb@	c #3C0100",
"lb@	c #4B2D2B",
"mb@	c #371F1D",
"nb@	c #291514",
"ob@	c #5B5351",
"pb@	c #43312D",
"qb@	c #4B3832",
"rb@	c #40231F",
"sb@	c #3B1C19",
"tb@	c #351210",
"ub@	c #76413D",
"vb@	c #834844",
"wb@	c #B77B7A",
"xb@	c #87504D",
"yb@	c #5E2826",
"zb@	c #1D0A10",
"Ab@	c #52201F",
"Bb@	c #3A0A08",
"Cb@	c #150005",
"Db@	c #1A0105",
"Eb@	c #350E13",
"Fb@	c #3A0D12",
"Gb@	c #420409",
"Hb@	c #46030A",
"Ib@	c #470509",
"Jb@	c #3C0502",
"Kb@	c #350900",
"Lb@	c #3F140B",
"Mb@	c #2B2318",
"Nb@	c #49221B",
"Ob@	c #573128",
"Pb@	c #44231A",
"Qb@	c #43271C",
"Rb@	c #4F2112",
"Sb@	c #9A2128",
"Tb@	c #9A1C27",
"Ub@	c #85131D",
"Vb@	c #520306",
"Wb@	c #21030B",
"Xb@	c #300C16",
"Yb@	c #411721",
"Zb@	c #4D262B",
"`b@	c #504543",
" c@	c #4B4341",
".c@	c #191516",
"+c@	c #391B1B",
"@c@	c #502320",
"#c@	c #99332F",
"$c@	c #A02E2D",
"%c@	c #9D2322",
"&c@	c #9B2022",
"*c@	c #941D1F",
"=c@	c #6F0D0E",
"-c@	c #670D0D",
";c@	c #590D0D",
">c@	c #351B1A",
",c@	c #34201F",
"'c@	c #4B4643",
")c@	c #4C302C",
"!c@	c #572F2D",
"~c@	c #74433F",
"{c@	c #7E4744",
"]c@	c #A66F6C",
"^c@	c #784240",
"/c@	c #532120",
"(c@	c #1E0D13",
"_c@	c #60302E",
":c@	c #5A2726",
"<c@	c #100901",
"[c@	c #3C1216",
"}c@	c #431216",
"|c@	c #410C12",
"1c@	c #40070D",
"2c@	c #47090E",
"3c@	c #45070A",
"4c@	c #430506",
"5c@	c #3D0301",
"6c@	c #350500",
"7c@	c #360600",
"8c@	c #3C0C02",
"9c@	c #3E0E04",
"0c@	c #3A0B01",
"ac@	c #3C0B04",
"bc@	c #411009",
"cc@	c #3D2219",
"dc@	c #46241B",
"ec@	c #512F26",
"fc@	c #47291F",
"gc@	c #4C2514",
"hc@	c #581A0D",
"ic@	c #7F201E",
"jc@	c #942126",
"kc@	c #941B24",
"lc@	c #7A0F17",
"mc@	c #26050E",
"nc@	c #3D151E",
"oc@	c #553135",
"pc@	c #4F3330",
"qc@	c #270B0A",
"rc@	c #5F5150",
"sc@	c #4B383C",
"tc@	c #2C171E",
"uc@	c #3F1916",
"vc@	c #451610",
"wc@	c #4F130B",
"xc@	c #821614",
"yc@	c #8E1D1F",
"zc@	c #851418",
"Ac@	c #790B0E",
"Bc@	c #710409",
"Cc@	c #600105",
"Dc@	c #3F2322",
"Ec@	c #403B37",
"Fc@	c #4B4642",
"Gc@	c #432E29",
"Hc@	c #462D29",
"Ic@	c #472B28",
"Jc@	c #623F3B",
"Kc@	c #5E312C",
"Lc@	c #75423F",
"Mc@	c #9A6764",
"Nc@	c #6E3C3B",
"Oc@	c #653332",
"Pc@	c #642E2E",
"Qc@	c #42100F",
"Rc@	c #351115",
"Sc@	c #3F161A",
"Tc@	c #431015",
"Uc@	c #44060B",
"Vc@	c #440307",
"Wc@	c #430206",
"Xc@	c #400300",
"Yc@	c #3D0200",
"Zc@	c #410801",
"`c@	c #420B04",
" d@	c #3D0800",
".d@	c #42110A",
"+d@	c #262314",
"@d@	c #2B2819",
"#d@	c #2F291D",
"$d@	c #412C1B",
"%d@	c #482716",
"&d@	c #92252A",
"*d@	c #97232C",
"=d@	c #7D151E",
"-d@	c #480105",
";d@	c #190208",
">d@	c #20020A",
",d@	c #320F16",
"'d@	c #48282B",
")d@	c #250D0D",
"!d@	c #3F2D2D",
"~d@	c #5C4146",
"{d@	c #492B33",
"]d@	c #330B03",
"^d@	c #4C0B05",
"/d@	c #90292A",
"(d@	c #8F2124",
"_d@	c #861318",
":d@	c #7F0710",
"<d@	c #6E0309",
"[d@	c #560504",
"}d@	c #490907",
"|d@	c #3C0200",
"1d@	c #352A28",
"2d@	c #4D4341",
"3d@	c #4E4643",
"4d@	c #524B45",
"5d@	c #381C19",
"6d@	c #613F3D",
"7d@	c #6A3A38",
"8d@	c #926260",
"9d@	c #6C3E3E",
"0d@	c #471B1A",
"ad@	c #1E0C02",
"bd@	c #4A1E1B",
"cd@	c #673433",
"dd@	c #6B3334",
"ed@	c #250D01",
"fd@	c #2F0F12",
"gd@	c #3A1318",
"hd@	c #3E131A",
"id@	c #3F1219",
"jd@	c #410E15",
"kd@	c #460910",
"ld@	c #4A050A",
"md@	c #490407",
"nd@	c #4B0507",
"od@	c #4A0404",
"pd@	c #470100",
"qd@	c #3D0601",
"rd@	c #360F08",
"sd@	c #2E2B1C",
"td@	c #3E261C",
"ud@	c #42271E",
"vd@	c #3F2411",
"wd@	c #4E1D0E",
"xd@	c #8F282B",
"yd@	c #9E3137",
"zd@	c #84232A",
"Ad@	c #4C0C0D",
"Bd@	c #250C12",
"Cd@	c #2C0508",
"Dd@	c #311917",
"Ed@	c #43262A",
"Fd@	c #482B30",
"Gd@	c #40272A",
"Hd@	c #6D221F",
"Id@	c #852B2B",
"Jd@	c #872023",
"Kd@	c #841319",
"Ld@	c #871016",
"Md@	c #831218",
"Nd@	c #67090A",
"Od@	c #5B0A09",
"Pd@	c #470F10",
"Qd@	c #411013",
"Rd@	c #4B3736",
"Sd@	c #625D57",
"Td@	c #4B443E",
"Ud@	c #653938",
"Vd@	c #7D4F4F",
"Wd@	c #451E19",
"Xd@	c #4D201D",
"Yd@	c #572524",
"Zd@	c #693333",
"`d@	c #753A3C",
" e@	c #271104",
".e@	c #300D13",
"+e@	c #361118",
"@e@	c #3E1118",
"#e@	c #4B0E16",
"$e@	c #500A14",
"%e@	c #500911",
"&e@	c #51080F",
"*e@	c #53080D",
"=e@	c #53070B",
"-e@	c #530407",
";e@	c #510303",
">e@	c #470300",
",e@	c #241E12",
"'e@	c #221E12",
")e@	c #242112",
"!e@	c #2B291A",
"~e@	c #2C2A1B",
"{e@	c #3D291E",
"]e@	c #362F1D",
"^e@	c #412B16",
"/e@	c #4F2111",
"(e@	c #6D2018",
"_e@	c #8C2A2B",
":e@	c #A43B40",
"<e@	c #862B30",
"[e@	c #16070C",
"}e@	c #330508",
"|e@	c #32080C",
"1e@	c #340B0F",
"2e@	c #3F2727",
"3e@	c #3D2729",
"4e@	c #3C2C2C",
"5e@	c #3D2922",
"6e@	c #481713",
"7e@	c #682627",
"8e@	c #812F31",
"9e@	c #7E0D11",
"0e@	c #710A0D",
"ae@	c #63090B",
"be@	c #5A0508",
"ce@	c #54080A",
"de@	c #4D0B0D",
"ee@	c #38070A",
"fe@	c #3B1D1F",
"ge@	c #513738",
"he@	c #402C2B",
"ie@	c #66615B",
"je@	c #504943",
"ke@	c #5C4A46",
"le@	c #432724",
"me@	c #6A4041",
"ne@	c #613738",
"oe@	c #4E2425",
"pe@	c #5F2C2B",
"qe@	c #6D3536",
"re@	c #804446",
"se@	c #4F1718",
"te@	c #300500",
"ue@	c #2A0F04",
"ve@	c #160001",
"we@	c #1D0207",
"xe@	c #330A12",
"ye@	c #450913",
"ze@	c #4C0610",
"Ae@	c #4F060F",
"Be@	c #540910",
"Ce@	c #590A10",
"De@	c #5D0B11",
"Ee@	c #5E090E",
"Fe@	c #5D080D",
"Ge@	c #420605",
"He@	c #2A2819",
"Ie@	c #33301D",
"Je@	c #34311E",
"Ke@	c #38321C",
"Le@	c #44321C",
"Me@	c #4E2513",
"Ne@	c #A94448",
"Oe@	c #893034",
"Pe@	c #3E0305",
"Qe@	c #15090D",
"Re@	c #201406",
"Se@	c #3C0E10",
"Te@	c #301011",
"Ue@	c #20211B",
"Ve@	c #321311",
"We@	c #441618",
"Xe@	c #682A2B",
"Ye@	c #803637",
"Ze@	c #782424",
"`e@	c #6B100F",
" f@	c #7B1415",
".f@	c #760C0E",
"+f@	c #80161A",
"@f@	c #7C1519",
"#f@	c #610A10",
"$f@	c #48060A",
"%f@	c #340307",
"&f@	c #3F2725",
"*f@	c #4E4943",
"=f@	c #6E5F5A",
"-f@	c #3E2B25",
";f@	c #583F3B",
">f@	c #6D4B4A",
",f@	c #754D4E",
"'f@	c #552D2E",
")f@	c #482122",
"!f@	c #421B1C",
"~f@	c #523934",
"{f@	c #481C19",
"]f@	c #713638",
"^f@	c #501819",
"/f@	c #2F0400",
"(f@	c #2B1005",
"_f@	c #150002",
":f@	c #200106",
"<f@	c #550C13",
"[f@	c #5C0F15",
"}f@	c #610F15",
"|f@	c #630E15",
"1f@	c #4B0001",
"2f@	c #272317",
"3f@	c #292617",
"4f@	c #282617",
"5f@	c #2A2718",
"6f@	c #352F1F",
"7f@	c #343321",
"8f@	c #3A3320",
"9f@	c #3F2D17",
"0f@	c #451E0D",
"af@	c #812D2D",
"bf@	c #A94E53",
"cf@	c #8D3C42",
"df@	c #400A0A",
"ef@	c #3F0B0F",
"ff@	c #390207",
"gf@	c #360206",
"hf@	c #5D2322",
"if@	c #520E0D",
"jf@	c #6C1816",
"kf@	c #751314",
"lf@	c #8B2427",
"mf@	c #892428",
"nf@	c #640E11",
"of@	c #590A0D",
"pf@	c #3E0003",
"qf@	c #3F080D",
"rf@	c #3B1F1E",
"sf@	c #4E413B",
"tf@	c #61544C",
"uf@	c #725A56",
"vf@	c #755352",
"wf@	c #7C5556",
"xf@	c #5A3334",
"yf@	c #170500",
"zf@	c #543B36",
"Af@	c #552420",
"Bf@	c #703635",
"Cf@	c #733635",
"Df@	c #501413",
"Ef@	c #320300",
"Ff@	c #430C11",
"Gf@	c #4A0C11",
"Hf@	c #50090F",
"If@	c #54070F",
"Jf@	c #56050C",
"Kf@	c #52060A",
"Lf@	c #4A0406",
"Mf@	c #2B2517",
"Nf@	c #31291C",
"Of@	c #282214",
"Pf@	c #353223",
"Qf@	c #363322",
"Rf@	c #302D1E",
"Sf@	c #43190B",
"Tf@	c #5B241D",
"Uf@	c #632220",
"Vf@	c #954F51",
"Wf@	c #9B595D",
"Xf@	c #141108",
"Yf@	c #141206",
"Zf@	c #150001",
"`f@	c #3E090F",
" g@	c #4E1319",
".g@	c #44090F",
"+g@	c #3D0206",
"@g@	c #3C0407",
"#g@	c #380104",
"$g@	c #320001",
"%g@	c #3D1314",
"&g@	c #421212",
"*g@	c #802C2C",
"=g@	c #600F0E",
"-g@	c #581011",
";g@	c #461C1D",
">g@	c #4E3B34",
",g@	c #6D5450",
"'g@	c #825B5E",
")g@	c #694547",
"!g@	c #5E3A3C",
"~g@	c #543435",
"{g@	c #433836",
"]g@	c #531E18",
"^g@	c #6D302B",
"/g@	c #78352F",
"(g@	c #924B45",
"_g@	c #39070A",
":g@	c #470A11",
"<g@	c #520C14",
"[g@	c #50070E",
"}g@	c #4D060A",
"|g@	c #470506",
"1g@	c #410403",
"2g@	c #3C0905",
"3g@	c #333021",
"4g@	c #373425",
"5g@	c #322F20",
"6g@	c #4C281A",
"7g@	c #5A2924",
"8g@	c #935B5C",
"9g@	c #955D60",
"0g@	c #3B080D",
"ag@	c #11120A",
"bg@	c #141007",
"cg@	c #140001",
"dg@	c #2B0208",
"eg@	c #430C12",
"fg@	c #4F1018",
"gg@	c #43060D",
"hg@	c #3B0006",
"ig@	c #380202",
"jg@	c #321615",
"kg@	c #3B191A",
"lg@	c #491D1E",
"mg@	c #692C2B",
"ng@	c #5C1614",
"og@	c #500A08",
"pg@	c #4E0D0B",
"qg@	c #470A09",
"rg@	c #5F5049",
"sg@	c #715551",
"tg@	c #795758",
"ug@	c #855E61",
"vg@	c #6C484A",
"wg@	c #664445",
"xg@	c #624243",
"yg@	c #544947",
"zg@	c #582218",
"Ag@	c #70312A",
"Bg@	c #934842",
"Cg@	c #5F1812",
"Dg@	c #3F0805",
"Eg@	c #2C0203",
"Fg@	c #480B10",
"Gg@	c #312F20",
"Hg@	c #373526",
"Ig@	c #353324",
"Jg@	c #403A2A",
"Kg@	c #553528",
"Lg@	c #825552",
"Mg@	c #835353",
"Ng@	c #340609",
"Og@	c #2E070A",
"Pg@	c #240608",
"Qg@	c #190002",
"Rg@	c #2D040A",
"Sg@	c #440F17",
"Tg@	c #4A1118",
"Ug@	c #460D14",
"Vg@	c #3C0309",
"Wg@	c #350003",
"Xg@	c #380408",
"Yg@	c #2C1716",
"Zg@	c #361C1D",
"`g@	c #402325",
" h@	c #4E3032",
".h@	c #5F3839",
"+h@	c #4F1E1A",
"@h@	c #3F0501",
"#h@	c #4D1311",
"$h@	c #541C1B",
"%h@	c #511918",
"&h@	c #471111",
"*h@	c #4C1A19",
"=h@	c #4B2524",
"-h@	c #442C28",
";h@	c #4D3833",
">h@	c #43322B",
",h@	c #553935",
"'h@	c #6D4E4B",
")h@	c #6E4A4C",
"!h@	c #7C5558",
"~h@	c #654143",
"{h@	c #674949",
"]h@	c #423735",
"^h@	c #4B1C14",
"/h@	c #5C261C",
"(h@	c #72312B",
"_h@	c #7E352E",
":h@	c #91423D",
"<h@	c #3F0503",
"[h@	c #0A0500",
"}h@	c #431112",
"|h@	c #232112",
"1h@	c #2F2D1E",
"2h@	c #373828",
"3h@	c #3D3C2A",
"4h@	c #473A29",
"5h@	c #3F2318",
"6h@	c #754D4D",
"7h@	c #431A1E",
"8h@	c #240004",
"9h@	c #1A0104",
"0h@	c #270209",
"ah@	c #441319",
"bh@	c #441116",
"ch@	c #3F0A10",
"dh@	c #3C1C1D",
"eh@	c #2E0300",
"fh@	c #491B1B",
"gh@	c #845656",
"hh@	c #4A1E1F",
"ih@	c #482020",
"jh@	c #533431",
"kh@	c #603E3C",
"lh@	c #60393A",
"mh@	c #745052",
"nh@	c #4D2D2E",
"oh@	c #5B3D3D",
"ph@	c #3D180F",
"qh@	c #471810",
"rh@	c #712E28",
"sh@	c #833832",
"th@	c #903F3B",
"uh@	c #6A1C18",
"vh@	c #3F0302",
"wh@	c #2E2A1E",
"xh@	c #2C2A1D",
"yh@	c #2F2D20",
"zh@	c #2B2C1E",
"Ah@	c #232416",
"Bh@	c #212214",
"Ch@	c #2C2D1F",
"Dh@	c #36382A",
"Eh@	c #383A2C",
"Fh@	c #393C2B",
"Gh@	c #2E2F1D",
"Hh@	c #363521",
"Ih@	c #492D29",
"Jh@	c #755654",
"Kh@	c #6B494A",
"Lh@	c #21080C",
"Mh@	c #3D1015",
"Nh@	c #36070D",
"Oh@	c #2E0106",
"Ph@	c #2C0004",
"Qh@	c #8D6364",
"Rh@	c #200202",
"Sh@	c #371516",
"Th@	c #573335",
"Uh@	c #542B2F",
"Vh@	c #4A2725",
"Wh@	c #583132",
"Xh@	c #785454",
"Yh@	c #684444",
"Zh@	c #432422",
"`h@	c #382624",
" i@	c #5B2219",
".i@	c #8E413B",
"+i@	c #943F3C",
"@i@	c #410401",
"#i@	c #302C20",
"$i@	c #2E2C1F",
"%i@	c #2F3022",
"&i@	c #252618",
"*i@	c #292B1D",
"=i@	c #333527",
"-i@	c #35392A",
";i@	c #333A28",
">i@	c #323625",
",i@	c #403D2E",
"'i@	c #694F4E",
")i@	c #795C5E",
"!i@	c #24070C",
"~i@	c #1E0E0F",
"{i@	c #2B0005",
"]i@	c #3E1116",
"^i@	c #2B1919",
"/i@	c #401C1C",
"(i@	c #633D3C",
"_i@	c #876160",
":i@	c #3F1717",
"<i@	c #492121",
"[i@	c #502A29",
"}i@	c #684647",
"|i@	c #4A2125",
"1i@	c #50262A",
"2i@	c #340A0E",
"3i@	c #370D0F",
"4i@	c #3F1819",
"5i@	c #6E4A4A",
"6i@	c #694545",
"7i@	c #442626",
"8i@	c #351309",
"9i@	c #A0514C",
"0i@	c #9E4644",
"ai@	c #73221F",
"bi@	c #241407",
"ci@	c #221407",
"di@	c #322E23",
"ei@	c #302E22",
"fi@	c #2F2F23",
"gi@	c #2B2B1F",
"hi@	c #26281B",
"ii@	c #2E3023",
"ji@	c #35372A",
"ki@	c #303425",
"li@	c #37402F",
"mi@	c #353C2C",
"ni@	c #3A3B2D",
"oi@	c #423930",
"pi@	c #513C39",
"qi@	c #684E4F",
"ri@	c #280B0F",
"si@	c #270A0F",
"ti@	c #1E090E",
"ui@	c #1C090D",
"vi@	c #1A0A0D",
"wi@	c #1B0B0E",
"xi@	c #14050A",
"yi@	c #130409",
"zi@	c #190003",
"Ai@	c #210002",
"Bi@	c #310005",
"Ci@	c #370409",
"Di@	c #442B27",
"Ei@	c #714F4E",
"Fi@	c #6A4847",
"Gi@	c #472523",
"Hi@	c #9E7C7D",
"Ii@	c #482627",
"Ji@	c #3A1115",
"Ki@	c #471D21",
"Li@	c #441A1C",
"Mi@	c #543030",
"Ni@	c #553131",
"Oi@	c #461A11",
"Pi@	c #B66561",
"Qi@	c #AA504F",
"Ri@	c #782422",
"Si@	c #340E0D",
"Ti@	c #160600",
"Ui@	c #332F24",
"Vi@	c #312F23",
"Wi@	c #282A1D",
"Xi@	c #2B2D20",
"Yi@	c #323427",
"Zi@	c #333A2A",
"`i@	c #373B2C",
" j@	c #363428",
".j@	c #43302C",
"+j@	c #594141",
"@j@	c #321519",
"#j@	c #2A0D11",
"$j@	c #230A0E",
"%j@	c #1F080E",
"&j@	c #1B080C",
"*j@	c #3A0005",
"=j@	c #40050B",
"-j@	c #452926",
";j@	c #7E625F",
">j@	c #624642",
",j@	c #907272",
"'j@	c #411F20",
")j@	c #360F12",
"!j@	c #360C10",
"~j@	c #2E0408",
"{j@	c #461E1F",
"]j@	c #441D1E",
"^j@	c #37170C",
"/j@	c #693027",
"(j@	c #87403C",
"_j@	c #C57470",
":j@	c #B15756",
"<j@	c #772623",
"[j@	c #201A1A",
"}j@	c #20050A",
"|j@	c #3C352B",
"1j@	c #313125",
"2j@	c #37372B",
"3j@	c #1F1F13",
"4j@	c #2A2A1E",
"5j@	c #414135",
"6j@	c #434337",
"7j@	c #38382C",
"8j@	c #3D362C",
"9j@	c #8E7473",
"0j@	c #66484A",
"aj@	c #2A0A0D",
"bj@	c #1A0407",
"cj@	c #1A0E12",
"dj@	c #1C1014",
"ej@	c #1E0F14",
"fj@	c #1B0C11",
"gj@	c #450E11",
"hj@	c #310101",
"ij@	c #370100",
"jj@	c #56413C",
"kj@	c #533E39",
"lj@	c #4A2829",
"mj@	c #613A3D",
"nj@	c #3D1716",
"oj@	c #4F2928",
"pj@	c #7D3833",
"qj@	c #8B3331",
"rj@	c #8F3E3B",
"sj@	c #602320",
"tj@	c #3A0D10",
"uj@	c #130002",
"vj@	c #432A26",
"wj@	c #312F22",
"xj@	c #39372B",
"yj@	c #373528",
"zj@	c #29271B",
"Aj@	c #302E21",
"Bj@	c #444236",
"Cj@	c #4B473C",
"Dj@	c #272016",
"Ej@	c #463D34",
"Fj@	c #664E4A",
"Gj@	c #917371",
"Hj@	c #603E3D",
"Ij@	c #281C20",
"Jj@	c #2B1F23",
"Kj@	c #25161B",
"Lj@	c #400E0F",
"Mj@	c #46080B",
"Nj@	c #51090D",
"Oj@	c #570F12",
"Pj@	c #350201",
"Qj@	c #370802",
"Rj@	c #3A2C2B",
"Sj@	c #0E0100",
"Tj@	c #624444",
"Uj@	c #927273",
"Vj@	c #634142",
"Wj@	c #4B2C29",
"Xj@	c #5F3938",
"Yj@	c #682F26",
"Zj@	c #6F221C",
"`j@	c #7F2C28",
" k@	c #8D3F3B",
".k@	c #6F3430",
"+k@	c #471612",
"@k@	c #431215",
"#k@	c #421013",
"$k@	c #3D0A0F",
"%k@	c #140004",
"&k@	c #150004",
"*k@	c #373125",
"=k@	c #282516",
"-k@	c #5E4A43",
";k@	c #6B5049",
">k@	c #5B3A35",
",k@	c #231417",
"'k@	c #5B0B0E",
")k@	c #5D1312",
"!k@	c #510D0A",
"~k@	c #340203",
"{k@	c #370403",
"]k@	c #3B0302",
"^k@	c #350501",
"/k@	c #513F3D",
"(k@	c #6B4F4E",
"_k@	c #6B4D4D",
":k@	c #806762",
"<k@	c #80635F",
"[k@	c #653F3E",
"}k@	c #654341",
"|k@	c #482219",
"1k@	c #652C23",
"2k@	c #571D1B",
"3k@	c #3D0B0A",
"4k@	c #4E1619",
"5k@	c #450A0E",
"6k@	c #4A0D12",
"7k@	c #4D161B",
"8k@	c #130306",
"9k@	c #373020",
"0k@	c #241D0D",
"ak@	c #685449",
"bk@	c #584237",
"ck@	c #3D2018",
"dk@	c #2E1F22",
"ek@	c #511111",
"fk@	c #570B0B",
"gk@	c #630A0C",
"hk@	c #690F0F",
"ik@	c #560B06",
"jk@	c #4A0402",
"kk@	c #410100",
"lk@	c #340306",
"mk@	c #370401",
"nk@	c #2C1C1D",
"ok@	c #5D4B49",
"pk@	c #492F2E",
"qk@	c #664C4B",
"rk@	c #664D48",
"sk@	c #7F5D5B",
"tk@	c #583231",
"uk@	c #684241",
"vk@	c #684644",
"wk@	c #50251E",
"xk@	c #56130A",
"yk@	c #520E05",
"zk@	c #4A0F13",
"Ak@	c #501217",
"Bk@	c #4D0C12",
"Ck@	c #571119",
"Dk@	c #520F16",
"Ek@	c #4B0D12",
"Fk@	c #1B0205",
"Gk@	c #342818",
"Hk@	c #3A3120",
"Ik@	c #302414",
"Jk@	c #624F41",
"Kk@	c #3A2315",
"Lk@	c #54251F",
"Mk@	c #491410",
"Nk@	c #490F0D",
"Ok@	c #420A09",
"Pk@	c #380703",
"Qk@	c #342425",
"Rk@	c #6E0F0B",
"Sk@	c #3A0001",
"Tk@	c #330001",
"Uk@	c #3A0608",
"Vk@	c #54413D",
"Wk@	c #5E4B47",
"Xk@	c #4F3735",
"Yk@	c #4A2E2A",
"Zk@	c #6A4B48",
"`k@	c #795654",
" l@	c #6C4645",
".l@	c #704A49",
"+l@	c #3D110E",
"@l@	c #501409",
"#l@	c #480A00",
"$l@	c #420407",
"%l@	c #540F14",
"&l@	c #570E15",
"*l@	c #5F121A",
"=l@	c #5A0D15",
"-l@	c #47060A",
";l@	c #402A1D",
">l@	c #2E1707",
",l@	c #3D2010",
"'l@	c #40180C",
")l@	c #4C110B",
"!l@	c #51110F",
"~l@	c #4B110F",
"{l@	c #4E0607",
"]l@	c #410102",
"^l@	c #360407",
"/l@	c #390507",
"(l@	c #400406",
"_l@	c #371917",
":l@	c #351C18",
"<l@	c #30211E",
"[l@	c #4D3835",
"}l@	c #442F2C",
"|l@	c #4E3632",
"1l@	c #4E2B29",
"2l@	c #643E3D",
"3l@	c #724A4A",
"4l@	c #3E0E0C",
"5l@	c #4E1D18",
"6l@	c #602B25",
"7l@	c #410B00",
"8l@	c #450A0C",
"9l@	c #4F0E12",
"0l@	c #591017",
"al@	c #58090F",
"bl@	c #5F0C14",
"cl@	c #620F17",
"dl@	c #550D10",
"el@	c #480B0A",
"fl@	c #0C0D08",
"gl@	c #3A2919",
"hl@	c #251203",
"il@	c #2E1D0D",
"jl@	c #2A1A0A",
"kl@	c #281B0A",
"ll@	c #2A1D0C",
"ml@	c #2C1B09",
"nl@	c #2F1A07",
"ol@	c #2D1000",
"pl@	c #521E13",
"ql@	c #4F1009",
"rl@	c #551412",
"sl@	c #790601",
"tl@	c #7A0903",
"ul@	c #340205",
"vl@	c #40080B",
"wl@	c #42050A",
"xl@	c #3E0106",
"yl@	c #3D0007",
"zl@	c #452D2B",
"Al@	c #361E1C",
"Bl@	c #4C332F",
"Cl@	c #774F4F",
"Dl@	c #6B4341",
"El@	c #4E1C1B",
"Fl@	c #6C3731",
"Gl@	c #6F392F",
"Hl@	c #400C00",
"Il@	c #431204",
"Jl@	c #3E0E0E",
"Kl@	c #4A1316",
"Ll@	c #561116",
"Ml@	c #5A0D13",
"Nl@	c #55020A",
"Ol@	c #5E040E",
"Pl@	c #670D16",
"Ql@	c #6A151C",
"Rl@	c #641518",
"Sl@	c #571312",
"Tl@	c #432C1E",
"Ul@	c #361C0F",
"Vl@	c #260C00",
"Wl@	c #291204",
"Xl@	c #261100",
"Yl@	c #3C2714",
"Zl@	c #2C1201",
"`l@	c #452614",
" m@	c #3F0E00",
".m@	c #440800",
"+m@	c #56110A",
"@m@	c #590F0E",
"#m@	c #48110C",
"$m@	c #42130D",
"%m@	c #690706",
"&m@	c #740806",
"*m@	c #7B120F",
"=m@	c #761413",
"-m@	c #5A0C0C",
";m@	c #3E0202",
">m@	c #3C080A",
",m@	c #410A0D",
"'m@	c #43060B",
")m@	c #3C0004",
"!m@	c #3A0002",
"~m@	c #42070B",
"{m@	c #3C050A",
"]m@	c #3C0A0D",
"^m@	c #432E2B",
"/m@	c #311716",
"(m@	c #53302C",
"_m@	c #77514E",
":m@	c #6E4847",
"<m@	c #421615",
"[m@	c #5B2525",
"}m@	c #5F2726",
"|m@	c #6C312D",
"1m@	c #723731",
"2m@	c #652A22",
"3m@	c #4E150A",
"4m@	c #440B00",
"5m@	c #461207",
"6m@	c #4B201A",
"7m@	c #3C100F",
"8m@	c #4C070A",
"9m@	c #52070C",
"0m@	c #540309",
"am@	c #641216",
"bm@	c #68181B",
"cm@	c #671B1B",
"dm@	c #110509",
"em@	c #432118",
"fm@	c #401B12",
"gm@	c #2F0B00",
"hm@	c #381708",
"im@	c #3E1D0C",
"jm@	c #40190A",
"km@	c #3E1205",
"lm@	c #421103",
"mm@	c #590B07",
"nm@	c #5C0D09",
"om@	c #5D0F0D",
"pm@	c #580E0B",
"qm@	c #4E0F08",
"rm@	c #47100B",
"sm@	c #470707",
"tm@	c #6A0A0C",
"um@	c #780A0B",
"vm@	c #810D0E",
"wm@	c #720C0A",
"xm@	c #660C0B",
"ym@	c #480701",
"zm@	c #3C0500",
"Am@	c #420B11",
"Bm@	c #43060E",
"Cm@	c #400308",
"Dm@	c #3B2927",
"Em@	c #3A2826",
"Fm@	c #331D1F",
"Gm@	c #513430",
"Hm@	c #531D1D",
"Im@	c #662829",
"Jm@	c #6B292A",
"Km@	c #722C2C",
"Lm@	c #7D3737",
"Mm@	c #6F2927",
"Nm@	c #540E0C",
"Om@	c #3B120E",
"Pm@	c #460C0A",
"Qm@	c #510F10",
"Rm@	c #620D10",
"Sm@	c #11040B",
"Tm@	c #170B0F",
"Um@	c #180C10",
"Vm@	c #14080C",
"Wm@	c #350E00",
"Xm@	c #441A0C",
"Ym@	c #4B1B0F",
"Zm@	c #491508",
"`m@	c #490D05",
" n@	c #500701",
".n@	c #570603",
"+n@	c #5B0A07",
"@n@	c #540B05",
"#n@	c #2E0702",
"$n@	c #49090A",
"%n@	c #530B0E",
"&n@	c #5D0B0D",
"*n@	c #6B090A",
"=n@	c #72080A",
"-n@	c #780A0D",
";n@	c #7C090C",
">n@	c #77090A",
",n@	c #530802",
"'n@	c #470801",
")n@	c #3C0701",
"!n@	c #3A070C",
"~n@	c #3D0510",
"{n@	c #3C030C",
"]n@	c #3F0303",
"^n@	c #410304",
"/n@	c #440405",
"(n@	c #440206",
"_n@	c #5D4A44",
":n@	c #493733",
"<n@	c #463636",
"[n@	c #362223",
"}n@	c #3A2218",
"|n@	c #61493D",
"1n@	c #210D0E",
"2n@	c #1C0100",
"3n@	c #54191B",
"4n@	c #672728",
"5n@	c #732B2E",
"6n@	c #7E3435",
"7n@	c #772D2E",
"8n@	c #590F10",
"9n@	c #540808",
"0n@	c #600A0D",
"an@	c #2C0400",
"bn@	c #3E160A",
"cn@	c #502117",
"dn@	c #510A06",
"en@	c #540906",
"fn@	c #540904",
"gn@	c #510E06",
"hn@	c #50110A",
"in@	c #4D1611",
"jn@	c #390603",
"kn@	c #420807",
"ln@	c #4C0807",
"mn@	c #580807",
"nn@	c #620807",
"on@	c #6A0A0B",
"pn@	c #730B0C",
"qn@	c #77090C",
"rn@	c #76080B",
"sn@	c #73090B",
"tn@	c #6E0C0B",
"un@	c #600B08",
"vn@	c #300109",
"wn@	c #330007",
"xn@	c #390002",
"yn@	c #400001",
"zn@	c #430304",
"An@	c #470507",
"Bn@	c #470207",
"Cn@	c #420608",
"Dn@	c #523F39",
"En@	c #54433C",
"Fn@	c #33211F",
"Gn@	c #200C0D",
"Hn@	c #1C0600",
"In@	c #4E1D19",
"Jn@	c #712D2E",
"Kn@	c #7D3538",
"Ln@	c #893D3F",
"Mn@	c #8C4243",
"Nn@	c #782E2D",
"On@	c #56100E",
"Pn@	c #410602",
"Qn@	c #5A080A",
"Rn@	c #56241D",
"Sn@	c #530F0C",
"Tn@	c #540A07",
"Un@	c #500903",
"Vn@	c #4F0C04",
"Wn@	c #501007",
"Xn@	c #4F1309",
"Yn@	c #4C150E",
"Zn@	c #43110A",
"`n@	c #5E0D0A",
" o@	c #690D0E",
".o@	c #730A0E",
"+o@	c #71070B",
"@o@	c #6B0B0D",
"#o@	c #550F0F",
"$o@	c #450909",
"%o@	c #4B0408",
"&o@	c #490208",
"*o@	c #480107",
"=o@	c #450408",
"-o@	c #430709",
";o@	c #4F3E37",
">o@	c #75645D",
",o@	c #4E3F3A",
"'o@	c #3E2C28",
")o@	c #493735",
"!o@	c #42261B",
"~o@	c #583936",
"{o@	c #432622",
"]o@	c #491C17",
"^o@	c #692929",
"/o@	c #742E2E",
"(o@	c #843838",
"_o@	c #7D3332",
":o@	c #651F1D",
"<o@	c #3C0F0C",
"[o@	c #4F0909",
"}o@	c #570909",
"|o@	c #0D0001",
"1o@	c #501B17",
"2o@	c #530D0B",
"3o@	c #520D08",
"4o@	c #4D0A04",
"5o@	c #490A01",
"6o@	c #490D02",
"7o@	c #4B0F04",
"8o@	c #50140A",
"9o@	c #420D05",
"0o@	c #3D0E06",
"ao@	c #3B0902",
"bo@	c #5F0F0E",
"co@	c #6D0D0F",
"do@	c #770A0F",
"eo@	c #79060D",
"fo@	c #73080E",
"go@	c #6D0E12",
"ho@	c #601011",
"io@	c #4D0B0C",
"jo@	c #3B0306",
"ko@	c #420105",
"lo@	c #450307",
"mo@	c #490409",
"no@	c #4B040A",
"oo@	c #4C030A",
"po@	c #4C0408",
"qo@	c #4E060A",
"ro@	c #4A0206",
"so@	c #460104",
"to@	c #3E0403",
"uo@	c #635049",
"vo@	c #7B6A63",
"wo@	c #73605A",
"xo@	c #4D3A34",
"yo@	c #3A261B",
"zo@	c #331B11",
"Ao@	c #6E5046",
"Bo@	c #513027",
"Co@	c #4D2B22",
"Do@	c #411F1D",
"Eo@	c #1B0B00",
"Fo@	c #64201F",
"Go@	c #681E1D",
"Ho@	c #702424",
"Io@	c #712623",
"Jo@	c #51090A",
"Ko@	c #4B0E0B",
"Lo@	c #4D0E09",
"Mo@	c #430700",
"No@	c #420800",
"Oo@	c #480C02",
"Po@	c #440B02",
"Qo@	c #2C0600",
"Ro@	c #650C0E",
"So@	c #720B0F",
"To@	c #7A0810",
"Uo@	c #7C0811",
"Vo@	c #76070E",
"Wo@	c #720D13",
"Xo@	c #671114",
"Yo@	c #530D0F",
"Zo@	c #4F080C",
"`o@	c #50080C",
" p@	c #490206",
".p@	c #4B0609",
"+p@	c #4C0809",
"@p@	c #3D0504",
"#p@	c #624E47",
"$p@	c #7E6761",
"%p@	c #69544F",
"&p@	c #3F2B20",
"*p@	c #6B4940",
"=p@	c #190900",
"-p@	c #230C00",
";p@	c #4F1D16",
">p@	c #5E211C",
",p@	c #6C1E1C",
"'p@	c #410800",
")p@	c #400B03",
"!p@	c #3A0C0C",
"~p@	c #470E07",
"{p@	c #3D0900",
"]p@	c #400B00",
"^p@	c #470C00",
"/p@	c #4A0C00",
"(p@	c #470B00",
"_p@	c #2C0402",
":p@	c #340702",
"<p@	c #72070F",
"[p@	c #780910",
"}p@	c #76090F",
"|p@	c #750D14",
"1p@	c #6C1116",
"2p@	c #5B0F11",
"3p@	c #480A0D",
"4p@	c #500E10",
"5p@	c #450304",
"6p@	c #440808",
"7p@	c #4E3227",
"8p@	c #5D3B32",
"9p@	c #7E5951",
"0p@	c #6D463F",
"ap@	c #5F3831",
"bp@	c #2A0C04",
"cp@	c #1A0D00",
"dp@	c #281103",
"ep@	c #341407",
"fp@	c #41190D",
"gp@	c #7A2C28",
"hp@	c #5B1810",
"ip@	c #420C00",
"jp@	c #160305",
"kp@	c #400E05",
"lp@	c #3D0B00",
"mp@	c #3C0C00",
"np@	c #3E0D00",
"op@	c #450D00",
"pp@	c #480D00",
"qp@	c #490E00",
"rp@	c #450901",
"sp@	c #410703",
"tp@	c #490104",
"up@	c #580205",
"vp@	c #66060A",
"wp@	c #6F070E",
"xp@	c #740B10",
"yp@	c #740F13",
"zp@	c #6D1315",
"Ap@	c #4B1314",
"Bp@	c #4E1413",
"Cp@	c #4D0F10",
"Dp@	c #4B0B0B",
"Ep@	c #440404",
"Fp@	c #2D0100",
"Gp@	c #401D1B",
"Hp@	c #4E2C23",
"Ip@	c #825B54",
"Jp@	c #845B55",
"Kp@	c #211306",
"Lp@	c #231606",
"Mp@	c #311102",
"Np@	c #3C1204",
"Op@	c #4A140A",
"Pp@	c #893C36",
"Qp@	c #8A413A",
"Rp@	c #410700",
"Sp@	c #390800",
"Tp@	c #370700",
"Up@	c #3F100A",
"Vp@	c #1E0508",
"Wp@	c #3D1106",
"Xp@	c #3B0F04",
"Yp@	c #3C0E01",
"Zp@	c #440C00",
"`p@	c #450900",
" q@	c #410505",
".q@	c #370003",
"+q@	c #570102",
"@q@	c #610506",
"#q@	c #660809",
"$q@	c #690B0C",
"%q@	c #670E10",
"&q@	c #5E0C0E",
"*q@	c #4D0506",
"=q@	c #411411",
"-q@	c #432620",
";q@	c #502D27",
">q@	c #8E6561",
",q@	c #835A56",
"'q@	c #2C190A",
")q@	c #2D1304",
"!q@	c #361506",
"~q@	c #4D170B",
"{q@	c #994E48",
"]q@	c #934D45",
"^q@	c #66261D",
"/q@	c #450C01",
"(q@	c #2A1416",
"_q@	c #381F22",
":q@	c #31181B",
"<q@	c #371009",
"[q@	c #420E01",
"}q@	c #430D03",
"|q@	c #440901",
"1q@	c #480904",
"2q@	c #4C0A0B",
"3q@	c #480608",
"4q@	c #460509",
"5q@	c #360005",
"6q@	c #340005",
"7q@	c #5D0907",
"8q@	c #620A09",
"9q@	c #3D090D",
"0q@	c #3D0B0E",
"aq@	c #3E0C0F",
"bq@	c #462923",
"cq@	c #553E36",
"dq@	c #946B69",
"eq@	c #946B67",
"fq@	c #46201D",
"gq@	c #2A180A",
"hq@	c #2B1102",
"iq@	c #321102",
"jq@	c #3A0E01",
"kq@	c #450F03",
"lq@	c #56180D",
"mq@	c #752F25",
"nq@	c #90463D",
"oq@	c #A35852",
"pq@	c #8E4840",
"qq@	c #3D0E04",
"rq@	c #330A04",
"sq@	c #402828",
"tq@	c #593F40",
"uq@	c #4F3536",
"vq@	c #2C1213",
"wq@	c #430E08",
"xq@	c #4D0B0F",
"yq@	c #4C0910",
"zq@	c #490810",
"Aq@	c #4A0911",
"Bq@	c #4B0C14",
"Cq@	c #5B0E08",
"Dq@	c #5F0C08",
"Eq@	c #681211",
"Fq@	c #631113",
"Gq@	c #570B0D",
"Hq@	c #4B0304",
"Iq@	c #39080C",
"Jq@	c #3A0C0F",
"Kq@	c #3C0E11",
"Lq@	c #3B0F10",
"Mq@	c #410F10",
"Nq@	c #5E423E",
"Oq@	c #59423C",
"Pq@	c #4E2B27",
"Qq@	c #916969",
"Rq@	c #A17977",
"Sq@	c #310F03",
"Tq@	c #370D00",
"Uq@	c #53170C",
"Vq@	c #7B372C",
"Wq@	c #924940",
"Xq@	c #934A43",
"Yq@	c #77332A",
"Zq@	c #390706",
"`q@	c #330603",
" r@	c #3B2122",
".r@	c #53393A",
"+r@	c #1F0B0D",
"@r@	c #241012",
"#r@	c #4A0A0A",
"$r@	c #4E090C",
"%r@	c #500B10",
"&r@	c #540E16",
"*r@	c #5E1820",
"=r@	c #66232A",
"-r@	c #531218",
";r@	c #420300",
">r@	c #460500",
",r@	c #510B03",
"'r@	c #5C0F07",
")r@	c #610905",
"!r@	c #640A09",
"~r@	c #2C0206",
"{r@	c #2D0307",
"]r@	c #492A27",
"^r@	c #563A36",
"/r@	c #533F38",
"(r@	c #4B3730",
"_r@	c #452321",
":r@	c #795253",
"<r@	c #9C7675",
"[r@	c #553332",
"}r@	c #381A10",
"|r@	c #361206",
"1r@	c #5D2317",
"2r@	c #79392D",
"3r@	c #7E3A2F",
"4r@	c #6E2A21",
"5r@	c #430C09",
"6r@	c #440A08",
"7r@	c #460908",
"8r@	c #4B0B0C",
"9r@	c #531115",
"0r@	c #5D1B1F",
"ar@	c #672529",
"br@	c #591419",
"cr@	c #4D0C08",
"dr@	c #4E0A01",
"er@	c #650803",
"fr@	c #600605",
"gr@	c #5D0909",
"hr@	c #490502",
"ir@	c #23060B",
"jr@	c #3B0A0D",
"kr@	c #3D0F12",
"lr@	c #3E1416",
"mr@	c #543B37",
"nr@	c #57423D",
"or@	c #594642",
"pr@	c #4C3734",
"qr@	c #4A322E",
"rr@	c #492B29",
"sr@	c #836160",
"tr@	c #614142",
"ur@	c #3D1607",
"vr@	c #632E20",
"wr@	c #723729",
"xr@	c #6A2A1E",
"yr@	c #4E130D",
"zr@	c #3A0904",
"Ar@	c #1E0002",
"Br@	c #4A100E",
"Cr@	c #4A0C0D",
"Dr@	c #4F0A0D",
"Er@	c #54100D",
"Fr@	c #600701",
"Gr@	c #660202",
"Hr@	c #2A0300",
"Ir@	c #230500",
"Jr@	c #1B040A",
"Kr@	c #1E040D",
"Lr@	c #1F060C",
"Mr@	c #431619",
"Nr@	c #3D1516",
"Or@	c #543F3C",
"Pr@	c #53413D",
"Qr@	c #62504C",
"Rr@	c #53403C",
"Sr@	c #46312E",
"Tr@	c #432324",
"Ur@	c #684849",
"Vr@	c #44110D",
"Wr@	c #46140D",
"Xr@	c #43140C",
"Yr@	c #401A0D",
"Zr@	c #130006",
"`r@	c #381303",
" s@	c #451A0A",
".s@	c #591910",
"+s@	c #321414",
"@s@	c #1E0005",
"#s@	c #3B1009",
"$s@	c #500C09",
"%s@	c #670C07",
"&s@	c #710503",
"*s@	c #6B0101",
"=s@	c #16050B",
"-s@	c #18050B",
";s@	c #18030C",
">s@	c #170209",
",s@	c #3B0C12",
"'s@	c #3B1115",
")s@	c #473332",
"!s@	c #52403E",
"~s@	c #554643",
"{s@	c #483936",
"]s@	c #3D2928",
"^s@	c #493131",
"/s@	c #503637",
"(s@	c #432527",
"_s@	c #57393B",
":s@	c #644749",
"<s@	c #533938",
"[s@	c #47120C",
"}s@	c #441609",
"|s@	c #411709",
"1s@	c #3E1C12",
"2s@	c #1D080D",
"3s@	c #150009",
"4s@	c #320E00",
"5s@	c #3D1305",
"6s@	c #532515",
"7s@	c #693426",
"8s@	c #602419",
"9s@	c #5B1A14",
"0s@	c #5B1C17",
"as@	c #5B1E1B",
"bs@	c #1A0107",
"cs@	c #1D0209",
"ds@	c #440C0B",
"es@	c #530E09",
"fs@	c #6D0F0F",
"gs@	c #6A0606",
"hs@	c #670303",
"is@	c #630505",
"js@	c #490E06",
"ks@	c #15040C",
"ls@	c #110004",
"ms@	c #3C2724",
"ns@	c #4F3D39",
"os@	c #423330",
"ps@	c #443530",
"qs@	c #473231",
"rs@	c #482E2F",
"ss@	c #5C4444",
"ts@	c #66514E",
"us@	c #461109",
"vs@	c #481409",
"ws@	c #47150A",
"xs@	c #401C10",
"ys@	c #341409",
"zs@	c #361003",
"As@	c #4B2113",
"Bs@	c #6F3F33",
"Cs@	c #602C21",
"Ds@	c #561D14",
"Es@	c #511811",
"Fs@	c #581E1A",
"Gs@	c #6C3532",
"Hs@	c #652F2D",
"Is@	c #460809",
"Js@	c #50090D",
"Ks@	c #580C10",
"Ls@	c #5D0B0F",
"Ms@	c #5C0609",
"Ns@	c #5B0707",
"Os@	c #5B090B",
"Ps@	c #5B0D0B",
"Qs@	c #570D0A",
"Rs@	c #4A0F11",
"Ss@	c #4F3A35",
"Ts@	c #513E3A",
"Us@	c #4B3935",
"Vs@	c #5D4B47",
"Ws@	c #615049",
"Xs@	c #451104",
"Ys@	c #3E0E02",
"Zs@	c #3E1207",
"`s@	c #310F05",
" t@	c #331A16",
".t@	c #2C0E04",
"+t@	c #502820",
"@t@	c #4B2019",
"#t@	c #4D221B",
"$t@	c #362221",
"%t@	c #463432",
"&t@	c #330205",
"*t@	c #4E0C10",
"=t@	c #520B0F",
"-t@	c #560A0C",
";t@	c #57080B",
">t@	c #521115",
",t@	c #4E1214",
"'t@	c #52433C",
")t@	c #524139",
"!t@	c #431108",
"~t@	c #49150A",
"{t@	c #45150B",
"]t@	c #42170E",
"^t@	c #2F0A01",
"/t@	c #2C1106",
"(t@	c #3B1910",
"_t@	c #2B0400",
":t@	c #2C0700",
"<t@	c #340902",
"[t@	c #602322",
"}t@	c #210408",
"|t@	c #1D0003",
"1t@	c #450B0A",
"2t@	c #4B0D0E",
"3t@	c #4F0D0E",
"4t@	c #520A0B",
"5t@	c #4B090B",
"6t@	c #501414",
"7t@	c #331E1B",
"8t@	c #400F08",
"9t@	c #4A180D",
"0t@	c #471306",
"at@	c #431309",
"bt@	c #411208",
"ct@	c #44261E",
"dt@	c #260100",
"et@	c #270200",
"ft@	c #43130F",
"gt@	c #4F4842",
"ht@	c #461409",
"it@	c #432A25",
"jt@	c #210300",
"kt@	c #56201E",
"lt@	c #37302A",
"mt@	c #4E211E",
"nt@	c #4D1110",
"ot@	c #47100D",
"pt@	c #441408",
"qt@	c #501C11",
"rt@	c #41160D",
"st@	c #3B150C",
"tt@	c #483F3A",
"ut@	c #4B2522",
"vt@	c #522625",
"wt@	c #480C0C",
"xt@	c #480808",
"yt@	c #450908",
"zt@	c #350F06",
"At@	c #370F07",
"Bt@	c #3F1308",
"Ct@	c #411306",
"Dt@	c #501A10",
"Et@	c #4F1A12",
"Ft@	c #45130A",
"Gt@	c #463B37",
"Ht@	c #4D0D0D",
"It@	c #4D0C0A",
"Jt@	c #4F0B0A",
"Kt@	c #540E0E",
"Lt@	c #3D1307",
"Mt@	c #3E1408",
"Nt@	c #401409",
"Ot@	c #4B160E",
"Pt@	c #471C15",
"Qt@	c #070C05",
"Rt@	c #5E1E1E",
"St@	c #591514",
"Tt@	c #4C0606",
"Ut@	c #6B1F21",
"Vt@	c #6C2022",
"Wt@	c #4E0609",
"Xt@	c #371A12",
"Yt@	c #2A0800",
"Zt@	c #371209",
"`t@	c #3D1509",
" u@	c #41170B",
".u@	c #441209",
"+u@	c #45140D",
"@u@	c #4A1B13",
"#u@	c #0D120B",
"$u@	c #10130A",
"%u@	c #58201F",
"&u@	c #723232",
"*u@	c #621E1D",
"=u@	c #500809",
"-u@	c #621618",
";u@	c #661619",
">u@	c #610F11",
",u@	c #712122",
"'u@	c #5C0D10",
")u@	c #391507",
"!u@	c #47150E",
"~u@	c #43120B",
"{u@	c #7A635D",
"]u@	c #977E79",
"^u@	c #614843",
"/u@	c #321817",
"(u@	c #17130A",
"_u@	c #290102",
":u@	c #400D0C",
"<u@	c #752629",
"[u@	c #692124",
"}u@	c #331105",
"|u@	c #371607",
"1u@	c #3C180C",
"2u@	c #3E130C",
"3u@	c #523B35",
"4u@	c #4C100F",
"5u@	c #601114",
"6u@	c #682829",
"7u@	c #642C2B",
"8u@	c #5D2B2C",
"9u@	c #4E2523",
"0u@	c #3F1E15",
"au@	c #47261D",
"bu@	c #331306",
"cu@	c #311406",
"du@	c #331608",
"eu@	c #38180B",
"fu@	c #3E1911",
"gu@	c #5A1615",
"hu@	c #521212",
"iu@	c #5B2120",
"ju@	c #724444",
"ku@	c #653C3A",
"lu@	c #391E15",
"mu@	c #3C1613",
"nu@	c #4D2A24",
"ou@	c #5E3933",
"pu@	c #390905",
"qu@	c #521B18",
"ru@	c #391E13",
"su@	c #3C2116",
"tu@	c #32160A",
"uu@	c #32180B",
"vu@	c #31170A",
"wu@	c #381D12",
"xu@	c #361A0E",
"yu@	c #351B0E",
"zu@	c #30190B",
"Au@	c #2C1507",
"Bu@	c #351A0F",
"Cu@	c #45271C",
"Du@	c #391F12",
"Eu@	c #371D10",
"Fu@	c #311A0C",
"Gu@	c #2D1608",
"Hu@	c #331E19",
"Iu@	c #38241D",
"Ju@	c #431D14",
"Ku@	c #403231",
"Lu@	c #35190E",
"Mu@	c #34180D",
"Nu@	c #3B1D12",
"Ou@	c #311B0E",
"Pu@	c #441711",
"Qu@	c #130003",
"Ru@	c #3F3131",
"Su@	c #413333",
"Tu@	c #362828",
"Uu@	c #322320",
"Vu@	c #523632",
"Wu@	c #3B1E16",
"Xu@	c #3E2119",
"Yu@	c #200600",
"Zu@	c #280E01",
"`u@	c #290F02",
" v@	c #290F00",
".v@	c #2E1407",
"+v@	c #301607",
"@v@	c #4E332A",
"#v@	c #43261E",
"$v@	c #411E18",
"%v@	c #472019",
"&v@	c #461B15",
"*v@	c #481C13",
"=v@	c #471B0E",
"-v@	c #130208",
";v@	c #170006",
">v@	c #200C0E",
",v@	c #131112",
"'v@	c #2B2225",
")v@	c #23181C",
"!v@	c #190D11",
"~v@	c #291A1D",
"{v@	c #312225",
"]v@	c #4B3D3D",
"^v@	c #382A2A",
"/v@	c #180205",
"(v@	c #2D1207",
"_v@	c #513833",
":v@	c #422720",
"<v@	c #452A23",
"[v@	c #401E15",
"}v@	c #422215",
"|v@	c #381B0D",
"1v@	c #321507",
"2v@	c #301504",
"3v@	c #321706",
"4v@	c #2F1403",
"5v@	c #341908",
"6v@	c #341A09",
"7v@	c #4D1E14",
"8v@	c #4A1B11",
"9v@	c #4F2316",
"0v@	c #562A1D",
"av@	c #250A0F",
"bv@	c #22080B",
"cv@	c #241B1C",
"dv@	c #3C2C2D",
"ev@	c #544445",
"fv@	c #331716",
"gv@	c #402720",
"hv@	c #472C23",
"iv@	c #31150A",
"jv@	c #412017",
"kv@	c #45241B",
"lv@	c #411C13",
"mv@	c #3A1C11",
"nv@	c #371A0C",
"ov@	c #2E1103",
"pv@	c #381B0B",
"qv@	c #3C1F0F",
"rv@	c #351A09",
"sv@	c #371C0B",
"tv@	c #3C2110",
"uv@	c #3A1E12",
"vv@	c #4C2017",
"wv@	c #4D2116",
"xv@	c #160307",
"yv@	c #2C0F13",
"zv@	c #080100",
"Av@	c #433032",
"Bv@	c #341A19",
"Cv@	c #352323",
"Dv@	c #5B4037",
"Ev@	c #3E1C13",
"Fv@	c #4A251C",
"Gv@	c #44261B",
"Hv@	c #472A1C",
"Iv@	c #422515",
"Jv@	c #381809",
"Kv@	c #321505",
"Lv@	c #3E2111",
"Mv@	c #37190E",
"Nv@	c #431A16",
"Ov@	c #441B15",
"Pv@	c #52251F",
"Qv@	c #301315",
"Rv@	c #37191B",
"Sv@	c #2D1314",
"Tv@	c #483435",
"Uv@	c #42302E",
"Vv@	c #41241C",
"Wv@	c #583D32",
"Xv@	c #472C21",
"Yv@	c #32170C",
"Zv@	c #3C1E16",
"`v@	c #49271E",
" w@	c #58362D",
".w@	c #664138",
"+w@	c #6B493F",
"@w@	c #432316",
"#w@	c #39190C",
"$w@	c #3D1D0E",
"%w@	c #3D1C0D",
"&w@	c #452516",
"*w@	c #432314",
"=w@	c #3E1E0F",
"-w@	c #3C1C11",
";w@	c #582D27",
">w@	c #562B24",
",w@	c #532821",
"'w@	c #592E25",
")w@	c #4F2F32",
"!w@	c #3C2827",
"~w@	c #3E231A",
"{w@	c #4E3129",
"]w@	c #472921",
"^w@	c #4D2C23",
"/w@	c #755349",
"(w@	c #A48278",
"_w@	c #89695E",
":w@	c #58382D",
"<w@	c #472519",
"[w@	c #462516",
"}w@	c #401F10",
"|w@	c #492819",
"1w@	c #3F1E0F",
"2w@	c #462216",
"3w@	c #462118",
"4w@	c #401816",
"5w@	c #4D211E",
"6w@	c #5E332D",
"7w@	c #673F37",
"8w@	c #5E362E",
"9w@	c #402224",
"0w@	c #462627",
"aw@	c #432B1F",
"bw@	c #432A23",
"cw@	c #6F544D",
"dw@	c #502F26",
"ew@	c #533128",
"fw@	c #523026",
"gw@	c #401E14",
"hw@	c #4E2A1E",
"iw@	c #543024",
"jw@	c #492517",
"kw@	c #442012",
"lw@	c #492318",
"mw@	c #2C0500",
"nw@	c #572E2A",
"ow@	c #603932",
"pw@	c #3B1E20",
"qw@	c #4C2C2D",
"rw@	c #3A1A1B",
"sw@	c #351D11",
"tw@	c #2E180D",
"uw@	c #775C55",
"vw@	c #836861",
"ww@	c #3D1B12",
"xw@	c #67453C",
"yw@	c #3B170B",
"zw@	c #452113",
"Aw@	c #532F21",
"Bw@	c #532D20",
"Cw@	c #4D271A",
"Dw@	c #49201C",
"Ew@	c #4E2720",
"Fw@	c #512A23",
"Gw@	c #4C251E",
"Hw@	c #54332C",
"Iw@	c #5D3C33",
"Jw@	c #3E1A0E",
"Kw@	c #421C0F",
"Lw@	c #5A3228",
"Mw@	c #392115",
"Nw@	c #42211A",
"Ow@	c #4E2D26",
"Pw@	c #492519",
"Qw@	c #411B0E",
"Rw@	c #431B0F",
"Sw@	c #4A2D25",
"Tw@	c #462921",
"Uw@	c #4A3228",
"Vw@	c #472317",
"Ww@	c #3B1307",
"Xw@	c #421A0E",
"Yw@	c #491A12",
"Zw@	c #46170F",
"`w@	c #40221A",
" x@	c #462418",
".x@	c #451E17",
"+x@	c #604441",
"@x@	c #60433F",
"#x@	c #482C29",
"$x@	c #412821",
"%x@	c #4A1912",
"&x@	c #4F221C",
"*x@	c #462017",
"=x@	c #422016",
"-x@	c #442419",
";x@	c #43251A",
">x@	c #46281D",
",x@	c #563935",
"'x@	c #3B241E",
")x@	c #442B26",
"!x@	c #4F362F",
"~x@	c #412A24",
"{x@	c #3E251E",
"]x@	c #50281C",
"^x@	c #4F2519",
"/x@	c #56271F",
"(x@	c #562520",
"_x@	c #54281F",
":x@	c #4C2C21",
"<x@	c #170C10",
"[x@	c #150F11",
"}x@	c #141011",
"|x@	c #151112",
"1x@	c #2C191B",
"2x@	c #342623",
"3x@	c #3E1C1A",
"4x@	c #472823",
"5x@	c #4D3229",
"6x@	c #3D1A14",
"7x@	c #44231C",
"8x@	c #43221B",
"9x@	c #322016",
"0x@	c #573C35",
"ax@	c #41251A",
"bx@	c #47271A",
"cx@	c #4A281C",
"dx@	c #592D22",
"ex@	c #5A2B23",
"fx@	c #5B2A23",
"gx@	c #57271D",
"hx@	c #55291E",
"ix@	c #452115",
"jx@	c #4C3022",
"kx@	c #322223",
"lx@	c #2C1D1A",
"mx@	c #422924",
"nx@	c #41201B",
"ox@	c #472A24",
"px@	c #42241C",
"qx@	c #3F291E",
"rx@	c #3C281D",
"sx@	c #45241D",
"tx@	c #482720",
"ux@	c #46251E",
"vx@	c #513126",
"wx@	c #512F23",
"xx@	c #512B20",
"yx@	c #51291D",
"zx@	c #552A21",
"Ax@	c #582C23",
"Bx@	c #53241C",
"Cx@	c #55241D",
"Dx@	c #493B38",
"Ex@	c #4B2C27",
"Fx@	c #512C26",
"Gx@	c #542E2B",
"Hx@	c #39251C",
"Ix@	c #4A2924",
"Jx@	c #492823",
"Kx@	c #492725",
"Lx@	c #482624",
"Mx@	c #3D211D",
"Nx@	c #44261C",
"Ox@	c #47241E",
"Px@	c #492620",
"Qx@	c #4B2822",
"Rx@	c #4C2923",
"Sx@	c #492821",
"Tx@	c #452822",
"Ux@	c #4D2D22",
"Vx@	c #683B35",
"Wx@	c #673C35",
"Xx@	c #5A322A",
"Yx@	c #542E25",
"Zx@	c #59342C",
"`x@	c #4C2D28",
" y@	c #4D2E29",
".y@	c #4E2D28",
"+y@	c #5B3532",
"@y@	c #5A3431",
"#y@	c #5C3633",
"$y@	c #573430",
"%y@	c #55322E",
"&y@	c #3B1F14",
"*y@	c #4B2824",
"=y@	c #4B2826",
"-y@	c #421F19",
";y@	c #49291E",
">y@	c #5B352C",
",y@	c #5B332B",
"'y@	c #623A32",
")y@	c #5C362D",
"!y@	c #502A21",
"~y@	c #512B22",
"{y@	c #4B241D",
"]y@	c #502B23",
"^y@	c #4F2A24",
"/y@	c #51302B",
"(y@	c #53322D",
"_y@	c #54312D",
":y@	c #502F2A",
"<y@	c #46251C",
"[y@	c #522C2B",
"}y@	c #512B2A",
"|y@	c #4D2A28",
"1y@	c #372928",
"2y@	c #4A2C24",
"3y@	c #502D29",
"4y@	c #4D2726",
"5y@	c #3C2D2A",
"6y@	c #3A2B28",
"7y@	c #352724",
"8y@	c #342625",
"9y@	c #52352D",
"0y@	c #54372F",
"ay@	c #4D322B",
"by@	c #452018",
"cy@	c #3E1B17",
"dy@	c #432117",
"ey@	c #3D1D12",
"fy@	c #3A150C",
"gy@	c #3C2014",
"hy@	c #322421",
"iy@	c #413332",
"jy@	c #423433",
"ky@	c #563933",
"ly@	c #401B13",
"my@	c #3F1A11",
"ny@	c #3D2217",
"oy@	c #3E2417",
"py@	c #372727",
"qy@	c #433534",
"ry@	c #382926",
"sy@	c #452925",
"ty@	c #371815",
"uy@	c #3E1F1C",
"vy@	c #431E18",
"wy@	c #3C1A10",
"xy@	c #411D11",
"yy@	c #36180D",
"zy@	c #42261A",
"Ay@	c #402416",
"By@	c #3C2E2D",
"Cy@	c #433333",
"Dy@	c #3D2F2C",
"Ey@	c #3D201C",
"Fy@	c #482926",
"Gy@	c #422521",
"Hy@	c #432219",
"Iy@	c #371816",
"Jy@	c #402217",
"Ky@	c #422217",
"Ly@	c #312323",
"My@	c #322424",
"Ny@	c #342218",
"Oy@	c #4C2D2A",
"Py@	c #462724",
"Qy@	c #442522",
"Ry@	c #4D2B29",
"Sy@	c #4C2A28",
"Ty@	c #4A2826",
"Uy@	c #47221C",
"Vy@	c #3D1919",
"Wy@	c #51322F",
"Xy@	c #583634",
"Yy@	c #573835",
"Zy@	c #593735",
"`y@	c #52302E",
" z@	c #4B2F2B",
".z@	c #462A26",
"+z@	c #49241E",
"@z@	c #3B2D2D",
"#z@	c #3F2320",
"$z@	c #4F312F",
"%z@	c #533432",
"&z@	c #543533",
"*z@	c #512F2E",
"=z@	c #533130",
"-z@	c #502E2D",
";z@	c #4D2B2A",
">z@	c #4A2B29",
",z@	c #492A28",
"'z@	c #472826",
")z@	c #4A2C2A",
"!z@	c #3F2524",
"~z@	c #421A18",
"{z@	c #461F1A",
"]z@	c #481F19",
"^z@	c #372929",
"/z@	c #3D2F2F",
"(z@	c #473737",
"_z@	c #4A3A3A",
":z@	c #4E3E3E",
"<z@	c #514141",
"[z@	c #504040",
"}z@	c #4F3F3F",
"|z@	c #483838",
"1z@	c #413131",
"2z@	c #371E1A",
"3z@	c #3E2622",
"4z@	c #4A2E2B",
"5z@	c #4D2E2C",
"6z@	c #4D2F2D",
"7z@	c #412321",
"8z@	c #3F211F",
"9z@	c #442220",
"0z@	c #301B1A",
"az@	c #442523",
"bz@	c #462725",
"cz@	c #5C3530",
"dz@	c #5E3732",
"ez@	c #332525",
"fz@	c #39292A",
"gz@	c #423233",
"hz@	c #463637",
"iz@	c #453536",
"jz@	c #49393A",
"kz@	c #4D3D3E",
"lz@	c #504041",
"mz@	c #4E3E3F",
"nz@	c #4C3C3D",
"oz@	c #4A3A3B",
"pz@	c #483839",
"qz@	c #453737",
"rz@	c #433535",
"sz@	c #3C2E2E",
"tz@	c #281C1C",
"uz@	c #462A27",
"vz@	c #412925",
"wz@	c #492320",
"xz@	c #553834",
"yz@	c #583B37",
"zz@	c #63423D",
"Az@	c #65443F",
"Bz@	c #6C4643",
"Cz@	c #6F4946",
"Dz@	c #724C49",
"Ez@	c #332324",
"Fz@	c #352526",
"Gz@	c #47211E",
"Hz@	c #451F1C",
"Iz@	c #2C1819",
"Jz@	c #473535",
"Kz@	c #4F3D3D",
"Lz@	c #5A4848",
"Mz@	c #645252",
"Nz@	c #695757",
"Oz@	c #665454",
"Pz@	c #524040",
"Qz@	c #493737",
"Rz@	c #443232",
"Sz@	c #331618",
"Tz@	c #381211",
"Uz@	c #3B1816",
"Vz@	c #564444",
"Wz@	c #614F4F",
"Xz@	c #756162",
"Yz@	c #877374",
"Zz@	c #907A7C",
"`z@	c #8C7678",
" A@	c #877173",
".A@	c #856F71",
"+A@	c #786465",
"@A@	c #72605E",
"#A@	c #6D5B5B",
"$A@	c #675555",
"%A@	c #635151",
"&A@	c #5D494A",
"*A@	c #372525",
"=A@	c #241011",
"-A@	c #241113",
";A@	c #473938",
">A@	c #4D3F3E",
",A@	c #4E403F",
"'A@	c #493939",
")A@	c #423030",
"!A@	c #3F2B2C",
"~A@	c #2A1617",
"{A@	c #241417",
"]A@	c #251518",
"^A@	c #241518",
"/A@	c #261213",
"   .  +  @  #  $  %  &  *  =  -  ;  >  ,  '  )  !  ~  {  {  ]  ^  ^  /  (  _  :  <  [  }  |  1  2  3  4  5  6  7  8  9  0  a  b  c  d  e  1  f  g  h  i  j  k  l  m  n  o  p  q  r  s  t  u  v  w  w  x  x  x  x  y  z  A  A  B  C  C  D  D  D  E  F  G  G  H  I  J  J  K  L  M  E  N  N  O  P  Q  R  S  T  U  V  W  X  Y  Z  `   . .. +. +. @. #. $. %. &. *. =. -. ;. >. ,. '. ). !. ~. {. ]. ^. /. (. _. :. <. [. }. |. 1. 2. 3. 4. 5. 6. 7. 8. 9. 0. a. b. c. d. e. f. g. h. i. j. k. l. m. n. o. o. p. q. q. r. r. s. t. u. v. w. w. x. y. z. A. B. C. D. E. F. G. H. I. J. K. L. M. N. O. P. Q. R. S. T. U. V. W. W. X. Y. Z. `.  + .+ ++ @+ #+ $+ %+ &+ *+ =+ -+ ;+ >+ ,+ '+ )+ !+ ~+ {+ ]+ ^+ /+ (+ _+ :+ <+ [+ }+ |+ 1+ 2+ 3+ 4+ 5+ 6+ 7+ 8+ 9+ 0+ a+ b+ c+ d+ e+ e+ f+ f+ g+ g+ h+ i+ j+ k+ l+ m+ n+ o+ o+ p+ q+ r+ s+ t+ u+ v+ w+ x+ y+ z+ A+ B+ C+ D+ E+ F+ G+ H+ I+ J+ K+ L+ M+ N+ O+ P+ Q+ R+ S+ T+ U+ V+ W+ X+ y+ Y+ Z+ ",
"`+ .   @ .@ +@ @@ #@ 1  $@ %@ &@ *@ =@ -@ ;@ >@ ,@ '@ -@ -@ )@ )@ !@ ~@ {@ ]@ ^@ /@ (@ _@ :@ <@ [@ }@ |@ 1@ 2@ 3@ 4@ 5@ 6@ 7@ 8@ 9@ 9@ 0@ a@ b@ c@ d@ e@ f@ g@ h@ i@ j@ k@ l@ m@ n@ o@ p@ q@ r@ s@ s@ t@ t@ u@ u@ u@ v@ C  C  C  w@ w@ x@ y@ y@ E  F  G  G  H  I  z@ A@ B@ L  M  E  N  N  O  P  C@ D@ s  E@ F@ G@ a@ H@ |  I@ J@ K@ L@ M@ N@ O@ P@ Q@ R@ S@ T@ U@ V@ W@ X@ Y@ Z@ `@  # .# +# @# ## $# %# &# *# =# -# ;# ># ,# M@ '# )# !# ~# {# ]# 9. ^# /# (# _# :# <# d. [# }# |# 1# 2# 3# n. 4# 5# 6# 6# 6# 7# 7# 7# t. 8# v. v. 9# 9# 0# a# b# c# d# e# f# g# h# i# j# k# l# m# n# o# p# q# r# s# t# S. T. u# v# w# W. X. Y. Z. `.  + .+ ++ @+ x# y# %+ z# *+ =+ -+ ;+ >+ ,+ A# B# C# D# E# F# G# H# I# J# K# L# M# N# O# P# Q# R# S# T# U# V# 9+ W# X# Y# Z# `#  $ .$ +$ @$ #$ $$ $$ %$ &$ k+ *$ =$ -$ ;$ >$ >$ ,$ '$ )$ !$ ~$ u+ v+ {$ {$ ]$ ^$ /$ ($ _$ :$ <$ [$ [$ [$ }$ |$ 1$ 2$ 3$ 4$ 5$ 6$ 7$ 8$ 9$ 0$ a$ b$ c$ d$ e$ f$ g$ ",
"   .   @ h$ i$ j$ k$ l$ i@ m$ n$ o$ p$ q$ p$ r$ s$ t$ =@ u$ v$ v$ w$ x$ y$ z$ A$ B$ C$ D$ E$ F$ G$ H$ I$ J$ K$ K$ J$ L$ M$ F@ N$ O$ P$ O$ Q$ R$ S$ d@ T$ U$ V$ W$ i@ X$ Y$ Z$ `$ F$  % .% +% @% s@ t@ #% t@ v@ v@ v@ v@ $% $% %% w@ w@ w@ N  N  F  &% G  G  H  I  z@ z@ L  M  *% E  N  N  =% -% ;% >% >% ,% '% )% q  !% ~% {% ]% ^% *@ /% (% _% :% <% [% O+ }% |% V@ 1% X@ &$ 2% 3% 4% 5% 6% 7% 8% 9% 0% a% b% c% d% e% f% f% g% @. h% i% j% k% ]# l% m% n% o% p% q% r% s% t% u% v% w% n. x% y% 5# 5# 5# 6# 7# 7# 7# s. 8# 8# v. z% 9# A% B% C% b# c# D% E% F% G% H% I% J% K% L% M% N% O% P% Q% R% S% T% U% T. V% v# W% W. X. Y. Z. `.  + .+ ++ @+ x# y# X% Y% Z% =+ -+ `% '+  & .& +& @& #& $& %& && *& =& -& ,. ;& >& ,& '& )& !& ~& {& ]& ^& /& (& _& _& :& <& [& }& |& >. >. >. 1& 1& 1& 2& 3& 4& 5& 6& 7& 7& 8& 9& 0& a& b& Z# x. c& d& {$ w+ e& f& g& g& h& i& j& i& k& l& m& ,. n& o& p& q& r& s& t& u& v& w& B. x& c$ y& z& A& ",
"B& #% C& D& E& F& a  G& H& I& J& K& L& M& L& ;  t$ t$ u$ N& O& O& P& Q& R& S& T& U& V& W& X& I$ D& Y& Z& `& .   * +  .* .@ +* @* #* $* %* &* ** =* -* ;* >* ,* '* )* !* ~* {* ]* ^* /* +* &* (* u@ v@ _* v@ _* _* %% %% :* :* :* %% <* <* <* N  [* G  G  }* }* }* }* }* |* E  E  E  N  y@ =% x@ 1* 2* ;% C@ 3* 4* '% 5* 6* 8@ 7* 8* 9* 0* a* _% b* 7& c* d* e* }% f* g* h* i* 2% j* k* l* m* n* o* p* q* r* s* t* u* v* w* w* x* y* z* A* V@ B* C* D* D* E* F* G* H* I* J* K* q. q. 6# y% L* M* N* O* O* O* O* O* s. s. 8# P* v. z% A% A% U+ Q* R* S* T* E% U* V* W* X* Y* Z* `*  = .= += @= #= $= %= T% U% T. &= v# *= W. X. Y. Z. `.  + .+ ++ == x# -= ;= >= ,= =+ '= )= '+  & .& != )+ ~= {= ]= ^= /= (= _= 2$ := <= h@ [= }= |= 1= 2= 3= 4= 5= 6= 7= 8= 9= 0= a= b= c= d= d= e= f= f= g= 4+ h= i= j= j= k= l= m= n= 8& o= p= q= b+ r= P* P* s= t= u= v= w= x= y= z= A= B= C= D= E= F= G= H= I= J= K= L= M= N= O= P= Q= x& c$ V+ R= ",
"B& #% C& Y& S= T= U= V= W= X= Y= Z= :  :  :  `=  -  . N& .- +- +- @- #- $- %- &- *- =- -- ;- C& >- C@ t@ v@ ,- '- )- 1* w  !- ~- {- {- ]- u  +* ^- /- (- _- $@ :- <- [- }- Z$ ]* |- 1- o@ +* 2- u@ _* _* _* _* _* %% %% :* :* :* :* 3- <* <* F  4- 4- }* |* |* }* G  &% &% F  F  E  y@ y@ 5- N  6- 1* 7- 8- 9- 0- a- b- c- 6* 8@ d- e- f- L@ g- h- i- j- k- l- b= }% m- n- o- p= p- q- r- s- t- u- v- w- x- y- z- A- B- C- D- E- .- F- G- H- B* I- J- J- K- L- F* M- P* N- O- t. X+ P- Q- R- /# N* N* N* O* O* t. s. s. P* P* z% z% A% S- U+ T- 0$ U- V- W- U* X- Y- Z- `-  ; .; +; @; #; $; %; &; %= T% U% T. &= v# *= W. X. Y. Z. `.  + .+ ++ *; x# -= =; -; ;; >; ,; )= ';  & ); != !; ~; {; ]; ^; /; (; _; Q+ :; <; [; }; |; 1; 2; 3; 4; Z  5; 6; 7; 8; 9; 0; a; b; c; d; e; f; 3& g; g; 4. i= h; i; j; N@ k; l; 2. m; n; o; p; q; r; c& s; t; S- A% u; v; w; x; l& y; z; M+ A; B; C; D; E; F; G; H; L= (& I; J; K; L; M; N; c$ O; ",
"#% t@ P; 2- E& Q; R; d- S; T; U; V; W; X; Y; `=  - Z; M@ M@ `; `; +- @-  > .> +> @> #> $> %> &> *> => v@ :* -> ;> >> x@ u@ => ,> ,> '> '> ;% D@ )> !> ~> {> ]> G& [- ^> {* ]* ^* />  % .% .% u  A  (> (> _* %% %% %% %% %% %% <* <* <* <* <* F  F  }* }* }* F  F  F  <* <* <* <* <* <* <* <* <* $% $% %% %% _* _* #% t@ _> :> <> [> }> l  |> 1> 2> 3> j; 4> 5> 6> 7> b= 8> 9> 0> p- a> b> c> c> d> e> f> w- g> h> i> j> k> D- l> m> n> o> p> q> r> s> s> t> u> v> v> w> x> s; z% W+ W+ y> z> ]$ ]$ ]$ ]$ d& 8# 8# 8# P* A> A> z% W+ B> C> U+ D> E> F> C% G> H> I> J> K> L> M> N> O> P> Q> R> S> T> S% N% U> V> Y. w# W> V. w# X> X> Y> Z> `> ++  , #+ ., +, ;; ;; @, #, $, %, &, *, =, -, ;, {; >, ,, ', ), !, }% ~, {, ], ^, /, (, _, :, <, [, l  }, |, 1, 2, 3, 4, 5, s$ 6, 7, 8, 9, 0, a, b, c, d, e, f, g, h, h, i, 3> j, k, l, m, n, o, p, q, c$ r, A% B% s, t, u, v, w, h% x, y, z, A, B, C, D, E, F, (& G, H, I, J, K, L, N; C. ",
"#% t@ P; 2- /* M, 8@ N, O, P, Q, ,& W; X; R, S, T, U, k; V, @. @. W, X, 3= Y, Z, `,  ' $> .' t@ +' => %% @' ;> ;> #' x@ %% $% $' $' %' %' 8- &' n@ !% :@ 9@ k@ k@ U= *' =' -' ;' >' ,' p@ p@ t  A  (> (> _* %% %% %% %% %% %% <* F  <* F  <* F  }* }* }* }* F  F  <* <* <* <* <* <* <* <* <* <* $% %% ;> ;> -> -> '' )' !' b- ~' {' ]' ^' V$ /' K@ (' (' _' :' <' [' }' |' P+ U# p- 1' :& 2' (& 3' 4' 5' 6' 7' 8' 9' 5, 9* 0' a' .. z* A* b' c' d' e' f' g' g' h' h' i' j' k' l' m' m' y> y> c& ]$ ]$ ]$ ]$ d& 8# P* P* A> A> z% W+ C> C> U+ D> n' S+ D> o' p' q' r' s' t' u' v' w' P> &= x' y' z' %= A' B' V> Y. X. Q> X. W% Z. X> `. C' D' E' F' == G' H' I' J' '= K' L' M' '; M' N' O' P' Q' R' S' T' U' V' W' X' j> ], Y' Z' ^, `'  ) .) +) @) #) h  $) %) &) *) =) h@ 0' `  -) 7, ;) d; >) !   . >& ,) ') )) !) ~) {) ]) ^) /) () _) :) <) w& [) }) T- T- |) 1) 2) 3) 4) 5) g% 6) w* 7) 8) n; 9) 0) a) b) c) d) e) f) g) h) i) j) ",
"u@ +' P; k) l) m) F& 0@ n) o) p) q) r) s) t) u) ,# v) k; V, w) x) O@ y) u$ z) $@ A) @@ #  C& s@ B) I  <* C) D) D) #' x@ %% $% A  A  A  E) F) ;% &* Q$ G) H) I) I) J) K) L) /> M) .@ D@ N) N) O) A  (> w@ %% %% %% $% $% F  F  F  }* F  P) F  P) }* I  }* }* F  <* D) D) D) D) D) D) <* <* <* <* <* <* D) D) ;> ;> -> _* Q) R) S) T) U) V) W) f@ I@ X) Y) <; S,  . Z) `)  ! .! 0& a& 1' :& +! +! V# @! :& #! $! %! _% &! o$ *! =! `; -! d= Y@ $$ ;! >! ,! !$ '! )! )! !! ~! {! ]! k' m' m' m' t; v+ v+ v+ c& v. v. P* P* A> A> W+ W+ C> C> ^! s, /! m& (! _! :! <! [! }! |! 1! 2! O> 3! 4! 5! y' 6! 7! 8! T. 9! X> X. X. w# Q> Z. Z. 0! a! b! c! d! e! f! g! I' I' ,; h! i! '; j! k! l! m! n! o! p! q! r! s! t! u! v! w! x! y! Y' z! A! B! C! +) D! E! E! F! G! H! I! J! K! L! M! /' N!  . O! P! f- q) 7) Q! R! S! T! U! V! W! X! Y! Z! `!  ~ .~ +~ @~ #~ $~ $~ %~ &~ *~ =~ e, =! -~ ;~ >~ >~ o$ ,~ '~ )~ !~ ~~ {~ ]~ ^~ /~ (~ _~ :~ <~ ",
"u@ +' P; k) +% [~ }~ Q; |~ 1~ 2~ T; r) 3~ u) 4~ h, 5~ l; V, x) 6~ k= i; ;@ 7~ 8~ 9~ 6* 0~ a~ P; B) I  F  C) D) D) #' x@ %% $% A  A  E) E) b~ 7- c~ $* d~ M, P$ e~ f~  ' g~ Y& a~ .* C@ h~ O) i~ C  (> w@ %% %% $% $% $% F  }* }* }* P) I  P) I  I  I  }* }* <* <* D) D) D) D) D) D) <* <* <* <* <* <* D) D) ;> ;> -> -> ,- 0- b- j~ k~ l~ m~ V) n~ o~ p~ q~ r~ s~ t~ u~ v~ w~ x~ o; a> 3' +! y~ z~ r+ A~ b> B~ w- C~ Y! D~ E~ [+ F~ $. d= b' G~ H~ I~ J~ K~ L~ '! Y# )! !! ~! {! M~ N~ m' t; t; O~ u= O~ O~ y> z% z% A> A> P~ W+ Q~ C> R~ ^! s, S~ S~ T~ U~ V~ W~ X~ Y~ Z~ `~  { .{ V> +{ @{ #{ ${ %{ T% &{ *{ X> W. V. X. Q> Z. Z. 0! a! c! ={ -{ ;{ >{ ,{ '{ '{ ,; h! ){ ,+ !{ ~{ {{ ]{ ^{ /{ ({ _{ :{ <{ t! [{ }{ |{ 1{ 2{ 3{ k  q~ T! 4{ 5{ m~ 6{ 7{ 7{ 8{ 9{ 9{ 0{ a{ b{ c{ d{ k  e{ f{ w* g{ i  h{ i{ j{ k{ l{ m{ n{ o{ p{ q{ r{ s{ t{ u{ v{ w{ x{ y{ z{ A{ B{ C{ y) s$ D{ E{ F{ G{ H{ I{ C~ J{ J{ K{ L{ M{ N{ O{ P{ Q{ N= R{ S{ ",
"y  +' %' T{ k) 2- U{ V{ W{ c@ X{ V$ 0' Y{ M# Z{ `{ h, i,  ] .] l= j= +] @] *@ #] $] %] S  .@ *> &] *] }* 3- D) D) #' x@ _* v@ A  A  =] =] -] ;] '> >] ,] @* '] T  )] S  Y& P; s@ A  B  |* I  I  C  C  C  $% $% !] }* }* }* I  I  I  I  *] I  I  I  I  }* }* <* <* D) D) D) D) D) D) <* <* F  F  <* <* D) D) D) D) ;> ;> _* u@ .* ,' ~] 5* 8{ ^- {] ]] ^] @) X{ p) 4; A, .. v~ k- o= #! :& /] (] _] :] <] M= [] }] |] 1] 2] 3] 4] 5] 6] 7] W@ 8] V@ f* g* [& 9] A~ V# 0] 7+ 9+ a] M~ N~ N~ x> t; 9# u+ 9# 9# m' s; s; s; W+ W+ W+ Q~ C> R~ ^! b] c] d] e] f] g] h] i] j] k] l] m] n] o] p] q] #{ r] %{ s] t] o] Y. V. v# W. W% Z. Z. 0! a! c! t# u] v] w] x] y] z] A] B] )= C] A# D] E] F] G] H] I] J] K] <{ _$ 7$ L] M] N] O] P] Q] R] S] V! T] U] V] W] 7{ 8{ )] X] Y] Z] `]  ^ .^ +^ @^ #^ $^ %^ &^ *^ =^ =^ -^ ;^ >^ ,^ '^ )^ !^ ~^ y! {^ ]^ ^^ /^ Y! (^ _^ j, v~ :^ M& <^ [^ }^ p~ |^ 1^ 2^ 3^ 4^ 5^ 6^ 7^ 8^ 9^ 0^ a^ b^ c^ d^ e^ ",
"y  +' %' %' .* f^ Y& /* g^ h^ i^ P, 0' j^ g, k^ l^ l^ ,# v) m^ 4> h; +] 9' o$ n^ o^ j$ )% 4* T{ p^ q^ I  &% <* D) #' x@ v@ u@ %' %' r^ =] ,- ,- ;% Q  s^ t^ E@ u^ v^ s  f^ +' v@ $% <* F  P) P) E  C  C  $% !] !] }* I  I  I  I  *] *] *] *] *] I  I  }* F  <* <* D) D) D) D) D) D) <* <* F  F  <* <* D) D) D) D) ;> ;> w^ x^ y^ P; h$ z^ ~] 5* A^ B^ =* C^ ~> D^ E^ F^ x* y* 6~ G^ r- 4' /] H^ I^ J^ U- <] K^ L^ v- 5^ M^ N^  ! k- b= O^ 1% P^ |% Q^ Q^ Z@ 2% R^ @! S^ H^ c# T^ U^ V^ N~ x> t; 9# u+ u+ 9# m' m' s; s; W+ W+ Q~ R= R~ R~ W^ X^ d] Y^ Z^ `^  / ./ +/ @/ #/ $/ %/ &/ V% */ =/ -/ ;/ 7! s] t] >/ ,/ V. V. W. W% '/ '/ )/ a! b! T> !/ ~/ {/ ]/ ^/ // h! (/ )= C] _/ :/ C# </ [/ }/ |/ 1/ 2/ 3/ 4/ 5/ 6/ 7/ 8/ 9/ 0/ a/ b/ c/ d/ e/ i^ f/ g/ h/ <> i/ u^ j/ k/ l/ m/ n/ *^ o/ %^ p/ q/ r/ s/ t/ u/ v/ w/ x/ x/ y/ z/ A/ B/ C/ D/ D! E/ F/ w* G/ H/ P! I/ 3~ J/ K/ L/ M/ N/ n{ O/ P/ Q/ R/ S/ T/ T/ U/ V/ W/ X/ Y/ Z/ s- `/ ",
" ( +' %' 7- 0- .* a~ >' .( F! +( @( 0' 0* N@ #( f- $( %( Z; N@ &( h; i; 9' Z= *( N, j$ )% 3* T{ p^ =( *] G  %% ;> #' x@ v@ u@ -( -( r^ =] ;( ,- >( h~ ,( '( >] t^ ,' 4* s@ v@ _* %% D) <* )( )( E  C  B  !] }* }* I  I  I  *] *] *] *] !( !( *] I  I  }* F  <* D) D) D) D) D) D) D) <* <* F  F  F  F  <* <* D) D) ;> ;> _* _* ~( t@ P; 3* _> {( ]( s/ ^( G@ p  /( (( [^ _( y, :( <( B~ 4' /] H^ [( J^ J^ Y# }( |( 1( 2( 9& 8& 7& 3( P+ 4( J~ 5( T@ 6( 7( !# 8( '$ 9( 3' v& O= w& B. q, N~ x> v. u+ u+ u+ 9# m' m' s; s; d$ 0( R= R= R~ a( W^ X^ b( c( d( e( f( g( h( i( j( k( l( m( n( o( p( q( r( %= T% t] s( t( V. X. X. *= V% u#  + u( b! s] !/ v( w( x( y( z( B] (/ ){ A( B( C( D( E( F( G( H( I( J( K( L( 5/ M( N( O( 8/ P( Q( R( S( T( U( E^ V( W( X( E! Z] X] Y( Z( `(  _ ._ +_ @_ #_ '] ~- p^ '( $_ %_ &_ *_ =_ -_ -_  _ r/ E@ ;_ >_ j~ ^- ,_ '_ )_ ]^ k> 4; !_ ~_ l$ {_ ]_ o~ ^_ /_ (_ __ .] V, :_ <_ Y! [_ }_ |_ 1_ C, 7= 2_ ",
"y  !] A  8- 8- A  s@ f^ '% )] 3_ 4_ X  3, 5_ 6_ 7_ 7_ 8_ j^ 9_ g- 0_ @] a_ J@ b_ c_ j$ )% 4* '> p^ =( I  G  <* D) #' x@ $% !] %' %' A  A  8- 8- C  |* $' ,> &] d_ d_ +' E) w@ ;> D) 5- e_ f_ g_ |* |* z@ I  I  *] *] *] q^ q^ !( !( !( !( !( *] I  }* F  F  <* D) D) D) D) D) D) D) <* <* F  F  F  <* <* <* D) D) ;> ;> w@ _* v@ v@ A  %' 0- h_ i_ j_ X] k_ Q; l_ {_ .) m_ n_ o_ p_ q_ b> _& r_ '! '! Z# s_ t_ u_ p+ q- v_ l+ w_ () x_ y_ |& g* g; z_ A_ B_ C_ D_ E_ 4' u& F_ R* G_ H_ A% t; t; A% B% B% A% A% V+ V+ d$ V+ O; R= I_ I_ J_ a( K_ L_ M_ N_ (= O_ P_ Q_ R_ S_ T_ P> U_ V_ W_ X_ Y_ r( S% t# Z_ `_  : W. W% w# W> .: +: Z> @: b! #: !/ ~/ $: %: y( &: &: ){ *:  & =: -: ;: >: ,: ': H( ): !: ~: {: 7$ ]: ^: /: (: _: :: <: :. [: }: 3~ |: 1: 2: 3: J! 4: 5: 6: 7: 8: 9: 0: a: b: 6: %* `( c: d: e: e: f: g: h: i: j: p^ d_ 3* &' k: l: m: n: a{ o: ]_ p: ^, (- c_ g  q: r: |^ s: t: D~ g- M@ u: v: r{ w: x: ]) y: 1_ k, z: ",
"%% <* %% %% %% %% $% !] O) A: B: 5: C: D: E: F: G: H: I: J: 5_ 0* *! s) K: '* L: :@ f~ M: .% u  N: H  P) F  O: e_ 5- =% 3- 3- &% &% P: P: H  G  N  N  N  E  E  C  C  w@ x@ =% =% =% =% =% =% Q: R: S: T: !( =( U: =( V: =( =( =( !( !( *] *] I  F  <* <* <* D) D) D) D) D) D) <* <* <* <* <* <* <* D) D) D) D) D) <* <* <* %% $% $% !] !] !] &] W: X: #* Y: Z: `: J! E/  < .< +< @< 0= 1( 1' 3' #< #< A~ $< %< U- %< %< $< A~ &< _) *< *< =< -< ;< >< ,< ^& '< )< `@ !< y_ ~< {< ]< ^< /< /< B% A% c$ c$ b$ b$ (< p, _< :< _< O; O; << [< }< |< 1< 2< 3< 4< 5< 6< 7< 8< 9< 0< 6! a< b< c< d< e< f< g< z' h< i< j< k< k< l< n( m< n< v] #: o< p< q< r< s< t< C] *: *: u< v< w< x< y< z< A< B< C< D< E< F< G< H< I< J< K< L< M< N< O< P< Q< R< S< T< V, U< V< {, R! p~ W< $) X< ]] ]] ]] Y< Z< `<  [ .[ +[ @[ #[ $[ %[ ,> $' B  B  >( &[ C@ C@ *[ p^ '( =[ -[ m/ ;[ >[ ,[ '[ )[ ![ '_ ~[ M/ {[ ][ ^[ /[ ([ _[ 7) :[ <[ [[ }[ |[ 1[ 2[ 3[ ",
"D) D) D) D) D) D) <* F  z@ 4[ 5[ 6[ 7[ 8[ 9[ 0[ a[ b[ c[ I@ n^ n^ #] K/ d[ e[ f[ j$ g[  % c~ d_ N: H  G  F  <* <* O: O: D) <* <* F  P) h[ *] I  N  5- 5- 5- N  N  N  N  y@ y@ y@ y@ y@ =% =% y@ i[ S: S: *] !( !( U: =( !( !( *] *] I  I  }* F  <* D) D) D) D) D) D) D) D) D) <* <* <* <* <* <* D) D) D) D) D) D) <* <* <* <* F  F  }* }* }* *] A: Y( %* #* j[ k[ H! l[ m[ X) j^ 3> n[ o[ p[ q[ 1( #! d> 4' r[ %< s[ s[ '! :] t[ &< u[ v[ `@ w[ x[ <' y[ z[ A[ 4& [% B[ 7$ y_ C[ D[ E[ F[ G[ H[ I[ q, q, b$ H_ J[ K[ p, :< p, p, _< << [< L[ M[ N[ O[ P[ Q[ R[ S[ T[ U[ V[ W[ X[ Y[ Z[ `[  } .} +} @} #} $} %} &} *} =} -} ;} m< >} ,} '} o< p< )} !} ~} {} C] *: j! ]} ^} /} (} _} :} A< <} [} }} |} 1} 2} 3} /) 4} 5} 6} 7} 8} 9} 0} a} b} c} d} e} ^) f} /^ g} v* h} i} j} ~^ k} !^ l} m} n} o} p} q} r} @[ s} t} u} $' B  C  >( &[ h~ v} v} *] w} x} y} c: z} A} B} C} D} H@ '_ E} F} G} H} I} J} K} L} M} N} O} P} Q} F~ R} S} T} ",
"<* <* D) D) D) D) D) <* |* N: U} V} =_ W} X} Y} Z} `}  | .| +| @| }- #| $| %| &| *| M) a~ P; y  =| N: -| H  G  F  F  F  <* F  }* I  I  *] *] I  <* ;> %% %% $% $% !] !] B  B  C  C  C  w@ w@ N  O: )( )( F  F  F  F  F  F  F  F  F  %% %% %% %% D) D) D) D) D) D) D) D) D) D) D) D) D) D) D) D) D) D) D) D) D) D) <* <* <* <* F  F  F  F  }* I  p^ A: A: ;| >| X: ,|  ^ ![ '| )| !| ~| {| ]| 6^ 8= 6' u- /& ^| /| (| (| _| :| <| .~ 6$ [| x~ }| i; e, || O@ k= 3. 1| |' B[ [{ n- 2| 3| 4| 5| F[ 6| C% C% Q* Q* Q* o, U+ K[ K[ K[ :< a( J_ 7| [< 8| 9| 0| a| b| c| d| e| f| r# g| h| i| j| k| l| r] d! m| n| %} o| *} =} n( ;} p| q| ,} #: @} p< )} !} r| s| A( t| j! v< u| v| w| _} x| y| z| A| B| C| D| E| F| G| H| I| J| K| Z< L| Q] }. M| N| 9= O| n[ P| Q| R| 6_ S| T| U! U| V| W| X| Y| Z| `|  1 .1 K| +[ +1 @1 #1 p^ &] i~ i~ h~ $1 v} %1 &1 *1 x} h: d: =1 -1 ;1 >1 ,1 c@ '1 )1 )1 !1 ~1 !| {1 ]1 ^1 /1 (1 _1 :1 <1 [1 }1 |1 |1 ",
"<* <* D) D) D) D) D) <* F  G  4[ V: f: *_ -_ =1 Y( 11 21 31 -' 41 51 61 71 81 91 J$ 01 -( #% z  =| a1 =| =| G  G  &% &% F  F  }* I  I  *] *] I  b1 :* :* b1 c1 -| -| -| $' $' B  B  C  C  w@ w@ 5- e_ e_ D) D) D) D) D) D) D) ;> ;> ;> ;> -> ;> D) D) D) D) D) D) D) D) D) D) D) D) D) D) D) D) D) D) D) D) D) D) <* <* <* <* F  F  F  F  }* }* B) B) =| a1 !- ~- d1 q/ =* ^] e1 f1 g1 h1 i1 j1 k1 l1 w- m1 m1 d} f> n1 o1 p1 q1 r1 s1 t1 j= u1 y) O! v1 @. w1 w) x1 y1 T} B[ z1 A1 5+ B1 C1 4| D1 n, n, 6| 6| a$ o, o, U+ K[ E1 E1 W^ W^ W^ J_ F1 G1 H1 I1 J1 K1 L1 M1 N1 O1 P1 Q1 R1 S1 T1 U1 R% V1 W1 $: $: 4! l< k< ;} ;} X1 Y1 ,} #: o< 6! Z1 `1  2 .2 i! t| +2 !{ @2 #2 $2 y< %2 &2 z| p! *2 =2 -2 ;2 >2 P| ,2 '2 )2 !2 ~2 {2 ]2 ^2 /2 6= X/ (2 _2 @< :2 h> <2 [2 }2 |2 12 22 32 42 52 62 72 82 92 02 a2 b2 c2 d2 -[ e2 '( j: O) v} %1 %1 &1 *1 f2 g2 h2 =1 6: i2 j2 k2 l2 m2 n2 o2 p2 >* q2 r2 8) s2 E{ /1 t2 u2 v2 [1 Z! w2 x2 ",
"F  F  <* <* D) D) D) D) 3- F  }* &1 y2 y} h: $_ >% 01 z2 A2 X& B2 C2 C2 D2 E2 F2 K$ !' ;] )' x^ B) &] B) =| c1 c1 b1 b1 b1 b1 c1 c1 c1 -| -| -| x^ x^ x^ z  z  y  y   ( T{ T{ %' %' A  A  E) w@ 5- e_ e_ D) D) D) D) D) ;> ;> -> -> -> -> '' -> D) D) D) D) D) D) D) D) D) D) D) D) D) D) D) D) D) D) D) D) D) D) <* <* <* <* F  F  F  F  F  F  F  F  &% &% c1 =| u  ,] G2 H2 ]] j{ I2 J2 v* i> K2 L2 M2 W/ 5= X/ N2 O2 n; P2 O| Q2 R2 _% :' @] U< L@ .- :^ v1 w1 x) 3. S2 5$ T2 U2 V2 A1 5+ B1 W2 6+ X2 D1 n, 6| /< Y2 U+ U+ Z2 `2  3 .3 .3 W^ +3 @3 #3 $3 %3 &3 *3 =3 -3 x' ;3 U1 a< >3 ,3 &; '3 ;{ )3 %} i< 4! l< l< !3 ;} X1 q| v] ~3 o< {3 ]3 `1 ^3 /3 i! t| +2 !{ (3 _3 :3 <3 [3 &2 }3 |3 13 23 33 43 53 63 73 83 93 03 a3 A/ b3 c3 d3 e3 r* U/ f3 g3 h3 i3 j3 k3 l3 m3 n3 o3 p3 q3 r3 s3 s3 t3 82 u3 v3 w3 .[ b2 x3 y3  _ =[ $_ z3 v} v} w} *1 A3 B3 C3  _ D3 E3 Z$ F3 G3 l2 H3 I3 J3 K3 0} L3 o$ 9* M3 N3 )| O3 h, 1. P3 _^ j, ",
"F  F  F  <* D) D) D) D) 3- <* E  |* I  *] w} h~ Q3 9- r^ s@ z2 A2 R3 I$ S3 T3 @  U3 V3 8- (> $% $' z@ $' !] !] $% $% $% :* b1 b1 b1 b1 b1 c1 c1 v@ v@ v@ u@ u@ +' +' *> %' %' %' A  E) E) E) w@ N  O: O: <* <* F  F  F  F  $% $% %% _* _* _* %% D) D) D) D) D) D) D) D) D) D) D) D) D) D) D) D) D) D) D) D) D) D) <* <* <* <* F  F  F  F  F  <* 5- D) D) C) :* $% +' t  l: W3 0{ X3 4_ Y3 Z3 T| `3  4 .4 +4 i3 @4 @4 #4 V/ @< $4 h> %4 v) 5~ &4 H/ *4 u$ -@ O! =4 O@ -4 ;4 Q@ [% >4 w, ,4 V2 A1 u[ '4 W2 X2 D1 )4 !4 u+ B% B% U+ o, ~4 .3 {4 ]4 +3 ^4 /4 (4 _4 :4 <4 [4 }4 |4 14 24 34 u( 44 54 %= 64 74 84 +{ &} *} -} !3 ;} X1 q| 94 -{ d! V1 04 a4 ^3 /3 i! ){ t| !{ b4 c4 d4 e4 f4 &2 g4 h4 i4 j4 k4 l4 m4 [. n4 o4 p4 q4 r4 ;1 s4 t4 u4 <. v4 w4 x4 y4 f3 z4 A4 {| B4 .4 C4 D4 E4 F4 G4 H4 I4 J4 K4 L4 M4 N4 O4 P4 Q4 R4 S4 T4 h2 $_ ,( O) ,> y2 U4 B3 C3 c: V4 W4 X4 Y4 U) =* {] Z4 `4 @)  5 ]1 5_ .5 )| +5 @5 u* #5 $5 %5 j1 P| ",
"!] !] $% %% ;> ;> ;> ;> 3- ;> w@ w@ :* b1 $% >( %' T{ *> d_ k) c~ ,' R  ]- p@ N) Q  $1 &[ >( &5 *% f_ y@ y@ N  N  N  <* 5- N  w@ w@ w@ w@ w@ w@ w@ w@ w@ C  C  B  B  $' !] !] $% $% %% %% %% <* )( i[ R: h[ I  *] *] *] *] *] *] I  => => !] F  <* D) D) D) D) D) D) D) D) D) D) D) D) D) D) D) <* <* <* <* <* <* <* <* <* <* <* <* <* <* <* <* e_ e_ D) D) D) <* B  i~ ]- *5 =5 -5 ;5 >5 h  ,5 '5 )5 !5 ~5 6; +4 .4 {5 {5 ]5 ^5 /5 (5 _5 :5 <5 &4 H/  . /% [5 =4 O@ j= j- }5 [% P+ >4 U2 9> =< =< u[ W2 6+ J^ a# 0# |5 9# 9# 9# B% 15 .3 25 35 45 55 65 75 85 95 05 a5 b5 c5 }4 d5 U> ={ e5 f5 %{ g5 h5 i5 84 j5 *} !3 ;} ;} X1 n< '} z' V1 k5 l5 m5 ^3 /3 n5 i! t| !{ b4 o5 p5 q5 r5 s5 t5 h4 u5 v5 w5 x5 y5 z5 A5 o4 B5 C5 D5 +1 E5 F5 G5 H5 I5 [. J5 +4 K5 L5 M5 M5 L2 N5 O5  4 P5 Q5 R5 G4 S5 T5 U5 U5 V5 W5 X5 Y5 Z5 `5  6 A/ .6 +6 >] j: ,( j: '( $_ %_ c: @6 #6 $6 m/ %6 b: B^ &6 C/ *6 1{ |2 I{ =6 -6 p{ ;6 >6 ,6 '6 )6 ^5 !6 ",
"=> => !] $% %% ;> ;> ;> 3- ;> #' ;> 3- 3- :* C  H  N: 4[ 4[ p^ '( U4 $_ i: i: x} *1 J  J  ~6 M  {6 ]6 ]6 f_ =% N  N  N  ^6 ^6 -% -% -% -% -% -% w@ C  C  B  B  B  $' $' => => $% $% %% %% %% $% /6 T: T: U: =( =( V: V: =( =( !( *] I  I  P) F  <* D) D) D) D) D) D) D) D) D) D) D) D) D) D) D) <* <* <* <* <* <* <* <* <* <* <* <* <* <* <* <* e_ e_ D) D) <* F  B  i~ N) i_ (6 _6 :6 <6 [6 h{ }6 ;# |6 |6 D4 d3 *# =# *# [. 16 26 (5 _5 36 46 v2 g, 56 @] y) =4 '# -4 k- c* 66 P+ U2 9> 9> =< =< u[ W2 6+ J^ a# x. w. 9# m' t; 9# 76 W^ 86 96 06 a6 b6 c6 d6 e6 f6 g6 h6 i6 j6 k6 u( k( l6 m6 k( n6 o6 +{ 84 j5 l< p6 ;} n( p| ~/ #: z' V1 ;{ `1 q6 r6 /3 n5 n5 *: j! s6 t6 p5 u6 v6 w6 t5 x6 y6 z6 A6 B6 C6 D6 E6 F6 G6 H6 I6 J6 E5 K6 L6 M6 N6 <: O6 7/  4 P6 a% M5 N5 Q6 R6 S6 T6 U6 V6 R5 S5 W6 X6 Y6 Z6 K< `6  7 .7 +7 @7 #7 $7 %7 ,] {- U4 '( &7 %[ $_ e2 *7 =7 %7 -7 ;7 >7 >7 Z] b: ,7 '7 )7 )7 !7 !7 V! 0/ P/ ~7 {7 ]7 7/ ^7 ",
"=> => !] $% %% %% ;> ;> ;> ;> ;> ;> ;> ;> ;> F  /7 (7 _7 _7 :7 :7 U} <7 [7 [7 T: S: S: /6 |* |* <* N  y@ }7 |7 }7 P  17 D  D  8- 8- E) E) E) A  27 2* 2* C@ T{ d_ d_ v  Q  Q  ;% ;% 7- 8- E) B  37 47 47 57 67 77 5[ 87 97 !( *] R: P) &% 07 a7 {6 <* 3- 3- N  y@ D) 3- D) D) D) D) D) D) D) D) <* <* <* <* <* <* <* <* <* <* <* <* <* <* <* <* C) C) 3- 3- &% G  -| a1 b7 c7 d7 -1 B^ <6 ,7 e7 G: f7 f7 g7 h7 i7 T( j7 j7 7/ c% -# L3 k7 l7 l7 #( k; N@ j; &( l= m7 n7 o7 x~ p7 q7 9> o- o- u[ r7 s7 p; t7 u7 y. x. :< S- t; t; V+ y& y& v7 w7 x7 y7 z7 A7 B7 C7 D7 E7 F7 G7 H7 X1 a! k( I7 J7 K7 L7 o6 +{ %} 4! !3 p6 M7 !3 X1 O% z' {3 N7 O7 `1 P7 Q7 R7 ;+ n5 *: S7 T7 U7 V7 ~; W7 X7 Y7 Z7 `7  8 .8 +8 @8 #8 $8 %8 &8 *8 =8 -8 ;8 >8 ,8 '8 )8 8/ !8 ~8 {8 ]8 ^8 /8 (8 _8 :8 <8 U6 [8 Q5 {8 H5 H5 }8 |8 18 28 38 48 58 68 78 88 98 n/ X: 08 $_ U4 '( a8 a8 e2 e2 c: c7 r/ r/ b8 b8 -7 .6 c8 d8 X| e8 f8 g8 h8 h8 i8 j8 k8 E4 l8 |6 ",
"=> => !] !] $% %% %% %% ;> ;> ;> ;> ;> ;> ;> <* I  *] S: S: m8 n8 n8 o8 p8 q8 m8 r8 J  h~ i~ i~ C@ O) '> t  u  s8 t8 u8 s  R  '% '% '% v8 w8 >_ v^ :> x8 x8 y8 z8 z8 z8 F@ n@ S  ~] '% {( A8 B8 %7 C8 C8 T4 u/ D8 E8 F8 G8 q8 S: i[ H8 H8 f_ f_ y@ F  &% &% E  y@ <* C) D) D) D) D) D) D) D) D) <* <* <* <* <* <* <* <* <* <* <* <* <* <* <* <* O: O: )( i[ |* &1 ,> '( 08 r/ -7 n/ &^ C} l2 I8 J8 K8 L8 M8 H4 G4 S( l8 N8 O6 O8 -# k7 (5 (5 k7 1. P8 V, .] l= Q8 w~ k- c* [| I< R8 7$ =< S8 T8 U8 V8 m, W8 !$ X8 Y8 Y2 U+ w. w> Z8 u. v. [< `8  9 .9 +9 @9 #9 $9 %9 E7 &9 *9 =9 -9 '} 7! ;9 J7 >9 L7 74 84 ,9 '9 ;} )9 )9 ;} p| a< p< ${ o< N7 a4 P7 Q7 R7 ;+ !9 ){ ~9 {9 ]9 ^9 /9 (9 X7 Y7 Z7 _9 :9 <9 .$ [9 }9 |9 19 29 39 49 59 59 69 79 89 99 09 a9 r3 b9 c9 i7 d9 D4 d3 N( P5 P5 P5 c% (. V6 e9 f9 g9 h9 i9 i9 j9 }8 k9 l9 m9 n9 o9 p9 j_ #1 q9 B3 $_ %[ %[ %[ =[ r9 t^ +6 s9 ._ r/ j_ a: t9 u9 v9 e8 w9 x9 y9 q3 i8 K8 z9 A9 A9 ",
"+' +' +' u@ u@ v@ v@ v@ _* _* _* _* _* _* _* %% )( )( i[ i[ B9 C9 D9 E9 q8 x} ,( N) s^ c~ F9 G9 H9 I9 J9 F! E! K9 L9 M9 N9 O9 P9 Q9 R9 S9 T9 U9 S9 V9 V9 W9 W9 W9 W9 W9 X9 Y9 Z9 `9  0 .0 .0 .0 U] +0 c@ l2 {] @0 -1 s/ #0 i: *] P: $0 %0 &0 *0 E  !] c1 !] B  D  C  %% %% %% ;> ;> ;> ;> ;> ;> <* F  F  F  F  F  <* <* <* <* D) D) D) D) D) <* E  &5 A@ J  h~ ,( s^ 08 @* '] =0 Y4 C^ ,1 c@ -0 ;0 g8 >0 ,0 '0 9/ )0 p3 ^2 !0 i> ~0 L3 {0 {) <2 1. ]0 ]0 ^0 m= Q8 /0 (0 _0 G^ p7 :0 <0 [0 v[ y_ V8 }0 9$ t[ |0 10 `# 20 30 40 w. m' A> 50 60 70 80 90 00 a0 b0 m! c0 d0 e0 f0 g0 h0 i0 j0 E' T_ k0 l0 74 i5 +{ o| ;} m0 m0 n( m< n0 r] ;/ j0 o0 p0 q0 r6 r0 s0 !9 ){ ~9 t0 u0 v0 w0 (9 X7 Y7 x0 y0 z0 A0 B0 C0 H| D0 E0 F0 G0 H0 I0 J0 K0 L0 M0 N0 .7 68 68 W5 W5 !8 d/ O0 P0 Q0 I5 R0 <8 S0 T0 V6 P0 U0 ^8 V0 W0 X0 Y0 Z0 O0 09 `0  a t9 <6 .a +a @a q9 #a U4 U4 '( '( $a $_ %[ #a t} d: h2 d7 %a ]] &a *a =a `| X5 -a ;a >a -a ,a s3 ",
"+' +' +' +' +' u@ u@ u@ u@ u@ v@ v@ v@ v@ v@ $% E  )( P) H  'a 4[ )a A: `( j/ !a ~a {a ]a ^a /a (a _a :a <a [a }a |a 1a 2a 3a 4a 5a 6a 7a 8a 8a 9a 9a 0a aa ba ba ca da ea ea fa fa ga ga ha ia ja ka la ma na oa pa qa ra ^( ~- a1 H  P) )( |* => B) =| => $' B  B  C  $% %% %% ;> ;> ;> ;> %% F  F  F  F  F  F  <* <* <* <* D) D) D) D) D) <* E  z@ &1 w} j: U4 08 sa ta =0 ua va D} wa g  d@ xa ya za W| Aa 52 -6 S] U( Ba !| ~0 i> (5 {) Ca Da 1. Q| Y! u{ :( Q8 1_ 7& 3( 3( o= 0& 4% Ea =< W2 Fa ~< p; Ga U8 Ha Ia Ja Ka La Ma [< Na Oa Pa Qa Ra Sa Ta Ua Va Wa .} Xa Ya Za `a  b )} '} @: 64 {/ o6 i5 i5 o| ;} !3 !3 n( Y1 .b ;/ ${ o0 j0 q6 +b r0 r0 ;+ @b )= #b != $b %b &b *b =b -b x0 ;b >b ,b 'b )b !b 73 ~b {b }6 c[ ]b ^b /b (b _b :b <b <b <b [b 68 }b r3 !8 ~8 M] m3 |b  4 O5  4 }9 H| 1b <. 4} 4} (8 2b 3b l8 4b Aa 5b d8 6b 7b 8b #1 #a B3 z3 U4 A3 A3 u} ,( ,( 9b q9 $_ %[ #0 (6 0b E5 ab bb +7 cb M4 G0 db  1 eb fb ",
"+' +' +' +' +' +' +' +' +' +' *> *> *> *> *> *> %' *> d_ ]- {- j/ ^( ra S$ gb hb ib jb kb lb mb nb ob pb qb rb sb tb ub vb wb xb yb zb Ab Ab Ab yb Bb Bb Cb Cb Db Db Eb Fb Gb Hb Ib Jb Kb Lb Lb Mb Nb Ob Pb Qb Rb Sb Tb na Ub Vb Wb ]( Xb t  v  &] &] ,> B) B) => => B  !] $% $% %% %% %% %% %% F  }* F  F  F  F  <* <* <* <* D) D) D) D) D) <* !] => B) &] !- ~- Yb @* }~ P$ Zb :@ `b  c .c +c $) %) %) W< N/ @c F/ x! #c $c %c &c *c =c -c 5~ U, i, +< /^ i1 ]0 ;c >c ,c p_ 'c 2[ .! [| I< )c '4 ~< '4 !c 7$ ~c {c ]c A1 ^c /c La C> P~ (c _c :c <c [c }c |c 1c f6 2c 3c 4c 5c 6c 7c 8c 9c 0c W1 {/ ac i5 i5 o| ;} !3 !3 ;} >} bc ${ -{ N7 @} q6 +b r0 r0 `% s0 cc _/ =, $b dc ec fc gc ': hc ic jc kc lc mc _: nc :b oc pc qc rc N/ sc tc uc vc wc 5} xc :b [b yc yc zc Ac !0 j7 J5 Q6 Bc L5 Cc H| 1b Dc Ec Fc Fc Cc )5 Gc O3 Hc n{ m} d8 Ic -7 =[ %[ %[ U4 A3 v} %1 Jc v} v} Kc Lc i: y} B3 i_ d7 Mc Nc Oc Pc  1  1 Qc Rc Sc Tc Uc ",
"+' +' +' +' *> *> *> d_ d_ d_ d_ u  u  u  u  k) D& '% v^ z8 Vc Wc !1 Xc Yc Zc `c  d .d +d @d #d $d %d &d *d =d -d ;d >d ,d 'd )d !d ~d ~d {d ]d ^d /d (d _d :d <d [d [d }d |d 1d 2d 3d 4d 5d 5d 6d 7d 8d 9d 0d ad bd cd dd ed fd (, N9 gd <> d1 {- j: ,( ,> a1 =| =| => => !] $% $% %% %% %% $% }* }* F  F  F  F  <* <* <* <* D) D) D) D) D) <* !] => -| hd @% id jd m) kd G) p  `b `b ~> ld ld md nd od pd $) qd ^' d{ rd sd td ud &c *c vd ,# wd xd ,# yd +< zd l; ;c &( >c m7 R} t1 }5 2[ 6$ v[ u[ 4( -< Ad Bd Cd Cd Dd Ed Fd Gd Hd M- (c Id Jd Kd Ld Md Nd Od Pd Qd Rd Sd Td _3 Ud Vd Wd Xd Yd {/ Zd i5 `d '9 !3 !3 m0 ;} n<  e p< 94 O7 V1 q6 +b R7 .e +e `% @e #e N' $e %e ec &e %& *e =e -e ;e >e ,e n_ 'e )e 99 b9 pc !e ~e j  {e X| yc ]e ^e /e 73 :b [b cb (e _e :e /. *# <e [e }e |e _8 ]8 1b 1e 1e Dc 2e 3e V6 4e I{ 32 5e 6e {e Nc 7e 8e A: A: j: ,( v} %1 9e $1 0e ae be x} y2 i: t  ce de ee fe ge Qc Qc Sc Sc he ie je ",
"u@ u@ +' +' *> *> d_ u  u  ]- ]- ]- ]- ]- ]- +* ke le me ne oe pe qe re se te ue ve we xe ye ze Ae !d Be Ce De Ee Fe Ge He Ie Je Ke Le Me Me Me Ne Ne Oe Pe Qe Re Se Te Ue Ve We Xe Ye Ze `e  f .f +f @f #f $f %f &f *f =f -f ;f >f ,f 'f oa +0 r/ U4 z3 ,( )f !f hd =| => => !] !] $% $% $% $% }* }* }* }* F  F  <* <* <* <* D) D) D) D) D) <* C  A  +' ~f {f ]f ^f 31 /f (f _f A) A) 9~ :f <f [f }f |f p  1f R; 2f 3f 4f 5f C- 6f t) 7f >& t$ 8f o$ 9f j^ ,# 0f P! g- :' af &( Q8 j= :% 7& 3( Ea o- >4 |' bf B; cf df ef ff 7] gf hf y> if jf kf lf mf nf of pf qf a4 rf sf tf uf vf wf xf yf w( l0 w( 84 i5 4! m0 !3 )9 !3 O% zf p< ,} 64 V1 p0 q0 R7 Af Bf Cf Df B( $e =, Ef &b Ff Gf Hf If Jf Kf Lf Mf Nf Of Pf Qf N] U( X) X  Rf ^b ya Sf Tf Uf Vf Wf M6 Xf Yf Zf `f 9/ <:  g .g +g @g #g (8 $g H| ]8 %g _. }9 &g *g ~8 4b `f =g 5e W| -g m/ `( A: A: p^ j: v} $1 ;g $1 >g ,g ,g f2 y2 x} *> N) ._ 'g )g !g ~g Rc J| {g ]g ^g /g ",
"=> => => *> *> d_ k) .% +* S  )] )> J9 F! F! (g _g :g <g [g }g |g 1g 2g 3g 4g 5g 6g 7g 8g 9g 0g ag =2 bg cg dg eg fg gg hg ig jg kg lg lg mg ng og pg qg rg sg tg tg ug vg wg wg xg yg zg Ag zg Bg Cg Dg Eg Fg Gg Hg Ig Jg Kg Lg Mg Ng Og Pg Qg Rg Sg Tg Ug Vg S= [~ W: {- ]- p^ B) => !] !] F  F  F  F  F  F  F  F  F  }* $% $% %% ;> -> -> _* Wg 7- +' w  Xg Yg Zg -' X4 |f `g A) ~> )[  h U= .h Z$ +h a@ @h )[ #h l$ $h {^ E{ 7) r) s) %h 7~ &h *h Z= K@ 9f (' &! 9' 0_ m^ ;c :( x) 6~ -4 !. <0 =h -h ;h [' >h ,h 'h )h !h [% n- ~h {h ]h ^h /h Ld (h _h :h pf <h [h {} }h |h o5 Vd 1h xf yf 2h W1 Yd 84 i5 4! m< p| m< X1 >3 3h ${ ,} 64 d! O7 4h .e 5h 6h 6h 7h 8h 9h 0h ah &b bh ch dh eh fh gh hh ih Q, jh kh `0 lh mh nh oh }> o~ F: ph qh rh sh th 73 uh vh L6 wh xh yh i7 zh Ah Bh Ch 4} Dh Eh f9 Fh Fh Gh Hh N6 c/ Ih h8 Jh x9 c3 Kh Lh Mh Nh c: a8 '( O) h~ ;g Oh Ph Qh ,g r8 =( ,>  ( '> 08 Rh Sh .[ Th Uh Uh Vh Wh Xh Yh ",
"Zh N: &1 &] d_ D@ `h H$  i *- T9 .i +i @i [g #i $i %i &i *i =i -i ;i >i ,i 'i )i !i ~i {i ]i ^i ^i /i (i _i :i @/ <i [i }i |i 1i 2i 3i 4i 5i 6i 7i 8i 8i 9i 9i 9i 9i 0i ai ai ai bi bi ci di ei fi gi hi ii ji ki li mi ni oi pi qi ri si ti ui vi wi xi yi zi Ai &- Bi Ci Di %7 c: )a 4[ I  )( Ei &0 H8 Fi Fi F  |* &1 ,> '> .* +  `+ Gi Gi `+ Hi 7- 0- h_ {( +@ Ii V& X4 Ji 8@ `b nd od Ki Li ![ Mi pd 4_ %) Ni |  Oi F{ F/ ]^ Pi ;~ q) Qi Ri Si Y; Ti Ui q2 Vi 2> l3 Wi Xi Yi l= '# k= Zi y5 `i 5'  j .j +j @j j= #j $j %j &j *j =j -j ;j >j ,j 'j )j !j ~j {j ]j ^j /j (j _j :j <j [j }j |j 1j 1j 2j 3j Y[ 4j 2h i5 5j P1 6j 7j 8j p0 9j N7 0j aj bj cj dj ej fj gj hj ij jj kj bh lj mj nj 'd oj pj qj rj V  sj 8} tj uj vj ;* wj =) U! c/ d3 28 xj yj D0 zj Aj Bj Yh J| Cj '8 H5 Dc Dj Ej Fj Gj Vf Hj yj yj e9 ,2 S5 Ij Ac !8 c/ j8 Jj Hc Kj b2 Lj Mj z} %_ ,( i~ -| B  6- Nj $1 O) A3 u} Oj t  {- sa s/ Pj Qj Rj Sj C5 Tj Uj Vj ",
"!f a1 !- t8 L$ Wj Xj Yj Zj `j  k .k +k @k #k $k %k 7d &k *k =k -k ;k >k ,k 'k )k 9i gi !k ~k {k ]k ^k /k (k _k :k <k [k }k }k |k |k |k |k |k 1k 2k 3k 4k 5k 6k 7k 8k 8k 8k 8k 9k 9k 0k 0k ak bk ck dk ek fk gk hk ik jk kk lk mk Ve nk ok pk qk rk sk tk uk vk wk xk 'f yk K! zk Ak sa j: => G  P: Bk Fi H8 H8 )( |* B) t  4* .@ Ck Dk Ek Fk Gi Hi 7- 0- >% {( Gk Hk Ik Jk Ji Kk Lk .| nd od Mk Nk Ok i  N/ Pk @c g{ F{ q~ F/ ]^ Qk r~ Rk Sk Tk Uk Vk :  s$ wd 2> Wk 7; Xk i3 Yk Zk >c 6~ #. }5 r- 5' *j `k  l +j 7& .l e3 +l $j |' @l #l $l %l &l *l =l -l ;l >l ,l 'l )l !l 0c bc ~l yf {l yf ]l 1j 2j ^l Y[ 4j (j /l (l `1 _l Pd 9j q6 :l 8j <l w] [l }l |l 1l 2l gj 3l r( jj 4l 5l 6l 7l 8l 9l 0l al bl  h cl zk dl I8 K! el i^ ;* F{ fl gl hl Z0 il /e jl E0 kl ll ml ]g nl Tc G5 Ij Cc ol pl ql ql rl sl sl /e /e ,2 ,2 !b G4 G4 ~8 ~8 r3 tl ul vl Sh w/ z} C3 A3 ,> h~ Oh 0e %1 A3 $a 9b wl b7 s^ ce 08 c: $[ xl yl zl Al Tj Bl ",
"Cl Dl El Fl Gl Hl Il Jl Kl Ll Ml Nl Ol Pl Ql Rl Sl Tl Ul Vl Wl Xl Yl Zl `l 0i ii  m .m +m @m #m $m %m %m &m *m =m [k }k -m ;m >m ,m 'm 'm 'm )m !m ~m {m ]m ^m /m (m _m /m /m :m <m [m }m |m 1m 2m 3m 4m 5m 6m 7m 8m 9m 0m am bm cm dm em fm gm hm im jm km lm mm nm om pm qm rm H3 sm S)  @ z  'a N: I  tm f_ y@ E  => '> t  4* @   @ .  `+ um (> D  7- &' vm c- wm  i xm ym Kk 9@ 9@ 0@ zm Am Bm l{ j{ Cm Cm 9} Dm Em k  F/ k  nh Rk Fm p) Gm Hm Im Jm L@ Z; %4 Km x4 |_ #4 g> G| _^ _^ n7 Lm K= n1 2[ Mm Nm Om 5& Pm %! Qm Rm Sm Tm Um Vm Wm Xm Ym Zm `m  n .n +n @n k5 #n #n !/ $n %n &n %n *n 1j 2h ^l Y[ =n (j -n ;n 04 >n ,n p0 P7 p0 :l 'n l0 )n !n ~n ej !n {n ]n ^n jj /n 5l 6l 7l (n 9l 2g _n :n <n va k2 [n }n W) el +( {_ ^' |n 4b G4 !b ,2 73 xc 1n 2n 3n 4n 5n 6n 7n (b nc 8n 9n 0n an an bn cn cn cn cn /e /e dn ,2 S5 Ij k9 :b en fn gn hn in jn t/ kn $_ z3 ln ln u} $a 9b mn nn on z3 B3 %_ `( -[ D8 pn qn rn sn tn ",
"un vn wn xn yn zn An Bn Cn Dn En Fn Gn Hn In ', Jn Kn Ln Mn Nn On Pn Qn Rn Sn Tn Un Vn Wn Wn Xn Yn Zn `n  o .o +o @o ,m #o #o $o %o &o *o 'm =o -o ;o ;o >o ,o 'o 'o 'o )o !o !o ~o {o ]o ^o /o (o _o :o :o <o <o [o }o |o 1o 2o 3o 4o 5o 6o 7o 8o 9o 0o ao bo co do eo fo go ho io S9 jo 1@ ko E@ d: p@ O) >( D  D  A  %' '> '> '> T{ %' E) E) w@ w@ 7- C@ >% v8 lo mo W] %  .h *' *' no oo po Bm qo k} 9} 5{ '7 2{ Em F/ ro q~ Z3 p) A! so p) V; to H/ 0f v) h> uo vo M2 wo xo yo zo v{ w2 Ao G; Bo !. Co Do Eo <% Fo Y/ Go Ho Io Jo Ko Xe Lo Mo nf No Oo Po Qo Ro So To Uo a< Xd $n yf yf }j Qd ]l 2h Y[ Y[ 2h (j s< `1 i0 Pd [h P7 P7 q6 q6 Vo l0 Wo +e Xo ej Yo Zo `o  p .p +p @p #p $p %p &p *p =p -p  c >1 Z} ;p >p h  ,p 'p )p -0 i} 32 a9 Ac nc :b Xf !p ~p 4n {p ]p ^p /p (p (b _p :p <p [p }p }p |p 1p 2p ql Gj Gj th Wf H5 S5 V5 :b 3p 4p 5p 6p 7p 8p c2 9p z} 0p t} t} B3 B3 q9 mn ap q9 $_ $_ =[ ;| bp cp dp ep fp gp hp ",
"ip jp kp lp mp np op pp qp rp sp >j tp up vp wp xp ji yp zp 1o Ap Bp Cp Dp Ep Fp Gp Hp Ip Jp Kp Lp Mp Mp Np Op Pp Qp Rp Sp Sp Tp Tp Sp Up Vp Wp Xp Xp Xp Xp Yp Yp Yp Yp Zp `p  q  q  q .q +q @q #q $q }o [o %q &q *q *q =q -q ;q >q ,q 'q )q !q ~q {q ]q ^q /q (q _q :q <q [q }q |q 1q 2q 3q 4q 5q Ci 6q ~] .@ -( ;] 7q A  %' '> ,> ,> ,> &1 z@ N  N  C  %' &' {( >_ ~' 8q 6{ j$ 9q |f j2 va 0q Bm qo aq {e bq cq 2{ Em ], 3{ g{ m[ *) E/ pa  ) dq eq *4 U,  ] uo }_ {| wo fq fq gq 7% hq iq jq kq lq mq nq oq pq |' qq A{ s& rq sq tq uq vq wq xq yq zq Aq Bq Cq Dq Eq Fq 34 Xd ~/ }j }j $n Wd Qd 1j 2h 2j 2j 2h Gq ;n ]3 Z1 ,n :l P7 q6 q6 q0 )/ Hq Iq Jq Kq Lq Df Mq 7j Nq .p Oq @p Pq $p Qq Rq Sq Tq Uq c@ 0{ Vq 9[ Wq #) Xq M9 H3 Yq j  Zq wh 62 (e (e 92 ~p `q  r .r +r Lj @r #r $r tc 6} kl %r 19 &r }p *r =r -r ;r >r 2p cn jl 5} ~b ,r 'r )r !r F: a[ gn vl b2 y/ Mj u/ z}  _ h2 t} ~r {r e: ]r f: ]r 77 bp ^r /r (r _r :r <r ",
"[r }r |r 1r 2r 3r 4r 5r 6r 7r 8r 9r 0r ar 2m br cr dr er fr gr hr !+ ir jr jr kr lr mr nr or pr qr rr sr rr Rp tr ur vr wr xr yr yr yr yr zr Ar Br Cr Dr Er Fr Fr Gr Gr Hr Ir Jr Ir Kr Lr Mr Nr Or Pr Qr Rr Sr Tr Ur Vr Wr Vr Xr Yr Zr `r  s .s +s @s #s $s %s &s *s =s -s ;s >s ,s 's )s !s ~s {s ]s S9 *- 7  ^s /s (s r^ %' i~ ,> w} [7 T: S: E  N  C  B  C@ k: _s :s <s [s }s |s (f 9q T= D} 1s 2s !^ 3s 4s 1^ T] 2{ ], d{ U$ |  5s 6s gb vj 7s `{ j^ 9_ 8s [_ 9s 0s r* as bs p* cs cs 7% ds es n* R/ fs nq F= gs hs is js ks ls ms ns os ps xq qs rs ss Bq ts us _l r] vs n< >} ws ws }j |j Qd 4j 2h 2h 2h 2h ;n m5 )} Z1 xs q6 P7 :l p0 ;n )/ W1 ys ;+ zs As 4l Bs Cs Ds .p Oq Es Pq Fs Gs Hs Is Js Ks Ls ;[ Ms Ns >5 l[ Ls Wc Wc [6 l{ Os Ps tl Qs Rs !g Ss  r Ts Us Vs jn w/ Ws Xs Ys Zs `s  t .t +t &r @t #t $t %t ;r &t cn *t =t -t ,a K4 uh >a ;t >t 4p ,t 't Q4 )t c2 Pj Nh  _ !t ~r ~t f: V} {t {t 67 ]t ^t /t (t _t :t :r ",
"<t [t }t |t 1t 2t 3t 4t 5t 6t 7t 8t dr dr 9t fr Ur Vr 0t at sr bt ct dt 9h et ft ft gt ht it jt kt lt mt nt lt ot vr pt qt pt rt rt st st tt ut vt vt vt wt wt xt xt xt yt zt zt yt At Bt Ct *o Dt Et Ft Gt Ht It Jt Kt Lt Mt Kt Nt Ot Pt Qt Rt St Tt Ut Vt Wt Xt Yt Zt `t  u .u +u @u #u $u %u &u *u =u -u ;u >u ,u Ck  @ -( %' i~ &1 T: S: R: )( N  $% B  ;% 'u )u !u ~u {u ]u @@ m@ |s |s ^u b3 2s !^ 3s /u (u Dm |^ j  @c o) _u n) ]' Ls 3: :u w! <u o3 [u 8s }u !6 y- {| |u 1u 1u q* 2u l1 3u 4u (^ 5u 6u ;h 7u 8u 9u 0u au bu cu du eu fu gu hu iu ju ku lu mu nu ~3 >3 q| q| {l &n %n }j *n =n 2j 2h 2h 2h ou l5 7j i0 8j P7 q6 8j :l ;n )/ W1 pu ;+ qu ru su tu _j 5! .p uu Es vu wu xu yu zu 3a Au o/ Bu Cu Ns X< V) m~ K9 Du Eu 1s m{ Fu Gu Hu Iu Ju )g Ku @[ Mj Mh Lu Nh +_ Mu Nu Ou Pu Qu Ru Su Tu Uu Vu Wu Xu $t #t Yu an Zu `u F0  v xc .v +v M8 >a @v #v $v %v @r &v Pj z} kn *v =v -v ;v >v 57 {t ,v 'v ^t )v !v ~v {v ",
"`e ]v 6r ^v /v rg (v bk _v :v Ft <v [v }v |v 1v 2v 3v 4v 5v 0h 6v 7v 8v 9v nt nt 0v bt av bv kt nt cv cv dv dv ev fv gv hv gv iv jv kv kv lv mv nv ov ov ov vt vt vt wt xt pv pv qv rv sv tv uv vv wv xv }k yv zv Mt Mt Av Bv Mt Cv Dv Ev Fv Gv Hv Iv Jv Kv Lv /o /o Mv Nv Ov Pv Qv Rv Sv Tv Uv Vv Wv Xv Yv Zv `v  w .w ko .@ 3* i~ &1 S: R: R: E  E  $% B  ;% 'u +w @w #w j~ 5* $  @@ $w m@ F& %w 1s &w !^ !^ *w j} @c j  o~ K3 W  =w /- m~ +0 -w f1 N3 s2 S| o3 ;w >w }u !6 ,w 'w )w !w vo W/ gq ~w f} ]. {w ]w ^w /w (w _w :w <w [w }w |w Z7 'j 1w 2w 3w 4w 5w 6w nu '} h< n< n< {l 7w &n yf *n 2h 2j 2h =n 2h 8w 04 )} ]3 :l P7 p0 [h 9j ;n )/ 9w 0w ){ qu aw Va ~{ 2c bw .p cw dw ew fw gw hw iw jw kw G! Mj lw Sh mw X< H! 3_ 3_ k2 D:  [ nw ow pw '^ a2 qw @r +1 7: c: rw e2 c7 sw tw uw vw ww xw yw zw Aw Bw Cw Dw Ew #t Fw @t Gw Hw Iw Jw 73 vc Kw Lw ,a 82 92 Mw /p +[ c2 v/ t/ Nw Ow Pw Qw -v Rw Sw Tw ,v Uw Vw Ww Xw !v Yw ",
"Zw `w  x .x +x @x #x $x Vp %x &x *x +o =x -x ;x >x ,x 'x )x !x ~x {x {x gv fv ]x ^x /x (x _x :x <x [x }x |x 1x dv 2x 3x 4x 5x ^x 6x 7x 8x 9x 0x mv mv iv iv iv iv iv lv ax ax kv tt tt bx )x cx dx ex fx gx y< Rp hx ix ix jx kx lx mx nx Hv Hv Sr =q =q =q ox Gv px qx rx sx tx |m 2o ux vx wx xx yx zx Lb Ax Bx Cx Dx Ex Fx g~ 2- '> &[ }* G  Gx Hx >( $' B) i~ 'u Ix Jx Kx l: )% 21 V{ L) N$ Lx Mx `< -g L| k{ qo qo Pk N/ n~ }n Nx Ox h^ S$ I8 Px 5{ S! Qx =6 U( ^2 ;# Rx m3 C4 C4  g  g K5 Sx /2 Km Tx Ux `! Vx Wx Xx Yx Zx `x  y .y +y @y #y bh $y D# %y &y *y q6 9w !l Y1 Y1 &n {l %n ws 4j ]l *n ]l =n =n m5 ]3 7j X[ q6 :l 9j q6 P7 m5  + 9w =y i! -y aw ;y Bs >y P1 ,y jr 'y )y i4 !y ~y {y ]y ^y F3 w/ x3 >^ /y (y Ox 3_ 3_ k2 Mx /y _y hn :y `< D: <y [y i2 d1 ,] p@ t  p@ >] 08 z} }y |y 1y 2y 3y 4y 5y 6y 7y Cw 8y 9y 0y ay by Iw zj cy  v xc uh ,a dy ey !g fy gy Rj hy iy jy Ow =v ky ly ;v {t Sw my ,v ny oy py qy Yw ",
"ry sy ty uy vy wy xy Fr xt wt rt yy _} zy Ay Ay By Cy Dy Ey Fy Gy Hy Iy 9x Jy Ky Ky Ly My My Ny Oy Py Qy Ry Sy p( Ty Uy Vy /x hv gv 7x Wy 9x jv iv iv iv iv iv iv lv lv Xy Xy bx yy wr wr yy Yy Zy `y  z .z +z @z bt #z jx $z %z &z *z Iv =z Iv -z -z -z nx nx Ev ;z >z ,z 'z )z Qt !z ~z {z ]z ^z /z (z _z :z <z [z }z |z 1z 2z 3z 4z 5z  ( %' C@ $1 6z i~ 7z a1 *[ 8z 9z 0z {- l) [~ /* )% )] Z: az bz cz dz b3 l{ l{ i  h{ ez l[ I! C^ fz Zb J! gz I8 o~ hz V| U! iz I{ |2 |{ jz M] kz N8 C4 .g M5 m3 (5 Q/ lz mz nz oz pz qz rz sz tz uz vz wz xz ~+ yz zz Az Bz a4 !l !l Y1 Y1 &n {l ws Cz 1j *n *n 1j =n 1j l5 Z1 i0 l5 q6 :l 9j q6 P7 q6 'n W1 Dz @b Jq Ez Va Bs Nq P1 Fz Gz Hz Iz Jz Kz Lz Mz Nz {_ k[ Pj Oz Pz /y /y [n k2 4: [y Mx /y Qz ;p :y :y :y Rz 4: Sz d1 .% 4* '> '> t  s^ %_ cp ep Tz Uz tn Vz F6 Wz Xz Yz Yz Zz `z Aw  A 19 <p n4 J4 'r .A +A @A v3 Ju #A $A 9p xl Nw ~r mn %A &A *A =A -A ;A ;A Sw >A ,A 'A )A !A ",
"~A {A ]A ^A /A (A yt _A :A <A [A }A Wy ~x |A 1A 2A 3A vv 4A 5A 6A 7A 8A 9A 0A aA Jy bA bA cA dA eA Py fA gA hA iA jA kA lA jA {x mA nA oA pA gv ^x qA qA qA rA rA sA sA :3 :3 d4 tA uA vA uA yr wA Cr yt At xA yA zA av AA 4w BA CA DA EA FA Jv GA )z HA IA IA Lt JA KA LA MA JA NA OA PA QA RA SA TA UA VA WA XA YA ZA `A  B .B +B 2z @B #B $B c~ s^ k: t  @% %B O) &B &] )f *B =B -B +% ;_ ]( j/ Y] m/ ;B [y <y b3 1s >B Bm +^ V) I! C^ va H) ,B 'B {2 b3 n~ N/ I2 |n )B S] t: !B b9 H4 j8 T( {5 <e kz ~B {B ]B ^B /B (B _B :B <B E< [B }B |B b0 1B 2B 3B 4B 5B P7 X[ !l Y1 Y1 Y1 6B R1 7B Cz ]l *n ]l =n =n *n o# 6j X[ a4 p0 9j 9j q6 q0 P7 'n {/ 8B !9 Bf 9B Zo Bs X[ m5 0B aB bB cB dB eB fB gB hB el #_ d2 +r iB ow ow >5 jB k2 C: /y kB lB mB nB D: (y >5 H! I9 oB .% 4* .* T{ T{ O) ,( %_ E8 pB qB rB Tj Uh sB tB uB vB `u Iw wB xB yB zB AB eb BB CB O4 Ss /p DB Lj w/ C8 $[ %_ B3 B3 EB FB GB HB IB HB JB ;A >A KB LB MB NB ",
"<i [i OB PB QB RB yt Jy SB TB UB TB VB WB XB YB ZB `B `B  C .C +C @C #C cx $C %C &C *C =C =C -C Sy ;C iA iA >C >C ,C 'C )C !C ~C /x {C pA pA oA ^x ^x qA rA rA rA rA ]C ]C ]C ]C d4 ^C ^C p5 /C (C _C :C <C vr [C }C |C 1C 2C 3C 4C fr 5C dr :v 6C 7C 8C 9C 0C aC bC cC dC dC eC fC gC hC iC jC kC lC mC nC oC pC qC rC sC tC uC vC wC xC yC 5  Gk 0~ `h +% q@ u  j: v} &] 4[ hd *B U} q@ p@ s^ >] ,] zC D3 5: [y [n dz (y AC l[ %^ Eu `: BC ua ;B z/ CC .^ ^] DC N/ EC }, Q] FC _p GC W5 HC IC /8 Ec R( d/ *# JC KC LC MC NC OC PC QC }! RC SC TC %2 Ay Fv gj UC :l _j VC Y1 Y1 Y1 6B R1 Cz WC 1j ]l =n 2j 2h r< i0 7j m5 m5 :l 9j 9j p0 q0 +b XC YC ZC qu }l `C 1c =: ou :l  D .D +D @D #D $D Lf %D &D *D Ak =D -D ;D >D ul D: cz Ns mB ,D ow qw DB &a -g 1s b3 l2 &6 )] 0~ .@ .* %' %' &[ O) U4 %_ #0 D8 d2 'D Al )D Wh Yh /g !D 19 ~D xB {D ]D 79 ^D q} fe /D (D _D :D v/ =1 c: e2 %[ U4 U4 <D [D }D |D |D 1D 2D ky 3D 4D MB NB 5D ",
"6D 7D 8D 9D 0D ,x Xy Wy aD bD cD dD eD fD gD XB hD  C iD jD kD lD mD nD oD pD qD rD sD tD {x uD vD wD vD vD xD yD zD AD u0 BD 0h CD {C gv oA Ny DD DD ED ED ED ED ED FD FD GD GD dt ct ct dt _x 8x Jy HD <C ID ur JD KD |C Op hr LD Ft :v MD ND OD PD QD RD SD TD UD Mt VD WD XD YD ZD `D  E .E +E @E #E $E %E &E *E =E -E ;E Dn >E ,E 'E )E !E jo Ii ~E U{ o@ ce j: :7 r8 m8 w} 4[ hd *B *B hd i~ B) q@ {E k/ ]E [y cz >5 >5 >5 ^E I! o/ U) /E ;[ +1 'g (E s4 _E i{ :E <E P] /_ [E _p .7 W5 }E ^: 1e ~8 N6 *# |E 1E 2E 3E 4E 5E 6E 7E 8E 9E 0E aE bE cE dE Df Mq eE fE !l Y1 Y1 Y1 6B R1 7B Cz =n 4j 2j gE =n hE i0 i0 g| a4 9j 9j :l p0 P7 +b XC ]/ iE Jq jE kE lE 8h mE nE oE pE qE rE sE tE uE vE wE S$ .a xE gp yE zE AE -g &a mw .[ BE CE DE EE ab FE &w c{ qa gd g^ S  .@ .* %' A  >( &[ Q  N) s^ $_ sa z} Mj qn Pz GE HE Tc IE 19 JE KE LE ME NE OE (D PE r4 xl QE C3 $_ '( p^ j: ,( ,( ,( Kc RE SE TE EB UE VE WE XE YE ZE `E ",
" F ]{ .F O' +& U7 !C 6v kA +F @F 5x #F $F Ty tD %F %F #C &F *F pD =F -F T7 ;F >F >F %, k! Bs ,F 'F )F yD !F !F ~F {F ]F l! N' ^F !C /F hv nA aD (F p( (F (F DD DD DD ED _F ED uD FD nt lt nt qA 0x xt 0x kv :F 5v }C <F [F ,m }k }F |F 1F 2F 3F 4F 5F 6F Nr 7F 8F 9F 0F aF VD bF cF lx &z dF *q eF fF gF hF iF jF kF lF mF nF oF pF qF rF sF tF uF vF wF M: E@ i_ '( :7 xF yF zF S: N: !f Zh AF !] c1  ( r@ {E D3 BF bz [n >5 >5 [n Eu G3 Ci c8 ;1 +1 'g CF s4 DF i{ :E EF P] /_ [E G5 uh uh FF GF U0 HF IF :. o* JF KF LF MF NF OF PF QF RF SF TF xv >x UF VF WF _l r< $} q| Y1 Y1 6B i| R1 7B Y[ 2h 2j gE 1j XF i0 X[ g| l5 xs 9j p0 p0 P7 +b YF ZF `F !n  G kE .G ;y +G @G #G $G %G &G *G =G -G ;G >G I! ,G 'G )G !G ~G {G @7 ab /D ]G Wh 4n ^G OE /G F5 Cm DC '_ (G J9 _G z^ .* -( A  >( &[ C@ '> '> u  ]- >] +6 T4 :G <G )D he [G Wz }G |G ^D 49 r} 1G D5 u/ h2 %[ A3 v} h~ h~ h~ O) O) O) &] v} %1 ,( A3 2G 3G VE WE 4G 5G `E ]p ",
"4c 6G Vd 7G 8G 9G 0G aG tu bG cG != cG dG Az +& eG fG gG hG iG jG kG t0 lG B( mG 0B nG nG oG nE pG qG rG et 9h ft sG tG uG N' BD )C /F {C Ny aD vG wG xG p( yG Sy Sy dv zG dv dv _F 8v ev ev ]x 0x yt kv /C ]C sA tA uA uA AG &x BG CG DG DG EG FG GG HG IG JG KG LG MG 5w ix dC dC NG OG Mt Lt IA PG GA QG fF RG SG TG UG VG WG XG YG ZG `G  H .H +H @H 7{ oB *5 %[ f2 yF #H C9 $H S: *] N: /7 [* 07 c1 =| q@ Y( m/ %H &H po [n ^E zk CC U) B/ &v *H =H C: X< _E k} EC J8 P] _p -H nc ;H ;H 5} 48 P0 M8 oc :. >H ,H 'H )H !H ~H {H ]H ^H /H (H _H [k :H <H 1c [H eE Qd }H >} q| Y1 6B 6B i| R1 gE 2h =n 2h P1 q# i0 m5 m5 04 ,n 8j q6 p0 q6 q0 |H x] [l jE 1H 2H cw 3H 0w 4H 5H 6H 7H 8H 9H 0H aH bH cH H! dH eH fH gH J| J| hH iH OE jH 7n Vz K| ^G kH (p 5{ k} K! [> F! H9 '% 3* -( A  >( 7- 0- .* P; w  w  d_ ]- =[ lH x3 mH nH Tc oH pH qH rH OE sH tH C8 c: &7 B) B  C  D  >( &[ h~ O) ,> 6z uH C@ v  !- $a *v vH wH xH yH Al zH ",
"AH BH CH DH EH 8G 7c FH k! Mq 1c GH 1c 1c HH IH iG JH $F Ty kA KH LH MH NH OH *y PH QH 6w  , RH p0 jj SH ,F D] et :/ C( @& N' ]9 u0 /F mA {x 5x TH vG vG p( yG Sy UH UH cv zG dv dv VH zG zG 6x Hy WH Yy yr XH XH Rp YH ZH `H  I  I Mr .I +I @I GG #I $I %I &I KG *I =I -I Av cC ;I >I ,I 'I )I !I ~I {I ]I ^I /I (I _I :I <I [I }I |I 1I 2I 3I 4I 5I 6I 7I 8I m) =[ 9I $H B9 B9 tm 0I A@ A@ &5 aI 4- b1 => d_ {- @* ,| bI Lx I! C} C} *^ 0{ Z: y3 cI dI `} >5 eI Dm fI !e e/ gI _p :b HC ,r M6 Ij H5 hI iI Q< jI kI lI mI nI oI pI qI rI sI tI uI [k vI wI @& Mq xI ou Qd n< >} Y1 Y1 6B VC 1j +{ Gq Hq 4j 0c  p i0 8w `1 ,n eE Bz RH yI RH zI AI BI CI DI EI FI GI HI II JI KI LI MI NI OI PI $i QI RI Ox uw SI TI xw UI VI WI XI YI Bl ZI G6 `I  J /G .J Cm i{ @) -* m~ 9{ 5* R  '> i~ &[ >( 0- 01 C& +J F9  % )] Z] *^ ]] #r kH @J LE #J $J %J &J D5 v/ -[ e2 j: h~ c1 !] A  ;% C@ Q  t  u  *J *J R) ~f !f 0z mn vH =J -J &J ;J >J ",
",J 'J ,J )J Vd !J ~J ~J {J {J ]J t0 t0 kG kG kG ^J /J KH (J (J _J 9G :J <J [J }J |J 1J 2J 7j ]3 i0 04 `1 3J pG OH 4J 5J 0h 0h 6J 6J 6J 7J 8J ~x mA Ny oA 9J 0J 0J 9J oA aJ bJ fv mA +F mA 6x ]x /F cJ cJ sA tA dJ &x eJ AG fJ gJ =o hJ iJ +q jJ kJ kJ lJ mJ nJ oJ pJ Pp UD qJ rJ sJ ID tJ uJ vJ HA 6C RD 8C wJ xJ yJ zJ AJ BJ CJ DJ EJ FJ GJ HJ IJ JJ KJ LJ MJ NJ j_ x} N: P) )( )( E  C  D  >( /6 S: z@ i~ T{ 3* '% r  8{ R$ !% OJ >7 PJ m: +6 t^ W: l/ F3 >5 N/ S! J2 +5 )7 'e 'e O] x9 Jh [b QJ RJ ]7 SJ TJ UJ VJ WJ XJ YJ ZJ `J wz  K .K +K @K #K $K <H %K UC .& rf &K ]l }H *K !l %} `. W1 =K -K <l p< ;K z' 94 m| o< >K ,K 'K )K !K ~K {K ]K ^K /K #G :h (K _K :K <K [K }K |K 1K 2K 3K 4K 5K 6K 7K l[ 8K 9K 0K Qu aK J| bK cK .1 he 3y dK eK r} fK gK hK *6 iK '1 jK kK 0b .6 d: y} S: z@ x  lK M) mK nK oK (, <, '& pK rd {e /G qK rK sK tK uK vK wK xK yK zK AK BK r@ 4* CK DK Kx 0~ EK A2 z2 C& P; *> t  z3 kn hy FK -8 Ku #A ",
"3x 3x 3x !J !J GK HK HK vf vf _3 {J {J {J {J aG IK ^J JK _J (J KK KK (J Rd Rd LK LK MK NK >y >y q# q# Ds XF .p OK PK 0G U7 BD +z 7J +z !x QK /C xA gv 6x mA iG RK /x fv ]x fv pt aJ ,I SK mA hG )C dt 5v TK d4 'x %o &x UK 'm |k }F VK nJ WK XK AJ YK 6F ZK `K  I  L <F .L .L rJ +L @L vJ #L $L %L &L 6C *L =L -L ;L >L ,L {o 5k wp 'L )L !L ~L {L ]L ^L /L (L _L :L !t y2 N: <L }* 17 P  F) !] S: T: S: z@ $' -( @  [L }L Vg |L 9{ m: sw 1L Xb 2L R  ** k[ b3 @c 3L fl 4L R] 1{ 5L 5L -6 -6 O] Y5 <b 6L 7L 8L 9L 0L aL bL !H cL dL eL fL 6A Yp gL hL iL ~; jL kL A# !{ lL p# *n $} `. mL nL oL pL qL rL b! c! 94 sL 9w g< tL uL vL wL CI xL J' yL &+ zL ku of AL BL BL CL DL EL FL GL HL IL JL KL LL ,p dz ML NL OL PL QL RL bK SL q} Vz QL 5n TL DE fK 6b UL jK VL VL WL XL YL +1 D8 G8 m8 0I %' a~ +@ ZL `L  M .M +M @M #M $M Px %M @[ &M *M =M -M ;M *_ F8 F8 %_ %_ Xb Xb l: :> r  5* x8 Wj [L z^ .@ f^ d_ t  #a +a #[ >M _D )t CF ",
",M ,M 'M 3x !J GK vf IK HK HK )M )M )M _3 _3 _3 !M ~M {M 7c 9G _J KK ]M LK LK Rd ^M /M /M NK (M NK _M [4 NK 8c :M <M [M }M CD :3 sA sA :3 8J |M uf +F gv hv /x tD mA fv fv {C {x {C mA {x gv bJ 1M ,C /F 2M TK yA 3M 4M 5M %o =o fJ |k 6M -o 7M 8M 9M 0M wy `K %x aM aM 4v hx 3v bM cM vJ 8C dM eM fF fM gM hM iM jM kM lM mM nM oM kC pM R[ qM rM sM tM uM vM wM xM /E t/ 87 yM 4[ 0e zM 7q c1 S: S: i[ |* B  A  .* .@ v^ oB F@ AM BM CM DM z3 EM i_ -7 Lh FM GM 5e c3 c3 c3 5e 52 HM IM '0 r3 !8 kz JM KM LM MM NM OM PM QM RM SM TM UM VM Cy WM XM /9 ~; jL YM t| ZM `M  N 1j 4j o6 .N +N @N ]/ aj #N o0 d! p0 P7 p0 ,K 05 $N %N &N *N =N -N ;N >N ;l ,N 'N )N !N ~N {N ]N ^N /N (N _N :N <N [N .0 Vb ee }N |N 1N 2N 3N Uj 69 4N 5N 6N 7N 8N 2y 9N eK 0N aN bN cN cN cN dN eN >M WE fN n8 gN h~ 4* S  6{ hN /@ iN jN kN ,& lN mN dz in Mj pn 4G xE s} t/ 0p !t i_ Xb Xb nN oN ]( X] '] ;7 pN y8 >_ v8 .% ]- >] 1L qN Mh 9p D5 &v y3 ",
"rN ,M 'M sN !J GK vf vf HK HK )M )M )M )M )M )M tN tN tN uN ~M {M 7c JK LK vN wN vN  p /M >y MK NK [4 xN [4 Rd Wa yN [M PK zN AN BN +z $2 |A Hy _x +F hG +F hv ^x gv mA fv {C tD CN DN EN hG FN GN HN xA :x IN [C Yy JN ZH %o eJ gJ KN LN MN NN ON YK PN QN  I %x aM RN JD hx SN bM vJ @L TN  I UN Zr VN WN XN YN hM ZN `N  O .O +O @O #O $O %O &O *O =O -O ;O >O ,O M/ 'O Bu -[ rw j: $1 1* B  /6 R: )( E  w@ E) A  .* ,' +* Yb r/ s9 t} z3 U4 DM )O Rh =^ &a /b =a Z| !O Aa Aa s: ~O [E {O G4 /5 SJ ]O ^O /O (O _O :O <O [O }O %& TM bE |O 1O iL 2O w0 <H 3O 4O u< ZM 5O `M 2j 2j ac h5 6O 7O >{ 'K 8O ,K 9O p0 4h 0O aO 0B %N cw bO 2l cO dO eO fO gO hO iO jO kO lO mO zL nO t5 oO pO qO rO sO h/ tO uO vO wO xO TI yO  J zO AO BO CO DO EO FO GO HO IO JO r} /D KO JO LO -8 MO -M =A NO $H q^ ]- OO PO S$ QO RO SO TO UO C! VO .^ %H w/ d2 Qj Qj Rh t/ #0 C3 >] ~- WO >] XO YO ZO .a /E %6 ;7 `O ](  P t^ +6 s9 (6 Y] #[ ,G T4 c: ",
"'M 'M 'M sN sN 3x ~J .P HK HK )M _3 _3 _3 _3 _3 ~M !M tN 6c 6c tN +P +P 8c @P NK _M (M MK NK >y 34 q<  p NK MK LK <J #P [M $P b4 @2 %P (} yA 2M &P 6x *P RK *P /x /x +F ^x gv 6x ^x iG DN =P DN jA -P uD uD ;P >P vr sA cJ ,P Up #o `H PG 'P )P !P 6F ~P {P 6C  I aM RN <F RN 3v bM )z )z ]P 6C WK ^P Rt /P (P _P :P <P [P :P }P (P |P Rt 1P 2P 3P r! 4P 5P 6P 7P 8P 9P [, 0P <6 .6 rw )f &[ aP i[ i[ O: O: 5- w@ w@ A  d_ q@ ~- e2 %[ U4 j: y} %_ z} Qj $A %v Th q} bP WI cP bb dP eP fP gP [8 hP iP jP kP lP mP nP [B oP pP qP rP -l sP tP #& XM uP vP wP >+ ,+ u< j! xP  N -n yP w( w( {/ w] zP AP BP M. CP DP r0 EP VF 7h cw FP GP HP IP JP KP LP MP NP OP PP QP RP SP TP UP }O VP WP XP YP ZP )] %7 `P  Q .Q +Q @Q #Q vl &a #A $Q %Q &Q _r *Q =Q -Q ;Q >Q sn ,Q 'Q )Q !Q ~Q {Q ]Q ^Q o8 m8 (7 <7 `( -7 U) /Q (Q _Q :Q b_ e@ gz CC <Q Pj [Q Ak Ak @_ b8 c7 Xb ]- =B BK -B s9 }Q |Q 1Q o9 [y n/ Z] `O `O 2Q X] X] =5 6: .a 8: s9 p^ ",
"'M 'M 'M 'M sN sN 3Q 3Q .P .P )M )M _3 _3 {J {J 4Q 7c 5Q !M tN 6c 6Q 6Q 7Q 8Q _j Nq MK (M MK >y 34 34 q# >y _M 9Q 0Q }J 0G #P _3 $P aQ aQ aQ bQ cQ mA fv pt 6x {C mA mA ^x gv 6x bJ dQ gv eQ fQ gQ hQ -P kA jG xA ;P 2M TK iQ !I ,P ,x jQ kQ lQ mQ `p nQ {P rx oQ `H RN <F aM pQ 3v )z qQ ]I rQ sQ tx fF tQ WN uQ vQ wQ ^I xQ yQ zQ AQ BQ CQ DQ EQ FQ GQ HQ IQ JQ KQ LQ MQ NQ M/ <6 =5 zK h~ B@ i[ )( O: e_ 5- 5- #' w@ -| a1 )f OQ &7 =( q^ =( e2 z} Qj tH Ku /D PQ QQ QQ RQ (p SQ TQ )8 UQ VQ WQ XQ YQ ZQ `Q  R .R +R @R #R $R %R gO &R *R =R -R ;R >R ,R )= A( ZM !{ 'R lL -n s< Yd W1 n6 )R !R !R ~R !R {R >+ ]R Df ]R  F -R FI ^R jO /R (R _R :R <R [R Oo }R |R 1R 2R 3R 4R 5R 6R 7R 8R 9R 0R r/ aR ^r bR cR dR eR ow I0 l{ `< 8p X} fR (r gR hR iR jR kR fH lR Pz sn Uz mR nR oR pR qR rR _7 :7 V} =1 Di o/ md 2f sR tR -* l2 B^ .a Nh uR b: b: ;7 BM vR 0z t  %B t  OQ rw z} wR 5G sH )t -5 Rh >7 xR i/ ,| Sz 0{ 0{ B^ de +6 hd ",
"4c yR yR yR yR yR tN tN 6c tN zR <M AR FH PK PK JK BR 8G CR DR ER ER ER FR R1 GR R1 9c HR  e HR IR JR JR KR MK (M LR MR NR 'F )C 'C OR $P PR w< QR HK 7v RR SR RR 9v _F ED ED TR TR UR VR 9v WR XR 'M GK 3x YR HK ZR 7v HN vr `R ur XH cJ uA jQ %x =o LN  S .S oQ `H `H +S `H AG AG `H kQ rx @S #S $S WK WK tQ rQ %S &S *S =S -S ;S >S ,S >I tr 'S )S !S ~S {S ]S ^S /S (S _S :S <S c8 ._ t  B) z@ i[ O: e_ e_ e_ 5- N  &% I  q^ =( =( q^ *] T: g: E8 pB [S }S rn C5 ML !Q |S /G bb IM 1S 2S 3S 4S 5S 6S 7S 8S 9S 0S dL aS bS cS dS eS iO fS gS hS vP `% ){ ){ ,+ r| 5O rf 5O Gq Gq iS jS )R kS lS mS nS cw oS aw pS F] ru iL qS rS G] sS tS uS vS bB yq 6D wS xS yS zS AS d| BS CS DS ES FS GS HS Nw IS JS KS LS MS NS cP OS PS kh QS RS ]Q SS TS US VS WS XS YS ZS `S  T .T +T @T #T KS $T qR o8 p8 V: ]r s/ @_ F! %T &T *T {' I9 i/ b8 d: B: =T =T )] :> S) k: T{  ( %1 U4 e2 =_ -T -D ;T Al 9p .a >7 Z] >T ,T p/ 'T wa Eu `] %* yM ",
")T )T 4c 4c yR wf tN tN !T ~T {T ]T <M AR FH {M 7c 8G 8G CR @{ @{ ^T ^T bw R1 &} /T p| Xd 9c !/ IR KR U1 IR q# Ds ^M wN (T _T NR :T zN zN <T jG HK [T gQ }T ZR ED 8v _F lA 8v 9v kA KH 8v |T RR /J 1T 2T 3T YR 3Q YR .P OR c4 !C 4T 5T 6T 7T :F lQ =o 'm 8T 9T 0T `H +S kQ +S aT $o $o 5M  I bT cT dT iJ eT fT |P gT hT iT jT kT lT mT nT oT JD 3B pT )S qT rT sT tT uT vT wT xT yT zT AT OO BT w} /6 )( O: e_ e_ 5- 5- <* |* A@ w} w} *] /6 $H y} CT DT pB ET FT 'D GT HT IT >8 JT gI KT LT MT NT OT PT QT RT ST ]; TT UT VT WT XT YT ;l GP gS F] aw @b i! t| j! r| 5O  N 5O 8w ;n %: ZT )R `T  U Gz .U +e qu qu +U F] ec XM @U #U $U %U gc }3 pP &U *U 6D `m =U -U ;U >U ,U 'U )U OI !U ~U {U p  ]U ^U -M /U (U _U :U <U [U }U |U 1U 2U 3U 4U 5U 6U 7U 8U 9U 0U aU ~v _r bU cU dU eU fU gU Ww hU o8 iU V: =[  P oB g[ jU kU lU n@ )% sa r9 sa kd mU L) /* '% vm .*  ( ,> $a nU D8 oU pU qU rU &M tw >7 OJ C^ +0 sU tU uU K3 Nx O$ vU ",
"4c wU xU wU yR wf 6c !T yU !T {T zR AR FH FH {M  b <j zU zU <j ^T 5! bw 5! Cz 4! '9 Y1 n< q| X1 AU BU JR U1 :j CU q#  b #{ _J DU 0G zN zN :T o5 ^J EU vf ~J 3Q vf FU uD _F 9v 9v 9v ED ED _F 9v (F q( GU rN HU v| uN 4Q ~M 6c tN WR )F nt IU rJ aT aT AG `H JU SD  S  S fJ  S fM fM KN KU LU VM MU  O NU .O fT OU PU QU RU SU TU UU VU WU XU YU ZU `U  V .V +V Ue @V #V $V %V &V *V O} =V -V OO B3 x} z@ E  O: e_ %0 ]6 %0 )( i[ *] *] S: /6 $H *1 i: G8 >v JS ;V >V ,V 1Q 'V )V !V ~V 2] {V ]V ^V /V (V _V :V <V o! [V }V |V 1V 2V 3V 4V EI 5V 6V @b 7V 8V A( u< ^3 .p lL `M 9V r| 4h nE @G 0V aV bV cV dV eV  F &b ec fV fV f4 gV $U hV gc Hz +D iV Hz o! `m jV kV lV mV nV oV pV qV rV sV tV uV vV wV xV yV zV AV 2^ 5u ~. ;h BV CV DV EV FV GV 9U HV IV JV KV LV )v MV NV dR OV PV QV RV !v SV o8 iU =( )f (* F9 M) ^s TV UV >' `h Xb ce r9 8q VV g[ .( v^ {( D@ 9z 9b @a Pw *M SI CO |N CO WV +_ Y: uV XV YV ZV Uk `V  W .W +W Z: ",
"4c )T wU 4c 6G Vd uN 6c !T ~T {T zR <M AR FH 5Q Wa @{ <j <j <j @{ 5! bw @W #W m< X1 p| p| 4! j< U. AU HR JR KR $W 9Q %W ^M ^M 0G &W !C CD :T {J kA KH ^J ~J *W HU v| [T HK hQ TR 9v ev _F uD TR =W zG -W ;W ~J [T !T ~T !T uN uN uN #P )F >W 4J Rp &x lQ ,W 'P JU KN  S bT fJ fJ bT  S KN ;m =o Vp 'W )W !W VN ~W PU {W ]W ^W /W /W (W _W :W <W [W }W |W 1W 2W 3W Ve 4W 5W 6W 7W 8W 9W 0W aW bW =5 c: '( &1 *% f_ e_ e_ %0 O: i[ *] *] S: /6 J  cW dW eW 47 fW IS gW hW iW jW kW lW mW nW oW pW qW rW sW tW uW vW wW xW yW zW #/ #/ AW BW Bq CW Jq Cf DW >+ t| !{ EW 5O lL lL ~} r| Bz 'l FW Od GW HW dV IW pS ;R /9 w0 fV =R JW KW LW MW NW Hz OW PW QW RW SW TW UW VW WW XW YW ZW `W  X .X +X @X vV #X $X %X &X *X =X gs -X ;X 2& >X ,X 'X )X !X ~X {X ]X ^X /X (X ny _X :X <X [X }X |X 1X MB Vw 2X 3X i: u  4X ;- 5X 6X 7X ;- +J c~ {- zK 8X 8q 9X VV g^ n@ /* l: 0X aX bX cX dX eX fX gX hX iX jX =* =V kX lX mX nX oX pX qX [, #) ",
"rX rX rX sX tX ER +P :M 8Q 6Q .p OK uX f6 f6 vX 8c @{ @{ @{ @W 5! bw wX S1 a< >} p| 4! o| X> Y. W% xX yX zX HR JR AX BX vN Rd JK (J CX DX o5 _3 JK 9G 9G 7c !M 6c 6c uN ~T {M KK EX FX vD >C CX |T RR FX GX HX ~M `a Sd rf uX f6 'R uX IX JX KX LX <F zv zv JU MX bT ~P NX +K -o $x QG tQ OX %L PX QX *o KN |P RX SX TX UX VX WX XX YX ZX `X  Y .Y +Y @Y #Y $Y %Y &Y *Y =Y -Y ;Y >Y ,Y 'Y Yc )Y ;5 n/ r/ U4 A@ *% O: D) f_ )( /6 *] *] w} &1 J  cW !Y be ~Y {Y ]Y kn 8b NJ ^Y /Y (Y _Y :Y <Y [Y }Y |Y 1Y 2Y eL 3Y 4Y 5Y 6Y 7Y 3R 8Y 4V 9Y 0Y Jq aY {R bY cY dY eY rf  N EW 5O r| eY fY gY hY iY +e fj Bf 6h vP  F kj kj /9 2O jY kY lY mY nY Hz oY pY qY ,: rY sY tY uY vY wY xY yY zY AY BY CY DY EY T4 >M FY GY HY IY JY KY LY MY NY OY PY QY RY SY TY nU 3X UY VY WY bR fU XY YY ZY `Y eX  Z LB .Z IS a8 (* lK +Z @Z #Z 6X $Z vm B8 i_ d: X: %Z D/ &Z *Z =Z R$ Di -Z ;Z >Z ,Z 'Z )Z !Z ~Z {Z ]Z ^Z n2 /Z LJ (Z _Z :Z <Z [Z }Z |Z 1Z ",
"rX rX 2Z 2Z sX sX 6Q 8Q :M +P OK uX f6 f6 f6 3Z @{ ^T DR ER 2c 4Z #W FR O% ~/ >} m< '9 j< X> Z. V. X. *= 5Z q| O% bw 6Z 7Z MR _J _J (J (J OR :T Ud JK _J (J (J KK CX >C (J ]M CX >C 8Z EX FX 9Z 9v _F xD EX 0Z (J AR |h rf 'R xP rf OK 1J aZ bZ cZ dZ at  L JU bT  S ~P NX eZ $x hJ Qt |P fZ gZ 'm hZ iZ KU jZ /P /P ~W 1P kZ lZ #q mZ nZ oZ pZ qZ rZ sZ tZ uZ vZ wZ xZ yZ zZ AZ BZ CZ DZ EZ FZ Y' GZ b: j_ ,( z@ E  O: Q: i[ S: !( q^ w} ,> O) h~ dW be ~Y HZ C3 s9 Wb M9 1; IZ JZ KZ LZ AZ MZ NZ OZ PZ QZ *R FI 5Y RZ SZ d| TZ UZ VZ WZ oS Cf %N XZ YZ ZZ `Z ~} rf  ` xP 5O eY .` +` +` YZ @` 6h Yo #` #` Yo Ez $` %`  F ec &` ^{ *` wS =` -` oY oY ;` !j >` ,` '` )` !` ~` {` ]` ^` /` (` {a _` #* $6 7b :` <` Co [` }` |` 1` 2` 3` 4` V2 5` -w >[ 6` de $[ 7` &A 8` xV 9` 0` a` b` c` d` e` tK f` C8 g` h` i` j` k` @Z @Z l` m` n` o` =J p` G3 n2 q` r` s` t` DF 59 u` v` w` w` w` x` y` z` A` B` C` D` E` F` G` H` I` J` K` L` M` ",
"sX sX sX 2Z 2Z 2Z 6Q :M 3Z 3Z f6 N` N` N` N` vX O` P` Q` |j }j ws M7 M7 v( v( v( p6 W> W% w# W% W. X. X. w# l< ;} 6B 7B R` S` T` MR (J _J lA 7v HX _J (J _J HX _J DX >C vD EX 8Z >C >C EX 9Z U` yD yD !F V` W` X` Y` }J ]3 8w s< Gq g| #: Fq Z` ``   .at  L SD  S  S QN 3F . .+q eT Yr Rt + .@ .oJ # .$ .% .+K )W  O NU & .* .= .- .; .> ., .' .) .! .~ .{ .] .^ ./ .( ._ .: .< .[ .} .| .1 .x, 2 .3 .b{ %6 +6 j: A@ M  tm /6 w} =( p^ j: t  ,( O) u} Kc on #1 s9 T) D/ 4 .5 .6 .7 .8 .9 .0 .a .b .c .d .w0 w0 e .f .g .h .i .eO j .k .hS l .UC bY m ..e DP  2 9V  N xP  ` lL xI NH n .0B `% @e HI o .&N 7h Df 7h /n ah wP +U dV p .^R q .r .s .t .u .v .dF w .x .y .z .A .B .C .pO D .E .F .H$ G .2Q j[ uV H .I .J .K .L .M .N .O .P .Q .R .S .T .kW )Y U .U) V .W .X .f` Y .Z .` .3U  .....+..@..fK jB Q; 7{ #..$..%..&..*..=..-..ZO ;..+..>..,..'..)..!..~..{..]..^../..(.._..:..<..[..}..|..1..2..3..4..5..6..7..8..9..0..a..b..c..",
"sX sX sX rX rX 2Z +P 8c vX 8c yN d..d..d..d..Wa O` e..~l $n ws {l )9 )9 f..f..f..M7 5Z W% X. X. W% W% W% Q> ;} )9 i| 7B #W <j T` g..>C CX -P ED CX CX DX _J JK 4Q HX KK KK DX CX GX CX GX >C 0Z !F !F h..i..W` W` j..k..l..]3 g| m5 sL w( v] m..n..jx UD o..It  S KN nQ 3F p..& ..O Rt Rt + .@ .q..r..s..t..hZ Mr u..v..w..x..y..XK z..A..B..C..XK D..E..F..G..H..I..J..K..L..M..N..O..P..Q..R..}[ rd $^ o/ i/ Xb v} cW J  S: y2 =( p^ j: t  N) $a on 2G *v CM S..T..U..V..W..X..Y..Z..`.. +..+.++.-F -F @+.#+.Gz 7Y $+.%+.&+.*+.=+.gO -+.;+.>F >+.r0 .2 ,+.'+. 2 )+.lL EW EW O. Y` !+.cY `% 7h ~+.{+.]+.%N /n +p su su @e ^+.dV HW /+.(+.q ._+.:+.<+.[+.}+.|+.1+.2+.3+.4+.5+.6+.7+.8+.9+.0+.a+.b+.:> E& c+.d+.e+.f+.g+.h+.i+.j+.k+.l+.m+.n+.o+.p+.q+.r+.s+.sU Nx bz J6 J6 t+.u+.v+.w+.$X x+.y+.iH sc -0 md Tg z+.A+.B+.C+.1@ D+.)> 0b -8 qK E+.F+.G+.H+.I+.J+.Hh K+.L+.M+.N+.O+.P+.Q+.R+.S+.T+.U+.V+.W+.X+.Y+.Z+.`+. @..@.+@.@@.#@.$@.",
"%@.%@.&@.*@.*@.=@.3Z @P Wa Wa d..-@.<J <J <J ^M @W e..Wd $n yf %n M7 M7 ;@.;@.>@.,@.'@.5Z Q> w# )@.)@.*= xX ;@.f..O% WC i| 4Z Rd T` >C >C 8Z EX 8Z EX 8Z DX HX JK HX (J Ud 4Q 9G HX 9G JK 9G LH !@.et 9h ~F ~F ~@.{@.]@.Eq 3l >K j0 k0 YC )l q0 ^@./@.UD (@._@.fJ bT QN :@.. .<@.[@.}@.DQ PU PU UX H..|@.1@.2@.3@.4@.5@.6@.7@.8@.9@.0@.a@.b@.c@.d@.e@.y..f@.g@.h@.i@.j@.k@.l@.`t m@.n@.o@.p@.q@.`) r@.d{ ^] Di s9 z3 *1 *1 w} j: &7 ]- p@ ,' s^ q9 ~r s@.CM t@.jX u@.v@.w@.x@.y@.6d z@.eh A@.B@.C@..P aG D@.tG E@.F@.G@.H@.I@.J@.K@.L@.-+.M@.@2 DP N@./3 DP O@.P@.lL )+.5O OK MH ,F Q@.R@.Df S@.5h )K ]+.nG YZ CP cY >+ Cf `% T@.0Y (+.iO U@.V@.:+.XW W@.X@.Y@.Z@.`@. #..#.+#.@#.##.$#.%#.[s .* h$ `h *| +H &#.*#.=#.-#.;#.>#.,#.'#.)#.!#.~#.{#.]#.^#./#.(#._#.Y' :#.<#.sH @[ J6 uw yl [#.}Q ;Z }#.|#.], (Q 1#.^a 2#.3#.6  4#. i l~ Y< 5N 5#.6#.7#.8#.9#.0#.a#.b#.c#.d#.e#.f#.g#.h#.i#.j#.89 k#.l#.m#.n#.o#.p#.q#.r#.s#.t#.u#.yu v#.w#.",
"x#.x#.x#.y#.x#.&@.+P ^M Wa  b -@.<J z#.z#.z#.Rd 5! Q` 2c $n }j f..f..f..)9 m0 '@.A#.>@.,@.xX *= B#.C#.D#..: E#.Xd h< h< >3 hE ]3 <J 0Q >W !F xD V` 9Z X` GX &W #P [M #P #P #P PK AR zR zR AR PK k! F#.[H tu G#.tu H#.KX ]n I#.J#.To N7 g5 -K K#.ZZ Az at IA lQ AG oQ L#.~P 6F M#.N#.O#.P#.G..Q#.R#.S#.T#.U#.V#. z 7C W#.X#.Y#.Z#.zJ `#. $..$.+$.@$.#$.$$.%$.&$.*$.=$.-$.;$.>$.,$.'$.)$.!$.~$.{$.]$._S 6) ^$./$.($.i_ y} *1 T: w} p^ p^ t  '> N) z3 t} )O _$.D/ :$.<$.[$.}$.|$.1$.2$.3$.4$.5$.6$.YR sN IK t6 Az 7$.8$.9$.0$.a$.K@.b$.c$.d$.e$.f$./3 0w Q7 `Z r| '+.'R  N EW g$.h$.#e ~9 su +p (/ {+.i$.%N  D iY {R j$.k$.Bf l$.T@.GP (K m$.n$.o$.p$.q$.r$.s$.t$.u$.v$.w$.x$.y$.z$.A$.B$.C$.D$.E$.F$.>_ G$.H$.I$.J$.K$.L$.zZ M$.N$.O$.P$.Q$.R$.S$.T$.U$.V$.W$.X$.Y$.Z$.`$.d8 gK E5 Ws  %..%.+%.@%.#%.$%.-~ :Q %%.&%.*%.=%.3#.4#.<> -%.;%.>%.,%.'%.'0 )%.!%.~%.{%.]%.^%./%.(%._%.:%.<%.[%.}%.|%.1%.2%.3%.4%.5%.6%.7%.8%.9%.0%.a%.b%.c%.=~ ",
"/T d%.e%.f%.*@.rX 8c LK wN #{ g%.0Q h%.-@.f6 .p ]l ~/ #n 9c 9c AU i%.j%.'@.'@.k%.k%.l%.m%.n%.o%.p%.q%.r%.s%.t%.*{ )/ l0 l0 yI 'K CP u%.v%.Od bY !@.&W ,F :J Bs F#.F#.w%.x%.w%.w%.F#.Bs Bs tu tu tu #P tu 0G ,F &W g%.|J |J y%.l..l..2J ]3 Gq z%.A%.B%.@+.Dy C%.D%.qQ E%.9T F%.fJ QN iJ G%.* .DQ }@.H%.I%.J%.@& K%.]9 L%.M%.-S @L }P N%.G%.jJ O%.Nv P%.Q%.R%.S%.T%.U%.V%.W%.X%.Y%.Z%.`%. &..&.+&.@&.#&.^#.$&.0W [6 Y] g2 m8 B9 /6 P) G  $% 17 %&.&&.@a AM `, *&.=&.-&.;&.>&.,&.'&.13 )&.!&.~&.{&.{J PK x%.5B R@.]&.EI ;l ^&.^&./&.GP Yo cc t| j!  2 `Z {} ~} '+.pG pG jj ij (&.Fz DP 0O _&.0B j$.:&.DI <&.*3 [&.}&.|&.1&.2&.3&.4&.5&.L1 6&.4&.7&.8&.9&.0&.a&.b&.c&.d&.e&.f&.g&.h&.i&.j&.k&.l&.m&.>_ n&.o&.p&.q&.r&.s&.t&.u&.v&.w&.O$.x&.y&.z&.A&.B&.C&.D&.E&.F&.G&.H&.I&.J&.K&.K! +^ L&.Nc M&.N&.O&.P&.Q&.,f R&.S&.T&.U&.V&.W&.X&.Y&.Z&.`&. *..*.+*.@*.#*.&j $*.%*.&*.**.=*.-*.;*.>*.&~ ,*.'*.)*.!*.~*.{*.]*.NM ^*./*.(*._*.:*.<*.[*.}*.",
"&} d%.e%.h0 =@.DR Rd LR #{ vN z#.-@.yN uX |*.g| 1j $} }H *K E#.j%.+: U. .: '@.1*.1*.1*.m%.2*.3*.4*.5*.5*.5*.6*.7*.XC 8*.9*. , 0*.a*.b*.{j c*.~R [H tu Bs F#.F#.w%.lG lG Mq Mq =: =: G#.[H [H WF tu #P :J 0G LH &W g%.|J d*.(T e*.f*.g*.2J Z1 xI h*.i*.6$.j*.Sp k*.l*.vJ )z dM oQ 9T m*.& .n*.}@.o*.gZ p*.kT q*.5B r*.{@.s*.t*.u*.SN kQ v*.+q w*.x*.y*.z*.A*.B*.;$.C*.D*.E*.F*.G*.H*.I*.J*.K*.L*.M*.N*.O*.P*.r+.q: i2 e: T: tm tm Q: E  D  27 Q*.Xb i/ Ls >G R*.S*.T*.U*.V*.W*.X*.Y*.Z*.~&.`*. =.$P %, .=.VF Oq gj +=.>l >l .G cw 4l EP t| t| j! `M )+.`M rf @=.SH O. .` 05 >+.#=.0O $=.(&.XZ @` o .bO [&.%=.BW 1&.&=.*=.==.-=.;=.5&.>=.,=.'=.As )=.rQ !=.l# ~=.{=.]=.^=./=.(=._=.:=.<=.[=.}=.|=.d1 1=.2=.3=.4=.5=.6=.7=.8=.9=.0=.a=.b=.c=.d=.{S e=.f=.g=.h=.i=.j=.k=.5..l=.m=.n=.o=.p=.q=.r=.s=.t=.u=.v=.w=.x=.y=.z=.Yj A=.B=.Ug Ci C=.D=.E=.F=.G=.H=.I=.J=.K=.^B L=.M=.N=.O=.P=.Q=.R=.S=.T=.U=.V=./z W=.X=.Y=.Z=.`=. -..-.+-.@-.#-.$-.",
"&} &} d%.GR #W O` NK _M >y q# X[ l5 X[ X[ m5 ;n Gq Gq =n =n $: $: $: p| U. .: .: xX xX xX 1*.1*.%-.&-.&-.&-.7*.*-.=-.<l #N --.;-.0*. D <4 >-.,-.cG ,F rG rG cG WF [H G#.=: G#.G#.[H [H WF WF WF ~{ ~{ MH MH rG h$.KX '-.Y` )-.!-.~-.Eq {-.3l NH ]-.^-./-.(-._-.yA 6T xQ :-.)z kQ 9T %L Qt Rt OU <-.[-.jT }-.aF Mq .& %, |-.1-.u*.tr lQ 2-.3-.4-.5-.6-.7-.k@.8-.9-.T%.V%.0-.a-.b-.c-.d-.e-.f-.g-.r#.~y h-.i-.Tb j-.k-.%[ *] tm M  Nj Q  D@ A8 X&.H! ^, l-.m-.n-.o-.p-.q-.r-.s-.t-.u-.v-.w-.x-.y-.T7 A# +2 z-.uu lE +=.cw .G .n 6V Df cc *: *: j! A-. N P@.@=.SH r*.SH O. ,+.N. #=.$=.bY M. B-.%N ~+.C-.D-.E-.4&.:K &=.F-.;=.&=.G-.5&.AW }&.=N gS H-./P I-.J-.K-.L-.M-.N-.O-.P-.Q-.R-.S-.T-.U-.V-.W-.Mu X-.Y-.Z-.`-. ;..;.+;.M .@;.#;.$;.%;.&;.*;.=;.-;.;;.>;.,;.';.);.!;.~;.{;.];.^;./;.(;._;.:;.<;.[;.};.|;.1;.2;.3;.4;.5;.6;.7;.8;.L} 9;.0;.a;.b;.c;.d;.e;.f;.g;.h;.i;.j;.k;.l;.m;.n;.o;.p;.q;.r;.s;.t;.u;.v;.w;./v Yl x;.y;.z;.A;.$. ",
"&} j5 /T p] 7B 2c Cs Cs _j P1 ou g| l5 04 a4 ;n s< s< (j =n =n n| n| $: VC U. .: u# u# '@.U. B;.C;.D;.&-.&-.7*.*-.=-.<l E;.F' kS 0*.{R {R F;.!R {F 4J AD AD {F G;.cG WF [H [H WF WF WF H;.H;.H;.MH MH MH ,F rG !@.KX '-.)-.)-.I;.!-.~-.Eq ~-.J;.:/ O' K;.(-.L;.M;.!x N;.N;.:-.~I PG O;.fM P;.gT Q;.OX R;.S;.[W 9h T;.U;.zD V;.4v qJ W;.X;.6C & .Y;.Z;.Z;.`;. >..>.+>.@>.#>.$>.%>.&>.*>.=>.->.;>.>>.,>.'>.pb )>.*&.%  o@ d_ i~ Q  ,% r  <> Tg !>.r+.Q&.~>.{>.]>.^>./>.(>._>.:>.<>.[>.}>.|>.1>.2>.3>.>+ EP 7h uu 4>..n 6V ]&.+p Df cc A( U;.ZM  & A-.EW @=.r*.qG O. .` @=.r6 ZZ mG fY M. 5>.CP 6>.]+.7>.8>.cj >; 4&.9>.*=.*=.9>.0>.5&.E-.=N a>.b>.@o c>.d>.e>.f>.g>.h>.i>.j>.k>.,s l>.fd 9X m>.&' d: ,G jX &Z n>.o>.gB p>.q>.(O r>.s>.t>.u>.v>.w>.x>.;#.zZ nF y>.z>.A>.B>.C>.D>.E>.F>.G>.H>.I>.J>.K>.L>.M>.N>.O>.P>.Q>.R>.S>.T>.U>.V>.W>.X>.Y>.Z>.`>. ,..,.'H +,.@,.#,.$,.%,.65 &,.*,.=,.-,.;,.>,.,,.',.),.!,.~,.{,.],.^,./,.WJ (,._,.S# ",
"d%.&} /T fQ -9 R1 *n ]l P1 ]l ;n g| X[ 04 m5 Gq `Z ~} ^3  ` xP g| ou ;n ;n VC n| n| n| Y1 !l :,.<,.D;.[,.[,.},.7*.XC 8*.w] 9*.|,.kS AP 1,.AP <4 G#.WF H;.]F ]F ]F H;.WF H;.H;.H;.H;.cG cG cG cG cG cG cG ]F G;.D] 2,.2,.3,.4,.5,.5,.6,.7,.7,.3,.8,.sG ]F IH %, tf ;F 9,.OG 0,.a,.b,.Ev O;.c,.fZ P;.OX jT p*.d,.qJ t6 e,.S7 f,.g,.7T vA h,.i,.j,.p..k,.Y;.]o nM l,.m,.n,.o,. $.p,.q,.r,.s,.t,.u,.=;.v,.w,.x,.y,.z,.A,.B,.M) h$ c- C,..0 D,.E,.F,.G,.H,.I,.g+.J,.`Q K,.L,.M,.vW qS N,.O,.P,.b4 (3 EP Df /n ]&.cw ]&.6V .U 4l Df Cf n5 Q,.e$.u< R,. 2 '+.SH g$.SH jj 0O N. N. Fz B-.`T `T bY 0B 6>.{R iY b*.*N >; '=.2&.4&.-=.S,.AW T,.|&.'=.U,.V,.W,.X,.d$.oE Y,.Z,.`,. '..'.+'.@'.m=.#'.Wb $'.*[ %'.&'.0: %Z *'.='.-'.;'.>'.,'.''.)'.In !'.~'.{'. y ]'.^'./'.('._'.:'.<'.['.}'.|'.(*.1'.2'.3'.4'.5'.6'.7'.8'.9'.0'.a'.b'.c'.d'.e'.f'.g'.h'.i'.j'.k'.l'.m'.n'.o'.(4 p'.x&.q'.r'.s'.t'.u'.v'.w'.x'.y'.z'.A'.B'.C'.D'.E'.F'.G'.H'.I'.J'.K'.",
"Q1 p] d%.p] L'.GR =n =n P1 Qd g| a4 X[ l5 ou s< r| eY '+.,y jj |*.g| ou ;n ;n W1 VC VC VC !l V> M'.&-.[,.[,.7*.7*.oL oL N'.aj zP uL XZ {R {R XZ VF #e lG G#.H;.]F ]F G;.]F ]F ]F ]F ]F ]F ]F ]F ]F ]F ]F G;.G;.{F 2,.2,.J;.gY O'.O'.P'.Q'.Q'.Q'.R'.&y J;.~F MH T;.!{ S'.0v T'.U'.a,.Ev _@.Vr Wr V'.[-.R;.R;.W'.X'.Y'.s6 }h Z'.`'.AN (} 5v SN dM  )..).+).@).#x #).l,.]o $).%).&).*).=).-).;).>).,)./z ').)).!).~).{).Ex ]).^)./).()._).-'.T>.:).<).[).}).|).1).2).3).4).$& 5).6).]J {J 7).tf A( Df .U .n .n ]&.GW oS GW Df EP )= C] e,.e$.R,.*, xI .` r*.r*..` '+.ZZ DP >+.fY 8).9).v%.B-.0B $N  D AP &N 0).-+ >; :K 1&.*=.a).|V T,.|&.|&.b).c).@K d).e).f).~+.g).h).i).j).k).l).(L qa S..EM 9b m).n).o).p).q).r).s).t).u).v).w).x).y).z).A).B).C).D).E).F).G).H).I).J).K).L).M).N).O).dg P).Q).R).S).T).H'.U).V).W).X).Y).Z).`). !..!.+!.@!.#!.X=.$!.%!.&!.*!.=!.-!.;!.>!.,!.>#.'!.)!.!!.~!.{!.]!.^!.Yl /!.(!._!.:!.<!.23 [!.}!.|!.1!.",
"p] Q1 L'.-9 -9 GR 1j *n P1 P1 m5 a4 a4 m5 ou 2!.'+._/ UC %, 3!.M' 4!.^3 eY EW ou ou ou ;n 2!.Hq 6*.[,.5!.6!.*-.*-.@N 7!.{/ YC pu ^j mG $N $N CP R@.;y B( Mq [H H;.]F G;.G;.G;.h$.h$.h$.h$.rG ]F G;.f).f).f).tG sG 9).hY 8!.!+.9!.<h FW 0!.0!.a!.P'.4,.b!.4,.Y` H#.|*.c!.d!.!@.e!.Lt f!.g!.lx c,.fZ tQ fZ &S *S h!.0C v0 .N i!.j!.GD _3 aG g,.xr k!.l!.)W m!.ND `r `r n!.4-.$).%).o!.p!.q!.r!.s!.t!.u!.v!.w!.x!.y!.z!.A!.B!.4q C!.D!.E!.F!.G!.H!.I!.J!.K!.L!.M!.1Y b0 d .N!.$P uN ~T O!.&, EP S@.jE jE P!.P!.P!.jE #` 6h Df EP )= C] e$.]} O!.{T F#.F#.F#.x%.#e .=.~9 A# 8h Q@.Q!.tG Az 8h Oq gj GH 3H `% +e T@.R!.S!.T!.U!.V!.W!.n$.X!.WZ EI Y!.Z!.d).%K `!.GW (R  ~..~.+~.-G @~.L/ %a #~.rw =v $~.%~.Qj Bu K9 &~.*~.=~.-~.;~.>~.,~.'~.)~.!~.~~.{~.]~.^~./~.(~._~.qT :~.<~.[~.}~.|~.1~.2~.3~.4~.5~.TA 6~.7~.8~.9~.A).0~.a~.:{ b~.c~.m'.d~.d~.e~.f~.g~.h~.i~.j~.k~.l~.m~.n~.o~.p~.q~.r~.s~.t~.)!.u~.v~.w~.x~.x~.y~.z~.A~.B~.C~.D~.E~.F~.",
"/T d%.-9 GR GR 6B *n !} *n *n 8w 8w g| g| m5 a4 >+.5B #e _/ .& &, ^3  2 eY 4!.8w 8w ou ;n Gq w( G~.[,.6!.H~.I~.*-.@N 7!.{/ -K J~.pu N. ,+.N. $N su su 5B 5B B( Mq =: G#.D] D] !@.h$.h$.h$.h$.h$.D] f).f).tG tG sG 9).hY 8!.!+.4H 0!.K~.L~.L~.mu O'.M~.b!.{-.]@.{@.-@.lL N~.M' ~F O~.Kt f!.P~.Q~.Q;.tQ P;.R~.S~.*S (@.Rp T~.]J U~.V~.,C W~.HX ev X~.Y~.*L NX Z~.+s @s n!.#x 4-.`~.%). {.o!..{.+{.@{.#{.${.%{.&{.*{.={.-{.;{.>{.,{.'{.){.!{.~{.{{.]{.^{./{.}B 4).({._{.9,.Ud CR 4c 5c h5 $, oS :{.Bq WZ 0Y jE 5V ]&.#` `% 3H ~9 +2 u< u< R,.<{.AR MH tu w%.d!.UC _/ .=.#b ;y su Q@.Q!.1c ;y Oq lE Az DW !9 Bf CW Kq S!.X!.[{.dO V!.4V n$.W!.~j }{.|{.qS wP kj 1{.2{.3{.4{.5{.6{.7{.1f 8: QE 8{.pn 0` 9{.0{.a{.b{.c{.[N d{.e{.f{.g{.h{.i{.j{.k{.l{.m{.n{.o{.p{.q{.r{.s{.t{.u{.v{.w{.x{.y{.z{.A{.B{.li C{.C'.D{./v E{.F{.G{.H{.z~.I{.J{.K{.L{.('.M{.N{.O{.P{.Q{.R{.S{.T{.U{.V{.W{.X{.Y{.Z{.`{. ]..].+].@].#].$].>!.%].K{.&].*].=].-].;].>].",
"4! X1 p| p| p| p| n| !l VC !l 9w sL m| m| m| g| mG .=.'+ +2 S7 M' xI '+.^3 r| s< Gq 8w g| ou Yd },.[,.5!.5!.7*.7*.)/ )/ )l YC ,].q0 4!.P@.O@.N. z-.VF Va 8h ;y z-.#e WF ~{ h$.!@.,F LH NR &W ~{ cG ]F G;.D] et 9h hj gY ^@.hj 5,.6,.M~.M~.M~.6,.Q'.'].)].I#.!-.!].|J OK lL {} ~9 ~].{].]].^]./].OX /P /P |P v*.(].X;.,P _].u< :].<].[].}].f%.|].fD 1].2].$L s..3].@s 4].5].+q 6].7].6].8].9].0].a].b].c].d].e].f].g].h].i].j].k].l].m].n].o].p].q].r].s].t].u].u6 v].~M w].2Z x].9V y].z].a>.BW Bq WZ WZ 5V 7$..U Yo @e DW '+ t| !{ S7 T;.zR <M MH WF G#.B( _/ #b z-.VF Va 8h gj lE HH lE lE 4>.3H cc ;+ Bf CW A].4V B].C].D].D].V!.V!.E].k .F].G].@U H].1{.{+ I].J].K].L].M].Ub G@ (6 N].,G tH O].,D Nk 0P P].Q].R].S].T].U].V].W].X].Y].Z].`]. ^..^.dm +^.@^.#^.$^.%^.&^.*^.=^.-^.;^.>^.,^.'^.)^.wg !^.~^.{^.]^.qg ^^./^.(^.H)._^.:^.<^.[^.}^.|^.1^.2^.3^.4^.5^.6^.7^.8^.9^.0^.a^.b^.c^.d^.e^.f^.g^.h^.i^.j^.k^.l^.m^.n^.o^.p^.q^.3{ ",
"'9 X1 p| p| X1 X1 $: n| i< $: Hq 9w sL m| ,} m5 xI ~9 t| j! !{ &, P@.P@.^3  N (j Gq 8w g| ou Yd },.[,.5!.5!.7*.7*.)/ )/ )l YC jS +b eY 4!.4!.P@.DW DW VF ;y VF DW .=.lG Bs MH ,F MH 0G &W &W 0G Bs [H WF cG G;.et hj gY J;.gY O'.O'.Q'.5,.5,.Q'.'l 5,.Eq {-.e*.r^.s^.IX 5O A-.!{ cG t^.u^.v^.w^.V'.|P VN tQ x^.! .y^.kQ v0 P,.5Q -/ z^.A^.~l B^.C^.D^.E^.yA F^.G^.H^.I^.J^.+q 7].K^.L^.C*.M^.O%.N^.O^.P^.Q^.4< R^.S^.T^.U^.V^.W^.X^.Y^.Z^.`^. /../.nY TM +/.D( IH AR tN x].@/. ` mG  D <&.#/.,=.$/.^N %/.P!.Bf !9 ;+ 3H '+ +2 j! '; M' k! F#.tu G#.lG _/ #b #b .=.VF VF su Va gj 4>.4>.gj {n uu @e ;+ -y T@.9Y 6&.E].4R cS cS b$.&/.*/.=/.D].-/.;/.Oo m$.-l >/.,/.'/.)/.!/.~/.Ls '] {/.wH ]/.n9 ^/.//.(/.Q, LJ _/.:/.</.[/.}/.|/.1/.2/.,,.3/.4/.5/.6/.7/.8/.9/.0/.@^.@^.q{.a/.b/.c/.d/.e/.f/.g/.h/.i/.j/.k/.l/.]^.m/.n/.o/.p/.sg tg q/.r/.s/.t/.u/.v/.w/.+^.x/.y/.z/.A/.B/.C/.D/.E/.F/.G/.H/.I/.J/.K/.L/.M/.K*.N/.O/.P/.|` Q/.R/.mc mN ",
"'9 4! X1 4! '9 o| ,9 %} +{ ,9 )3 Hq 9w m| ,} m5 '+.P@.^3  2 ^3 rf g| g| ;n Gq w( VC $} }H !l *{ },.[,.5!.5!.7*.7*.)/ )/ w( w( Gq Gq lL 5O 5O ^3 DW Cf S@.4l R@.z-.~9 _/ d!.w%.[M [M :J DU HX LH w%.w%.w%.F#.tu ,F NH KX S/.NH 3l {-.T/.Eq I#.]n m..3l ~-.)].U/.V/.W/.X/.AR |h j! ~9 -, Y/.fC R;.tQ Z/.dT iJ .O N%.v*.X;.uA `/. (.&} .(.+(.@(.#(.$(.%(.CR ]J &(.*(.=(.-(.+q ~P .).;(.6].>(.,(.'(.)(.z..!(.~(.{(.](.^(./(.((._(.:(.<(.[(.}(.|(.1(.X7 |{.e6 2(.3(.Az lG T;.{} ZZ XZ ~R *3 a>.0>.0>.Bq Bq GI 4(.5(.6(.@b DW A# A# A# .=.5B =: G#.[H 6).;+.4O 4O 7(.l .%K %K ]{ 8(.m! m! m! ]{ 9B $` ^+.@b 9(.As 0(./+.a(.b(.c(.d(.e(.f(.V@.g(.h(.i(.j(.No <R k(.l(.m(.!d n(.j&.&D =* -7 tw A} GZ o(.p(.l^ Jm q(.r(.pj s(.t(.u(.En v(.w(.x(.y(.z(.M..A(.B(.C(.D(.E(.F(.G(.H(.I(.J(.K(.L(.M(.N(.O(.P(.Nn S{.Q(.<^.R(.%E _^.S(.ug ~^.T(.U(.V(.V(.W(.t/.X(.G(.Y(.Z(.`(. _.._.+_.@_.#_.$_.%_.&_.*_.=_.-_.;_.>_.,_.'_.)$.)_.@,.!_.~_.V' D= {_.mN ",
"o| '9 '9 o| j< &} i5 84 84 +{ Zd w( Hq W1 9w 9w q0 ^3 r| `M  N 2!.;n ;n ;n VC n| VC $} >} !l *{ },.[,.5!.5!.7*.7*.)/ )/ Yd w( (j (j `M `M  N r| DW ]R Cf 4l su VF #b ~9 M' 3!.zR AR PK #P 4Q 4Q [M PK w%.FH w%.[M g$.z#.r*.-@.=3 r( m..2J ]_.^_.I#.I;.!-.U/.V/./_.g..vD _T 0G &, e,.3>.-: f!.R;.}@.(_.cT .O & .G%.x^.__.:_.`/.<_.[_.}_.|_.1_.2_.3_.4_.Wd yN 5_.6_.7_.8_.9_.)W (I 0_.7].a_.O%.b_.SX c_.d_.e_.f_.g_.h_.i_.5W j_.k_.l_.m_.^{.n_.o_.p_.q_.EL r_.s_.mS lE uu uu oE t_.7>.u_.v_.cj %=.Po GI fj 6h 7h DW )= i! .=._/ 5B Mq G#.1c 8h ;y ;+.YM 3>.3>.w_.l .ah e).8(.d$.m! m! d$.%` vP +U x_.qu zs 7&.y_.z_.A_.B_.C_.D_.E_.F_.E_.D_.G_.H_.I_.J_.K_.L_.M_.N_.O_.P_.Q_.kX G! -1 R_.C} h  S_.n=.T_.U_.V_.W_.X_.Y_.Z_.`_.Fn  :.=Y .:.+:.z(.M..@:.#:.$:.%:.&:.*:.=:.-:.;:.>:.,:.':.):.!:.~:.{:.]:.^:./:.(:._:.::.<:.[:.}:.|:.K(.1:.2:.3:.4:.2:.::.5:.6:.7:.8:.9:.0:.a:.b:.c:.d:.e:.f:.g:.h:.i:.j:.>_.k:.l:.m:.n:.o:.p:.q:.r:.s:.t:.^$.",
"X> Z. Z. X> ,/ t( 5j u:.v:.`_ nL Y> `. `. `. )3 yP -n -n gE ^l ,9 i< $: !l U. U. +: +: ,@.U. w:.&-.[,.5!.5!.7*.7*.)/ )/ Hq Yd (j s< x:.x:.x:.~} >+ Jq `% 4l Va su .=.~9 &, S7 ); ]T !M ~M 5Q {M 4Q 7c #P 7c #P JK [J vN 0Q LK i0 Qd (j ]l i0 2J y:.ij h%.d*.s^.vD CX ]M >C 'C x< z:.A:.B:.C:.SD WK D:.;$.+>.`~.o,.9_.E:.F:.G:.8Z H:.I:.J:.K:.L:.M:.N:.O:.o# P:.Q:.R:.S:.T:.U:..).PN V:.#$.W:.X:.TX Y:.Z:.`:. <..<.+<.@<.#<.,~.$<.%<.Kn &<../.*<.=<.-<.hS EL Y!.;<.><.,<.'<. n Po 7$.GW 7h +p {n )<.0Y !n oS +p VF EP +2 UC 5B Q@.Q!.Q!.lE +p S@.7(.kL e).e).%K l .ah !<.m! .F .F m! ~<.;R eV ru ru As {<.p .-/.]<.^<./<.(<._<.:<.<<.[<.LP }<._+.|<.1<.OW 2<.3<.4<.5<.6<.|a 7<.p/ %a 8<.*6 so r+.9<.0<.a<.b<.c<.d<.v,.e<.f<.g<.h<.i<.j<.k<.l<.m<.n<.o<.p<.q<.r<.s<.t<.u<.v<.w<.x<.y<.z<.A<.*s B<.C<.D<.E<.F<.G<.F<.H<.I<.J<.K<.L<.M<.N<.w/.O<.P<.Q<.R<.R<.S<.T<.U<.V<.W<.X<.Y<.Z<.`<.Y-  [..[.+[.@[.#[.$[.%[.)#.&[.*[.=[.-[.;[.>[.~>.,[.",
"Y. X> X> Y. t(  : 5j 5j v:.v:.'[.'[.'[.)[.)[.mL ac yP 2j 2j i< i< n| q| U. +: +: ,@.,@.A#.k%.w:.&-.[,.5!.5!.7*.7*.)/ )/ Hq Yd (j yP ![.![.x:.`M s0 qu ]R +p Q@.8h #e UC .& S7 |h {T tN 6c 6c uN {M Ud 4Q 9G _J KK MR T` T` ~[.9Q  p hE *n Qd !} yN jj 3J PK DX FX vD TR uD 9v ct ^F {[.tA <F >m M#.@).][.$).`~.o,.9_. O ^[.&P vD {l /[.([._[.:[.<[.[[.}[.Z_ jS 3H N,.|[.1[.2[.L^.PN 3[.4[.5[.>q 6[.7[.8[.9[.c-.0[.a[.b[.c[.d[.e[.f[.g[.ps h[.hV i[.pS uP j[.k[.l[.=U b(.m[.gO n[.>l {n 8h x%.lG +e #` ]&.uu DW *: ~9 lG 5B B( Q@.o[.p[.+=..U Yo ,R K;.O' O' e).l .ah q[.#+..F m! 8(.9B vP +U x_.dV IW p .r[.s[.^<./<.<<.t[.u[.v[.v[.w[.'U x[._<.y[.z[.A[.B[.C[.D[.E[.F[.G[.7<.l2 H[.I[.J[.K[.L[.M[.N[.O[.P[.Q[.[Y R[.S[.T[.U[.V[.F<.W[.X[.Y[.Z[.`[. }..}.+}.@}.#}.$}.$}.%}.&}.*}.=}.-}.;}.`{.>}.,}.'}.)}.!}.~}.{}.]}.^}./}.(}._}.:}.<}.[}.}}.|}.I<.D<.1}.2}.3}.+_.4}.5}.6}.7}.8}.9}.0}.9:.a}.b}.c}.d}.e}.f}.g}.h}.](.i}.j}.`+.k}.l}.m}.",
"Y. Y. X> Y. t(  : 5j u:.n}.n}.mL mL mL o}.o}..N +{ %} $: n| .: U. j%.p}.U. ,@.q}.q}.r}.s}.l%.1*.&-.[,.5!.5!.7*.7*.)/ )/ W1 Yd 2h Y[ ![.x:.x]. N s0 Jq Df lE t}.Q!.[H [H %, T;.<{.zR uN ~T !T 6c 6G 7G 8G u}.v}.w}.R` R` R` x}.BX y}.BX $W 5! P1 |*.T;.*, z}.5Q uD ev ED _F ]x A}.A}.vA tr `H 8T $x B}.C}.<@.n,.D}.3-.E}.F}.G}.iA H}.I}.J}.K}.L}.M}.N}.O}.P}.64 /3 Q}.R}.vQ S}.T}.U}.V}.W}.X}.Y}.(o Z}.`}. |..|.+|.@|.#|.;}.$|.{'.Ve %|.&|.*|.=|.&` ru -|.2w OP TT ;|.-` >|.No k[.,|.Zo d!.~T <{.]R GW .G {n EP *: _/ rG MH [H Q@.8h uu 6V }l !n >R l .!<.q[.e).%K 8(.m! #+..F H].9B vP +U x_.'|.As p .r[.^R )|.$R !|.~|.{|.x[.]|.^|./|.x[.(|.[<._|.:|.<|.[|.}|.||.1|.2|.3|.4|.5|.[6 6|.K&.7|.8|.9|.0|.a|.b|.A&.c|.d|.e|.f|.g|.h|.i|.yZ p~.j|.k|.l|.m|.n|.o|.p|.q|.r|.s|.t|.u|.v|.3}.w|.x|.y|.z|.A|.B|.C|.D|.E|.F|.G|.H|.I|.J|.K|.L|.M|.N|.O|.P|.O|.Q|.R|.!}.S|.T|.U|.V|.W|.X|.Y|.Z|.`|. 1..1.+1.@1.i^.#1.$1.%1.&1.*1.=1.-1.;1.>1.,1.'1.",
",/ Y. X> Y. ,/ t( 5j u:.5j 5j u:.u:.u:.u:.5j 5j )1./T +{ '9 Z. '/ u# +: A#.,@.q}.q}.s}.l%.l%.1*.!1.!1.7*.<,.<,.V> 9! 9! !l VC -9 Q1 Y[ x:.=n lL r0 5h AP ~1.{1.ft 8!.et Mq %, %, AR <M !T |h 6c )T yR 7G 8G w].w].<j @{ S` ]1./M >y xN ^1.%W LR .p <M |h ![.<_.kA _F ED ED gv qA 5v 5v tA <F 6C m!./1.(1.C}.<@.4-._1.sx :1.BQ 9Z <1.[1.}1.|1.11.21.31.41.51.61.04 F#.9,.71.81.91.!W 01.a1.b1.c1.d1.e1.`}.f1.g1.h1.i1.j1.k1.l1.m1.n1.o1.p1.q1.r1.^{ P' &` s1.iu t1.J_.Zm u1.v1.w1.EL R@.'; v< R,.8h Oq +p ;y UC _/ w%.h$.x1.!@.1c R@.Df 6h T@.T@.vP $` %` %K ah ah d$.d$..F d$.F] vP +U x_.'|.{<.y1.7&.z1.A1.a(.B1.C1.D1.E1.F1.G1.H1.pY oY I1.J1.K1.Y7 L1.M1.N1.O1.P1.Q1.R1.S1./1 7) T1.U1.ho V1.W1.X1.Y1.]*.Z1.`1.s~.f|. 2..2.+2.@2.#2.$2.%2.&2.*2.=2.-2.;2.p~.>2.,2.'2.)2.._.!2.~2.{2.]2.^2./2.z|.(2._2.:2.<2.[2.}2.|2.12.22.32.L|.42.52.62.72.82.92.92.02.a2.b2.c2.d2.e2.f2.g2.h2.i2.j2.k2.B<.{!.{!.l2.m2.`].j|.n2.o2.p2.(d q2.r2.s2.",
" : t2.u2.u2.t2. : t2.v2. :  :  :  :  :  :  :  : t( Q> Y. W% 5Z Q> W% >@.w2.*= W% ,@.x2.,@.W> W> u# u# 9! +: ,@.M7 y2.z2.z2.A2.m0 p6 X1 &} j< (j B2.7V 8B m .C2.YZ <h D2.E2.2,.>+.O@.3!.<M d!.{T :M rX 6Q vX 8c 3Z 3Z Wa @P wN 0Q z#.<J g%.(T JX F2./_.d*.!M G2.2T 8G H2.dv _F -P ,C 0v [C Rp eJ Yp I2.!P 3F J2.K2.][.L2.x^.^[.M2.N2.O2.P2.Q2.R2.S2.T2.U2.V2.W2.X2.Y2.o# S/.s*.Z2.`2. 3..3.+3.@3.#3.$3.I..%3.&3.*3.=3.-3.;3.>3.uz ,3.'3.)3.!3.~3.y| {3.]3.^3./3.(3.3Y _3.(+.,<.2H gS ru aw DW EP o[.GH ;y A# #e h$.4J Bs w%.x%.su 3H S@.6h CW 0Y 5V .G nS gj Oq /n ah :3.l .jL /9 ec <3.[3.[3.}3.7&.9Y }{.4Y Aq -l >|.]= pP |3.13.~3.23.*e G( uS Q' 33.43.53.63.ZG 73.83.93.03.a3.ff b3.c3.d3.e3.f3.g3.h3.i3.j3.k3.z(.l3.k3.m3.n3.o3.p3.T|.q3.r3.j3.j3.s3.t3.>}.u3.v3.`|.w3.x3.y3.z3.A3.B3.C3.D3.E3.F3.G3.H3.I3.J3.K3.L3.M|.f[.M3.N3.O3.P3.Q3.R3.S3.T3.U3.V3.W3.X3.Y3.Z3.`3. 4..4.+4.@4.w|.#4.$4.%4.&4.*4.=4.-4.;4.>4.,4.'4.)4.!4.~4.{4.",
"h| t2.u2.t2.t2. : t2.C#.V. V. V. V. V. V. V. V. X. *= *= xX w2.'@.*= ,@.5Z xX *= w# 5Z yX A#.v# 4! X1 p| )9 z2.z2.]4.^4.^4.$; A2.z2.;} /T /T ,9 {/ /4.(4.4h _4.RH |,.:4.<4.[4.J;.}4.F#.%, S7 |4.6Q rX 14.+P 3Z :M +P 8c }J |J |J }J NH Y` Y` '-.F2.s^.24.MR Vd 34.44.,J @F zG SR ev dt dt tA ,P 54.64.6F wy 74.K2.<@.eT v*.F:.84.R` P% 94.04.a4.b4.c4.d4.e4.f4.g4.p}.VC h4.SH i4.j4.Jt k4.l4.m4.n4.o4.p4.q4.%3..s r4.s4.t4.u4.v4.w4.ki x4.y4.z4.vW A4.{3.A4.=R XM B4.C4.r_.e .dV D4.'|.9B ]&.oS +p 1c GH Mq G#.!@.4J MH F#.lG VF >+ `% Bf }l jE 7$.7$..G .n uu Oq ah e).l .kj &b E4.-|.-|.jY jY F4.G4.E( 3w $y H4.yq I4.J4.K4.L4.M4.N4.O4.>/.P4.Q4.R4.S4.T4.U4.V4.W4.X4.Y4.Z4.`4. 5..5.+5.43 g+.@5.#5.$5.%5.&5.*5.t3.=5.-5.;5.>5.b2.,5.'5.)5.!5.~5.{5.{5.{5.]5.^5./5.'5.(5._5.:5.<5.[5.B3.}5.D3.|5.I3.15.25.35.45.55.65.75.85.85.95.05.05.a5.b5.c5.d5.e5.f5.g5.h5.i5.j5.k5.:5.l5.m5.n5.o5.`1.p5.q5.r5.s5.t5.u5.v5.w5.x5.y5.z5.A5.B5.C5.",
"v# V. D5.D5.V. V. D5.B#.V. E5.E5.E5.E5.E5.E5.E5.X. Q> *= '@.O:.>@.*= '@.xX A#.,@.xX X. v# *= F5.o| '9 ;} !3 G5.A2.$; $; ^4.^4.G5.z2.!3 l< &} +{ H5./j I5.J5.K5.{} 0w ,n L5.bZ M5.)-.ij O. 3!.); :M 8Q 14.6Q .p .p OK N` NH NH S/.S/.'-.)-.^@.S/.|J IX N5.7Z O5.@{ P5.Q5.CR hA R5.SR S5.g,.Y'.vA `K CG 6F T5./1.p..+q m!.U5.V5.W5.X5.Y5.Z5.`5. 6..6.+6.@6.#6.$6.%6.&6. (.r( ^3 aO *6.Dv =6.-6.NA ;6.UX UX >6.nM ,6.l,.'6.)6.!6.~6.{6.]6.^6./6.(6._6.iL E4.ec =R fV q_.-R FP bV !n T@.GW .n ]&.Yo 4l o[.sG cG WF D] ~F ~F H;.Mq 3H `% Jq +e 0Y Bq )<.7$..n .n gj gj :3.ah jL wP :6.:6.i[.=R @U <6.wS ,: [6.=` }6.dw |6.I4.16.Xm L_.RM 26.R' 36.36.46.56.66.76.86.96.06.a6.b6.*p c6.d6.e6.f6.g6.2} h6.i6.j6.k6.l6.m6.n6.o6.p6.q6.q6.r6.s6.t6.u6.!5.:c v6.v6.v6.w6.x6.x6.y6.z6.A6.B6.C6.z3.D6.E6.F6.G6.H6.I6.J6.K6.L6.M6.N6.O6.P6.Q6.R6.S6.T6.U6.V6.W6.X6.Y6.Z6.`6.p:. 7..7.+7.d2.c2.@7.#7.w3.c^.$7.%7.&7.f^.4/.7^.*7.=7.-7.;7.>7.,7.'7.9..",
"v# E5.D5.)7.V. E5.D5.!7.E5.E5.E5.E5.E5.E5.E5.E5.V. w# X. *= w2.A#.Q> xX ~7.F5.W> W% 5Z >@.A#.*= X> o| n( !3 A2.{7.]7.]7.]4.]4.y2.^7.p6 m0 X1 X1 h4./7..N Zd 2!.8w o# `o H#.ij NH S/.H#.qG w%.k! OK 6Q 8Q 8Q 3J .p uX N` r*.g$.OH H#.ij NH n .n .KX 0Q #{ #{ x}.(7._7.|].wU Vd hQ TR :7.OG JD p5 &o Yp ON PN . ./1.Nr %L ~I <7.[7.}7.|7.17.27.37.47.57.67.77.87.97.07.a7. (.-n qG e!.8,.b7.c7.d7.e7.St T#.r..f7.n,.w*.g7.h7.i7.j7.k7.l7.m7.n7.o7._6.p7.iL iL XM B4.-R -R </ -R q7.)<.6V .U ]&..G lE ~1.r7.Q!.1c ]F ~@.s7.cG Q@.4l Bf +e CW GP  G q7.)<..n .G lE lE !<.%K jL Ez {3.{3.i[.s1.>: F( >|.F# t7.Gf Gf u7.v7.w7.dh x7.y7.z7.A7.A| B7.C7.D7.E7.F7.G7.H7.I7.J7.K7.L7.M7.N7.O7.P7.Q7.R7.S7.T7.U7.i6.V7.W7.X7.Y7.Z7.`7. 8. 8..8.+8.@8.#8.$8.%8.&8.&8.v6.w6.{5.~5.*8.=8.-8.z6.;8.>8.,8.'8.)8.!8.~8.{8.}:.]8.^8./8.(8.1:._8.:8.C<.<8.[8.}8.|8.18.28.38.48.58.`6.68.Y3.78.88.98.(5.#7.08.a8.b8.c8.d8.e8.f8.g8.h8.i8.j8.k8.l8.m8.n8.o8.",
"p8.q8.)7.r8.E5.s8.E5.t8.q8.q8.q8.q8.q8.q8.q8.E5.D5.B#.v# B#.u8.v8.w8.r}.)@.m( x8.y8.)@.u8.u8.W. X> Z. *= W> z8.#; A8.A8.B8.C8.D8.+= ,@.>@.+: U. m< Y1 Xd bc E8.F8.%W G8.2J r( z#.z#.OH g$.O. jj 3J 3J |*.xP '+.,y @=..` _&.(&.+` H8.aO aO `T hj )-.(T T` LR (7.I8.J8.K8.wf 6G !M {M 0h 0v LX d4  I L8..q sx .q M8.gJ 2-.N8.O8.fA P8.Q8.R8.S8.T8.U8.V8.M:.W8.X8.Y8.Z8.`8. 9.*n h| O@.OH .9.+9.@9.+o #9.$9.%9.VN m!.Z/.&9.*9.=9.-9.;9.>9.,9.oI '9.q .p7.p7.p7.-+.)9.)9.!9.~9.Qo +=.6V HI z].{9.]9.mS ^9.mS p[.HH Az f)./9.su 4l @e 6h }l ^N %/.1H (9.q7.+=.nS HH lE d$.%` %` >R _9.:9.jY @U <6.%U ]= <9.k(.[9.|6.H] G( Y7 }9.R' |9.A7.A7.A7.C7.19.29.39.49.59.69.79.89.99.09.a9.b9.c9.d9.e9.f9.g9.T7.h9.i9.Z1.j9.k9.l9.m9.n9.d2.o9.p9. / q9.r9.s9.t9.u9.v9.%8.v6.w9.w6.x9.y9.z9.A9.B9.C9.D9.E9.F9.G9.H9.I9.J9.J9.K9.{^.L9.M9.N9.O9.P9.Q9.R9.S9.T9.U9.V9.W9.X9.Y9.Z9.`9. 0..0.I# +0.@7.k9.@0.#0.$0.%0.&0.*0.=0.-0.;0.>0.,0.'0.)0.!0.7S ~0.",
"{0.]0.q8.^0.s8.]0.q8.r8.q8.q8.q8.q8.q8.q8.q8.q8.!7.w8.D5.D5.o%.w8.v8./0.o%.1*.(0._0.m(  (.b< v8.Y. X> Q> *= #; A8.:0.:0.<0.A8.[0.#; '@.yX p}.w2.}0.|0.10.20.30.40.50.50.%W [4 [J [J ij H#.qG pG xP |*.'R  ` P@.xI ,y xI 05 60.P:.70.fY $=.bY n .{@.s^.24.~[.x}.3c K8.80.iA 90.GX JK v].9,.bt dJ BG (A 00. q Zp a0.E:.b0.c0.2x d0.e0.17.f0.g0.h0.i0.j0.k0.l0.m0.n0.o0.p0.q0.r0.r< 2!.g| s0.t0.u0.v0.w0.Q~.x0.y0.=o bT G%.z0.A0.B0.C0.D0.E0.F0.G0.F( $K p7.$K `C H0.I0.J0.jr +=.]&..G t_.K0.L0.lS Qo Qo ~9.~9.~9.HH Oq DW Cf `% Jq fj GP 1H (K (K b>.(9.aV aV lE {n kj Ez $` eV [3.[3.M0.[/ p_.&2 N0.O4.<9.O0.k(.P0.G( Y7 Q0.Q0.R0.S0.A7.T0.U0.V0.W0.X0.G7.Y0.Z0.`0. a..a.+a.}!.@a.#a.$a.%a.&a.*a.=a.-a.;a.C6.>a.,a.i}.98.'a.)a.!a.~a.{a.]a..&.^a./a.(a._a.:a.!5.<a.[a.}a.|a.|a.1a.2a.3a.R9.4a.5a.6a.7a.8a.9a.0a.0a.aa.ba.ca.da.ea.P9.Q9.fa.ga.ha.ia.ja.ka.la.ma.na.oa.oa.X|.pa.+0.,5.qa.ra.@<.sa.#0.ta.ua.va.wa.I<.xa.ya.$!.za.Aa.Ba.Ca.",
"Da.Ea.^0.Fa.]0.Ea.^0.Ga.^0.^0.^0.^0.^0.^0.^0.q8.)7.w8.)@.C#.o%.C#.v8.Ha.Ia.v8.b< Ja.Ka.La.v8.Ma.X. X. W% Q> Na.<0.<0.Oa.Pa.Qa.<0.Na.'@.Ra.Sa.Ra.[1.[1.Ta.Ua.10.10.Va.zX 6Z 6Z /M /M -@.-@.qG qG :l [h [h :l :l [h nE )R Wa.9O Xa.<h 6w oG C2.Ya.I#.Za.`a. b.x}.%9 .b.+b.@b.[7.#b.EX AD zD $b.tr eJ `K `K &o Vp %b.&b.*b.UR J8.=b.-b.;b.>b.,b.'b.)b.!b.~b.{b.]b.&9 ^b.g6 /b.(b._b.:b.+{ <b.[b.}b.aF aM |b.rZ 1b.%x BG `K 2b.3b.4b.5b.6b.7b.8b.9b.0b.bV F]  F 4l gj p[.o[. D AP !R {1.ab.K0.bb.<&.q7.q7.q7.aV nS +p Cf @b GW Yo fj CW Bq ^&.cb.^&.:{.db.Qo nS uu Df ^+.eb.eV +U &` &` jY [/ F( =b Q0.fb.gb.Pq hb.>, }3 ib.jb.jb.kb.lb.C7.mb.nb.dB ob.pb.qb.rb.sb.tb.ub.vb.wb.xb.yb.zb.Ab.Bb.Cb.Db.Eb.Fb.bo Gb.Hb.p9.88.)a.Ib.Ib.Ib.Jb.Kb.f( Lb.Mb.Nb.Ob.Pb.Qb.#8.Rb.Sb.Tb.z9.Ub.4a.Vb.Wb.Xb.Yb.Zb.`b. c..c.+c.+c.@c.#c.$c.%c.&c.*c.=c.-c.;c.A9.>c.,c.'c.'c.)c.!c.~c.{c.]c.^c./c.(c.m^._c.:c.<c.[c.h_.w|.<8.}c.|c.1c.2c.}I $!.3c.4c.A>.>d ",
"5c.Ea.Fa.Fa.Ea.Ea.Fa.6c.^0.^0.^0.^0.^0.^0.^0.q8.7c.)@.w8.)@.w8.B#.o%.Ha.8c.9c.0c.r}.ac.bc.9c.r}.V. W. X. cc.dc.dc.Pa.ec.Oa.fc.:0.:0.gc.U_ hc.ic.jc.kc.lc.lc.mc.nc.k| oc.yf 4Z Cs Cs 3J 'R ,y .` 8j ,n eE [h xs eE pc.Bz 4h yI uL qc.Xa.|,.'K rc.~-.sc.tc.G8.3c uc.vc.wc.w}.hA EX xc.yc.zc.bt v0 %o rx qx aT lQ Ac.Bc.mt Cc.Dc.Ec.Q8.Fc.Gc.Hc.Ic.Jc.Kc.Lc.Mc.Nc.*9 Oc.Pc.20.Qc.Rc.Sc.O1 3h Tc.Uc.Vc.Wc.Xc.=S Yc.Zc.F}.`c.m*. d..d.+d.@d.#d.$d.%d.y_.bV  F ru ]R ;y GH o[.B-.M. &d.{1.>-.&N Y,.*d.8>.>l 7$.P!.oS Bf ;+ ;+ ~9.+=.GI jE ~j ^&.B]./&.q7.db.Qo +=.4l ]R @b !9 x_.+U -|.=d.[/ G].,: NW ]; #p A@.-d.>/.;d.B< >d.*<.*<.,d.'d.)d.!d.~d.W0.{d.]d.^d./d.(d._d.:d.<d.[d.tT }d.|d.Jg 1d.2d.3d.4d.Jg 5d.6d.7d.8d.9d.0d.ad.ad.bd.e2.cd.dd.ed.fd.gd.o:.hd.id.jd.q9.kd.ld.md.nd.od.4a.pd.qd.rd.sd.td.ud.ud.vd.wd.xd.yd.zd.Ad.Bd.(:.Cd.Dd.)}.Ed.A|.Fd.Gd.Hd.Fd.Id.Jd.Kd.jd.jd.q9.Ld.Md.m^.k9.k9.Nd.Od.Pd.Qd.$3 Rd.Sd.Td.Ud.Vd.Wd.Xd.Yd.Zd.",
"`d.`d.`d. e..e..e.5c.`d.Fa.Fa.^0.^0.^0.Ga.Ga.t8.E5.D5.B#.B#.B#.D5.V. v# )@.+e.@e.o%.V. La.Ka.8c.u8.v# p8.l%.#e.$e.%e.&e.Da.*e.=e.-e.;e.>e.,e.'e.)e.!e.~e.{e.]e.]e.Ta.|0.x' ^e.4Z #W r< P1 m5 g| i0 04 `1 `1 [h xs 8j :l ^j Bz )R RH rc./e.FW qf P7 ;n _M (e._e.y}.:e..b.<e.%9 ]M CX [e.}e.s7.zA |e.lQ `H 1e.V7 9,.o5 _J 2e.3e.4e.5e.6e.7e.8e.9e.0e.ae.be.ce.de.ee.fe.ge.he.14 ie.je.ke.X2.le.me.ne.oe.pe.qe.re.ax l*.se.,P te.ue.ve.we.xe.ye.ze.T!.Ae.5(.-y Be.Ce.y].DP Ya.De.<h Ee.Fe.Fe.Ge.bb.U,.b>.:{.jE Bf Yo Df Df ]&..G >l P!.n$.AL He.;l b>.jr oS -y 4l @e 6(.wI ru ru &` =<.>: q .[6.gc Ie.Je.Ke.6l >/.jb.Le.Me.Ne.Oe.Pe.Qe.Re.Se.Te.Ue.Ve.S^.f].We.Xe.Ye.Ze.`e. f.(z .f.+f.@f.O_.#f.$f.%f.&f.Ab.*f.=f.-f.;f.>f.,f.'f.)f.!f.~f.{f.]f.v9.^f./f.b2.B6.z|.~f.(f._f.:f.<f.[f.}f.|f.1f.2f.6:.3f.!S 4f.!S 5f.6f.7f.8f.9f.n~.0f.l{.af.bf.cf.df.ef.Id.ff.gf.hf.dd.if.A|.jf.-s h_.o3.Nd.Nd.kf.lf.mf.nf.of.pf.1c.u>.qf.rf.sf.tf.uf.vf.wf.",
"xf.xf.yf.`d.`d.yf.Ea.6c.6c.6c.^0.^0.^0.^0.^0.r8.E5.V. D5.D5.D5.V. V. V. r}.C#.)@.r}.k%.u8.zf.Af.9c.,e.7c.)7.Bf.&e.^0.Ga.Cf.Df.=e.Ef.Ff.!7.D5.)7.Gf.Hf.If.Jf.Kf.Lf.Mf.R> ^e.}0.#W #W r< r< r< m5 ou ;n ;n 8w a4 [h xs xs q0 ^j Bz 4h 0w rc.Nf.b!._l 8w ]l q# Of.Pf.Qf.:e.Rf.Rf.9Z FX }e.i..cZ }C Sf.%o Qp 3v rJ 0Z uN y#.Tf.fe.Z5.Uf.Vf.Wf.Xf.Yf.Zf.`f. g..g.&9 +g.@g.#g.A2.$g.ie.%g.&g.*g.=g.-g.;g.>g.,g.oT 'g.)g.G}.!g.ur ~g.{g.]g.^g./g.(g._g.|V l$.qu @b ZC .2 N. N. 9O Ya.kS :g.i$.<g.[g.}g.U,.:{.7$.Yo +e Df Oq {n GW .G q7.5V GP ~j He.aB (9.nS GW 6h 7h S@.|g.|g.qu {<.M0.p_.wS j(.1g.2g.3g.4g.6l 5g.6g.jb.7g.{+ 8g.!&.9g.mj 0g.*G ag.bg.cg.dg.eg.fg.gg.hg.ig.jg.kg.lg.mg.ng.og.pg.qg.rg.sg.tg.ug.w).vg.wg.R^.xg.yg.yg.zg.Ag.Bg.Cg.Dg.Eg.Fg.Gg.Hg.B6.Ig.Jg.Kg.y|.Lg.Mg.Ng.Og.Pg.Qg.Rg.Sg.8/.Tg.<^.Ug.Vg.Wg.Xg.Yg.L6.Zg.85.`g. h..h.+h.m5.@h.#h.A|.$h.%h.&h.08.*h.Ed.w3.(q p3.=h.-h.;h.>h.,h.'h.0o )h.!h.~h.{h.]h.^h./h.(h._h.V).",
"xf.:h.<h.xf.`d.`d.Ea.[h.Ga.Ga.q8.s8.s8.s8.q8.E5.}h.}h.|h.|h.|h.|h.}h.}h.1h.2h.Ma.3h.3h.}h.4h.5h.Ka.(0.Ff.7c.6h.7h.Df.Ea.8h.[h.9h.=e.0h.Ff.)@.Ff.-e.ah.bh.ch.dh.eh.fh.gh.hh.hh.hh.hh.#W #W #W !} Qd P1 P1 Qd *n 8w g| a4 i0 9j q6 9j ,n eE ,n ,n -g.Fq Y2.!l Cz ih.jh.kh.lh.mh.W/.D7 L5.nh.e!.oh.tr uA Y'.4v zc.V` vN 2c b< 4_.ph.qh.rh.sh.th.uh.vh.wh.&9 xh.yh.zh.H}.H7 Ah.;3 Bh.Ch.Dh.Eh.Fh.Gh.Hh.Ih.Jh.Kh.Lh.Mh.Nh.Oh.Ph.qJ Qh.Rh.Sh.Th.Uh.Vh.Wh.v_.Xh.(/ y( Dz yI [h xs ,n #N @+ Yh.Zh.`h.bb.D-..n .U +e Jq Df 4>.Az 7h {n +=.5V ^N %/.n[.xW P!.6h 6h 6h `% ]R ^+. i..i.IW rS >: wS I_.(R 2g.P4.3g.+i.>/.Y7 z| =b 7g.@i.o_.#i.$i.i).%i.&i.*i.=i.-i.;i.>i.,i.'i.)i.!i.~i.ng.{i.]i.^i./i.(i._i.:i.<i.[i.}i.|i.1i.2i.3i.4i.5i.,~.6i.nF 7i.8i.@;.9i.0i.ai.+u bi.ci.di.ei.fi.gi.2/.V7.hi.<f.ii.ji.ki.li.mi.mi.A'.ni.oi.pi.Oe qi.ri.Vl si.ti.ui.NM vi.wi.xi.yi.zi.a8.Ai.Bi.Ci.!}.Di.j{.Ei.Ei.Fi.Gi.Hi.Ii.Ji.Ki.Li.sf.Mi.Ni.Oi.Pi.Qi.Ri.Si.",
"yf.xf.Ti.Ti. e.Ui.Ea.Fa.]0.]0.s8.s8.s8.E5.)7.)7.Vi.Vi.}h.|h.|h.}h.Vi.Wi.|h.Xi.Xi.2h. (.1h.Yi.|h.Zi.`i. j.Ef.*e.Cf..j.6c.6c.[h.+j.@j.#j.;e.y8.$j.%j.&j.*j.=j.-j.;j.>j.gh.f..k6 k6 hh.#W 4Z 4Z 2c bw 5! Cs fE P1 *n Qd a4 l5 (j yP m5 Pd Pd eE ,j.Fq 'j.)j.+} /T -9 !j.~j.<e.{j.D7 g..M5.nh.]j.^j.4v dJ 4v W` /j.(j._j.:j.^e.R> <j.[j.}j.|j.1j.2j.3j.4j.5j.6j.7j.#g.8j.9j.ie.0j.%g.aj.bj.cj.dj.ej.fj.fj.gj.hj.ij.jj.kj.lj.mj.nj.oj.pj.qj.rj.sj.tj.uj.bO vj.B] ys =y :l ,n 8j xs F'  , wj.xj.yj.zj.Aj.GW Yo `% ;+ DW Zo Az R@.uu uu ]&.5V EI EI %/.}l Bj.Jq Bf !9 ]R %` x_.IW Cj.|{.Oo ,: Dj.Ej.2g.P4.Fj.Q0.Gj.Gj.Gj.Hj.Ij.Jj.Kj.Lj.Mj.Nj.Oj.Pj.Qj.Rj.Sj.Tj.Uj.Vj.Wj.Xj.Yj.$f.Zj.`j.]i. k..k.^i.+k.@k.+~.#k.$k.%k.'d Zd.&k.6g *k.=k.fh -k.;k.>k.,k.'k.)k.!k.~k.{k.]k.^k./k.(k._k./k.:k.<k.l'.)'.[k.}k.,).7^.|k.1k.2k.3k.4k.Ve k|.5k.6k.7k.!: 8k.9k.0k.ak.bk.ck.dk.ek.fk.Dd.gk.hk.ik.jk.kk.lk.mk.nk.ok.pk.qk.rk.sk.tk.uk.vk.wk.xk.yk.zk.fh ",
"Ak.Ui.Ui. e..j..j.*e.^0.Bk.Bk.Ck.7c.p8.D5.B#.C#.Wi.Vi.Vi.}h.}h.Wi.3h.Dk.3h.Vi.Wi.Ek.1h.Ek.3h.3h.7c.n%.;e.Bf.Ga.Ga.6c.Fa.[h.Fk.@j.Gk.#j.#j.s}.;e.$j. j.s}.;e.Hk.yX w2.,@.f..f..k6 hh.}0.^e.Wd Wd hh.x' S1 S1 n0 S1 HR 3h 3h 3h E8.q< W1 h5 9w ;/ ${ Ik.Jk.:b.S1 X1 yf Wd Kk.Lk.Mk.24.)-.k..Nk.O~.$b ^C :7.1-.Ok.`a.Pk.Qk.Rk.Sk.Tk.Uk.Vk.Wk.F7 *9 Xk.Yk.Zk.nc.he.`k.f.. l.07..l.+l. 9.@l.#l.$l.G8.%l.^_.&l.*l.=l.-l.;l.>l.,l.'l.)l.!l.~l.{l.]l.^l./l.(l._l.Wo _4.0w 0j ~3 94 k0 :l.<l.[l.}l.|l.1l.0).@e @e >+ cc A# UC Mq lG Va /n .U .G (9.%/.A].!n 2l.@b Cf !9 S@.)9.F] cV Cj.|{.Oo ,: Dj.3l._|.uS Hj.Gj.4l.4l.5l.6l.7l.8l.9l.0l.al.bl.cl.dl.el.fl.gl.hl.il.jl.kl.ll.ml.nl.pg.ol.pl.ql.rl.sl./i.tl.ul.vl.wl.xl.yl.zl.Al.Bl.7R Cl.Dl.El.ic Fl._9 Gl.Hl.Il.Jl.Kl.-k.h&.eB 4'.Ll.Ml.Nl.Ol.Pl.Ql.Rl.Sl.Tl.,,.,,.a~.Ul.Vl.Wl.Xl.Yl.Zl.`l. m..m.+m.@m.#m.nk $m.%m./*.]{.&m.*m.Sd.=m.-m.;m.>m.!y ,m.Dl.'m.)m.!m.~m.{m.]m.)d ^m./m.(m.=k mf._m.",
":m.<m.Ui.yf.Ea.8h.Df.Df.Bk.Bk.Ck.7c.v# V. B#.C#.Vi.Vi.}h.Vi.Vi.Wi.3h.3h.1h.Vi.|h.Wi.3h.Vi.Wi.[m.E5.!7.t8.t8.*e.Cf.8h.5c.}m.Fk.@j.|m.1m.2m. j.>e./0.r}.3*.1*.w2.F5.w2.'@.v( f..k6 hh.}0.^e.Wd ~l k6 }0.x' zX Ah.HR zf JR 3m.Pk.4m.Pk.F8.vs *K v] z' ~3 5m.6m.7m. e }j 8m.#W AX 9m.0m.L5.am.bm.Av Y'.p5 cm.[e.dm.em.fm.gm.hm.im.jm.km.lm.mm.nm.@g.om.j6 pm.qm.|0.G5.Bh.rm.sm.tm.um._e.vm.wm.^1.o# xm.ym.zm.Am.Bm.Cm.Dm.[7.IU Em.Fm.!l.Gm.mO Hm.Im.Jm.bb.Km.Wo Lm.+b sL m| sL W1 Mm.Nm.Om.Pm.|l.Qm.h! )= EP .=.#b A# #b #e G#.Mq ;y +p .G nS jE Ae.9(.2l. i.s0 @b S@.H].H].cV 0(.>: ,: K1.Ej.Rm.Sm.QW Y7 Tm.Um.Vm.Wm.Xm.Ym.Zm.`m. n..n.+n.@n.#n.$n.j-.%n.&n.fl.*n.=n.-n.;n.>n.,n.'n.D[.)n.!n.)d ~n.6d {n.]n.^n./n.(n._n.:n.<n.[n.}n.|n.1n.2n.Fl.3n.4n.5n.6n.7n.8n.9n.0n.an.uk.bn.cn.dn.zg.en.fn.gn.hn.in.jn.kn.ln.mn.nn.on.pn.qn.rn.'/.!y sn.tn.un.'/.vn.wn.xn.yn.zn.An.zn.zn.Bn.Cn.ya.Dn.En.Fn.Gn.Hn.In.Jn.Ji.Kn.Oi.Ln.~i.Mn./m.Nn.On.Pn.",
"Qn.Rn.Fk.Fa.5c.5c.Ga.t8.p8.p8. (. (.Sn.h|  :  : 2h.2h.|h.}h.Vi.Vi.Vi.Vi.Wi.Yi.[m. (.Ma.Dk.Ek. (.Tn.Un.Vn.Wn.Xn.Yn.Zn.`n. o..o.+o.@o.#o.$o.%o.&o.*o.=o.-o.-o.=o.;o.p}.E#.yX yX k6 hh.}0.^e.|0.|0.>o.,o.|0.|0.>o.Va.Va.Ah.Ah.HR KR 'o.)o.!o.-3 3h '} W1 >3 f< zf  e P` ~o.p] 7B wN {o.]o.^o.4,./o.bC A}.cm.x1.!].tc.(o.X2._o.@e.:o.hm.<o.^7.[o.nm.he.Sk.}o.|o.jm.1o.40.2o.3o.4o.5o.(e.6o.7o.8o.9o.>K 0o.Ik.dm.ao.bo.co.do.eo.fo.go.ho.io.jo.ko.lo.mo.*d.no.^/ oo.{/ w( ,9 po.0! qo.Nm.ro.so.to.uo.(/ ){ DW #e UC S7 .& d!.F#.[H 1c 8h Oq 6V CW zs 2l.-y s0 ;+ Df 7h vP ~<.e .vo.wo.j(.(R xo.yo.zo.Ao.6l.Bo.Co.Do.Eo.Fo.<|.Go.Ho.Io.Jo.Ko.Lo.Mo.No.T..Oo.Po.Qo.Ro.So.To.Uo.Vo.Wo.Xo.Yo.Zo.`o. p..p.+p.@p.#p.$p.%p.&p.*p.=p.-p.;p.>p.,p.ya.'p.)p.!p.~p.{p.]p.^p./p.(p._p.:p.9 .V).<p.wf.[p.}p.|p.1p.2p.3p.4p.5p.6p.7p.7p.8p.9p.0p.ap.bp.-k.cp.cp.dp.ep.fp.gp.hp.ip.jp.kp.kp.lp.mp.qM np.op.ob.pp.qp.rp. f sp.tp.up. :.vp.p-.km wp.xp.yp.zp.",
"Ap.Bp.Cp.Dp.6c.%e.%e.Bk.r8.E5.p8.7c. (.Ma.Ma.Ma.b< Ck.2h.Ep.}h.Un.|h.Ep. (.Fp.Wi.Gp.[m.Tn.Wi.Hp.Fp.Ep.Ip.Jp.Kp.%e.%e.Yn.Yn.Lp.Mp.Np.Op.#j.Pp.>e.,e.=o.Qp.q}.q}.q}.w2.F5.fh.fh.;j.R> Rp.lm.[1.Sp.Tp.|0.O2.lm.>o.10.Tp.>o.>o.oc.Va.x' Up.a7.7m.Vp.Wp.-g.Xp.Yp.zf Zp.`p. q.Pf.bw x].vX s^.^o.]@.!F .q.2M +q.@q.(j.6o.#q.$q.%q.7m.a7.&q.y}.*q.DR Q1 )9 Ra.A#.>@.=q.-q.~7.}0.;q.:j.(e.>q.,q.'q.)q.8o.]/ #N !q.~q.W/.Mk.{q.]q.^q.yD i4./q.(q._q.:q.<q.[q.}q.iE 8B |q.)l -K h4.mL 1q.2q.3q.4q.so.5q.6q.(/ ){ DW 5B 5B .=._/ x%.x%.H;.]F 1c R@.DW `% @b i! su R@.4l db.)<.0(.7q.8q.9q.0q.z[.:|.Ao.E1.aq.pY bq.cq.dq.eq.fq.gq.hq.M_.iq.jq.rC kq.lq.mq.yC nq.t^ G) i^ oq.pq.qq.rq.sq.tq.sb.uq.vq.wq.xq.yq.+p.zq.Aq.Bq.)n.Cq.Dq.Eq.Fq.Gq.Hq.Iq.Jq.Kq.Lq.Mq.Nq.Oq.Pq.Qq.Rq.Sq.Tq.Uq.Vq.Wq.Xq.5'.Yq.Zq.`q. r..r.+r.@r.#r.$r.%r.&r.xu 1).*r.=r.-r.;r.>r.,r.'r.wn.)r.!r.~r.{r.]r.^r.^r./r.(r._r.:r.<r.[r.}r.|r.1r.oi 2r.3r.4r.3i.5r.6r.7r.8r.9r.0r.ar.",
"Xn.br.cr.dr.Lp.%e.er.+o.Np.fr.gr.$e.$e.hr.Wn.Vn.ir.Vn.Fp.Vn.Fp.Vn.Un.Wn.Bk.ir.Un.Vn.jr.Jp.Tn.Bk.kr.lr.mr.nr.or.pr.qr.rr.hr.Kp.=e.N:.N:.sr.tr.*j.ur.dh.vr.eh.sr.sr.vr.dh.wr.xr.yr.zr.Ar.)e.Br.Cr.R> x' >o.,o.Sp.Ta.mc.Dr.nc.Zk.O2.R> lm.;3 Er.U1 Fr.Gr.Yp.Hr.Hr.Yp.Ir.Jr.$l.tc.Cs =n hE l..Kr.Lr.ID SK 2M 8v 8v 8v 9v EX @q.V` /j./j.IU Mr._T f6 2j !l Nr.Or.Pr.Qr.ac.Rr.Sr.:o.Zp.Tr.Ur.'q.Vr.Wr.*y Xr.,j.8o.Yr.Zr.`r. s..s.+s.Kh.@s.#s.$s.kx %s.&s.n .Q7 *s.=s./4.-s.|H ;s.>s.<l.,s.G' 's.BI )s.K' {+.{R AP !s.$N YZ (&.60.aO >+.O@. 2 9V `Z `Z (l OK ,F Zo }l 6&.~s.{s.]s.^s./s.(s._s.:s.<s.[s.B .}s.|s.qY &e 1s.lj 2s.3s.4s.K .5s.6s.7s.8s.9s.z^ nN xR I! 0s.as.bs.cs.ds.es.fs.gs.hs.is.js.ks.ls.ms.ns.os.ps.qs.rs.!n.ss.ts.us.vs.ws.xs.ys.zs.As.Bs.Cs.Ds.cm .^.em fm Es.y).Fs.Gs.Hs.Is.Js.Ks.Ls.Ms.Fg.Ns.Os.Ps.8p.Qs.Rs.Ss.Ts.Us.Vs.Ws.Xs.Ys.Zs.`s.hp._r. t..t.EJ +t.@t.#t.$t.%t.&t.*t.=t.-t.;t.>t.j4 d[.yq.,t.'t.)t.!t.~t.{t.qi ]t.",
"^t.Np.Np.@o./t.@o.(t.Yn.Np._t._t.Mp.Xn.Yn.Yn.er.{0.{0.Vn.ir.Wn.Wn.Wn.hr.{0.ir.ir.{0.ir.gr.gr.hr.:t.<t.[t.}t.|t.1t.qr.pr.Ep.2t.#e.#j.sr.eh.dh.-j.Kf.Lf.Lf.Lf.Lf.3t.4t.5t.6t.7t.Cp.8t.8t.8t.8t.Br.9t.|0.R> 0t.at.bt.ct.3_.dt.lc.et.Zk.ft.20.gt.gt.KR ht.:b.)j.)j.Gr.it.jt.tc.kt.tc.lt.fE *n (M Mk.8v fv ]x ]x ]x ]x :x qA lt lt 7T 0v S5.:7.0v 4J ^n ac w( mt.Or.nt._0.ot.pt.bc.qt.a7.vm.=l.hj.rt.st.9O z%.)+. ` wN tt.ut.vt.wt.^q.^q.bC T'.Y'.$b.1-.zD 4!./j xt.yt.zt.At.Bt.Ct.Dt.Dt.'s.BI Et.`F Ft.0).z].AP AP nG YZ B-.>+.#=.^3 r|  N `M )+.G2.Gt.Ht.3!.z-.A].C].It.Jt.Kt.Lt.Mt.Nt.OF Ot.Ot.Pt.Qt.4l.3l.Ff Rt.St.Tt.Ut.Vt.Wt.Xt.Yt.Zt.`t. u..u.3* b7 m: +u.~[ @u.#u.$u.%u.&u.*u.fs.=u.4g Rq 5g -u.tl.;u.ul.>u.,u.'u.)u.!u.~u.Fn.%t.{u./,.]u.^u./u.(u._u.U(.:u.mk <u.[u.}u.|u.&O ,i Oi.h6.Fn 1u.kf.2u.,,.3u.4u.5u.',.Gg G'.Z=.6u.7u.g~.!L 8u.9u.0u.au.bu.cu.xa.du.eu.fu.gu.Dn.'r.1r.hu.iu.1r.ju.ku.lu.3u.mu.nu.ou.pu.qu.ru.su.tu.uu.vu.",
"_t.+o.wu.+o.br.xu.Mp.Da.(t.xu.yu.zu.Mp.Au.Bu.Bu.Bk.Bk.{0.Wn.Cu.Jp.Cu.Kp.Vn.Bk.{0.Wn.gr.ir.ir.hr.:t.Du.Eu.Fu.Gu.qr.Ck.Ck.Un.Hu.#j.%j.2m.1m.vr.dh.Kf.Lf.Kf.Iu.Jf.Ju.Ku.Lu.Mu.Nu.Ou.Pu.Bp.Qu.Qu.yr.Ru.gh.>j.ur.Kf.!e.{e.Su.Tu.Uu.Uu.kc.Vu.Wu.Xu.hc.Bh.Yu.&q.KR 7m.Zu.`u. v..v.7m.+v.@v.xN _j Ds g..9v 8v 8v 9v _F ED FD HN ,C FD ct u0 u0 ct ct zD bZ )} 2!.5j ,/ #v.$v.%v.&v.Zi.'/ o| Ds *v.=v.-v.;v.>v.jj  N c!.7Q ,v.)T 'v.wD )v.!v.i!.T'.oh.$b.zc.!F xI z%.z%.z%.I5.-s.~v.{v.3q.]v.^v./v.(v.(v.B] 5h !s. D <4 XZ nG mG ,+.dY t< {} `M lL `M A-.W~.v< *: @e 9Y */._v.:v.<v.[v.}v.|v.1v.2v.3v.]H 4v.5v.Ij.6v.7v.8v.9v.0v.av.bv.cv.dv.No.ev.fv.gv.f^ z3 ._ B^ q` hv.iv.jv.kv.lv.mv.nv.ov.pv.qv.rv.sv.tv.uv.vv.wv.HJ xv.yv.zv.Av.Bv.Cv.xa.ni Dv.Ev.Fv.Gv.Hv.],.T{.Iv.<u.u5.Jv.Kv.Lv.cp.3'.Mv.pb.Nv.Ov.WG Pv.Qv.Vl Rv.Sv.*Y XJ Tv.Uv.Vv.Wv.Xv.Yv.Zv.`v. w..w.+w.@w.#w.$w.gu.%w.&w.*w.=w.-w.;w.>w.,w.Hg 'w.{k.)w.Js.!w.~w.{w.]w.^w./w.Wt.(w.",
"^t._w._t._w.Mp.wu.Au.Au.Yn.^t.:w.xu.+o.Au.Da.Bu.{0.$e.Bk.hr.Jp.<w.<w.[w.hr.$e.Bk.Cu.fr.Wn.$e.$e.1t.}w.<t.Du.kr.qr.Bk.Ck.Hp.Gp.1m.%j.2m.1m.vr.Lf.Kf.Lf.3t.Iu.!e.Jf.|w.Mu.Lu.1w.}m.Ou.2w.Qu.Qu.57.3w.4w.5w.bh.|w.6w.7w.8w.9w.0w.Tu.Tu.kc.Wu.aw.bw.$g.cw.Ch.ie.dw.ew.`u.`u.fw.'o.gw.hw.#q.[4 XF r< EX EX EX uD DX 7v ,C FD GD GD u0 ]9 ]9 u0 ]9 BD AD iw.g%.Gq jw.kw.lw.mw.Ha.y8..: po.W1 6j nw.ow.u0.P:.'+.rf 9o. : pw.,v.qw.vt.RR W5.rw.OG }C JD 1-.}e..` t< z%./j I5.qL sw.{v.]v.tw.ZF |q.uw.uw.5h @` !s.YZ bY XZ #=.DP /3 vw.t< t< c!. N lL  N '; *: cc GW nO ww.xw.H@.yw.zw.zw.Aw.Bw.Cw.bq.Dw.Ew.Fw.Le.P4.Gw.Hw.Iw.Jw.Mn.Kw.Lw.Mw.Nw.5  Ow.Pw.'> U4 *5 m/ {] Qw.Rw.Sw.Tw.Uw.Vw.Ww.Xw.3g Yw.Zw.`w. x..x.+x.@x.#x.$x.%x.&x.*x.=x.-x.;x.>x./r.,x.'x.)x.!x.~x.{x.]x.^x./x.(x._x.:x.<x.[x.}x.|x.1x.2x.xn.3x.4x.5x.6x.f~.7x.8x.9x.0x.ax.bx.cx.dx.ex.fx.gx.hx.ix.jx.kx.lx.mx.nx.ox.px.qx.rx.sx.tx.ux.vx.wx.xx.yx.zx.Ax.Bx.Cx.Dx.Ex.Fx.Gx.Hx.",
"(t._t.Ix._t.Yn.%e.Jx.Xn.Bu.Yn.Kx.+o.(t.Xn.er.er.Vn.Bk.$e.Vn.Cu.<w.Lx.Mx.<w.hr.$e.gr.Jp.Kp.{0.$e.1t.Nx.Gu.Gu.kr.qr.Ck.Ck.Kp.Ox.Op.[w.|m.|m.wr.Px.Kf.Hf.|w.Hf.If.Jf.If.Ju.Mu.Qx.Lu.Mu.|w.Ju.Rx.Hf.Br.Sx.Tx.Ux.Vx.Qn.Wx.Xx.Yx.Zx.`x. y..y.+y.@y.#y.$y.j6 cw.%y.&y.*y.=y.-y.;y.>y.:j.7m.KR .b *K 2h >y wN T` GX N5.GX _T )F mt FD :3 :F cJ cJ sA yA IN dt _T }J ,y.'y.Sc.Or.U. Z. 9! S. @: m| @} )y.2,.2,.^o.!y.LH `a u}.qw.wt..s.R5.>I eC JA JD LX i..V` -@.)+.~y.z%.=K Mm.@N YF YF |H {y.{y.N@.Iq $N m .$N >+.05 $=.ZZ .2 {} s| `Z {} t< {} ~} ^3 '+ Cf #` 0Y U!.]y._<.^y./y.(y._y.:y.oY <y.[y.Ao.TT }6.%& ^H }y.|y.'r.uu.1y.2y.3y.4y.5y.6y.7y.3* v} f2 e2 #* ,| {] 8y.RI 9y.0y.ay.by.cy.dy.ey.fy.gy.hy.iy.jy.ky.qg.ly.my.ny.*x.oy.py.qy.ry.sy.,x.ty.,/.uy.vy.wy.xy.yy.zy.Ay.By.Cy.Dy.Ey.Fy.Gy.Hy.Iy.Vs.Jy.Ky.Ly.My.Ny.Oy.Py.Qy.Ry.Sy.Ty.Uy.Vy.Wy.Xy.Yy.Zy.`y. z..z.+z.@z.#z.$z.%z.&z.*z.=z.-z.;z.rp >z.,z.bo 'z.)z.!z.~z.{z.]z.^z./z.(z.",
"+o.^t.@o.Np.Kx.Yn.Au.Yn.Yn.Bu.Da.Yn.Lp.Lp.Xn.Xn.Vn.{0.Bk.{0.Wn.fr._z.:z.<z.<w.Vn.Bk.ir.Wn.hr.hr.kr.Nx.kr.kr.kr.pr.b< Ck.Wn.[z.fr.Op.Gk.|m.ah.xr.Cp.Rx.Hf.Hf.Rx.If.~e.{e.}z.!e.Ju.Rx.Rx.Hf.|w.|z.Br.Ap.1z.2z.Q2.3z.4z.5z.6z.Xx.7z.8z.9z.0z.+y.az.m0.bz.Dr.cz.dz.14 ez.fz.>y.gz.Zu.7m.JR hz.jw.*K }H hE  p ~[.24.(j.IX NR 0Z !C +z ]C XH XH bx iz.jz.]C CD :J  b `a.kz.lz.V% Sn.v:.B' mz.T% @} nz.P'.E2.oz.pz.)F tN 8G vt.'v.[7.)v.)v.bC eC qz.^F h..@q.}J 5O {} t< J5.1q.@N @N YF N'.{y.N'.pu 4h nG 0B Fz Fz Fz 0O r6 vw.~y.s| 9V s| z%./j `Z Q7 S@.Yo !n cO rz.sz.tz.uz.vz.vz.wz.xz.yz.zz.qI zo.Az.6D Bz.oP Cz.Dz.Ez.Fz.Gz.Hz.Iz.Jz.Kz.Lz.Mz.'> !Y 37 U4 =[ j_ _$.Nz.Oz.Pz.Qz.Rz.Sz.Tz.>i..;.Uz.Vz.Wz.ky.jy.Wo.Xz.Yz.Zz.`z.4<.oy.,p. A.z$..A.+A.@A.&<.eg #A.$A.%A.&A.*A.=A.-A.;A.>A.,A.'A.)A.!A.~A.{A.]A.^A./A.Xv.(A._A.:A.<A.[A.}A.|A.1A.2A.3A.4A.5A.6A.7A.8A.9A.0A.aA.bA.cA.dA.eA.fA.gA.hA.iA.jA.tT |d.kA.lA.mA.nA.oA.pA.qA.rA.sA.tA.",
"_w.Np.(t.Mp.Np.Np.Kx.Au.Lp.er.Jx.Au.Xn.Yn.Au.Yn.Da.Bu.Bu.Da.Jx.Yn.+o.br.uA.vA.^t.er.Jx.er.Yn.hr.Gu.kr.Fp.Fp.Ep.Ep.Vn.{0.Bk.Wn.Mp.@o._w._w._t.xr.Pu.wA.2w.Cp.7t.Pu.Bp.xA.yA.yA.]e.bh.Iu.Kf.Kf.Iu.2w.8t.Qu.zA.U8.AA.BA.CA.DA.EA.Zx.FA.GA.zA..y.HA.IA.JA.G7 KA.LA.MA.NA.OA.PA.cw.Yu.QA.RA.3m.KR bc >3 h< 0c /M xN g..d*.'F _T SA.6J $2 TA.)x TA.bx UA. z xr _x KK 24.y}.JR VA..: *{ U% N% WA.XA.O7 Ya.YA.ZA.dC `A. B.Cc..B.H2.+B.lj.lj.!I !I vA !x ct @B.>W 'R mE {} J5.)l 7!.7!.YC )l )l jS P7 p0 mG UC .=.#b ~9 '+ t| ,+ C] A( A( vw.#B.Q,.,+ cc fj 2l ~n $B.i(.B1.%B.&B.$m *B.Ao.=B.-B.SM t5 }3 hu nY vu ;B.du.>B.,B.'B.)B.!B.~B.{B.]B.>- uH $1 dW ^B.f2 $a q9 1L ~u /B.(B._B.:B.<B.[B.}B.|B.1B.2B.3B.Wo.4B.5B.6B.7B.8B.9B.0B.aB.bB.k8.Oe cB.B'.dB.b| eB.fB.gB.hB.P{.iB.jB.kB.lB.mB.nB.oB.pB.qB.rB.sB.tB.uB.vB.wB.xB.yB.V0.zB.(!.AB.BB.2A.!r.CB.DB.EB.FB.GB.HB.IB.JB.KB.LB.MB.NB.OB.PB.QB.1t RB.SB.TB.UB.VB.WB.XB.YB.ZB.`B. C..C.+C.@C.",
"/t.@o.Np.Np.Np.Np.Kx.Xn.Kx.Au.Bu.Au.Au.Jx.Jx.er.%e.Bu.Au.Da.%e.%e.Yn.+o.vA.cr.vA.+o.er.er.er.Jx.#C.Gu.Fp.Fp.Ep.Ep.ir.Vn.$e.Vn.Mp._w._t._t._t.$C.%C.&C.Ap.Bp.7t.*C.8t.=C.If.ch.ch.Iu.dh.3t.-j.bh.Br.Qu.Qu.Rn.-C.;C.Yx.37.>C.,C.'C.)C.!C. y.~C.{C.]C.wh.^C./C.]b.(C.yh.ge.cw.ez.=y.dw.`u.7m.IR JR &; T. :,.}H Uo [4 l..(T /_.yD ]9 yA +z _C.:C.yy `y Jr <C.WH FD CX ~[.[C.o| X> >/ }C.|C.1C.={ {/ pc.E2.2C.3C.4C.5C.qw.do.6C.7C.;I ;I !I iQ tr Rp ct 8C.h..%, ~} {} J5.x( Mm.Mm.)l x( %: jS P7 '+._/ .=.#b '+ +2 t| t| +2 t| ){ n5 n5 i! )= >+ Cf 9C.$B.rz.*/.B1.0C.aC.C_.bC.zo.cC.=B.dC.': eC.I4.fC.gC.hC.iC.jC.kC.lC.mC.nC.yC oC.$B .* +' $' L  cW m8 *1 f2 u} A3 pC.:s qC.rC.sC.R].tC.uC.vC.wC.xC.yC.zC.AC.BC.rl.ny.CC.DC.EC.Ze FC./x.V{.GC.HC.IC.JC.KC.LC.MC.NC.OC.PC.QC.RC.SC.TC.UC.VC.WC.XC.YC.ZC.`C. D..D.+D.@D.43.Lo #D.$D.J] %D.Ly.&D.*D.=D.-D.-D.;D.>D.,D.'D.)D.!D.~D.{D.]D.^D./D.(D._D.:D.<D.[D.}D.|D.1D.2D.3D.4D.5D.6D.7D.8D.",
"_t.br.zu.:w.zu._w.Lp.er.Mp.Yn.Bu.Yn.Xn.Bu.Jx.Da.Jx.Au.Au.Jx.%e.Da.er.er.%e.zu.+6.9D.Kx.Jx.Yn.er.Un.Bk.Bk.Ck.Vn.{0.{0.ir.er.Jx.Bu.Mp.0D.aD.bD.cD.dD.aD.eD.fD.gD.gD.hD.iD.kc.Ru.jD.0t.O2.Sp.>o.4w.kD.gD.Sx.xA.!C.Xx.lD.mD. 6.`5.nD.zA.0z.oD.pD.qD.rD.sD.sD.tD.uD.vD.wD.xD.&y.yD.zD.AD.hm.BD.fm.CD.DD.mt.ED.0c $} P1 ^n s^./_.FD.D@.yA yA 6J +z bx GD.Kr HD.9A vr |T ID.JD.VC KD.LD.Z> c! MD.ND.F' 3,.Av fo.`A.OD.PD.6C.QD.RD.SD.TD.UD.6T VD.3v 0C }C WD.XD.F#.{} /j l0 ~y.-K H5.~y.~y.ZT +b O@.'+.T;.&, +2 '+ +2 ,+ i! >+ )= ]R Cf `% s0 ;+ Cf 0Y 0b.}R A_.YD.ZD.B_.y[.1g.`D. E..E.Y7 +E.@E.}O #E.$E.%E.&E.*E.=E.-E.;E.>E.,E.oC.'E.0- 7- M  ~6 ~6 >g )E.)E.dW *1 O) *[ )u c- !E.~E.{E.]E.^E./E.(E.sv._E.:E.<E.)u.[E.}E.}n.|E.1E.2E.Ie oi.3E.}:.4E.%E 5E./!.6E.7E.8E.PC.9E.0E.aE.bE.y4.cE.dE.eE.fE.gE.hE.iE.jE.kE.lE.mE.nE.oE.eg fB.pE.qE.rE.sE.tE.uE.vE.wE.bA.'D.xE.yE.zE.AE.BE.ss.CE.DE.EE.FE.6d GE.U].HE.IE.JE.KE.x!.LE.ME.NE.OE.7D.PE.",
"zu.xu._t._w.@o.^t.Mp.Kx.wu.er.Bu.Yn.Xn.er.Jx.Da.%e.Bu.er.Jx.%e.Bu.Yn.Yn.Bu.+o.uA.QE.Ix.(t.Yn.%e.ir.Ck.Ck.Un.Wn.Wn.gr.Cu.(t.@o.zu.xu.RE.SE.TE.UE.0D.eD.VE.VE.WE.XE.YE.ZE.=j.}o.10.T1 `E.Va.^e. F.>j.=j..F.Cr.=C.Tu.7z.+F.&C.@F.Vx.Uu.#F.$F.%F.&F.xD.*F.=F.-F.;F.xD.>F.>F.,F.'F.)F.hm.AD.BD.Qk.!F.~F.{F.]F.^F.*K vs 1J 2J /F.U/.(F.^F bG 7J dt iz._F.:F.3@.<F.[F.sJ }F.9m.XF 5j mL )/ 7! |F.1F.2F.D2.bF ZA.`A.dC ^q.SD.QD.RD.SD.,z TD.N;.VD.dJ SN LX LX 3F.H;..2 {} pu g5 YC x( H5.{} %: ,].4!.P@..& !{ *: +2 t| i! i! Cf `% qu 9(.T@.jE 7$.GI 9Y 4F.^<.5F.6F.7F.H_.Dj.J_.8F.9F.0F.*e }O OW ~3.aF.bF.cF.dF.eF.fF.gF.hF.iF.|@ $Z t@ C  E  |* 0I 0I &1 J  J  &1 *] B) '> D@ jF.(B.kF.lF.mF.nF.oF.pF.qF.~n.rF.sF.tF.uF.vF.wF.xF.yF.zF.AF.w;.BF.CF.SA DJ DF.EF.FF.GF.%A.Le HF.IF.JF.KF.LF.MF.NF.OF.PF.QF.D7.RF.SF.TF.YJ UF.eB.VF.WF.XF.'0.YF.ZF.`F. G..G.+G.@G.#G.$G.%G.&G.*G.=G.-G.;G.>G.,G.'G.)G.!G.~G.{G.]G.^G./G.(G._G.:G.<G.[G.}G.|G.1G.",
"_t._w.^t.^t.^t.^t.Np.Mp.Au.Bu.Bu.Yn.Yn.er.Jx.Jx.2G.3G.`n.2G.2G.Zn.4G.4G.4G.3G.5G.6G.7G..6.8G.Jx.s8.{0.s8.9G.gr.Wn.Lp.Np.Np.dr.0G.aG.bG.cG.dG.eG.fG.gG.hG.Mx.hG.iG.s}.jG.[0.>@.zX HR O` bw 4Z a< n0 x' kG.lm.*j.Ta.]e.lc.zr.et.jc.lG.ic.mG.nG.gt.oG.pG.qG.rG.sG.tG.uG.vG.-y.-y.wG.BD.xG.Af.bc.yG.mt.zG.AG.zG.q< h< ~3 1J e*.8o.^o.4J MH ^F x1.!x Lr BG.Ir <C.tJ 8C. B.Yr.%W 3j /7.)3 >K CG.DG.5,.Nk.EG.eC 8C.NG LA SD.FG.GG.HG.UD.TD.:-.vJ h,.9C IG.<3 |C ft r0 /3 y( nE w] {y.JG.JG.+G dY r6 Q7 +2 KG.LG.MG.MG.|g.wI +U ru {<.v6 z1./+.NG.OG.PG.H_./<.9q.B_.Dj.QG.RG.(R ib.g4 Hf 23.SG.TG.m7.UG.VG.WG.XG.YG.ZG.`G. H..H.T3 y  $% F  F  P) z@ z@ => $' i~ B) a1 a1 t  s  +H.@H.#H.$H.%H.*u.&H.*H.=H.-H.jC.WP ;H.pO >H.$t.,H.'H.)H.!H.^,.~H.{H.]H.^H./H.(H._H.EJ :H.<H.[H.}H.|H.1H.1H.2H.3H.4H.NC.PM 5H.6H.7H.8H.9H.Ke 0H.aH.bH.cH.dH.Hq.eH.fH.gH.hH.iH.jH.kH.lH.mH.nH.oH.pH.qH.rH.sH.tH.uH.vH.wH.xH.yH.zH.AH.BH.~y CH.DH.EH.FH.GH.HH.1G.",
"wu.Lp.Mp.@o./t._w.Np.(t.Xn.Au.er.er.Bu.Da.Jx.Jx.2G.`n.`n.2G.2G.Zn. o.IH..o.2G.IH..6.JH.JH.aD.KH.s8.{0.s8.t8.hr.ir.Yn.Mp.Kx._t.LH.MH.NH.OH.TE.PH.rr.QH.2t.Hp.2t.Ek.w8.u2.'/ .: *K *K ou ou m5 X[ Uo Uo .b .b Va.Tp.Tp.Tp.RH.SH.TH.TH.HR 9c vs Ds }].UH.{j. s.{j.{j.Kk.VH.WH.>y.XH.YH.ZH.`H. I.&v..I.+I.U% T. 5m.n| o6 @I.#I.r^.I#.]@.]@.KX ij U7 Lr $I.xy %I.tJ ID FX FX ID.2j )1.yP g< )y.7,.J;.]j.&I.eC 8C.L%.MA 6C.*I.GG.=I.,I FN cM cM k*.C%.yv -I.;I.>I.,I.6>.'I.:g.)I.]/ J~.+G /3 .2 .2 *: !I.~I.~I.@b |g.'|.ru cV cV 0(.OG.{I.]I.^I./I.JP (I._I.f(.:I.<I.[I.}I.`D.r1.': PW |I.1I.i>.2I.3I.Nj.4I.nl.5I.6I.7I.8I.#  *> }* F  F  P) /6 z@ $' $' &[ h~ ,> p^ '( Xb 9I.0I.aI.ib e+.bI.es.&H.sg.)d cI.dI.Kz eI.Jw.fI.gI..t.^r.hI.iI.D{.Zw {H.Eg TA jI.N|.kI.lI.aL mI.nI.oI.pI.qI.rI.sI.Xv.tI.uI.My.vI.wI.xI.yI.zI.AI.BI.CI.M3.DI.EI.FI.GI.HI.II.JI.KI.LI.MI.NI.OI.<(.PI.QI.RI.SI.TI.UI.zH.VI.WI.XI.YI.O>.ZI.`I. J..J.+J.e3.@J.#J.$J.%J.",
"Da.Bu.Xn.(t.^t._w.@o.Np.Mp.Kx.Xn.Bu.%e.%e.Jx.Jx.`n.Zn.`n.2G.2G.Zn.IH.`n.4G.3G.3G.4G.&J.eD.*J.=J.Ef.-J.r8.t8.^0.Da.er.wu.KH.dD.;J.NH.>J.,J.'J.)J.!J.U2.~J.{J.Wi.q%.nt.!1.&{ }C.#} m| ,].,].p0 xs eE ,j.6j r( _M gw.gw.]J.!j.^J.6Z  p )} o# xs eE uX AR 4Q ]M D7 Mk./J.Tr.bj.fw.(J.BD._J.:J.<J.[J.&6.F8.Y2.vs 34 Y2.p< }J.|J.1J.2J.3J.)].]_.]n !F `c.$I.xy 4J.5J.ID vD EX ID.6J.h4.c!.eE 4,.R'.8,.pe.U'.eC 8C.L%.MA 7J.8J.9J.0J.aJ.bJ.@L @L 9C PG cJ.dJ.eJ.fJ.~+.gJ.'I.!K ^v.hJ.ZC (4.&: Ce.L' i! ~I.@b @b @b '|.IW HW iJ.A1.jJ.}R 4F.V@.H_.D_.kJ.y[.lJ.QG.RG.I_.j(.mJ.nJ.oJ.[} ~3.pJ.qJ.rJ.sJ.tJ.j).uJ.vJ.wJ.xJ.yJ.=- 4* A@ tm B9 B9 $H S: &1 i~ +' %' C@ t  '( =[ j_ _$.D/ zJ.3|.AJ.BJ.CJ.DJ.-u.EJ.[(.[(.FJ.GJ.;r.HJ.(>.IJ.pI.JJ.9x.KJ.}A.LJ.MJ.NJ.OJ.PJ.QJ.RJ.SJ.TJ.UJ.ju.sp.VJ.2c.Jn.pn.WJ.XJ.j).YJ.ZJ.`J.EE. K..K.+K.@K.#K.$K.%K.&K.*K.=K.-K.;K.>K.wk.,K.5W 'K.Ze.)K.!K.~K.{K.]K.^K./K.(K._K.:K.<K.[K.}K.|K.1K.2K.6P !{.3K.a9.4K.5K.",
"er.Da.Jx.Da.Yn.Mp.@o./t.Np.^t.Mp.Au.Jx.Jx.Da.Da.Zn.IH.`n.2G.6K.Zn.IH.3G.IH.Zn.Zn.2G.2G.cD.7G.Ux.7K.8K.6h.9G.*e.^0.Au.Xn.dD.dD.bG.9K.0K.aK.bK.cK.dK.eK.fK.gK.hK.iK.jK.kK.lK.`> N7 #N Wa.rc.kS tL Xa.'l Nf.3l 1J 9Q _M MK (M MK ^n 6j _l Ya.9O $=.H;.k! T;.k! }J V/.#I.mK.nK.oK.BD.pK.qK.rK.sK.qK.'o.3h tK.it.$} Pk.uK.z' vK.wK.xK.yK.J#.!q.zK.M5.%o 64.Xp E%.wr ID V` FX D7 @/.9o.s| $=.s7.q*.q*.LX Lt eC GN NG MA 0J.AK.BK.CK.DK.bJ.EK.71.jQ &x FK.GK.HK.IK.u_.JK.KK.y] Et.LK.MK.Iq R7 Ce.L' ){ @b wI wI .i.As z1.Cj.^R NK.PP OK.e(.PK.QK.RK.%d.;` [I.lJ.SK.TK.UK.w6 Ij.g4 OW VK.WK.XK.YK.ZK.`K.$x. L..L.+L.@L.#L.>' $1 gN C9 $H m8 m8 m8 i~ T{ x  s@ f^ u  W: -[ .6 B^ J3 $L.ka %L.&L.ll.*L.=L.-L.[(.;L.>L.,r.>r.HJ.,L.Ts.'L.)L.Tv.!L.~L.{L.Iv.]L.^L./L.(L._L.:L.<L.[L.~L up.En.}L.Mi..n.|L.1L.2L.3L.4L.5L.6L.7L.8L./m.9L.0L.aL.bL.cL.dL.eL.fL.gL.hL.iL.jL.kL.lL.mL.nL.oL.pL.qL.rL.sL.tL.ay.uL.vL.wL.xL.yL.|K.;2 zL.AL.sA.pv.BL.CL.DL.",
"er.Da.%e.%e.Da.Xn.(t.+o.Mp.@o.@o.Kx.Au.Au.er.Da.`n.`n.6K.2G.6K. o. o.3G.Zn.`n. o.Zn.2G..o.EL.FL.GL.ur.:0.dc.Df.Df.Xn.wu.bG.HL.TE.IL.JL.KL.LL.ML.NL.OL.PL.QL.r%.RL.SL.TL.oL UL.VL.WL.:g.C2.<4 u%.~R u%.u%.fY _&.@=.xI 'R -@.<J r*._&.aO `T u%.m ./9.IH G#.Mq pG d..l..XL.Eh.Eh.YL.ZL.rK.`L.[[. M..M. b.+M.9Q Y2.)j.@M.${ #M.$M.%M.|F.&M.*M.=M.]@.%o 54.zr uv yr 4T -M.Mr.;M.<{.e$.>M.UC ,M./@.'M.kt Lt )M.NG !M.lj.=I.~M.{M.CK.]M.DK.vJ ^M.,P $o hr /M.(M._M.:M.<M.[M.KK.z] iE (v.)K {+.(/ !9 `% '|.+U +U x_.IW Cj./+.jJ.s[.:I.}M.C1.|M.1M.2M.3M.4M.}I.mY %U UK.5M.6M.2g.7M.iV MI 8M.9M.0M.aM.bM.cM.dM.eM.fM.gM.jU D@ z@ B9 hM.m8 iU [7 [7 &] *> x  s@ 3* p@ *5 %7 Di a{ iM.jM.kM.lM.mM.nM.oM.pM.qM.rM.|n.sM.tM.>r.ya.(>.uM.oI.3t vM.wM.xM.yM.zM.AM.BM.CM.;G.DM.EM.$p.FM.GM.HM.IM.JM.KM.LM.MM.{n.NM.OM.PM.QM.RM.SM.TM.8d UM.VM.OI.WM.XM.YM.ZM.`M. N.%a..N.+N.,>.@N.#N.$N.%N.&N.*N.=N.-N.;N.>N.,N.'N.E!.)N.!N.~N.{N.]N.uT ^N./N.(N._N.:N.",
"Jx.Jx.Jx.Da.Au. o.Au.er.Lp.@o./t.<N.[z.Kp.Wn.{0.Da.Da.%e.%e.Da.Xn.Xn.Zn.Zn.2G.4G.RE.`n.6K.&J.gD.[N.pm.<0.-J.fc.fc.[h.[h.&J.}N.cD.|N.1N.2N.3N.4N.5N.6N.7N.8N.9N.0N.aN.rL bN.]v.cN.LK.MK.uw.Wo j$.j$.j$.&: /3 .2 9V ~} ~} .2 R7 ]R 5(.Bq RZ l[.jJ.dN.eN.fN.of ]&.j$.#=.m..Xp.gN.hN.`H.iN.jN.kN.lN.mN.wm.F8.0c Gr.Wp.34 Xp.}C.&{ U> Yp.nN.Fr.oN.1J 5v ^M.yr yA 2M NG pN.pN.qN.PK ZM h5 _/ pe.cZ $e kt JA 5T KA ;I >I +B.0J.rN.sN.TD.>z tN.bM <F uN.vN.wN.xN.yN.(K zN.AW _l.xL `F z( AN.]+.B] BN.5(.x_.eV pS dV CN.E( DN.-/.EN.h(.kJ.QK.FN.GN.HN.IN.}I.JN.[I.Dj.g(.EN.3l.1<.KN.7M.LN.MN.OC.NN.ON.PN.QN.RN.SN.Ai TN.UN.9e aI i[ R: iU VN.g: 87 OQ !- 3* {( j~ z8 Vc &6 WN.u@.N9 XN.YN.ZN.`N. O..O.jg.9L.+O.@O.#O.$O.%O.v>.&O.*O.8~.=O.XJ -O.Qe Te ;O.>O.,O.'O.)O.!O.~O.{O.]O.^O./O.Nv.(O._O.:O.<O.[O.}O.|O.1O.2O.Ex.3O.4O.5O.6O.7O.~4.<O.8O.9O.0O.aO.bO.cO.dO.eO.fO.gO.hO.iO.jO.kO.9+.lO.$H.mO.nO.oO.pO.qO.rO.sO.tO.uO.vO.wO.xO.yO.vO.|B.zO.",
"3G.3G.3G.3G.3G.AO.3G.3G.%e.Lp.<N.Gp.Dk.Yi.BO.CO.Ek.Tn.hr.Vn.Cu.DO.Op.er.Yn.Yn.Xn.Au.2G.2G. o.EO.FO.GO.HO.HO.IO.JO.KO.LO.MO.NO.OO.PO.QO.RO.SO.TO.X> C' ;K UO.VO.WO.XO.YO.Zh.ZO.G' ^v.`O.ZF  P..P.%N {+.r0 /3 iS +b O@.Fz VF GI U@.8F.+P.@P.#P.}} (6.h).$P.%P.&P.dS *P.=P.k0 WA.yG.-P.;P.>P.,P.'P.)P.IR !P.X2.X2.Rr.30.30.~P. F.G5.{P.]P.^P.j6 9j./P.@b.=/ iA >l.(P.ID._P.:P.F2.(l <P.pG )-.[P.(F.S5.WD.`'.}P.MA ;I W5.W5.|P.1P.2C.bF cF lu 2P.3P.4P.r_.[V U@.5P.6P.Gp 7P.8P.u_.~+.1,.MK.0).9P.,; oS eV uP -R }{.CN.0P.F( K1.aP.bP.Vn cP.dP..E.eP.I_.fP.gP.hP.iP.jP.kP.7F.zq yq lP.mP.nP.oP.pP.qP.rP.$L.sP.6* '% Q*.D  a7 F  P: hd 5[ `( %7 b8 m: {u tP.uP.{_ vP.wP.xP.yP.zP.AP.BP.CP.DP.W1.EP.FP./i.[i.:O.GP.HP.IP.0i.ta.p5../ i+.JP.KP.lu.LP.Gn MP.NP.OP.PP.QP.RP.SP.TP.UP.Nv.Si.VP._=.WP.XP.YP.#k ZP.`P. Q..Q.+Q.@Q.5O.sH.;u.#Q.$Q.%Q.&Q.*Q.=Q.-Q.;Q.>Q.,Q.'Q.)Q.F!.!Q.~Q.{Q.]Q.=u ^Q./Q.(Q._Q.)>.:Q.<Q. ;.[Q.}Q.|Q.1Q.2Q.3Q.4Q.5Q.6Q.",
"3G.3G.3G.3G.AO.AO.AO.3G.Xn.Yn.Hp.Gp.%-.%-.5*.7Q.BO.Xi.8Q.Gp.9Q.0Q.hG._z.Yn.er.er.Yn. o.`n.Zn.Cf.]4.nm.HO.aQ.bQ.cQ.dQ.eQ.fQ.gQ.eQ.hQ.iQ.jQ.kQ.lQ.u] m| n6 mQ.nQ.oQ.pQ.qQ.rQ.sQ.tQ.#+ >{ uQ.E;.#N 6w XZ 0O  2 s< (j ,].ZZ AP b>.vQ.wQ.xQ.yQ.zQ.AQ.BQ.CQ.DQ.EQ.}s.FQ.pE GQ.Yh.E' HQ.IQ.PL.JQ.KQ.LQ.MQ.CD.#v.NQ.AD.OQ.PQ.QQ.RQ.Zk.SQ.TQ.+g.G7 &9 UQ.VQ.WQ.XQ.YQ.<e.ZQ.X/.9m.`Q.U/.`M 9o.,y NH bZ bZ WD g,.ot KA lj.lj.^q.PD. R..R.s0.+R.@R.#R.$R.%R.ts &R.w1.]<.*R.=R.-R.;R.=+ v_.Ft.5h >R.HI ,R.|&.}l  F bV q_.Cj.G4.;/.'R.)R._k !R.~R.{R.]R.^R./R.]I.f(.^R.iP.(R._R.!` :R.H4.<R.[R.2).eB }R.|R.1R. M G! j[ l) *> C  N  D) 3- G  a1 a8 j/ =5 ,| ,| 2R.3R.4R.5R.6R.7R.8R.9R.0R.aR.bR.cR.dR.eR.fR.gR.rC w!.hR.|d.{{.iR.z6 jR.kR.lR.Dg.mR.nR.3u.oR.(O.pR.qR.rR.sR.tR.uR.vR.wR.Jo.=k xR.yR.zR.AR.BR.CR.DR.ER.FR.GR.HR.^z.IR.JR.KR.LR.MR.NR.OR.PR.QR.RR.SR.TR.w% UR.VR.[G.WR.XR.YR.ZR.`R. S..S.+S.@S.#S.$S.%S.&S.*S.=S.Ng -S.;S.>S.,S.'S.)S.!S.",
"Da.Da.3G.3G.AO.AO.3G.3G.wu.er.b< Hp.q%.~S.{S.%-.Xi.]S.]S.9Q.]S.^S.hG./S./t.Kx.Au.Xn..o.4G.`n.Jx.(S.8j._S.bQ.:S.<S.[S.dQ.}S.[S.|S.1S.2S.3S.4S.5S.84 j0 6S.7S.8S.8O 9S.,{ ,{ 0S.f! WL.aS.64 64 O7 6w |,.yI mE 74 `d h5 t< zI HI k .bS.cS.dS.e/.eS.fS.gS.hS.iS.jS.PF v[.kS.a>.II g5 `. P}.lS.mS.nS.oS.P> &6.pS.Qk.qS.im.rS.]P.20.{7.mm.yh.Oc.sS.Pc.9j.tS.O` +l. 9.[C.^1.#q.uS.vS.2!.sf 9j wS.Z` xS.WD BD SA.ot lj.MA yS.5C.-M.zS.AS.>v.BS.CS.ho.jt zz DS.ES.MP FS.GS.HS.IS.}V }l K' B] #, o .JS.|&.fj </ j[.fS ^R NG.KS.LS.we.MS.BS _+.gP.NS.E_._<..E.OS.PS.jP.QS.RS.SS.v .Gf TS.H. US.2d.VS.WS.XS.YS.G@ 2Q s  *> [* 3- 5- 07 G  &] %[ +6 X: k_ ZS.M, b@ `S. T..T.+T.@T.#T.&%.$T.y$ %T.&T.*T.=T.-T.;T.>T.,T.'T.)T.!T.~T.{T.]T.^T./T.T' (T.5u.0n.U)._T.:T.<T.[T.}T.|T.5B.1T.2T.3T.4T.lf.5T.6T.;1.7T.8T.9T.0T.aT.bT.cT.dT.eT.KR.fT.{n.gT.hT.iT.jT.kT.lT.mT.nT.oT.pT.p>.;'.qT.rT.sT.tT.uT.vT.wT.xT.yT.zT.AT.BT.CT.DT.ET.FT.GT.HT.IT.JT.KT.LT.",
"Da.Da.3G.3G.AO.AO.3G.3G.Da.Au.ir.b< 2h.q%.MT.NT.Xi.Gp.Gp.^S.]S.Hu.<w.OT.67.:w.Mp.wu.4G.IH.Zn.^0.4_.@= PT.QT.RT.ST.cQ.TT.cQ.UT.VT.WT.MA.ge.XT.%n w( YT.ZT.2F.==  P.LK./v.`T.|q.ZF N'.YC )3 )3 w( 9*.RH l0 Zd 84 `d 5j .N  U.'I.vj..U.dP.+U.@U.#U.$U.%U.&U.*U.=U.-U.;U./R.)N HI ys Yd :,.VA.kG.,e.B;.>U.BU ,U.'U.!P.)U.!U.~U.he.)9 Ck.{U.]U.^U./U.tS.(U.$W $W _U.Kk.`a.lt.+M. b.s< sf xs ^_.:U.xS.i..^F BD lt sJ <U.[U.(P.OD.oT }U.|U.i4.1U.2U.3U.AA 4U.fN.vQ.5U.6U.7U.C].n$.P!.HI ,I.h! ~+.8U.dj dj }{.vo.fS /+.[V -x 9U.0U.aU.H_.gP.bU.p$.G_.u[.cU.dU.eU.XW fU.gU.^<.%& hU.iU.Jn.jU.kU.lU.mU.nU.oU.`O oN EM i~ 4- 07 <* &% H  &] '( t^ j/ ** j[ pU.~% qU.rU.sU.tU.uU.vU.wU.xU.yU.zU.AU.BU.CU.DU.tu.EU.FU.GU.HU.IU.Hn JU.~h.KU.LU.MU.NU.OU.Hg PU.xx &k QU.>&.5L.#f.RU.SU.TU.!y UU.VU.WU.Is.&f.XU.YU.ZU.`U. V..V.+V.@V.#V.5r.}R.EU.$V.%V.&V.*V.=V.-V.;V.>V.} .Tm @'.,V.'V.)V.4I !V.~V.{V.]V.^V./V.(V.Js _V.%u.:V.=n.<V.[V.}V.ba Ro.|V.1V.",
"Da.Da.3G.3G.3G.3G.3G.3G.%e.Xn.Kp.Un.2V.3V.4V.5V.6V.]S.8Q.7V.DO.<N.<N.DO.[[.:z._w.Mp.wu.er.Au.Df.:0.]4.8V.9V.#(.0V.[j.aV.0V.bV.]7.G5.}0.M7 p| q< cV.dV.eV.fV.tw.gV.tw.hV.iV.fV.Mm.Y> '[.`_ s( >/ Mm.)l 1q.0! po.'/ jV.u:.nL /4.KK.kV.lV.mV.nV.oV.pV.qV.rV.sV.tV.uV.vV.wV.OK.Kq Ce.%: =n ~/ k6 w2.*o.xV.!1.!1.Z_ qt.'U.!P.a7.30.S1 M7 )9 |0.~j.yV.^J.[C.@v.BX zV.AV.BV.,y.`a.xN (l /l )} CV.dm.k..!F S5.+q.)C )C KA DV.EV.4C./j.FV.GV.HV.n..IV.aF zz JV.KV.0C.LV.MV.NV.OV.[{.GP cw S@.0).0).E-.WZ %/.iO (+./+.PV.QV.RV.SV.TV.lV.UV.VV.EN.WV.c(.XV.YV.ZV.`V. W.:R.aU.y[.A@..W.nP..f.+W.@W.#W.$W.%W.&W.!u pC.Q  i~ !] G  G  |* I  &] p^ {- o@ j~ {u |L *W.=W.-W.;W.>W.,W.'W.)W.!W.~W.{W.]W.zO.^W./W.(W._W.:W.mg.<W.[W.up.nf.qk.Td.}W.on.ku.@f 1r.|W.1W.7%.2W.#Q.3W.4W.5W.6W.7W.!y gw 8W.9W.zR.0W.,>.+C.aW.bW.cW.dW.w,.We.eW.fW.5r.5r.gW.hW.iW.jW.LZ kW.lW.mW.nW.oW.R-.pW.qW.Yv rW.sW.tW.uW.]V.vW.wW.xW.xW.yW.zW.AW.jl.BW.CW.DW.EW.FW.GW.HW.",
"Da.Da.Da.3G.3G.3G.3G.3G.Au.Au.gr.<w.IW.JW.KW.q%.2V.Gp.Gp.Pp.DO.[w.Jp.[z.<w.[w.@o._w.Mp.Yn.Yn.&e.<0.^4.LW.bV.#(.0V.#(.bV.[j.mm.MW.hh.q| h| ,} YT.NW.OW.K7 qL rL 2q.PW.qL fV.qo.'[.n}.5j  : ,/ X> }h o}.'[.QW.D#.jV.hK.Sn.RW.nL cN.SW.TW.UW.*/.<v.VW.WW.XW.YW.ZW.`W. X.aq..X.zs 8V sf d%.)9 |4 x2.*o.+X.t%.QW.*{ Z_ @X.E#.hz.KR lz. e >} n( 7B 6Z AX #X.um.$X.BV.%X.$l.vS._j.xN -n (l 7j l..f*.g%.pe.Lt OG t6 bG !M.,l.pN.dC FD.&X.*X.*X.=X.-X.jx ;X.BA >X.,X. E 7< 'X.)X.!X.~X.]&.Cf HI 0).[&.1H {X.'N (+.NG.gO L@.]X.[{..U.lV.TV.]I.EN.d(.^X./X.(X._X.QS.:X.<X.y[.]; [X.}X.|X.1X.2X.3X.4X.5X.6X.7X.h_ ~f ~f => &[ z@ H  z@ z@ B) v  c~ s  UN.~u C,.p2 8X.O& 9X.%T.R*.0X.aX.kM.bX.cX.dX.zO.eX.fX.gX.hy.hX.3W./n.iX.jX.kX.lX.mX.nX.oX.*;.pX.qX.rX.sX.tX.Ab.uX.=L.vX.wX.xX.yX.zX.AX.BX.CX.DX.EX.FX.GX.HX.IX.JX.KX.LX.MX.NX.*i.OX.PX.QX.RX._d.SX.TX.UX.VX.WX.XX.YX.ZX.`X. Y..Y.+Y.@Y.#Y.$Y.%Y.&Y.*Y.=Y.-Y.;Y.>Y.,Y.'Y.)Y.!Y.~Y.:n  M sU *D ",
"{0.Da.Da.Da.3G.3G.3G.3G.SE.%e.ir.{Y.]Y.^Y./Y.2h.Un.Wn.gr.[z.fr.[w.fr.gr.gr.Kp.Ox.<N.Mp.wu.wu.9h.(Y.#(._Y.[j.IO.0V.$; ]4.]4.V_ X1 *K w( 64 DG.:Y.ND.<Y.[Y.[Y.}Y.|Y./7.1Y.TL.RW.u2.V.  (.Ck.7c.V. Sn.h| )1.hK.hK.|h.1t.Ma.2h.h| )1.h4.*s.SW.CI It.2Y.3Y.4Y.5Y.6Y.7Y.8Y.9Y.:K (v.t< i5 l< #; += Hk.B;.P}.P}.M'.M'.<,.*{ `_ 0Y.U% q< vs i< &} i< >3 +M.vm.zV.kt.aY.bY.cY.XL.vS.xN Y[ ^l Cs _M g*.g%.XD.4v }C 0h ]9 rw.'l.zc.@s.[e.k..dY.eY.fY.^o.gY.DS.hY.iY.jY.kY.|! lY.mY.rz.Xo 4(.qu .U oS zL xW eS dN.U@.DN.UZ C].nY..U.oY.pY.D].=/.4F.4F.s[.qY.rY.sY.:X.:R.v .hb.fu tY.uY.vY.wY.xY.yY.zY.AY.BY.CY.=] aI aI => h~ &1 I  z@ I  => T{ 3* D@ v8 j~ 7{ `L DY.EY.CT.;f FY.GY.HY.IY.JY.KY.dX.2Q.LY.MY.NY.OY.PY.QY.O_.RY.SY.TY.JM.UY.i6.VY.wx.Tl WY.XY.YY.ZY.`Y. Z..Z.+Z.@Z.#Z.$Z.%Z.OT &Z.*Z. Z.FX.`I.=Z.-Z.;Z.>Z.,Z.KX.'Z.)Z.Ax.!Z.~Z.{Z.X1.]Z.Ax.^Z./Z.w5 (Z.IE._Z.:Z.<Z.[Z.}Z..d |Z.1Z.2Z.3Z.4Z.bI.5Z.6Z.7Z.8Z.9Z.0Z.aZ.bZ.,f cZ.dZ.l2 `] ",
"{0.{0.{0.Da.Da.3G.3G.3G. o.2G.{0.eZ.fZ.Xi.Sn.Vi.Bk.hr.Kp.gr.Ox.#o.#o.Jp.Ox.Kp.Wn.Kp.Lp.wu.Kx.gZ.hZ.[j.[j.[j.#(.#(.^4.]4.V_ ;} n| N~.x( iZ.jZ.kZ.;s.lZ.sw.mZ.nZ.oZ.G~.pZ.qZ.u2.C#.!7.)7.s8.s8.E5. (.Sn.rZ.2h.sZ.#C.or.tZ.or.sZ.uZ./7.o}.~y. U._l.vZ.wZ.xZ.yZ.zZ.eP.AZ.7P.LK.~y.n}.w# Ff.9G.9G.6h.D#.B;.xV.<,.M'.<,.:,.*{ *{ BZ.!l i5 KD.%} m| 0c G8._j.G8.G8.CZ.aY.vm.bY. b.[4 Y[ 3j hE NK e*.(T !F $e N' zA DZ.EZ.FZ.W` /o.WD 3,.qG ^@.bZ [4.5_.GZ.HZ.<o IZ.JZ.$d.KZ.LZ.C].2l 4(.Bj.]&.6V ]N Po dN.{I.MZ.-/.g).TV.NZ.OZ.PZ.QZ.F@.<X.i(.]I.i(.UZ RZ.SZ.TZ &P.TZ.UZ.VZ.WZ.XZ.YZ.ZZ.`Z. `..`.CY.4- +`.b~ (> B  $' i~ *] H  G  !] A  ;% &' 4* >' @`.ZL &- #`.$`.%`.&`.*`.=`.-`.;`.>`.,`.'`.)`.!`.~`.fs.{`.]`.^`./`.(`.uX.Ab._`.:`.<`.I!.[`.}`.|`.1`.2`.3`.4`.5`.6`.7`.8`.9`.0`.a`.b`. Z.c`.d`.e`.>e f`.H` g`.:=.h`.i`.j`.k`.l`.m`.n`.o`.p`.q`.Z_.r`.s`.t`.u`.v`.w`.x`.y`.z`.A`.B`.C`.D`.E`.4D.F`.G`.H`.I`.J`.K`.L`.M`.N`.O`.P`.Q`.md 0{ 6: ",
"Un.{0.Bk.Au.Au.Da.2G.2G.6K.`n.ir.{0.b< Ep.2h.Ck.hr.Yn.Yn.Yn.gr.Cu.Op.#o.ir.Jp.<N.gr.hr.Ox.Op.#e.TO.Gf.R`.4t.hZ.(Y.:0.A8.[0.*= 9!  + <l NW.S`.T`.U`.V`.W`.X`.X`.Y`.RL.uZ.}h.Un.Un.hr.hr.ir.ir.ir.Ck.Ma.Z`.qr.``.  +  +  +  +qr.1t.2h.v# h| Sn.K#.TW.. ++ +TW.vj.@ +I5.K#./7.V. Fp.Vn.Bu.Bu.# +# +|h.Wi.p%.CO.-o.=o.xV.xV.&{ }C.'n '[.)[.)/ 64 9w ,} r] E8.$ +% +& +Ir.* +4m.34 ,9 84 #n Wp.Xp.g*.W` $b != N' .L Xc.= +- +; +e!.> +P:.R'.D2., +' +) +9t ! +~ +{ +] +^ +/ +( +1l l$.oS #` .G xW Po {I.G]./R jO ;R._ +: +yL < +[ +>N pY.i(.JP I_.0b.} +8$.$R @R | +cx.`o.1 +2 +3 +4 +5 +i` R) A  6 +(> >> (> $% => *] *] I  D  D  7 +1* w  8 +;' g[ 9 +0 +S-.a +Ng b +DP.Xv c +d +e +f +g +h +lC.i +j +k +l +3g m +n +o +p +q +g9.r +s`.s`.s +t +u +v +w +x +y +>Z.z +A +B +^G.C +D +E +Tm F +G +H +I +J +K +L +M +N +O +<D.P +hW.Q +R +S +WB.T +(z.U +V +a`.W +X +Y +Z +` + .+*T...+:Z.+.+JL @.+#.+GT.DT. ;.$.+%.+&.+*.+=.+-.+;.+1f >.+,.+",
"Ep.Bk.$e.Bk.Bu.Jx.6K.`n.6K.Zn.Au.{0.b< Un.|h.Ck.{0.Da.Da.Da.Vn.hr.[z.fr.[z.fr.Jp.gr.Kp.Op.[w.Bf.+j.5t.4t.4t.5t.TO.'.+B8.+= 5Z s( )/ c! ).+!.+{v.V`.~.+{.+].+^.+iK.uZ.b< Ep.ir.Vn.Vn.Vn.Vn.Da.Da.Bk.Bk./.+/.+  +  +(.+(.+  +  +_.+rr.Vn.s8.7c. (.1Y.|Y.:.+].+rZ.2h.kr.rr.<.+# +[.+}.+|.+|.+1.+2.+Ip.Tn.1h.3.+Qp.;o.Qr.4.+o] BZ.#M.@: b! 5.+d! k5 '} R% O1 $= Hr.Yp.Gr.& +6.+Xp.0c $: Y2.Fr.Gr.^1.h$.}C 4v oh.$b Y/.7.+%s.8.+kx 9.+!R {1.0.+@R.a.+b.+c.+d.+@m e.++U.f.+g.+h.+1l P!..G .n >l 1H }{.^R sS i.+UW.OZ.j.+k.+l.+m.+l.+k.+n.+=/.o.+,: F( W!.PV.:R p.+6R q.+r.+s.+GS t.+u.+#  h_ v.+$1 $' (> >> w@ $% I  *] *] I  $% w@ F) ;] C& Y& _G 9X w.+x.+#i y.+tb z.+A.+4Q.B.+C.+-f D.+E.+F.+G.+H.+I.+J.+K.+L.+M.+N.+O.+P.+Q.+R.+@a.p +p +=].S.+T.+U.+V.+W.+@$ X.+Y.+Z.+`.+ ++#N..+++++@++#++$++s&.%++&++Hb *++=++-++;++>++,++'++>T.)++!++Q-.~++{++]++f. ^++/++HE.(++zx zx _++)).:++<++[++}++|++1++2++3++4++5++6++&u.7++8++9++0++a++b++Mh ",
"Hp.b< $e.{0.Bu.Da.`n. o.3G.IH.Au.Vn.Fp.Un.}h.b< $e.%e.%e.%e.%e.Jx.hr.gr.fr.<N.Ox.Kp.Gp.7V.Pp.Ef.+j.5t.4t.4t.Gf.5t.5t.C8.D8.5Z `_ C' c++d++e++*s.f++g++h++i++1t.Gu.kr.$e.j++k++l++l++l++l++$e.%e.Jx.Jx.l++l++m++m++(.+(.+n++m++o++[.+Bu.]0.5c.5c.cG.p++p++p++q++r++r++r++s++t++u++u++v++v++w++1.+QH.Kp.Hu.]S.Pp.6V.x++Qr.!1.P}.#M.R. 5.+`> XC @N #: y++y++r] R% r# jt.:b.z++% +jw.VC U1 ht..M.%W i..dt != K%.O' d7.A++pj.B++C++U,.<&.D++E++ho.F++G++Ym hk H++I++J++K++L++M+++ +N++,|.,|.FP GP z1.r[.*` O++cO WT P++Q++R++S++T++U++>N V++(I.K1.%U j(.v7.U0.W++X++Y++Z++`++ @+.@++@+h$ C@ 0e v} &1 C  #' w@ $% *] *] I  }* 07 ;> >> #% a~ @@+#@+$@+%@+&@+*@+x,.=@+-@+;@+>@+,@+'@+)@+!@+~@+{@+]@+^@+/@+tO. V.VR.(@+_@+:@+<@+[@+}@+|@+1@+2@+3@+4@+b9.5@+js 6@+7@+8@+9@+0@+a@+b@+c@+aT.d@+e@+f@+g@+h@+i@+j@+k@+l@+m@+n@+`M.o@+4d vX.p@+q@+r@+<w s@+t@+u@+u@+v@+w@+x@+y@+z@+A@+B@+C@+si D@+E@+F@+G@+H@+Kb I@+J@+K@+L@+;O M@+N@+O@+P@+Q@+R@+S@+",
"Hu.Un.Fp.hr.Yn.Au.IH.4G.`n.IH.Yn.er.ir.jr.}h.Fp.Bk.Jx.Jx.%e.%e.Jx.Vn.hr.Jp.fr.Jp.[z.Gp.Pp.^S.Cu.Bf.hZ.Gf.4t.R`.R`.4t.4t.'.+D8..: B' T@+cV.:l.K#.U@+V@+W@+1t.kr.X@+X@+# +l++l++l++l++%e.%e.$e.$e.6K.6K.Y@+l++m++m++(.+(.+n++n++o++}.+}.+Z@+AO.`@+ #+.#++#++#++#++#+@#+##+$#+%#+&#+q++*#+u++u++1.+[.+er.er.Wn.[z.]S. j.Qp.Qr.P}.Vo 'n oL =#+-#+;#+,} ~3 6! ${ R% vK.Hr.4m.O1 5m.}H VC -3 !o.7m.ih.xD >#+4O l .,#+'#+)#+|+.!#+~#+zW TP {#+1V ]#+^#+%U 4M./#+(#+_#+:#+c| <#+[#+TW.4Y hS hS q_.A].CN.^{ }#+A1.~j |#+1#+2#+3#+4#+5#+6#+;N b$.g(.<I.7#+8#+19.i).9#+0#+a#+b#+c#+d#+kU '% 4* T{ h~ &] 7z w@ #' w@ !] *] *] }* F  07 ;> um ~( J$ ~' nK zJ.e#+f#+ME.g#+/`.h#+i#+oF.j#+k#+3g dW.m].l#+m#+SM.n#+o#+CL.p#+C5.BL.q#+r#+d<.s#+t#+u#+v#+w#+x#+y#+z#+A#+^O B#+C#+z +D#+E#+F#+G#+H#+I#+J#+K#+L#+M#+N#+O#+*i.P#+Q#+UM.R#+Cq.S#+T#+U#+V#+5i.T7.h{.W#+X#+Y#+Z#+`#+g{. $+.$++$+@$+#$+$$+%$+&$+*$+=$+-$+;$+>$+,$+'$+)$+!$+~$+{$+ed R& *  n2 ]$+",
"Wi.Fp.b< hr.Xn.Au.Zn. o.`n.IH.Yn.er.ir.Wn.Un.Vn.Jx.3G.3G.6K.%e.Jx.Da.er.Wn.Cu.8Q.Hu.Tn.Gp.8Q.Jp.Bf.7h.@j.|m.EO.wr.EO.EO.1m.$j.,e.^$+/$+($+_$+:$+<$+or.Gu.<.+[$+}$+}$+}$+cG.cG.cG.k++l++/.+qr./.+6K.yf.yf.6K.l++l++  +  +(.+n++o++}.+|$+1$+`@+`@+ #+ #+ #+ #+ #+ #+2$+3$++#+##+p++4$+p++4$+|$+|$+}.+}.+`n.er.Xn.Cu.9Q.4h.*o.w:.5$+s%.Y> mL 6O XC @N oL 6$+={ ;K 7$+61.oN.o] 8$+&= V% #v.9$+Rr.a7.v< ;F 0$+a$+b$+c$+d$+x .e$+f$+g$+d| K. h$+_K &/.i$+NZ.w7.j$+k$+l$+S[ wQ.m$+sS fS HW cV cV 7&.z1.v6 M0.Cj.^N n$+%+ o$+p$+q$+r$+s$+t$+u$+p$.;` v$+w$+x$+y$+z$+A$+B$+Zv C$+D$+.( o@ p@ ,> $' !] b1 #' w@ E  }* *] *] }* <* ;> x@ -] y^ M) 6q M9 E$+F$+G$+H$+I$+^n.J$+pg.uJ.OY.K$+L$+M$+N$+O$+P$++x.Q$+R$+S$+T$+U$+V$+W$+X$+Y$+Z$+`$+ %+.%++%+@%+#%+$%+%%+&%+*%+=%+-%+;%+>%+,%+'%+p`.)%+!%+~%+{%+]%+^%+n]./%+(m.(%+_%+:%+<%+[%+Ce [w }%+KM.@5.-E |%+MC 1%+2%+3%+hR.4%+5%+6%+7%+I!.8%+9%+0%+a%+b%+c%+d%+e%+f%+K.+g%+h%+i%+cs.ba j%+k%+l%+q` ",
"3h.|h.b< ir.hr.Bu.3G.Zn.3G.IH.Au.Bu.Vn.hr.Un.{0.%e.6K.6K.6K.%e.%e.Jx.Da.Bk.hr.Hu.Hu.2t.Tn.8Q.^S.#e.gZ.@j.|m.ah.Px.ah.EO.kD.m%+`i.1*.n%+o%+1Y.p%+41.q%+r%+s%+}$+|$+4$+|$+|$+|$+}.+cG.j++j++pr./.+yf.xf.xf.yf.Y@+l++  +  +(.+  +o++}.+Z@+1$+`@+`@+3$+3$+%#+t%+t%+##+##+u%+Z@+Z@+AO.AO.AO.AO.Ui.Z@+v%+w%+x%+ o.SE.(t.<N.Pp.y8.nt.t%.M'.LD.Y> Mm.7!.1q.;#+XC E' s] T% U% V> >/ BZ.Y. Sn.Nr.'U.y%+bc W~.!C JD z%+A%+B%+C%+B].D%+E%+y .F%+G%+H%+I%+OV.t7.J%+K%+L%+M%+N%+O%+P%+Q%+NP p .cV Lq As R%+=d.[3.[3.}3.S%+;; T%+U%+p$+q$+V%+W%+X%+Y%+(<.Z%+`%+sE  &+.&++&+@&+#&+$&+8I.%&+E& Y( ,] ,> >( F) b~ #' w@ E  I  *] *] F  <* ;> &&++`.y^ UV *&+dZ.=&+-&+;&+I$+js.>&+,&+`z.'&+)&+!&+is.v,.~&+{&+]&+^&+/&+(&+.%+_&+:&+<&+[&+[&+}&+|&+1&+2&+3&+OI.3&+}i.4&+5&+6&+7&+AR.>d $k.$k.8&+^n.9&+`W 0&+a&+b&+c&+r;.d&+e&+f&+g&+Jf Uq.h&+wF.i&+j&+k&+l&+Nv.iX.m&+]h.$r.n&+o&+^n.R#+/m.p&+xq.q&+PT r&+s&+t&+u&+v&+w&+x&+x&+Y_.y&+z&+ue C.+A&+B&+C&+<$.D&+",
"mS.E&+8Q.[z.Wn.Bu.3G.IH.6K.Zn.Au.Da.{0.hr.Ep.Bk.%e.6K.6K.6K.%e.%e.Jx.Da.$e.Bk.Un.2t.Gp.8Q.Xi.^S.-e.-e.@j.EO.2w.8t.Cp.7t.yr.&j.F&+w8.*o.G&+)1.H&+I&+J&+K&+L&+M&+p++N&+q+++#+p++O&+O&+_.+  +``./.+xf.`@+xf.yf.Y@+l++  +  +  +  +o++}.+Z@+1$+:h.`@+AO.3G.cG.3G.`n.Bu.Bu.^0.]0.Da.Da.P&+P&+5c.5c.Ui.x%+Q&+Q&+v%+4G.Lp.Ox.]S.k%.51.+X.<,.G~.:$+;#+K#.6O =K XC D' C' lK.a! nL po.*{ ,/ Ma.X. O:.R&+a< DX nt kt @& S&+3C T&+D].U&+V&+W&+G%+fU.X&+uY Y&+qP Z&+7l.L%+`&+ *+J++.*++*+@*+#*+-<.{<.As $*+jY n! P' {<.-+ %*+&*+**+=*+q$+V%+W%+X%+z .3M.Ao.-*+;*+>*+,*+'*+)*+!*+~*+{*+]*+^*+Y] c: '> A  ,- b~ #' N  |* I  *] *] F  D) 3- -% +`./*+UV (*+L/ _*+:*+<*+]%+[*+}*+|*+1*+2*+3*+4*+5*+wf.6*+7*+8*+9*+0*+a*+{&+;K.:n.b*+c*+4I.4I.3K 4I.0&+d*+sF.e*+|X.Bl.f*+g*+h*+>i i*+Ni.j*+k*+l*+m*+X++n*+o*+p*+q*+r*+s*+t*+u*+v*+*m.w*+Cn.x*+bp.y*+z*+A*+uk.B*+C*+D*+E*+F*+G*+%f 2&+(d b&+H*+I*+J*+K*+jX.L*+TP.M*+.O.N*+1B.O*+P*+CH.Q*+R*+S*+T*+U*+V*+K[.",
"W*+X*+lN.<w.Kx.er.Zn.4G.6K.`n.er.Da.{0.ir.Vn.Bk.%e.3G.`n.`n.Da.Da.Bu.er.%e.$e.Bk.gr.<N.[w.Pp.^S.#j.-e.@j.EO.2w.8t.Cp.EO.|m.#e.Y*+m%.}[.jV. : Xi.Z*+`*+ =+M&+M&+p++.=+t++p++p++O&++=+m++  +  +l++xf.`@+xf.yf.@=+Y@+m++m++m++m++k++}.+Z@+1$+`@+`@+Jx.Bk.Bk.{0.{0.s8.s8.s8.s8.Uk.Da.Jx.P&+5c.5c.Ea.@=+@=+@=+4$+}.+Au.r%+gr.]S.Qp.#=+w:.t%.<,.6*.mL o}.h4.8*.T> Z> a! T> 'n s( >/ s(  : ,/ VA.$=+Cs AD %=+&=+*=+yN.NK.:R.ze.==+Wn -=+;=+>=+M> ,=+'=+JP K% I1.oV )=+!=+~=+o7.{=+]=+k$./3.7&.IW ^=+cV /=+(=+gS BW _=+:=+<=+<=+[=+r$+}=+|=+1=+2=+3=+4=+5=+6=+7=+8=+9=+0=+a=+b=+c=+Y: j/ %[ => b1 w^ -> 5- N  E  }* I  I  <* %% [* F) ;] Z& 4z d=++( e=+f=+g=+h=+i=+Tl j=+DC.k=+rs.l=+2i.m=+Hs.n=+ :.}%+o=+`o.,&+p=+k*+q=+r=+s=+t=+t=+u=+v=+w=+x=+y=+z=+A=+dI.B=+C=+]h.Uq.D=+y*+E=+F=+G=+ep.sp.H=+I=+J=+K=+L=+M=+N=+*& O=+P=+Q=+Jq.Fe 2x.R=+S=+T=+U=+[W.V=+W=+X=+Y=+wq.Z=+`=+ -+IP..-++-+I*+@-+!d #-+$-+o8.%-+&-+*-+5{.=-+ll.--+;-++k >-+,-+'-+",
"$e.Vn.gr.Kx.Lp.Yn.Da.%e.Da.Da.Da.Da.Da.Da.Da.Da.6K.6K.6K.2G.2G.2G.2G.2G.6K.%e.%e.Jx.Au.(t._w.xu._t.@o.Np.@o.br.zu._t.[w.Lx.<N._z.%o.)-+&o.b< ]S.<.+`*+_.+o++!-++=+N&+M&+N&+N&+N&+N&+N&++=++=++=+@=+xf.yf.@=+@=+@=+Y@+Y@+Y@+Y@+Y@+@=+@=+4$+~-+AO.%e.%e.Da.er.Bu.%e.%e.er.Bu.Da.Jx.Jx.Da.Da.Jx.%e.O&+O&+O&+o++ =+<.+{-+X@+]-+^-+/-+Xi.BO.(-+BO._-+u:.i< m| z' z' )3 }h Yd h5 )3 Zd `d +{ h< 34 ,j.:-+<-+[-+}-+|-+=B.^|.1-+2-+3-+TZ _K 4-+5-+6-+pu Xh.T,.7-+J. 8-+9-+0-+a-+b-+c-+d-+MW F4.e-+0).){ f-+g-+Cj.kO h-+i-+j-+k-+l-+m-+UP eC.V0.sE n-+o-+p-+q-+r-+s-+t-+ Y.u-+nO.v-+=T t  &5 N  N  w@ N  D) D) <* <* <* F  %% v@ u@ s@ .* vm @@+lU w-+cH x-+y-+z-+*H.A-+B-+C-+D-+E-+`z.F-+UP.:O.G-+H-+_`.[n.I-+J-+K-+L-+M-+N-+O-+P-+Xv.Q-+R-+S-+T-+Ly.U-+V-+W-+HJ.X-+Y-+X-+qk.9p.Z-+9p.-r.`-+yn. ;+ ;+pI..;++;+.;+@;+#;+z$.hp.xa.$;+%;+&;+*;+=;+Bv.-;+T4.;;+>;+,;+';+i*+);+!;+~;+{;+];+^;+^h.`Q C[.qV _%+/;+(;+_;+:;+rC <;+i#+K .[;+};+|;+1;+2;+",
"Da.Bu.Bu.er.er.Bu.Da.Jx.Da.Da.Da.Da.Da.Da.Da.Da.3G.3G.3G.3G.3G.6K.6K.6K.3G.6K.2G.6K.Zn..o.dD.3;+br._w.@o._w.br.xu.$o.#o.Lx.[w.$o.<w.lN.4;+b< Pp.5;+6;+{-+7;+!-+2.+8;+m++N&+N&+N&+N&++=++=+.=+.=+@=+@=+@=+@=+@=+@=+@=+@=+@=+@=+@=+@=+@=+4$+4$+4$+Da.%e.%e.Jx.Jx.%e.%e.%e.Da.Jx.%e.%e.Jx.Da.Jx.%e.o++9;+m++m++  +  +_.+_.+Ip.]-+0;+I&+Yi.Xi.Xi.u8. : 5j +{ u] 5m.6! v] -{ }h 9w W1 )1.)1.,} {3 mG (3.Es a;+]+ J1.xz.b;+c;+d;+/X.e;+8P.f;+<P.g;+`d  U.CI h$+]|.h;+i;+j;+k;+l;+m;+R4.n;+o;+2l z] 6>.p;+w-.^R q;+r;+s;+t;+u;+v;+4V /N w;+3<.XG.x;+y;+z;+A;+B;+C;+D;+E;+F;+G;+H;+>T '> y@ e_ <* F  E  <* D) D) D) D) D) %% v@ t@ P; .@ {( @@+lo .( I;+J;+K;+L;+M;+N;+O;+P;+Q;+R;+S;+`z.uu.ks.T;+B&.U;+V;+W;+X;+Y;+Z;+`;+ >+.>+rB.+>+rB.@>+#>+): $>+$>+%>+%>+.A..A.Cn.&>+1).1).0 .*>+=>+Rs./x.os ->+;>+Ie >>+,>+'>+)>+!>+~>+{>+F7.]>+*w.^>+}r./>+(>+_>+:>+<>+[>+fh }>+|>+~;+Ba.1>+2>+3>+$O.mk.4>+5>+6>+9%+7>+8>+Wt.:i.9>+0>+=E.9>+a>+b>+J7.c>+",
"Yn.er.Da.%e.%e.Jx.Bu.Au.Da.Da.Da.Da.Da.Da.Da.Da.Zn.Zn.Zn.`n.`n.`n.`n.3G.`n.3G.6K.6K.`n. o.KH.d>+xr.xr.Px.Px.Px.ah.tr.tr.7K.tr.&j.-e.e>+f>+2*.7V.g>+h>+i>+$e.# +fG.k++%e.Y@+Y@+Y@+Y@+Y@+Y@+Y@+Y@+@=+@=+@=+@=+@=+@=+@=+@=+@=+@=+@=+@=+@=+4$+4$+4$+Jx.%e.Da.Lp.+o.Lp.Au.Bu.er.Da.Jx.Jx.Da.Da.Jx.%e.O&++=+8;+8;+8;+8;+%e.%e./.+j>+#o.[w.Hu.Tn.8Q.k%.E#.~/ a< zf KR $} h| 5j KD.84 i5 h| .N 9w ~3 rc. F |{.wS TK.&P.k>+l>+m>+3+.n>+TW.Xh.{y.,9 W.  : I5.o>+}=+p>+q>+r>+s>+t>+u>+v>+R4.w>+0b.WZ x>+Aj.vP 2O 4F.y>+z>+A>+B>+C>+Z,.s .)y D>+$D XP E>+q-+F>+A;+B;+BJ.G>+j +H>+I>+xU.l~ s^ *% <* &% G  }* <* D) D) D) D) D) %% v@ t@ s@ @  vm {( v8 c- *- :g J>+K>+L>+fs.M>+ k.N>+O>+P>+Q>+R>+S>+G-+lP 7%.aL.T>+U>+|r.&D.V>+Xv.W>+X>+Y>+Z>+`>+BB. ,+.,+.,++,++,+.t.@,+VJ.VJ.0 .#,+Qs.Qs.l8.$!.,>+,>+$,+->+%,+^r.Ne &,+4k.*,+ t.=,+-,+;,+bB.>,+YF.`e ,,+',+),+!,+A*+eB ~,+{,+HP.0%.],+^,+/,+(,+h&.|W.;;+ti.6i._,+G*+:,+<,+S#+S#+S#+[,+-u.},+|,+1,+",
"Lp.Yn.Da.%e.%e.Da.Au.Xn.Jx.Jx.Jx.Jx.Jx.Jx.Jx.Jx.Zn.Zn.`n.`n.`n.`n.3G.3G.`n.`n.6K.6K.6K.`n.IH. o.wr.Px.Ar.Ar.xr.ah.%j.%j.tr.2,+2,+#j.$j.3,+'e.$j.4,+5,+6,+$e.[.+PH.[$+[.+cG.Y@+Y@+Y@+Y@+Y@+Y@+Y@+@=+@=+@=+@=+@=+@=+@=+@=+@=+@=+@=+@=+@=+4$+4$+4$+%e.%e.wu.zu.7,+vA._w.Mp.Lp.wu.Yn.Au.er.Bu.Jx.%e.+=+N&+N&+8;+8;+8;+l++l++%e.i>+Op.<N.[z.gr.Tn.m%.W. ;} Y1 O% ~/ 4! n< 8,++} 84  (.i5 Yd ac Yd ,n DW pS Lq v6 UT 9,+0,+TZ ==.a,+b,+hJ.YC &= Na.X> K#.c,+d,+e,+f,+z{.g,+h,+i,+j,+dC.k,+k .=N m-+8U.|l PP sz.l,+m,+n,+G%+o,+J1.p,+q,+r,+pF s,+t,+u,+tT.v,+w,+x,+G>+y,+Og z,+_, =Z $_ z@ F  <L N: H  F  D) D) D) D) D) %% %% v@ t@ 01 _> vm {( [L jU A,+B,+C,+D,+E,+[;+I$+F,+S;+G,+H,+I,+J,+K,+L,+M,+{d.N,+O,+P,+op.Q,+R,+S,+Ty.dg T,+Uv.U,+V,+W,+X,+Y,+<H.=2 ,>+Jq.Jq.~m.~m.Z,+Vd.`,+xn. '+qM .'++'+.y ^r.@'+Se #'+$'+%'+au.&'+*'+Ye ;7. f ='+-'+;'+>'+,'+''+)'+!'+~'+{'+]'+^'+/'+i9.('+_'+h&.De :'+e&+zk.HP.<'+B*+iX.LM._%+['+}'+!i.|'+1'+",
"Yn.Au.Bu.Jx.Jx.Da.er.Au.Jx.Jx.Jx.Jx.Jx.Jx.Jx.Jx.3G.3G.3G.3G.6K.6K.6K.6K.`n.`n.3G.6K.6K.6K.3G.3G.&e.gZ.wr.xr.Br.Br.7K.7K.tr.m%+m%+7K.e>+3,+2'+$j.h>+5,+3'+j++/.+X@+# +# +k++k++cG.cG.Y@+Y@+Y@+2G.@=+@=+@=+@=+@=+@=+@=+@=+@=+@=+@=+@=+@=+4$+4$+4$+%e.%e.Yn._t.yu.vA.xu._w.^t.+o.Kx.Lp.Xn.Au.Bu.Jx.N&+N&+N&++=+cG.}.+dG.}$+dG.s%+Lp.(t.Kx.Xn.gr.9G.fh.4'+!3 )9 ^e.gt.-y.5'+6'+Zp.j< /T ,9 84 ,9 m5 O!.T;.UC 8h gt 7'+lr 8'+_l.@ +I5.-#+5j D5.t8.w8.9'+0'+a'+b'+c'+d'+e'+>^.f'+g'+*B.OK.]X.h'+i'+j'+k'+y>+l,+l'+t$+m'+n'+o'+56.W++2$.p'+q'+r'+s'+t'+V*+u'+v'+w'+kl.1'+x'+O`.Xc =Z $_ &1 H  /7 hd 4[ F  <* D) D) D) D) ;> %% _* v@ r^ 0- U3 _> .@ y'+z'+A'+B'+C'+D'+E'+K ..k.F'+e*+G'+:%+G*+H'+I'+GP.LM.,&+J'+P,+2x.FC.K'+L'+M'+N'+O'+Tv.n1./r.P'+Q).Q'+bg =2 =2 Jq.@t.v>.v>.on.tp.R'+(>.@,+yn.->++'+Dv.aH.S'+T'+U'+>>+sy.EJ '0.xa.V'+eu.2t W'+gu.X'+Y'+Z'+l_.`'+ )+.)++)+@)+#)+:5.$)+%)+&)+*)+)4.=)+V7.nF -)+fh U=+`o.B*+;)+J,+S>+-u.>)+ll.",
"Bu.Da.Da.Jx.Jx.Jx.Jx.Jx.Jx.Jx.Jx.Jx.Jx.Jx.Jx.Jx.6K.6K.6K.2G.2G.2G.2G.2G.3G.3G.3G.3G.3G.6K.6K.2G.%e.]0.&e.Gk.Px.Ar.kD.kD.7K.kD.m%+Y*+'e.`i.,)+>e.$o.')+))+q%+$e.$e.%e.k++[.+[.+}.+cG.Y@+Y@+Y@+2G.@=+@=+@=+@=+@=+@=+@=+@=+@=+@=+@=+@=+@=+4$+4$+cG.er.%e.%e.er.Lp.Kx.(t.+o.@o.Np.(t.Lp.wu.Yn.er.3G.N&+N&+.=+p++}.+}$+!)+~)+~)+dG.er.Xn.Kx.wu.Yn.Ga.'.+E5.Bk.E5.|4 zX 40.{)+])+^)+Zp./T h| }H u] P1 rX ut.7Z /F.pc.zI f;+/)+7V I5.-#+)1.Ma.7c.Ga.jG.()+_)+:)+<)+[)+})+|)+2v._#+1)+2)+IS.T,.TW.3)+;; 4)+5)+6)+l'+_v.7)+8)+9)+cx.0)+a)+b)+c)+d)+e)+f)+g)+la h)+i)+j)+BW.k)+l)+sU %Z $_ *] H  'a )f &] }* <* D) D) D) D) ;> ;> _* _* =] 9- !' U3 01 Ck m)+n)+,E.zi o)+p)+^`.wl.q)+m*+r)+r)+s)+[!.t)+u)+.p.`o.A*+v)+w)+yF.os 6u.x)+y)+4E z)+A)+B)+C)+D)+E)+XJ F)+G)+@t.v>.on.tp.>r.X-+HJ.VJ.H)+Ts.+,+bL I)+J)+K)+L)+M)+VZ.%,+Ts.uM.uM. t.N)+k8.FC.O)+P)+Q)+n-+,&+R)+S)+1u.T)+;f.;f.U)+[!.V)+W)+X)+Y)+Z)+`)+ !+VY..!+.K.+!+@!+#!+$!+%!+&!+2B.*!+",
"Da.Da.Jx.Jx.Jx.Jx.Jx.Jx.Jx.Jx.Jx.Jx.Jx.Jx.Jx.Jx.Jx.%e.%e.%e.%e.%e.%e.%e.Jx.Da.Da.Bu.Bu.Da.Jx.%e.Da.Jx.Jx.*e.gZ.Px..F.m%+m%+m%+7K.YE.=!+;e.-!+ j.]S.;!+>!+^S.{0.Bk.Bk.Vn.er.Bu.Bu.Da.3G.6K.6K.2G.6K.6K.6K.6K.6K.6K.6K.6K.6K.6K.6K.6K.6K.3G.3G.3G.Yn.Jx.%e.%e.%e.%e.Jx.Au.Kx.Lp.Xn.Yn.Yn.Au.er.3G..=+r++~-+~-+|$+w%+v%+,!+'!+Z@+6K. o.}m.[h..j.Df.<0.]7.8V.)!+!!+ez.~!+{!+je.]!+oK.bc j< Xd q< a< =9 %; g6 Va.'9 )1.h4.}h o}.qZ. : 2h.b< ir.Yn.gr.U@+^!+/!+(!+_!+:!+<!+(|.[!+}!+|!+|l E-.u_.'{ -; <)+1!+2!+3!+4!+5!+6!+7!+8!+9!+0!+a!+b!+f[ E& !a 8y.0s.LJ c!+d!+e!+f!+g!+8y.;7 U4 *] /7 /7 a1 ,> }* F  <* <* D) D) ;> ;> -> -> (> F) ;] 9- r^ +  Dk 7X u.+ @+h!+i!+j!+xl.k!+@K.De h&.@-+l!+m!+n!+o!+p!+fh q!+w)+yF.r!+s!+t!+u!+L)+Kq.v!+w!+x!+y!+z!+Kn 4k.Y=.Jq.CI.{'.&O Jf A!+v>.23 $!.B!+IJ.Dv.C!+D!+E!+u!+K)+S'+F!+3s.VZ.Ie @,+yn.*,+`s. t.>7.G!+lH.~d {d.H!+I!+J!+wf.K!+T)+G*+xq.VA VA |L.L!+pk ''+M!+N!+=p.O!+ng.,u.P!+Q!+ml.SM.R!+",
"Au.er.Bu.Da.Jx.Da.Bu.Bu.%e.%e.%e.%e.%e.%e.%e.%e.Jx.Jx.Jx.%e.%e.%e.%e.%e.%e.Jx.Da.Bu.Bu.Bu.Jx.Jx.9h.^0.%e.%e.Cf.@j.%j.tr.Y*+m%+%j.S!+ j.n%.T!+ j.2t.U!+V!+^-+hr.hr.Wn.gr.er.er.Bu.Da.3G.6K.6K.2G.6K.6K.6K.6K.6K.6K.6K.6K.6K.6K.6K.6K.6K.3G.3G.3G.er.Bu.Au.Xn.Au.%e.%e.Da.er.Bu.Da.Bu.er.er.Bu.3G.4$+q++~-+~-+|$+|$+W!+w%+X!+yf.6K.IH.[h..j.}m.Nu.Oa.qm.lG.Y!+!!+Y!+~!+Z!+=y.`!+])+!o.a< X1 n| Y1 Dr. ~+Ru..~+Bk.X. X>  (.V.  (.b< Bk.{0.Au.Bu.%e.Un.+~+@~+#~+$~+%~+&~+kP.*~+=~+-~+9C.u_.;~+e-+>~+,~+5)+'~+1=+)~+!~+~~+{d.{~+0!+]~+^~+md A^ Nw -[ /~+^Y Qo.(~+U*+_~+:~+<~+E! 2Q ,> I  4- 4- *> h~ !] F  <* <* D) D) ;> ;> -> -> >> b~ F) ;] =] =] `+ 5X le [~+}~+oL.|~+1~+@-+2~+o*+un.[(.~,+3~+4~+o!+);+5~+6~+Kn.v>.I=+@;+7~+mi.8~+9~+w!+0~+W[.a~+b~+c~+W{.u;.CI.d~+nf.nX.%O.nf.R).Ul.e~+-4.Ne f~+t!+D!+g~+E!+K)+h~+AF.i~+j~+k~+'L.oI.sy.'H.P'+l~+m~+n~+o~+p~+q~+r~+,f.K!+s~+t~+u~+v~+w~+r)+x~+x~+Be ~d <L.<n.y~+z~+:W.A~+B~+C~+D~+E~+F~+",
"Au.Au.er.Bu.Da.Da.Jx.Jx.%e.Jx.Bu.Bu.Jx.%e.%e.%e.er.Jx.%e.%e.%e.%e.%e.%e.%e.%e.Da.er.er.Da.%e.%e.%e.Jx.Da.Jx.^0.hZ.ur.ur.4w.*j.*j.4w.9t.|o.}o.G~+ j.,)+H~+T!+s}.7c.Bk.Ef.s8.s8.]0.]0.Da.Jx.Jx.Da.`n.3G.6K.6K.2G.6K.6K.3G.6K.3G.Zn.IH.IH.Zn.3G.6K.Au.er.Bu.Bu.Bu.Bu.Bu.er.Jx.Jx.Jx.Jx.Jx.Jx.Jx.6K.W!+##+@=+`d.4$+I~+J~+K~+L~+}N.M~+Fk.}m.6c.Fa.N~+hZ.c5 O~+h6 P~+Q~+}_.R~+{)+.l.S~+Rc.Hr.}H >3 O% sr.1w.Da.]0.r8.q8.p8.p8.Fp.Fp.Fp.Vn.Vn.Bu.Bu.Bu.Yn.jr.SL.At.T~+_=+y .$G NZ.U~+V~+4w )<.CW ^=+W~+k'+X~+Y~+ZC.Z~+`~+2&+ {+.{++{+@{+]' Mc dH #{+${+-7 ra hN %{+_g _g &{+e)+H9 ]- => F  F  E  A  $' $% F  <* <* D) D) ;> ;> ;> ;> ;> #' #' (> (> 8- y^ z^ Sg (~+i-.b@+*{+;H.mk.>r.xF.h&+rM.~,+B*+Nv.={+WU.-{+,i ;{+Vd.H=+>{+J=+,{+mI mI 8n.'{+3/.){+!{+~{+{{+]{+Tq.ku.X=.^{+*;./{+d~+Y-+({+_{+<u.:{+E!+Lq.Lq.<{+g~+[{+}{+|{+AF.1{+2{+U'+.y ~{+3{+4{+5{+6{+7{+8{+p~+W).9{+zR.]*.bo 0{+n!+A*+,;+j=+S=+a{+b{+q)+c{+d{+ng.Zj.e{+f{+g{+h{+i{+Bx.",
"Au.er.Bu.Jx.%e.%e.%e.%e.%e.%e.Jx.Da.Jx.Jx.Da.Bu.Bu.Bu.Bu.Da.Da.Jx.%e.%e.Da.Da.Jx.%e.%e.Jx.Da.Da.]0.Pa.ec.]0.ec.Gf.-j.3w.jc.[1.[1.4w.j{+gh.gh.j{+3,+k{+l{+m{+=!+E5.Ef.q8.{0.s8.Da.Jx.%e.%e.Da.^0.6K.6K.3G.3G.3G.6K.2G.2G.3G.3G.Zn.IH.IH.IH.IH.Zn.Au.er.Bu.Da.Jx.Jx.Da.Bu.Jx.Jx.Jx.Jx.Jx.Jx.Jx.6K.@=+@=+~-+~-+w%+n{+o{+p{+q{+K~+Fk.8h.P&+`d.8h.Ku.ph.r{+s{+c5 Zk.Zk.}4 R~+t{+u{+bj.v{+w{+Hr.#} Sn.6h.7h.gZ.Cf.Ga.*e.{0.$e.Vn.Vn.Vn.Vn.er.er.er.er.SE.Df.v2.+N )s.m-+x{+8Y n$.y{+z{+A{+Kq ^R ]X.EN./R.B{+Go.}X.2$.vp.C{+D{+E{+F{+*6 a3 G{+H{+/r I{+*_ %7 PO J{+K{+L{+M{+ke `h *> $% <* <* w@ E) A  $% F  <* <* D) D) ;> ;> ;> ;> #' #' #' w@ x@ 7- &' j~ gb N{+O{+P{+ug.r&+Q{+on.sp.2x.v)+R{+S{+S)+T{+Pi.U{+V{+;{+W{+G)+X{+@;+nP J=+Sq.Y{+Z{+3/.7^.x;.z'.8~.`{+!m.nf.cp.}L.0n.}L.w>.qk.xn.1k./r.z)+E!+<{+Lq.<{+[{+D!+}{+|{+aH.M)+s!+AF. ]+@'+'L.{{+.]++]+@]+9 .#]+1u.;f.T)+J!+$]+6*+C*+@K._m.%]+&]+*]+A*+=]+B*+^d %f -]+5r.;]+>]+,]+']+)]+",
"Au.er.Bu.Jx.Jx.Jx.Da.Da.Jx.Da.Da.Da.Jx.Jx.Da.er.$e.{0.ir.hr.ir.Vn.Vn.Vn.{0.{0.{0.{0.{0.Vn.Vn.s8.%e.Da.]0.]0.Oa.4t.-j.3w.Vu.5w.5w.!]+G~+9t.ic.~]+~7.hc.{]+]]+km.^]++= Ck.Vk..~+.~+Uk.%e.%e.Jx.^0.Jx.Da.^0.Ga.Ga.^0.Da.Jx.]0.^0.^0.Ga.Ga.Cf.Df.Df.Xn.Au.Bu.Jx.%e.%e.Jx.Da.Da.Da.Da.Da.Da.Da.Da.3G.`d.`d.`d.yf.Zn.SE.RE.%C.Cp.Ou.Df.Ga.^0.Qa.Kf./]+ ~+et.Ua.Yk.oc.,o.<o.(]+_]+:]+Ir.<]+[]+}]+o0 `d C#.;e.l%.{0.$e.t8.wu.Jx.Bu.Bu.Vn.ir.ir.hr.hr.hr.6c.Ga.v# /7.`O.Y,.|]+T,.RZ cO 1]+2]+JP K1.{R.G0.3]+4]+5]+6]+7]+8]+9]+0]+a]+kK b]+WV c]+/r d]+;V G8 h:  P }L e]+4#.oC.[L f^ u@ %% D) ;> w@ E) E) C  E  N  N  5- 5- 5- 5- 5- 5- 5- 5- N  *% *% h~ nN f]+g]+h]+i]+j]+k]+-)+d~+]{+np.4x.En._'+l]+m]+n]+('+o]+W=+^*.j<.3k.X{+%,+%,+v!+Sq.p]+Y{+u>.0~+q]+r]+D)+s]+ku.kk.x>.t]+o]+K*+%O.u]+v]+u>.w]+x]+y]+z]+A]+y]+E!+g~+g~+E!+B]+J)+2{+AF.1{+S'+C]+,L.Dn.D]+an.4r.E]+m!+F]+t)+;f.F]+l!+G]+H]+-k w)+w>.X=.mX.-k.t]+x).I]+;i J]+K]+L]+:++M]+N]+",
"Yn.Au.er.Bu.Bu.Bu.Au.Au.Yn.Au.er.Da.%e.%e.%e.Jx.$e.Bk.Vn.Vn.Vn.Vn.hr.gr.$e.{0.ir.Wn.Wn.ir.{0.$e.%e.%e.Pa.5t.Iu.zr.jc.4w.5w.5w.!]+Wu.bw.bw.bw.O]+P]+xX ~]+Q]+R]+S]++= Ck.<0.:0.<0.-J.Da.%e.Da.^0.^0.^0.*e.Cf.Df.Df.&e.Df.Cf.Cf.*e.Ga.*e.Cf.&e.9h.Lp.Xn.er.Da.%e.%e.Jx.Da.Da.Da.Da.Da.Da.Da.Da.Da.2G.@=+AO.3G.3G.`n.IH.4G.5c.^0.Df.@j.Iu.zr.!]+T]+U]+Xk.Sp.I:.he.SH.QA.V]+bj.W]+Tc.X]+Y]+Z]+`]+o< qZ._-+w8.V. p8.6h.Kp.Bu.Bu.Bu.ir.ir.hr.Un.jr.!7.]0.ec.v# }h /v. ^+AW )N D]..^++^+Q%+@^+C< #^+$^+g&.;t.%^+&^+*^+=^+-^+;^+*^ #[ 4G >^+,^+pB ;M '^+rR ^B.A3 )^+=..3@ ^s !^+s@ $% <* <* %% (> =] A  C  E  N  N  5- 5- 5- 5- 5- 5- 5- N  *% &5 &5 O) 9I.&Z ~^++S.kl.:i.{^+]^+^^+]{+vI./^+X'+(^+_^+k&+:^+(f.<^+oX.[^+0o }I }^+os U'+pI.|^+1^+2^+3^+4^+B)+|^+2^+Vd.5^+lX.t]+o]+6^+o]+-k 5^+s]+0~+|^+7^+8^+Rq.ys.8^+A]+y]+y]+A]+|{+K)+S'+2{+2{+2{+s!+B!+9^+D=+}*+W=.0^+Wq.5T.a^+_,+_,+#<.b^+lX.;{+{'.CI.'i c^+/V d^++-.fn.H-+e^+f^+g^+gs.|'+h^+",
"Au.er.Bu.Jx.Jx.%e.Jx.Jx.Jx.Da.Da.Da.Da.Bu.Au.Xn.Wn.hr.ir.Vn.Bk.Bk.Vn.ir.Bk.{0.{0.Vn.Vn.Vn.{0.{0.ec.IO.i^+j^+k^+l^+I:.Yk.Zk.lG.mc.ft.k| k| k| mG.<o.T1 v( PQ.m^+n^+O2.`k.`k.`k.4_.mm..~+Vk.Vk.Vk.Ga.^0.^0.^0.*e.&e.7h.@j.+j.9h.Df.*e.*e.*e.Df.&e.(t.Lp.Xn.er.Bu.Da.Da.Bu.Bu.Bu.Bu.Bu.Bu.Bu.Bu.Bu. o.4G.4G.Yn.Au.Au.*e.Df.*e.=e.eh.[1.Wu.[N.ic.*j.Sp.Ua.ft.nc.10.Up.7m.`u.ej.o^+p^+yK.q^+r^+s^+t^+mZ.TL.qZ.t%.B;.w8.Ck.$e.q8.r8.)7.)7.!7.B#.B#.X. <0.u^+,9 =s.H' |#+v^+w^+n'+x^+y^+z^+A^+B^+2I.C^+n*+D^+E^+F^+YR.G^+H^+^( Nh pB $~.I^+vK 0p 1L 2G NO J^+r8 *[ b- l` !^+U3 u@ !] F  F  $% A  -( -( C  N  N  N  5- 5- 5- 5- 5- 5- y@ *% &5 A@ ~6 A3 5* K^+E$+L^+6=.I$+c*+M^+N^+k8.O^+0g aL dp.|*+P^+Q^+=1.R^+Ov.S^+e~+T^+H)+Y,+zF.sy.B!+r!+Ss.X{+>{+r]+|^+'{+Qs.A!+-k Fs.IU.IU.mf.^{+^*.U^+)h.q]+V^+A]+8^+ys.8^+t!+K)+K)+t!+I)+h~+1{+s!+1{+z)+Dv.r]+xn.d~+kk.d[.6^+W^+yR.X^+Y^+Z^+`^+ /+./+'i Z,+of.+/+@/+(h.Fg.#/+$/+%/+&/+ey.*/+G>+H$+=/+",
"Bu.Da.Da.Jx.%e.%e.%e.%e.%e.%e.Bu.Xn.Kx.Np._t.zu.$o.<w.Jp.[z.Wn.ir.Bk.$e.hr.Vn.$e.$e.$e.ir.[z.N:.Iu.-/+et.s{+;/+bz.nc.lG.ft.Dr.$y.Dr.20.he.RH.k| T1 aj.T1 k6 >/+,/+$g.oc.z2.MW..~+Vk.mm.HO.HO.mm.^0.]0.Jx.Jx.]0.*e.+j.gZ.gZ.+j.&e.Cf.*e.*e.Cf.Df.(t.Kx.wu.Xn.Au.er.Bu.Bu.er.er.er.er.er.er.er.er.Zn.Zn.er.er.Au.Xn.+j.@j.2m.7K.[1.5w.bw.O]+~]+|o.10.$y.$y.>o.hh.Va.&q.)j.'/+)/+!/+~/+{/+]/+^/+jZ.//+(/+_/+:/+jK.Sn.b< !7.!7.!7.!7.B#.B#.u2.,/ ,/ l< n( )l ^/ </+[/+0$.}/+|/+1/+2/+3/+4/++>+5/+6/+3d 7/+8/+9/+0/+a/+b/+<7 ly 4D c/+d/+=_ sa k: $1 C9 C9 zF $1 e/+K$ /s !' u@ !] }* }* => T{ .* .* C  N  N  N  5- 5- 5- 5- =% y@ *% &5 A@ cW cW z3 _G .0 f/+g/+h/+wC.9l cI.>H.=,+i/+V'+j/+2x.h&+k/+zp.l/+nX.>r.m/+n/+o/+/x.p/+.'++,+os IJ.r!+1^+q]+z'.r]+Z{+Z,+./+cp.q/+NM r/+s/+'w.e~.U^+0~+Sq.t/+t!+A]+A]+y]+|{+}{+|{+K)+u/+v/+Dv.Dv.Z=.Dv.L)+)i H=+v]+w/+x/+y/+3>+z/+.8.A/+B/+C/+E*+'i D/+3^+~h.E/+F/+G/+#/+H/+I/+J/+K/+oF.L/+<G.M/+N/+",
"%e.Da.er.Xn.Lp.Lp.Lp.wu.Mp.^t._t.zu.dr.yu.O/+P/+/S.eZ.hG._z.$o.[w.gr.Bk.ir.ir.Wn.Kp.Jp.<w._z..F.Q/+bt.-/+ct.U]+Wk.Mf.Mf.Ta.ft.Dr.Dr.he.R/+R/+he.hh.%g.PQ.^e.PQ.Ch.{!+]P.SH.R> 4_.S/+.~+4_.4_..~+^0.]0.Da.Jx.Da.^0.*e.Df.+j.9h.&e.Cf.Cf.Cf.Df.Df.wu.wu.wu.wu.Yn.er.Bu.Da.er.er.er.er.er.er.er.er.Da.Da.Jx.Jx.Vn.Kp.#j.tr.'e.2'+S]+bw.T/+hc.nG.Xu.,o.k| RH.oc.Ah.TH.-3 Ir.'j.YT.U/+V/+W/+X/+Y/+Z/+`/+ (+.(+9'+h|  (.,/ '@.W% W% w# w# ,/ u:.5j 5j +(+KD.ZC ,R.j.+)` @(+#(+$(+%(+&(+*(+rB.=(+-(+;(+>(+XI.,(+'(+oC.)(+!(+$H ~(+{(+](+FT z} nN V-.z  C9 ^(+$H J  &' U3  @ -( +' => *] *] &] t  4* 3* >( y@ y@ y@ =% =% =% =% y@ y@ Q: tm gN zF ^B.z3 M$ /(+((+fa 4D.w&+#Q._(+:(+<(+Q,+=,+[(+}(+|(+1(+2(+Uq.,r.Z-+$t.k8.3(+p/+4(+Vs..'+oI.#'+#'+-4.GQ z'.5(+p]+s]+kk.x>.6(+7(+UY.H'.8(+X=.s]+Y{+)i t/+C!+9(+9(+9(+t!+K)+K)+t!+f~+0(+Dv.Dv.Z=.Z=.L)+)i B!+a(+KP.nR.S).];+b(+>5.c(++-.~T.0i.!k.3c.d(+LF 6^+e(+_,+f(+g(+w#+h(+aT.}B.i(+j(+>S.k(+",
"%e.Bu.Lp.^t.br.Ix.dr.vA.P/+67.l(+l(+9D.67.67.9D.m(+/S.n(+o(+/S.eZ.[w.Wn.$e.hr.Op.hG.n(+<z.o(+S!+p(+bt.bV.[j.^4.^4.]4.4'+A2.q(+lm.,o.Up.30.PQ.l| TH.`E.30.PQ.TH.TH.r(+>/+R~+14 <j.Vk..~+4_.HO.S/+Pa.Pa.Ga.ec.^0.^0.^0.^0.&e.Qa.Df.Oa.Cf.Qa.&e.&e.*e.Cf.wu.Df.Xn.^0.Da.%e.er.^0.er.^0.er.^0.er.^0.gr.t8.ir.s8.jr.2*.=!+F&+3,+H~+OQ.jm.~7.Sa.R&+hc.pm.MA.Yk.s(+SH.Q% Fr.Am.`]+P'.t(+u(+v(+w(+x(+y(+z(+A(+B(+C(+D(+mL n}.,/ Z. Z. X> Y. u:.5j 5j KD.)1.h4.MK.}&.I%+a$.E(+F(+G(+H(+I(+DS J(+K(+-p.L(+M(+N(+O(+P(+Q(+1* *% R(+S(+T(+](+U(+#~.V(+W(+x^ B9 hM.$H h~ .* -(  @ r^ u@ => *] *] &] '> 4* '> &[ *% *% y@ y@ =% =% y@ y@ *% &5 A@ cW v} A3 0z lo jo X(+KL Ll Y(+<;+Cq.6]+J(+ A.~>+=,+xa.Z(+$t.`(+kk. _+._++_+@_+#_+$_+4(+%_+p/+P'+P'+{{+),.&_+q]+c=.*_+=_+kk.U{+-_+;_+>_+,_+t]+-k.w/+2^+)i Kq.z)+L)+Dv.L)+AF.t/+t/+Kq./,.5(+)i k~+ ]+XJ '_+~{+G)+of.)_+ik.3u.Sl.!_+~_+{_+]_+^_+/_+(_+__+:_+}k.4r.a&+Hx.<_+[_+}_+|_+1_+2_+3_+4_+5_+6_+",
"%e.er.(t._t.vA.O/+7_+9D.VE.8_+9_+0_+a_+9D.O/+yu.GL.-!+b_+XE.`L.c_+d_+kD.#e.Ef.Cf.@j.yr.hD.57.EO.'.+e_+<j.<j.4'+ F.q(+m0 ;} l< n( M7 O% 9c IR &q.30.30.14 20.mG.SH.R/+f_+g_+h_+Dr.Mf.[j.0V.aQ.i_+aQ.i_+]0.aQ.fc.0V.Oa.i_+Qa.j_+^0.j_+Qa.0V.Qa.Pa.Pa.Pa.*e.ec.]0.^0.*e.Oa.^0.%e.Ga.Oa.]0.ec.Df.Vk.n%.*= )@.w# o%.,@.Sa.nG.=q.k_+&g.X2.Or.BU l_+O2.m_+n_+jQ.o_+Y5.N2.lt.am.p_+0V q_+r_+s_+,=+x{+t_+u_+v_+w_+x_+y_+yt.}h VC >/ s( :/+SL.TL.qZ.pZ.u:.KD.>M.6(.j[.$R z_+A_+#U.B_+~>+cI.xl.*-+C_+D_+E_+_, K9 k~ :> )^+'u Kc 2G !t F_+*M G_+H_+I_+0e ~6 &1 *1 h~ C@ ;% 7- r^ v@ $% $% B  B  $' $' ;% h~ J  A@ 0I tm Q: f_ f_ y@ N  C  7- ;% &' _> J_+y'+Gk @H K_+G^+L_+M_+N_+N*+/&+av.-t.du.~r.O_+P_+Q_+R_+oX.S_+OU.np.+t.T_+U_+{r.Vs.V_+6r W_+&;.Pv.lu./*.!h.X_+Es.oR.Y_+e(+Z_+`_+4P  :+Od.9n..:+pf.w]+IJ.+:+qM /x.OM @:+of./*.&_+#:+$:+%:+),.{u.&:+=2 yF.!m.*:++:.=:+-:+(2.#h.;:+Ba.|>+>:+V=+m8.,:+bf.9 .lg.':+):+!:+~:+{:+]:+a +^:+/:+(:+_:+",
"Au.Au.Yn.Xn.wu.Kx.(t.Mp./t.br.Ix.::+O/+uA.P/+<:+[:+H~+}:+|:+1:+`L.1:+XE..F.2m.Bf.Df.&e.7h.@j.Gf.$; <j.4'+z2.G5.y2.;@.M7 p| 4! p| n< >3 >3 vs  e HR gt.}4 }4 QQ.RH.20.RH.2:+3:+4:+5:+s{+6:+bV.Xk.9V._Y.IO.7:+8:+6K.:S.6:+bV.#(.7:+aQ.j_+j_+aQ.aQ.Jx.Da.Da.]0.]0.ec.Qa.(Y.(Y.Oa.5t.3t.hZ.(Y.Qa.$e. (.Y. +: Nr.BU Or.,U.'U..I.CD.mN.!F.9:+VA.0:+RH.a:+b:+c:+d:+e:+f:+T` iw.1U.ho.g:+|V 8Y h:+>=+i:+j:+k:+l:+m:+., |q.z%.ac Y> nL ()+TL.1Y.qZ.iK.u2.Sn.ZM 3H n:+o:+p:+q:+IF.hp.+K.r:+g^+s:+t:+u:+v:+w:+$[ 08 Xb s^ s^ 0z nN r9 CM x:+x:+Ow y:+z:+dW v} *[ 6z 6z 7- 7- E) v@ %% %% C  C  B  B  >( &[ J  *1 0I 0I Q: Q: f_ f_ C  C  9- Q3 A:+B:+C:+V&.C,.Ug *T R9 D:+E:+F:+G:+M>+IL w~+N_.gp.T-+H:+I:+ju.nf.{'.J:+xa.K:+~r.L:+%_+ag M:+J:+ _+nX.d[.y).*:+N:+jk.O:+z&.4P P:+t)+Q:+R:+S:+ /+9n..:+pf.Kq.k~+k~+sy.I=+&O.T:+0~.KP.&5.U:+V:+~'.W_+Gg @_+m{.2r.W:+`{+ik.X:+Y:+Z:+`:+;:+r;.('+ <+K*+,7..<+hi.+<+@<+#<+$<+%<+&<+*<+=<+yW.-<+;<+><+,<+",
"Wn.hr.{0.$e.Bk.Vn.hr.gr.Jp.fr.<N.[w.#o._z.hG.Mx. M.'<+)<+!<+~]+G~+bw.S]+Xu.ic.gh.8K.dc.-J.A8.sr.4'+O2.|0.4'+{7.{7.m0 p6 >} >} n< a< >3 }H $} >} a< x' Ah.Va.10.k| QQ.$g.j6 ~<+{<+5:+i6 k^+U]+]<+LW.[j.bV.6:+#(.6K.3G.IO.0V.:S.i_+8:+8:+i_+aQ.7:+:0.A8.:0.dc..~+Vk.Vk..~+A8.S/+S/+Vk.^<+-J.B8.:0.xX F5.T/+k_+jm.k_+1o.y%+R&+kG.k_+/<+jm.R&+hc.20.(<+Mc.6j.Y5.H7 6Z ^n De._<+:<+<<+[<+}<+{l.AS |<+1<+2<+3<+4<+5<+AI ]/ H5.nL '[.:/+TL.1Y.qZ.iK.u2. (.]} Va 6<+7<+8<+9<+0<+Cv.a<+b<+c<+V_.X$.d<+e<+<Q 0p 08 >] 4* 3* 3* 4* )^+DM jy f<+Ow {r 47 {Y ln Jc 0e 0e 6- >( C  $% %% %% E  E  |* |* A@ A@ J  *1 0I 0I Q: Q: f_ f_ C  >( Q3 g<+B:+7y.h<+i<+K9 [> !1 hb j<+pO.k<+l<+j +.O.wl.m<+nk.2E..,++:+n<+o<+$t.}(+FC.hp.p<+q<+vq )>+FC.}(+r<+s<+zZ t<+^z A).5u.u<+r/+v<+a^+w<+w<+{'+x<+Bg.=_+T:+y<+V^+z<+A<+Lq.B<+C<+3/.D<+E<+)~.b~.^*.&O {'.!m.}w W_+Sv.Sv.)_+In !'.F<+G<+#h.H<+2>+I<+Z1.K*+J<+K<+L<+1W.v(.M<+N<+O<+P<+Q<+R<+S<+T<+U<+(L V<+",
"Wn.ir.Vn.{0.ir.gr.Cu.fr.Op.Op.<N.<N.<N.<N.Op.#j.j{+S]+Sk.O]+j{+j{+G~+Xu.9t.G~+ic.gh.gc.'.+z8.+= |0.10.oc.lm.4'+^7.M7 p6 Xd Xd O% Xd h< }H VC p| m0 !3 !3 ;} z2. F.oc.he.)!+ft.mc.j6 W<+X<+Y<+k^+ct.bV._Y.Xk.]<+aQ.8:+7:+IO.aQ.3G.6K.8:+i_+Z<+3G.'.+'.+A8.dc.Vk.Uk.Uk.Uk.-J.S/+dc.<0..~+C8.Ru.jc.O]+P]+`<+`<+nG.T/+~7.R&+Sa.Ra.`<+ [+OQ.~7.Ra.oc.Zk..[++[++[+@[+q# )} tL 4H #[+[q.$[+%[+&[+*[+=[+-[+;[+>[+,[+'[+`O.aj x( nL '[.RW.pZ.qZ.t2.iK.u2.l< 6J.$=.)[+![+~=+~[+{[+][+^[+/[+([+_[+w* :[+<[+.a 0p s9 Xb ,% D@ >% >% D@ pC.[[+jy }[+=v =A |[+1[+ae 9e 0e &[ B  C  $% %% $% E  |* |* |* A@ J  J  *1 0I 0I Q: Q: f_ *% D  6- R) e/+]B.3@ 1@ le .c 2[+_, 3[+4[+5[+vL.6[+7[+8[+9[+^i.Cl.;t.%,+'L.yF.o<+Dn.9^+5x.[(+Iy.ag &'+0[+>7.a[+/{+;#. !+b[+%5.c[+d[+s/+e[+Ol.w<+f[+g[+h[+i[+j[+Pv.T:+y<+k[+l[+m[+n[+o[+4/.p[+JU.ai.S).q[+q[+^{+nX.@f n<+yF.W_+r[+Vl.}k.s[+o6.t[+A6.u[+~f.v[++u w[+J*+x[+Ng.<'+y[+z[+A[+B[+C[+D[+E[+F[+r&.w$ <a r).",
"Wn.hr.ir.ir.ir.ir.hr.hr.gr.Kp.Ox.<N.<w.DO._z.2,+Hk.x' Va.zX x' zX zX ^e.f..k6 hh.k6 ;@.G5.;} {7.|4 lm.,o.,o.Va.`E.Up.zX a< O% >} m< Y1 q| Y1 m< W. w# *= 5Z W> *= G[+cc.Hk.Hk.ur.[1.[N.X8.H[+I[+I}.T]+]e.ch.Gf.Qa.R`.J[+p(+/]+)e.Iu.ch.Kf.TO.Da.Vk.-J.:0.'.+C8.sr.vr.ur.ur.4w.X8.K[+L[+[N.#y.M[+!<+km.O]+~]+9t.9t.G~+bw.O]+j{+9t.!<+!<+}o.gh.l| Up.CU 6Z N[+ p 6j =3 ,K 6w O[+[q.P[+Q[+;; R[+S[+T[+U[+V[+W[+X[+`F  P.H5.'[.v:.u2.t2.t2.D5.Vi.B#.u^+O` OH Y[+#d.Z[+`[+nx. }+.}+`N.03.+}+@}+#}+,V @1 !t i_ i_ b/+$}+Pw.m` z^ B8 %}+*v =v gW '^+&}+*}+9I !Y cW A@ z@ }* }* F  F  E  |* |* z@ A@ J  J  *1 A@ A@ Q: Q: *% *% 17 Nj h_ vm [L D+.]).=}+$@ %@ <  P`.-}+;}+>}+~s ,}+'}+)}+!}+~}+{}+]}+*& #t.^}+1E.aL ;,+5x.-,+k8.*'+AI./}+`(+cp.f&+mf.u<+(}+_}+Pn.IU.:}+Xq.f[+5'.<}+[}+)w.y;.e~.}}+N:+|}+1}+2}+3}+4}+5}+6}+7}+8}+Pi.6i.9}+NM Pn.0}+Vl a}+u;.Jv.fm T[.jk.08.b}+c}+d}+e}++u d~.w[+f}+g}+S).e(+h}+i}+j}+k}+l}+R*+m}+n}+o}+p}+q}+r}+",
"{0.Vn.Vn.ir.ir.ir.Vn.Vn.$e.{0.Wn.Ox.[w.$o.hG.kD.xX p6 p6 )9 p6 ;@.M7 !3 hh.v( )9 !3 X1 !3 X1 !3 l< A2.4'+O2.`E.PQ.Bh.40.!/ O% p| j< o| m< q| m< Q> Q> W% w# X. W. s}+E5.cc.Na.A8.:0.<0.B8.-j.jc.qD.t}+u}+v}+)e.4t.w}+x}+y}+z}+A}+A}+W8.B}+C}+az.Ru.5w.[N.#y.D}+X8.E}+K[+F}+G}+H}+I}+X8.M[+J}+M[+km.km.K}+bw.G~+9t.9t.ic.~]+ic.}o.S]+)<+S]+ic.30.jw.]3 i0 Z1 >n _l qf Xa.L}+M}+N}+[M.O}+P}+Q}+Y% y>+R}+S}+T}+U}+I' AI -#+)[.Y. B#.D5.D5.D5.Vi.V}+Uk.}4 Za.kr W}+X}+Y}+Z}+`}+ |+.|++|+@|+#|+$|+%|+~t t} r9 9I.{u X&.&|+&|+}L y8 t@.sw #~.*|+'^+&}+=|+-|+!Y *1 &1 I  }* }* F  }* |* z@ z@ z@ A@ J  J  J  A@ A@ Q: Q: *% *% 6- 6z D@ v8 M$ ;|+>|+,|+:- '|+)|+!|+~|+{|+'N.]|+^|+/|+(|+_|+/d.>i 8S :|+a[+^}+<|+[|+ f }|+op.}(+||+Vl oC 1|+q[+d[.>:+s/+2|+3|+>;+4|+8!+,z.$]+I!.5|+h[+9W.6|+Es.WG &_+7|+8|+9|+0|+a|+b|+c|+A/+VP.d|+Yq.e|+1W.f|+>;+g|+h|+Gg ws.X_+r! lu.i|+E|.j|+k|+k|+)'.l|+m|+3u.b~.j[+U)+n|+o|+p|+q|+r|+s|+R*+x,+t|+u|+v|+w|+",
"$e.Bk.{0.ir.hr.Wn.gr.gr.Vn.Vn.ir.Wn.Cu.<N.#o.7K.yX v( p6 -} &} '9 '9 j< ~/ >} p| '9 ,9 X1 VC >} *} n( )9 p6 k6 Up.gt.l| ;3 ^e.Y1 &} j< m< q| p| w2.xX w# v# v# X. *= xX += z8.Na.[0.C8.8K.'.+<0.3w.M[+X8.L[+!]+5w.M[+D}+x|+y|+y|+z|+I}+A|+I}+x|+G}+B|+x|+z|+x|+x|+x|+x|+A|+I[+C|+X8.5w.4w.[N.[N.J}+#y.#y.M[+Vu.4w.*j.=j.[1.4w.*j.Vu.K[+X8.5w.Up.;{ :g.'K C2.*y PH D|+D|+K~.,l E|+~K zj.'{ J' *[+F|+G|+a$.H|+I|+a).J|+'I.mL Y. )7.)7.Ep.Un.Vi.Hp.%e.aw.4m.K|+ze.L|+M|+N|+O|+P|+Q|+R|+=^ ;V S|+T|+be U|+#w m: Vc 3R.(G (G L9 gd V|+PJ W|+IS =A |[+UY X|+Y|+T: *] N: I  /6 P) P) |* z@ z@ &1 J  J  h~ h~ A@ A@ *% *% *% &5 &[ Q  ,% :> ]u Z|+`|+ 1+.1++1+@1+>W.;W.#1+$1+%1+&1+*1+=1+-1+;1+z;.>1+,1+w)+,p.'1+)1+)1+1E.^}+!1+X'+~1+`l.{1+V7.V7.<^+]k.ok ]1+^1+Gn Nn.TY.dn.I!.@)+!f./1+(1+Es._1+9~.'k.:1+<1+t'.[1+8}+}1+|1+11+21+(&+31+41+51+UY.{S h|+ws.61+*_+z).e~.)'.71+c}+81+91+m'.01+~k.c~.a1+b1+wf.AR.ig.c1+{`.d1+e1+f1+g1+h1+i1+j1+k1+",
"hr.ir.Vn.Bk.Bk.Bk.{0.{0.ir.Vn.Bk.{0.hr.Cu.[w.=!+nG.T1 x' )9 o| '9 p| m< '9 4! i< %} ,9 ,9 $: !l p| ;@.;@.;} l< m0 k6 x' gt.Up.~/ 4! 4! q| >} p| F5.w2.,@.'@.W> W% v# b< cc.G[+[0.#; B8.'.+A8.:0.C8.sr.C8.B8.3w.#y.$F.J}+L[+D}+&F.&F.D}+D}+l1+K[+G}+I[+y|+B|+G}+C|+H[+H[+F}+$F.D}+L[+Wu.M[+m1+M[+Vu.Wu.aw.Vu.5w.4w.4w.4w.jc.4w.'.+A8.Vu.[N.[1.U_ F' n1+n1+0*.;-.QH Xa.QH |,..P.(v.@ +SW.'{ x>+a,+o1+p1+H@.q1+r1+[/+s1+^/ ~y.,/ )7.q8.Ep.Un.Vi.Hp.Ga.2m.&g.a!.pE t1+~A.u1+v1+w1+[g x1+#[ y1+z1+A1+B1+C1+#w Vc m2 D1+E1+F1+0s.Z' /$.%a d7 !t G1+H1+X|+I1+p8 U: _7 N: I  /6 P) P) z@ z@ &1 &1 J  J  h~ h~ A@ A@ *% *% *% >( +' t  v8 }L J1+K1+[=.S9 L1+M1+N1+O1+]& 5) /  P1+Q1+R1+S1+T1+HR.qv.dI.Rl.|W.|E.U1+V1+V1+%]+-x.Ii.si.~1+W1+d[+Ng.Ng.4T.W1+Tv SJ.X1+Y1+Z1+>z.d|+<`.`1+[}+xR. 2+.2+0~.+2+@2+tf.Q$.#2+$2+|1+(&+%2+!%+&2+*2+=2+-2+;2+>2+,2+'2+)2+q]+;k !2+s<+vi.~2+l9.{2+]2+01+Y:+~k.+-+Hn ^2+X)./2+(2+_2+:2+yb <2+[2+}2+|2+12+22+32+",
"Ck.Ck.Fp.Fp.Fp.b< Ck.Bk.jr.Un.Ep.Ep.Un.Hp.Tn.n%.Ra.`E.T1 ^e.p6 ;@.a< n0 O% q| i< i< VC *K ,} h< 9c a< ~/ >} q| >} f..hh.hh.^e.^e.f..M7 p6 !3 k< .: -o.;o.*o.y8.u8.)@.B#.w8.C#.)7.E5.)7.Ff.2*.l%.1m.Bf.Ef.N:.&j.ZE.Y*+kD.ZE.GL.d_+1:+42+52+62+72+82+92+'<+Sk.!<+!<+02+'<+'<+km.bw.G~+G~+G~+~]+~]+Wu.jc.*j.*j.4w.jc.[1.-j.-j.*j.*j.3w.-j.=j.Ru.BU --.Ge.[g.a2+b2+c2+8O d2+VL.ZF e2+f2+Be.g2+h2+i2+j2+k2+l2+m2+n2+o2+S[+5-+~y.Y. t8.Ga.ir.Ep.hK.}h.Lp.%e.k_+'3 #/ 4l.p2+q2+r2+s2+&@+ld t2+u2+v2+w2+|7 x2+y2+z2+uj f{  . -) 3= F^ $^ ,7 xR =[ y2 T: /X A2+B2+o8 m8 S: /6 /6 I  z@ $' => =| hd &] ,> h~ h~ $' $' E  *% D  6- 6z N) r  7{ *T C2+T& D2+E2+F2+G2+H2+I2+;4 J2+K2+F$+L2+M2+N2+-G ~y 9l f(+R{+O2+j=+j=+j=+P^+|*+}*+0n.P2+oX.^*.Es.5u.y(.nk Q2+Z'+pk R2+ :.0{+I!.$]+f[+S2+3>+D*+9n.KP.of.9n.i*+1i.VM.is.=d h^+T2+U2+V2+W2+X2+Y2+Z2+`2+T)._O z'. 3+.3++3+/{+@3+I<+#3+$3+[1+%3+9i.E<+)~.O:+9}+&3+Hs L$+wC.*3+=3+-3+;3+>3+,3+D.+:Z '3+",
"b< Fp.Ep.Un.jr.Un.Un.Ep.Hp.Hp.Hp.jr.Un.b< Bk.Bk.Na.^7.hh.hh.}0.Ah.HR bc bc 9c *K !l $} *K v] #n Xd O% ~/ ~/ O% a< x' zX }0.x' ^e.f..M7 M7 m0 -} )3+oS.B;.51.q}.r}.r}.q}.r}.k%.2*.jG.jG.jG.2*.m%.%j.1m.-e.2m.2,+kD.ZE.kD..F.ZE.S!+S!+b_+`L.c_+`L.|o.|o.gh.gh.gh.gh.gh.gh.>j.>j.;j.Rp.|o.}o.}o.|o.5w.4w.[1.[1.Ru.Ru.*j.-j.ur.3w.*j.=j.=j.[1.5w.CD.!3+~3+{3+a2+]3+8O 0< aS.aS.N'.yt.^3+/)+LK.BI Q[+_+.yz./3+(3+_3+:3+<3+7P.]/ o| r8.]0.ir.jr.[3+q%.gr.Da.}3+$= |3+dP.13+|r.23+33+43+oe 9: 53+63+73+y@ ;% y8 n2 83+k^ 93+03+a3+7~ b3+kK xR %[ dW c3+d3+VY ^X e3+q8 T: S: z@ I  z@ $' B) a1 a1 '> O) $1 h~ &[ B  E  E  D  >( C@ ,% y8 d=+M9 V9 f3+g3+4 +h3+G[.O& i3+}' j3+A[ k3+l3+m3+n3+o3+p3+*H.q3+{d.R{+vu.r3+[W.4r.P^+s3+*;.K] Es.t3+`{++2+u3+Xl.v3+w3+x3+R2+Z1+,~.<`.y3+a^+z3+yk.Ns.+3+X:+Y{+A3+GU.fT./`.B3+C3+D3+E3+F3+G3+H3+I3+J3+Ll.r/+Qv.$:+K3+L3+M3+t3+*;.@3+N3+a2.O3+P3+Q3+Dg.R3+g}+S).S3+T3+U3+V3+O*+W3+X3+Y3+Z3+`3+ 4+M7..4+:V.",
"Ep.Un.jr.2t.Tn.Tn.Tn.Tn.Fp.Fp.Fp.Fp.Ep.Fp.Fp.p8.Ck..~+Na.D8.>j.G~+nG.y%+$=+0:+qt.VA.Z_ Z_ 0Y.T. a< a< a< !/ 9c n0 n0 S1 }0.x' }0.v( y2.y2.z2.n( jV._-+D#.)3++4+w:.y8.,e.Qp.Qp.$j.>e. j. j.;e.s}.2,+2,+2,+.F.m%+kD.kD.ZE.kD.S!+S!+kD.kD.Y*+Y*+m%+z8.D8.gc.Tk.Hk.Tk.+= D8.^]++= Hk.Rp.}o.j{+|o.Rp.fh.;j.>j.Rp.gh.gh.Rp.>j.>j.Rp.|o.}o.}o.}o.9t.@4+x# #4+$4+%4+b2+&4+N'.H5.0j l0 H5. U.'I./)+/v.J' G_.*4+=4+-4+;4+>4+,4+'4+AI 84 q8.Da.ir.jr.)4+!4+|h.hr.XE.~4+3l -/.{4+3<.]4+^4+/4+(4+-%.7` _4+:4+17 C@ k~ <4+[4+}4+|4+<V.14+R, 24+34+S..$_ 44+GB 54+1D =|+3X y2 q^ &1 i~ B) i~ C@ T{ d_ '> D@ 'u 0e $1 &[ B  C  C  B  $' '> B8 64+(*+gb RI K[.[~+74+84++i EW.94+5& .! T} 04+a4+b4+pb c4+d4+z-+e4+p&+Ig R)+f4+f4+l!+7(+6^+g4+h4+jk.9~.B!+i4+j4+k4+l4+m4+rp  :.Z1+TY.y3+y3+^'+2>+];+n4+!'.y&..-.'w.2d.o4+p4+8R q4+r4+s4+U].-++'%+t4+*k Ni.x>.!m..-.u4+u4+', ^*.=E ('+v4+w4+x4+y4+z4+A4+B4+,,.y/+6*+11+C4++a.D4+~@+E4+F4+G4+H4+L( I4+I` J4+",
"Ep.Un.jr.2t.Hu.Gp.8Q.]S.Hp.Un.Fp.b< Fp.Un.2t.Hu.q8.]0.s8.Vk.Ef.Hk.F&+T/+K4+'U.n%+Or.L4+8$+P> U% .b .b .b S1 n0 !/ Xd O% }0.^e.hh.M7 z2.z2.G5.n( v2.jV.jV.v2.u2.v2.w8.v8.1*.k%.>e.=!+e>+e>+$j.>e.7K.m%+ZE.ZE.m%+.F.m%+ZE.ZE.Y*+ZE.2,+&j.7K.&j.2m.Tk.Hk.fh.;j.;j.;j.Hk.Hk.Tk.Hk.>j.|o.}o.|o.>j.Hk.[0.^]+Tk.;j.>j.>j.Rp.gh.}o.|o.}o.9t.j{+|o.|o.S. M4+N4+O4+P4+c2+VL.-K 74 '} sL Zd z%.*s.7V LK.Q4+8F.23.R4+S4+T4+U4+V4+W4+X4+84 r8.*e.gr.Vi.Y4+h| rZ.Hp.XE.l1+y' S@.+E.Z4+|x.`4+ 5+.5+P9 Z] +5+g2 ae CK f]+M/ @5+#5+$5+%5+&5+*5+=5+-5+;5+q9 >5+,5+'5+)5+!5+~5+=( :7 &] h~ B) T{ C@ >% 3* vm {5+]5+'u 0e 6- B  C  $% !] $' D@ l: 6{ ^5+/5+(5+io -^+_5+:5+<5+[5+}5+#. !.  # 3& |5+15+[Q.25+35+:2+)i.%f e|+45+55+(O.Wq.9W.yk.65+5u.75+>j S'+85+G).95+l4+05+a5+ :.R2+xk.b5+{'+c5+d5+Os.e5+LF t>.Rd.*;.EU.f5+g5+h5+i5+j5+k5+l5+B@+m5+|d Ig 2'.on.u>.n5+o5+p5+y<+rf.P^+6i.q5+r5+x4+z7 v&.u'.s5+/V t5+u5+w).U3+v5+1B.w5+x5+y5+z5+A5+B5+C5+D5+E5+",
"2h.|h.}h.Wi.Dk.[m.Yi.Xi.F5+4h.2V.1h.Dk.}h. (.Ck.Bu.Ea.Da.Da.Jx.r8.fr.=!+G5+(0.5h.8c.H5+)P.I5+L4+B' Uo Uo Y2.9c Xd n< q| k6 hh.|4 y2.A2.G5.A2.-} v2.G&+G&+RW. : Sn.Sn.h| D5.C#.v8.1*.r}.k%.l%.m%.l%.>e.e>+=!+>e. j.$j.e>+ j.=!+=!+>e.>e.=!+=!+>e.Ra.O:.O:.x2.F5.F5.yX yX A#.A#.,@.>@.>@.,@.'@.5Z 5Z A#.yX x2.x2.x2.x2.O:.kG.x2.O:.R&+~7.U_ Sa.B' l] J5+K5+L5+++ +N mL po.}C.t] 0! =K -#+I5.M5+h'+N5+O5+P5+Q5+R5+S5+T5+U5+V5+ac 9G.*e.gr.3h.W5+X5+X`.Dk.@y.Y5+;/+5c `m Z5+bB.`5+ 6+.6++6+N9 NJ +_ @6+#6+$6+D1+P`.%6+&6+*6+=6+-6+;6+>6+,6+s@.'6+^U )6+!6+~6+i: )f )f '> Q  d_ 3* >% _> @  J_+B:+Pw.>- uH 6- B  C  $% !] $' D@ E@ 8I <f {6+//.]6+^6+-u -u q&./6+(6+_6+5] y5 d= :6+<6+[6+}6+|6+16+26+Jg s~+36+`q.2%+F]+Y^+b1+S).|u.(p. ^.46+Ry.56+66+76+86+rp R2+9 .8%+''.]'+;:+96+d^+06+y&.a6+$;.^*.os.b6+c6+d6+e6+W2+p'+f6+g6+h6+Wq.f&+23 )i i6+j6+k6+l6+p]+rf.m6+n=+n6+o6+p6+q6+r6+s6+s5+E/+t6+[!.u6+7&+yu 1B.v6+g%+w6+x6+y6+z6+A6+B6+C6+",
"2h.2h.|h.}h.3h.Ek.1h.Yi.4h.6V.D6+&o.6V.Ek.Ma.Bk.%e.2G.`n.IH.Bu.Jx.ir.[z.9Q.0Q.E6+V2.KW.F6+G6+H6+S. jw.jw.u] 9c a< ~/ n< f..hh. F.y2.G5.z2.G5.Q> v2.jK.5$+jK.v2.t2. :  : Ma.v# V. B#.B#.B#.)7.E5.V}+0h.n%.jG.0h.Ff.jG.m%.n%.l%.;e.;e.$j.f>+3,+f>+O:.O:.x2.yX w2.w2.w2.w2.*= Q> *= W> '@.A#.'@.xX x2.O:.Ra.Ra.Ra.O:.F5.yX F5.,@.w2.U_ y%+y%+1o.7$+I6+J6+K6+L6+fV./7.KD.&= j%.E#.*{ mL }h I5.M6+8'+Rm.O5+N6+uV.O6+P6+Q6+R6+S6+Zd !7.Da.Ck.uZ.T6+U6+V6+BO.W6+X6+Y6+c< w_.R' Z6+`6+ 7+.7++7+@7+aW #7+0b @0 ^] 4f $7+%7+&7+*7+=7+-7+;7+>7+$}+XO *M uK ]U Ow G1+,7+OQ p^ '> Q  f^ @  _> 'E.J$ >7+^s B:+>- 6z >( B  C  C  B  T{ ,% u^ !% o  '7+)7+!7+[5+~7+[N 3|.{7+fl.]7+_6+[' 4. |% ^7+/7+(7+p|+Vz._7+11+:7+<7+,;.[7+|p.}7+8}+Os.}k.|7+17+:!.,/.27+37+47+57+2T.#]+67+={+77+c5+H<+87+c[.06+97+|'.[! lu..f.7]+07+a7+'K.5g ^%+b7+VP.i[+w[+c7+,{+/p.d7+,k e7+f7+c=.^*.[>+Ol.E3.o6+p6+g7+h7+i7+j7+~k.t6+Si.k7+ug.l7+m7+n7+o7+p7+>Y q7+r7+/c 9$ v[ ",
"2h.2h.|h.}h.Wi.Dk.1h.Yi.Ek.Xi.F5+O}.E&+2V.Dk.Un.2G.`d.`d.w%+s7+cG.l++# +X@+t7+5N.u7+v7+v7+w7+5V.S. jw.u] u] 9c !/ a< Xd f..}0.O2.q(+^7.^7.e_+[0._-+7Q.r%.7Q.[3+<$+<$+<$+|h.|h.|h.|h.2h.2h. (. (.jr.jr.Un.Ep.Fp.Ep.Un.jr.2t.Gp.8Q.8Q.9Q.7V.x7+ j.A#.A#.,@.,@.,@.A#.xX 5Z w# W% *= '@.w2.F5.F5.yX y7+AU @X.@X.Nr.Nr.@X.i%.p}..: +: z7+,U.'U.!F.A7+B7+C7+D7+iV.+N h4.h| X. W% .: *{ mL }h D(+E7+F7+G7+H7+I7+J7+K7+L7+M7+N7+-; O7  j.+j.Un.Sn.O7+P7+Q7+IQ.R7+S7+T7+U7+V7+W7+X7+Y7+Z7+`7+ 8+.8++8+G} %w (y Ok >* @8+{).#8+$8+%8+&8+*8+=8+{5+sw -8+Tz WE kn %_ a8 ]- u  3* >% a~ @  'E.Dl F2 ;8+>8+,8+h_ C@ 7- A  C  C  7- C@ ,% u^ F! +( 1: '8+P& c!+xk ia )8+!8+!8+~8+{8+]8+f; ^8+/8+(8+_8+:8+tv.<8+[8+}8+;e |8+18+28+}7+#2+38+48+ 3+58+h/.68+78+88+98+86+2T.S)++<+S3+08+a8+b8+c8+d8+e8+f8+k2.g8+D<+HU.+f.y[+}d.rM h8+Z_+i8+Os.(h./T.j8+X~ k8+l8+m8+n8+o8+c=.LP.p8+q8+E3.r8+9}.s8+<1+t8+u8+E<+t6+l!+v8+zb.*{+^N.*i K +w8+x8+y8+z8+A8+&~ B8+",
"sZ.Ep.|h.}h.Wi.Dk.1h.oS.w:.M'.t%.G~.G~.1q.1q.G~.w8.Bk.%e.2G.C8+1$+Z@+Zn.k++Wn.D8+nS.6N.E8+PL.5V.BU bc .b n0 9c ^e.}0.hh.k6 lm.lm.pm.|4 FO.eh.'.++4+F8+r%.7Q.<$+G8+[3+p%.<$+C#.iK.t2.t2.u2.v2.C#.Dk.Hp.|h.Fp. (.Fp.|h.Ep.|h.jr.Vi.b< Ma.Fp.2h.b< v# X. Q> W> 5Z *= w# W. W. w# W> >@.x2.Ra.O:.x2.x2.>@.U. >@.AU kG.Nr.p}.VA.j%.E#.BU 'U.mN.H8+I8+J8+At.K#.K#.K8+jK.D5. (. (.o%.w:.)[.*s.M6+Pm.L8+M8+N8+ D.O8+P8+Q8+R8+S8+>=.T8+QQ.Wu.$j.U@+U8+}h f++zf.V8+Yx.W8+X8+Y8+Aq Z8+`8+ 9+.9++9+@9+#9+$9+%9+&9+W  3f *9+L{+=9+-9+;9+>9+,9+'9+]5+c7 *H )9+!9+$_ '( u  k) .@ =..@@+ke ~9+~9+{9+.w ]9+^9+m)+!' ;% A  A  A  &[ ;% 6z 4*  P Wb J3 /, /9+2= O& (Z (V.(9+_9+:9+<9+[9+}9+|9+x8+GH.(8+19+29+39+>T.49+59+69+79+89+a%.99+09+^,+a9+Ul.:{+b9+N8+zZ.c9+fu.w3+x3+ :.d9+e9+f9+g9+e}+{2+ta.]T.h9+i9+j9+In k9+f4+1W.C*+G]+`^+];+7}+JU.mR.l9+m9+n9+Lq.z]+o9+6n.p9+q9++3+r9+)'+i9.+0.s9+t9+u9+u9+v9+=:+,i #<.w9+U;+x9+y9+09.G!.z9+A9+B9+C9+D9+E9+F9+",
"G9+QH.Ip.Ip.Wi.Wi.jV.`_ +N VL.Yh.n1+H9+L1 9>.^=+`T.~y.V. Ea.I9+J9+K9+`@+C8+t8.rZ. (.L9+HQ.E8+M9+Er.S> Bh.l| T1 k| 20.RH.G~+Ru.-j.Lf.vr.R`.gZ.9h.Ek.G8+ :  : t2.u2. : Sn.Sn.h| qZ.u:.u:.KD.)1.h| v2.C#.v2.C#.v2.B#.u2.B#._-+C#.u2.C#.u2.D5.t2.u2. : Sn. (.h| t( t( t( ,/ V. '@.U_ hc.j{+>j.>j.gh.;j.fh.F5.gh.Ra.;j.F5.O:.yX F5.9:+!F.N9+O9+zG.}C.W% w# v2.u2.hK.}h.}h.jr.2t.]S.q%.1Y.I5.'I.P9+3+.Q9+R9+S9+T9+U9+V9+W9+X9+FI ~{ Xa Y9+Z9+`9+ 0+.0+c_++0+@0+#0+ah.^]+P1 6V $0+D'.%0+&0+*0+=0+-0+;0+(@ ,p (G &Z w-+>0+ % ,' ,0+P; ;% 6z '0+B3 h2 %_ x} J  6- 9- )0+!0+~0+{0+sO [N ]0+^0+/0+(0+_0+:0+Ek =] r^ %' '> '> ,> i~ 6z D@ ;_ <0+I3 kW [0+56 }0+o& |0+10+)h 20+30+,Y 40+50+60+70+sA.sM [_+C4+80+90+00+69+a0+b0+`).c0+d0+e0+f0+$5.n1.g0+h0+i0+j0+k0++<+9%+l0+m0+t`.n^.n0+d~.o0+gk.9~.p0+.2+Qv.A3+Qv.oX./{+&O ./+;{+q0+_O r0+~m.~m.$:+G)+s0+t0+u0+v0+w0+WG W1+r/+:^+Kg.x0+[k.c^+n'.y0+0i.z>.i[+z0+A0+49+B0+C0+Z+.D0+#$ z8+^w E0+F0+G0+",
"{-+`*+QH.tZ.Wi.C#.jK.nL /4.>R.{K #/ H0+I0+(<.J0+vj.K0+/T j_+J9+L0+J9+I9+.e.r8.Ma.h| M0+0N.N0+U_ |4 O0+10.,o.lm.Ua.mc.ft.Vu.Wu.J[+Q/+hD.Sx.Qu.yr.^S.Yi.)3+D#.)3++4+D#._-+n}.u:.u:.5j .N .N .N 5j pZ.u2.u2.u2.u2.u2.u2.u2.jV.v2.u2.u2.u2.t2. : t2.KD.)1.h| t( ,/ Y. Y. Y. W> w2.Sa.R&+|o.>j.>j.Rp.gh.;j.Hk.fh.Hk.+= gc.fh.kG.T/+$=+&6.P0++I.t# u# dc.Q0+t8.)7.|t.|t.#C.#C.X@+Z*+Ek.SL.R0+S0+T0+U0+&(+V0+W0+X0+Y0+Z0+`0+ a+[3 #2 .a++a+2o.@a+#a+$a+%a+&a+L:.*a+x8.=a+#: !s..^+-a+pi.q~+;a+>a+,a+%%.'a+)a+w-+k~ d1 {E AK )f q^ q^ *1 v} v} '0+N) N) r8 J  >( 9- !a+~a+~*+{a+]a+^a+/a+)|+(a+_a+:a+<a+Ek `+ r^ .* t  t  ,> i~ ;% T{ 4* BM [a+}a+Pi >& k= |a+1a+2a+3a+4a+5a+6a+7a+L@+)@+oj 8a+9a+0a+aa+ba+&/+ca+/Z.da+s +ea+B0+v5+;%+fa+!'+k4+27+k,+Ew.ga+`l.Gn ha+ia+ja+ka+la+ma+vi.jk.9~.X_+Es.q[+d[.qf.W{+`{+`{+W{+W{+Ud.V:+Tq.!m.R).._+[^+OU.3r.a(+na+oa+'k.X:+Qv.#5.i6.pa+qa+B~..-+n4+(h./_+ra+r;.<7+sa+ta+ua+va+wa+xa+ya+za+i* Aa++# Ba+",
"_.+Ca+or.tZ.Wi.)@.5$+`. aj iE {K Da+Ea+Fa+C1.Ga+7P.yt.'/ fc.Ha+L0+J9+Ia+P&+7c.^.+L9+Ja+E8+3V.x++s}+$; 8K.B8.B8.eh.ur.Kf.xr.gD.#F.Tx.cr.yu.::+o(+Ka+mS.Ha.x++;o.=o.-o.nt.o] po.s( v:.i5 `d h5 i5 qZ.t2.t2.t2.t2.t2.t2.t2.u2.v2.v2.u2.t2.t2.t2. : )1.5j ,/ X> '/ V% u# u# >@.F5.Ra.kG.gh.Rp.Rp.gh.gh.fh.Tk.Tk.+= D8.>@.O:.U_ `<+&6.!P.La+8$+o] V. *e.8h.r8.E5.sZ.sZ.#C.#C.rr.nr.Dk.:/+@~+Ma+Na+Oa+OF Pa+uB.Qa+Ra+Sa+Ta+Ua+Va+^J BH Wa+f..Xa+Ya+Za+`a+ b+Ka..b++b+@b+#b+9< cS H7+$b+%b+&b+*b+=b+-b+;b+q  $  5* o@ ]- )f hd q^ &1 h~ O) *[ D@ D@ s^ ]Y i: ,> >% B:+>b+,b+'b+)b+!b+~b+uW.{b+]b+^b+/b+Dk =] -( .* t  t  ,> i~ %' +' 3* l: (b+iK ~1 _b+g- '# k= :b+<b+[b+}b+V_.|b+L@+EH.1b+2b+3b+4b+4&+5b+6b+ca+7b+8b+%a.9b+0b+ab+8..bb+cb+db+eb+eP.<y._A.Vl fb+wg.#a.gb+hb+ib+jb+vi.,,.T' r! z).y)./h.v>.;k $:+*_+*_++2+U^+kb+~m.`{+lb+Sv c[+^z ',.of.*& |}+Rd.*_+e~.0}+;#.zZ O:+J*+mb+n4+ra+Md.Gg.Q:+{++Hs K]+6W 8a+nb+ob+HH.pb+&$ qb+}5 2] ",
"  +rr.#C.jr.Wi.)@.>/ 0! ]/ rb+xL AW sb+0,+6H '4+,R.|H u# TO.tb+ub+vb+wb+%e.)@.xb+yb+zb+4V.&o.Hu.^<+ec.dc.^0.S/+ec.Oa.*e.*e.9h.@j.@o.^t.^t.@o.<w.Ab+&o.}[.}[.*o.*o.;o.MQ.BZ.:,.V> o] %} +{ h5 i5  :  : t2.t2.t2.t2.t2.t2.u2.v2.v2.t2.t2.v2.v2.u2.KD.v:.V% u# U. i%.@X.@X.F5.F5.x2.O:.|o.|o.gh.Rp.>j.fh.Hk.;j.fh.Hk.Ra.T/+R&+~4+Bb+,U.t] `_ 5j v# Ga. e.^0.Vn.Fp.Gu.Gu.<.+j++Kp.Dk.K8+iV.]K Na+Cb+Db+Eb+&G 8H Fb+Gb+Hb+z| Ib+YR Jb+Kb+`E.@: Lb+Mb+ND.T% Nb+Ob+Pb+Qb+Rb+Sb+l# Tb+Ub+Vb+Wb+3_+3|.LL ZL S  0~ R  0z '0+O) ,> i~ i~ h~ Q  >% >% vm ,% kn &_ >] s  Xb+A=.Yb+Zb+`b+ c+.c+uW.+c+@c+#c+$c+ @ r^ -( '> '> '> i~ $' A  A  .* B8 sm Wc %c+M! G/ U< &c+,  *c+/:+l=.}b+=c+4++vT */+~y 9a+4b+-c+0b+;c+>c+,c+'c+)c+4b+!c+~c+3K.{c+Ko ]c+^c+/c+(c+_c+%t.+m.:c+7b+<c+gb+[c+e9+}c+$|.LF r! z).|c+1c+~m.$:+$:+/*./*./*.*_+)_+W{+`{+U^+lb+B).Ul.Ud.$:+2c+$;.q9+*_+lu.Qv.O:+3c+f}+n4+4c+Cg.5c+d}+r;.(O 6c+7c+8c+=u.9c+>e 0c+ac+bc+z8+cc+P+ dc+",
"Bk.pr.#C.jr.Wi.)@.s( `. *s.rb+x>+ec+J-.OV.=+._ +'s.fc+)3+Ef.}m.gc+gc+&e.!7.-o.G6+hc+ic+jc+or.$e.Jx.Fa.^0.P&+%e.5c.5c.2G.Jx.%e.%e.%e.[.+s%+[$+X@+Ck.2h.C#.o%.1*.r}.51.MQ.i%.p}.Z_ t] !l i< i5 KD.t( t( t( ,/ ,/ ,/ Y. Y. ,/ Z. Z. t( ,/ &= V% '/ po.BZ.@X.i%.i%.Nr.y7+VA.Ra.O:.O:.Ra.|o.gh.fh.gc.fh.fh.>j.gh.x2.yX Nr.qt.Or.!P.H8+z7+'/ Sn.h| cc.Ea.Ui.Bu.{0.b< Fp.kr.<.+Vn.[z.Dk.jK.iV.kc+lc+RS.mc+.W.nc+oc+pc+qc+ik Le.<H HU rc+Pc.sc+A' tc+uc+Sb+vc+wc+xc+yc+zc+Ac+Bc+Cc+Dc+Ec+Fc+Gc+Hc+%- Ic+j~ ,% k) 4* '0+'u v} h~ O) Q  Q  >% 3* vm J_+s  @1 Jc+r/ x8 [s Kc+Lc+Mc+%5+Nc+Nc+Oc+Pc+Qc+Rc+Sc+@  -( T{ '> '> ,> $' B  D  8- Q3 2L -..n&.Vb 6s ,<+f{ |> Tc+3= [9+Uc+7++Vc+Ng Wc+N/+(G.f^+Xc+d<.c`.Yc+9`.Zc+Q[.`c+ d+.d++d+@d+#d+$d+%d+_A.&d+*d+gB.*'+|5.=d+-d+;d+>d+,d+'d+;:+c~.!'.)d+In ~k.!d+$:+Z{+Z{+Z{+Y{+Y{+Y{+$:+.3+#:+/*.~m.s]+W{+`{+*_+q]+o~.0~++2+~'.lu.,,.JU.~d+06+{d+]d+^d+/d+(d+;e _d+m +:d+-3+!@+:N.<d+[d+}d++$ |d+1d+{c ",
"qr.kr.Un.jr.B#.v2.`_ Y> {y.0S.x>+</+a).2d+W4+_ +ro.oZ.)3+v8.=e.=e.jG.v8.h| s%.3d+Ja+4d+lr.pr.l++2G.Ea.Ea.P&+P&+Ea.Zn.6K.Yn.Da.%e.%e.[.+s%+[$+rr.Bk.Ma.D5.C#.C#.)@._-+D#..: +: BZ.t] $} $: 84 5j Y. Y. Y. X> X> Z. Z. Z. X> &= '/ ,/ Y. U. i%.j%.8$+U> CD.Nr.p}.Nr.y7+Nr.~7.U_ kG.Ra.>j.Hk.D8.z8.;j.;j.Rp.Rp.w2.'@.j%.Nr..I.H8+mN.AU Y. Sn. : cc.5c.`@+6K.Jx.{0.b< rr.rr.er.Cu.0h.`_ cN.5d+6d+XV.VK.$^+7d+8d+9d+0d+ad+F( MG.7G bd+cd+)9  + ;9 Sb+`* dd+ed+fd+gd+hd+id+jd+kd+ld+md+nd+od+kM.D^ pd+s  3* f^ ,0+d_ '> O) A3 '0+'0+D@ ,' z^ z^ y'+v^ s/ v/ s/ !a 6{ T-.g)+qd+a3+BW.j)+rd+sd+td+ud+vF z^ .* '> '> ,> i~ B  C  x@ -% 1* g<+$}+-..[s 3R.6|.y! vd+h@ wd++M xT xd+yd+zd+Ad+Bd+vO.uT D@+C@+Cd+Dd+Ed+U3+wb.v5+Fd+Z.+}q }q fB Gd+$<.Q'+Hd+X}+8H #_+Id+Ml.-d+R.+>d+ia+Jd+c5+f}+!'.LF hk.Kd+c^+Ld+w!+2^+Z{+u>.p]+p]+u>.&_+x!+of.@:+v]+23 `{+#:+=O.z'.x!+*:+)_+_1+Md+Nd+Q3+Od+Od+Ms.Pd+Qd+Rd+69+Sd+k).c'.Td+b@+Ud+Vd+Wd+Xd+Yd+x +Zd+`d+",
"2h.|h.Vi.Vi.u2.u2.n}.)[.aS.f! y] I'  e+.e+<3++e+R0+&-.o%+;o.u# n}.mL nL h4.@e+#e+$e+%e+tZ.&e+fG.3G.C8+Z@+yf.3G.IH.}$+cG.# +# +2.+2.+{-+{-+{-+<.+2t.Hu.3*.v8.)@.D5.V. V. Y. Z. &= u# $: i< ,9 84 Z. Z. Z. '/ &= &= V% V% '/ .: V% ,/ Z. i%.y7+Nr.@4+,3 ,U.VA.i%.Nr.y7+Nr.R&+U_ Ra.yX gc.+= += += ;j.;j.F5.w2.u# '/ U. Nr.&; La+9:+U. X. V. V. S/+yf.xf.2G.%e.Bk.{0.j++rr.Yn.Ox.o%.nL |q.h'+*e+=e+-e+g0+L|+;e+>e+,e+t7.0(.dG 7G 'e+{U.!/ ${ )e+C(+zj.Fe.!e+~e+{e+]e+^e+/e+(e+_e+:e+<e+[e+<a oo +6 N) C@ C@ d_ r@ q@ 0z [[+b/+l: v^ ~] +@ c- }e+@@+X] s/ |e+5* $  `|+U9 &D 1e+2e+]V.3e+~8+4e+.0 5e+'% 3* '> '> i~ $' E  N  w@ x@ 8- 0- _> A8 6e+8q a{ ^] 3: rm [^ Uk 7e+N@+8e+9e+DR.0e+09.*f ae+&-+be+uT ce+sM n +de+DL.ee+fe+ge+he+ie+je+[(+Z5+Z5+Se.ke+hu.le+me++N.1@+ne+oe+^'+pe+Md+D<+X:+qe+R3+%;.re+w!+%;.c=.1c.pf.c=.', y<+Z{+2^+;k $:+*_++2+),.),.),.*:+*:+!'.se+te+ue+ve+we+xe+ye+ze+Ae+Be+n +!{.Ce+De+]>.Ee+~y Fe+Ge+He+p@.Ie+Je+",
"|h.}h.Vi.Vi.t2.t2.u:.mL yt.,{ Xh.7P.Ke+Le+Me+R[+_/+Ne+Oe+%= 2q.I5.I5.Pe+ro.Qe+sw.5!.4d+Re+Ca+}.+dG.X!+IH.3G.3G.Zn.}.+2G.%e.l++!-+!-+_.+7;+7;+j++Gu.Hp.v8.3*.o%.)@.)@.w8. (.h| t( Y. +{ %} %} %} '/ '/ &= &= V% u# u# .: V% U. u# ,/ Z. AU qt.BU U% &; 0:+AU E#.VA.BU z7+kG.O:.yX A#.^]++= fh.gh.;j.fh.w2.,@.&= '/ E#.B' T. }C.+: X> X. X. V. $e.`d.yf.`d.%e.$e.Bk.j++Vn.gr.N:.W> ac ^/ Se+Te+Ue+Ve+Zm.A^+We+Xe+Ye+{I.;R F#.ER H7 Ze+3h l0 M6+'s.A] @` 0< aN.`e+ f+.f++f+@f+#f+$f+%f+&f+*f+=f+U4 v} Q*.Oj '0+~- ,] W-.-f+m: z8 !a ;f+_G .( >f+lo Yb sa #w ~] H$ ,f+.0 'f+)f+V; +M [0+0s.^Y J{+lU R  t  '> i~ $' B  N  N  ;> w@ E) A  -( _> l` :s k~ OJ m~ o: D1+!f+~f+{f+]f+^f+/f+0T.:N.(f+gg._f+:f+P*+<f+[f+2b+}f+|!.|f+1f+^f+2f+3f+4f+Z(+p2+|/ 5f+*U.;4.6f+7f+8f+2@+9f+0f+jb+vi.af+X:+]T.bf+l^.cf+C<+%;.q9+pf./; 1c.c=.Y{+Z{+Z{+Z{+/*.*_+/*.$:+{{+df+Wl U^+!'.LF ef+p5.ff+gf+hf+^a.if+jf+kf+lf+mf+nf+fO.zL.zL.]N.of+pf+qf+rf+sf+tf+uf+",
"}h.Wi.w8.)@.t2. : 5j )[.I5.)I.z] Q4+vf+wf+>=+i2+>s.7Q.xf+yf+C7+zf+Af+Bf+]K N> Cf+#b+%-.kr.8;+2G.}.+Zn.Au.Yn.Yn.Au.[.+k++$e.j++{-+{-+Df+  +_.+rr.#C.Hp.n%.l%.s}.l%.3*.v8.W> *= Z. X> j< o| '9 4! '9 '9 o| o| o| o| '9 '9 X1 '9 o| m< a< .b bc S1 t] 0Y.VA.y7+Nr.@X.@X.@X.yX '@.,@.Sa.9t.>j.>j.j{+fh.D8.,@.x2.E#.V% Z_ ,3 ,3 *{ ,/ &= X. Ck.Ck.%e.:h.`@+AO.Jx.{0.Fp.Ep.hr.gr.Ff.X> -K `F 4&.<3+Ef+Ff+Gf+zZ.Hf+If+Jf+Kf+)= uX 2Z Wd Q% -{ N'.`T.)n @e G#._l 0j @N Lf+Mf+Nf+Se.Of+Pf+Qf+Rf+5q 08 J  Sf+&] N) Xb Yb ** Z] V|+/~+7@ <@ j$ Ik Tf+Hk H$ v8 4* a~ z2 J$ Uf+3z aI.V9 Vf+24+Z' 'p h^ $  0~ .% ]- '> i~ B  E  y@ =% <* %% v@ E) r^ 0- !' vm :> _$.%Z |~ ;* Wf+Xf+Yf+Zf+`f+ g+Ad+.g+z&++J.Eb +g++g+09.3g @g+#g+$g+`f+ c+%g+&g+*g+=g+}|+-g+;g+-g+>g+n{.,g+'g+)g+!g+~g+r +{g+]g+^g+/g+(g+v9+]T.l9+C<+q9+.-.q9+q9+c=.c=.', p]+2^+2^+/*.#:+#:+*_+)_+*:+V:+t3+t3+In Nd+G. _g+:g+<g+[g+}g+|g+Jd+[c+9f+1g+2g+2} 3g+4g+5g+kW.6g+7g+8g+9g+0g+",
"Dk.[m.3*.o%.v2.u2.mL '[. U.)I.y] 5d+Q}+ag+bg+cg+dg+!1.eg+1l.fg+NZ.gg+%~+hg+ig+jg+kg+U@+Gu.lg+s%+ir.ir.ir.ir.hr.hr.<.+rr./.+rr.{-+{-+Df+_.+_.+rr.Bk.b< !7.jG.m%.s}.r}.r}.A#.'@.u# V% 4! X1 X1 X1 '9 '9 '9 '9 '9 '9 '9 '9 X1 X1 m< q| ~/ Xd a< a< &{ &{ @X.@X.p}.E#.+: U. w2.>@.Ra.y%+Xu.Rp.Hk.>j.;j.gc.,@.yX i%.BZ.#M.WA.s] s( ,/ Q> s}+Uk.S/+P&+Ui.`@+3G.Jx.b< Fp.Ep.Un.E5.s}+`d K5.mg+ng+og+pg+Tm.23.j$+qg+rg+'N .G .=.OK %@.GR 1j L7 |q.Et.E|+VF ;+.'+ R7 sg+[ +tg+13+ug+vg+wg+z;+xg+Vg v} H  &] &7 {- sa xR b: G! ,1 yg+zg+I) [f V] 3z mo Gk .@ 01  @ .' +Z J$ Ag+Bg+J{+H3 Cg+3R.Ug )] `h ,' ]- ]- ,> $' E  N  =% =% <* F  $% A  r^ 9- Dg+U3 z^ y8 sm K9 Eg+R|+)& Fg+K'.Gg+ET.Hg+DR.Ig+Jg+)@+Kg+)@+Lg+Lg+%V Mg+K`.Ng+Og+Pg+nm f%+QR.gu.Qg+Rg+Hd+Sg+yy.Tg+Ug+Vg+Wg+Xg+/Z.Yg+z/+7}+Zg+`g+ h+v9+l9+C<+q9+.-.q9+q9+q9+c=.0~+Y{+2^+Ld+/*.#:+#:++2+KP._1++3+$|.^*.$|.Y:+.h+:g+:g+<g+b6 +h+@h+#h+R$.18+m0+$h+$h+%h+&h+*h+=h+-h+;h+>h+,h+'h+",
"w:.B;.B;.w:.'/ X> '[.nL  U.x] )h+6q.s1+P++l.+'[+6$+!1.!h+~h+{h+:!+^=.]h+^h+/h+P[+oo.h| Tn.j>+j++Un.v# 7c.7c.p8.E5.Un.Un.b< Ep.#C.#C.<.+rr.rr.<.+$e.$e.7c.)7.0h.m%.;e.>e.>@.>@.,@.A#.m< p| p| p| 4! X1 p| p| p| X1 4! '9 X1 Y1 n< ~/ n< q| >} n< 8$+0Y.p}.p}.@X.@X.i%.+: ,@.,@.x2.R&+|o.+= ^]+gc.;j.Hk.>@.w2.@X.T. T% R. LD.n}.Y. w# 7c.S/+ec.`d.Ui.AO.Da.Bk.b< 2h.}h.Vi.V. W. h5 f;+>; (h+'~+_h+:h+<h+K1 [h+}h+!n Af P@.8w Y[ .N ~y.Dz )K CI *N +U <H p7.(3.Ej.|h+1h+2h+3h+4h+5h+6h+7h+'% 8h+|* A3 {- Yb W3 AT #7+c@ N, S&.Y$ `b 9h+w-+lU ~' _s $Z /s 0h+ah+bh+ch+$B 6e+_G k~ [s sm j~ s  >% >% u  u  i~ B  N  5- %0 f_ F  }* $' %' -( r^  * !' +J Wj 8q gd dh+jM.eh+fh+bX.gh+9Z.hh+ih+&g+jh+kh+lh+NE.g +mh+nh+oh+ph+W, Q# qh+0<.KZ rh+0g Z4+sh+th+uh+NC.vh+wh+xh+yh+zh+e9.Ah+08+Sl.$|.bf+Bh+/T.l9+q9+p]+p]+p]+p]+p]+p]+*_+of.;k of.)_+U^+U^+_1+Ch+E<+$|.l|+nF ai.^g+Dh+Eh+Fh+Fh+Gh+Hh+Ih+Jh+Kh+Lh+Mh+Nh+8d.v8+;s Oh+Ph+Qh+6}.Rh+Sh+Th+",
"-o.51.=o.B;.V% `_ '[.Y>  U.cN.AI Uh+a,+Vh+Wh+Xh+WA.mL Yh+>U Zh+`h+ i+.i++i+@i+0>.7V o}.r}.fr.Bk.t2.h| Ma.Ma.Sn.t2.u2.Vi.2h.Ep.Un.#C.X@+r%+r%+QH.ir.Vn.7c.7c.E5.V}+n%.m%.>@.>@.>@.,@.Y1 m< X1 4! X1 p| Y1 q| q| m< p| X1 p| q| ~/ Xd Xd ~/ >} q| 0Y.BZ.+: j%.AU VA.Nr.p}.>@.A#.,@.>@.D8.#; += Rp.gc.fh.F5.i%.0Y.t# %= S% '[.mL `_ X. Bk.]0.N~+`d.Z@+3G.{0.b<  (.|h.hK.iK.jV.s( )l B] cO bU.#i+Y~+$i+%i+&i+*i+=i+j$.r6 2!.(l /l ~y./4.vL -i+i'+}V 2w Oe.;i+46.>i+Se.,i+ k.-E.'i+)i+!i+81 >- zM H  '0++* $* 9{ ~i+/$.xM QO QO {_ H3 &Z [s x8 v8 A8 $Z {i+]i+0h+%> ch+$B $}+~] :> j~ 9I.B8 D@ .* T{ u  &] $' E  N  5- %0 f_ |* z@ i~ ,> .* -( .  +  J$ Wj [s *T ^i+s+./i+}+ (i+_i+:i+M@+<i+F` F` F` =c+ET.;O [i+}i+|i+'  N& 1i+2i+3i+KZ 4i+i/+Hd+5i+6i+7i+8i+*'+9i+[).0i+,b p +l0+5T.(1+f}+ai+d8+R3+bi+p]+p]+p]+p]+u>.u>./*.+2+/*./*.`{+*:+U^+U^+_1+s9+ci+7}+b8+ 2+}c+d~.di+ei+y4+fi+gi+hi+ii+ji+jn.ki+li+mi+{;+ni+oi++4.pi+(h.@_.qi+ri+si+",
":,.BZ.t] V> >/ `_ '[.nL xt.hJ./v.V5+ti+ui+vi+wi+;/ h5 k$. W.xi+yi+zi+Ai+Bi+F1.AZ.b,+)l u# Gp.8Q.u:.}h )1./7..N )[.v:.v2. : V. E5.Un.gr.Kp.[z.[z.Wn.ir.{0.$e.Ck.p8.V}+0h.A#.,@.>@.w2.;@.p6 p| X1 -9 GR i| 7B 7B R1 i| 6B i| i| R1 #W bw bw #W n< BZ.*{ V% .: i%.AU p}.E#.w2.,@.,@.>@.gc.gc.Rp.ic.B8.fh.Ra.@X.&{ T% Ci+Di+1q.nL >/ w# Bk.Da.Ei+yf.`n.3G.{0.b< rZ.uZ.Fi+U@+jK.Y> 7O 0).dO E_.Gi+Hi+Ii+Ji+ E.JP q7.6>.q0 Yd )3 )l {y.0S.3)+Ki+[&.IS.}/ Li+Mi+Z4+Ni+j*+8d Oi+Pi+B,+~B.Qi+.`.-( /7 AF (* h` Ri+m@ a@ Si+Ti+vj MJ Ui+Vi+Wi+{u R  f^ 3* y'+Xi+7y.l` .@ h$ z^ s  #w #w l: 08 >] t  d_ v  u  &] B  N  5- e_ %0 f_ i[ &1 j: j: 3* .* +   @ $> B,.Z|+Yi+Zi+!f+`i+-@  j+.j++j+@j+#j+$j+%j+_n ]f+&j+`f+*j+gh+=j+-j+o$ %h O1+`f+f%+;j+>j+,j+%+.'j+)j+!j+3(+~j+{j+0i+]j+^j+$h+/j+(j+x0+_j+:j+Nd+MU./*.*_+*_+*_+/*.$:+~m.U^+*:+*:+',.V:+V:+V:+WG s9+<j+$3+[j+c(+z/+}j+|j+1j+hi+jR.2j+3j+4j+5j+6j+7j+7j+,1+8j+F/+z>.B~.r>./V 9j+0j+Md+f}+",
"9! :,.:,.9! >/ `_ '[.Y> ]/ hJ.`T.Uh+ti+_l.aj+bj+;/ xs '=.cj+dj+O6+ej+fj+gj+$i+hj+CW ,]. (.Ck.k%.+N 'I.I5.PW.fV.@N 0! s( RW.u2.D5.!7.Kp.Cu.Cu.Cu.ir.{0.Bk.$e.Ck.p8.)7.V}+xX A#.w2.yX k6 v( q| m< GR 6B R1 7B Cz Cz Cz Cz WC 7B 7B 4Z O` O` 2c Cz &{ Z_ E#.i%.AU Nr.@X.i%.A#.A#.,@.w2.;j.;j.>j.Rp.sr.ur.Ra.Nr.0Y.s] Ci+=M.`> LD.>/ Q> Ck.Da.Fa.yf.`n.Da.b<  (.^.++~+U@+:/+TL.H5.Iq cj cS ij+jj+kj+13.lj+mV.{I.&N Q7 Yd VC v] 64 mj+G' m-+nj+0>.p$.oj+pj+qj+ri.rj+sj+tj+>-+uj+M{+vj+wj+W(+u@  ( 9z xj+^f |- >.+yj+k@ zj+7<.l%+Aj+u@.0I.;_ '> %' &' w8 Kz.Wj Wj >_ v^ o@ +* y2+s9 *5 W: ~- q@ q@ r@ p^ B) E  N  e_ e_ %0 f_ 0I q8 %[ %[ t  3* &> +Z #B @B Bj+~* Cj+I& ~|+bZ.Dj+Ej+Fj+Gj+{f+(  P1+ho Hj+Ij+Jj+Kj+Lj+Mj+Nj+*h dq h]+1f+Oj+>O.Pj+Qj+Rj+Sj+Tj+Uj+Vj+Wj+Xj+Yj+Zj+2} `j+ k+^'+c|..k++k+=:+}}+/*.*_+*_+*_+/*.~m.23 U^+U^+',.',.',.V:+NU.a~.@k+#k+$k+%k+&k+e=.z/+}j+*k+=k+3j+2j+-k+lR.lR.;k+>k+,k+'k+)k+!k+UU.~k+,7.~k.[k.+-+f}+x0+",
"o] 9! V> *{ >/ s( Y> 0! N'.e2+LK.{k+kc+]k+^k+/k+=3 ^_.,=+cj+(k+_k+:k+<k+[k+&d+}k+Bq yI +(+b< Y. /4.iE `T.oo.|k+0< n6 w( o] '/ W% cc.6h.Ef.Df.Cf.{0.{0.{0.{0.{0.s8.E5.E5.Na.z8.A#.yX k6 f..;@.p6 6B i| R1 Cz WC FR #W 4Z 2c 4Z 2c wX 5! wX #W 7B 8$+T. 9:+z7+BU BU z7+9:+x2.w2.A#.A#.Hk.;j.fh.gc.*j.ur.yX Nr.}C.u( %= VO.S%  + s( *= .~+Da.Ei+1k+3G.Da.b<  (.].+X`.2k+M0+K#.xt.)n e>.~s.3k+:s.TG.A[.7l.4k+PG.j$.^3 VC >3 a! rL f! $+ 5k+Z% _K nV.@D 6k+7k+8k+9k+0k+ak+bk+M{+ck+`& ;] 7q 7- 9z dk+ek+;' fk+]* gk+~* hk+7<.ik+jk+Ug oB k) ;% P  v.+G$.B=.7{ 6q kk+kk+AM d~ sw j_ B: lk+mk+;| rw a8 p^ => E  5- e_ e_ %0 Q: $H nk+%_ d: >] k) .' +Z ok+pk+qk+rk+sk+tk+~|+uk+vk+@. wk+xk+yk+zk+&6+Ak+EY.'  }9+G= Bk+>@ N! <; Ck+Dk+Ek+c'.9*+Fk+/3+Gk+Hk+%~+Ik+Jk+ns Kk+Yj+Lk+Mk+Nk+Ok+08+(1+ai.Pk+Ch+0~.W{+`{+)_+`{+s]+CI.v>.!m.!m.3r.3r.&;.R).a}+_j+Qk+Rk+*,.Sk+Tk+1p.ma+Uk+Vk+]2+Wk+u'.Xk+Yk+Zk+`k+ l+.l++l+@l+#l+>t.7p.mn.{m.5^+1c+/h.3T.",
"+4+w:.7*.},.po.&= X1 4j =y $l+Be.%l+Wo // o>+Yh+)} NH mr &l+*l+=l+-l+;l+p2+Dw.W4+0b.>l 1,.uw.b,+]y.>l+$B.$/.,l+'l+zP ys aj LD.'/ G[+6h.6h.t8.q8.Bu.Bu.]0.]0.]0.{0.Bk.Bk.E5.cc.5Z ,@.v( ;@.Y1 m< i| i| R1 7B WC #W 2c bw bw @W O` @W 2c WC 7B >} t] 0Y.9:+qt.qt.qt.CD.l_+`<+R&+>@.xX gc.>j.Rp.fh.Wu.;j.,@.AU @: XA.)l+!l+UO.'n Z. z8.Oa.1k+~l+wb+Da.{0.b<  (.uZ.iK.RL.K8+I5.`T.x>+=/.nV.{l+Tb+]l+^l+$i+~|./l+A] [h n0 `E.Y1 Hq AN.(l+j .7)+6l._l+:l+<l+[l+}l+|l+1l+2l+3l+/> 4l+5l+7q v@ %' u  6l+=..7l+8l+9l+0l+al+bl+T9 cl+dl+7{ /* k) 2* %&.el+fl+(*+I9 %Z tP.gl+i/ m) (6 j/ hl+il+jl+>| +6 t^ u  B) C  N  5- 5- =% y@ A@ *1 U4 >] ,' k) a~ $> 61 $| kl+%%.:Q ll+ml+nl+{& Bk+pX ol+pl+ql+rl+Hm a' I/ Dk+sl+L@ l^ f{ tl+dq ul+vl+wl+xl+yl+zl+Al+I' *~+Bl+O-+Cl+>~.c`.Dl+t#+e9.C~.5T.Pi.El+7i.qe+Y{+u>.Y=.+2+`{+s]+CI.on.CI.CI.a[+{'.@f Ii.`l.;#.Fl+Gl+Hl+Il+Jl+Kl+Uk+Ll+Ml+Nl+Ol+Pl+r' Ql+Rl+Sl+na+Tl+)k.Xd..:+Ul+Vl+3E >t.Wl+1c+IP.k9+",
"Op.2V.V`.W`._-+#; @= Q5.K5._9.Xl+Yl+Zl+x#.x( B2.-9 N` ]N &+.`l+ m+.m++m+@m+#m+$m+xo.%m+yz.5l.@m+&m+oE.*m+=m+-m+qS FI '=.J|+cN.4! u^+fc.dc.W. V. er.C8+Zn.Zn.Fa.]0.]0.{0.Ck.;m+!3 q| q| q| *n WC q| f..hh.}0.^e.zX zX x' zX zX zX Ah.Ah.zX }0.~/ Z_ 8$+U% U% 9:+9:+CD.,U.~4+:o.pK.jm.>@.w2.O:.^]+0t.lm.^e.!/ #} N7 kg+>m+Ci+S. W> ]0.xf.I9+J9+I9+Wn.1t.kr.QH.PH.hr.Ep.pZ.zt.h'+,m+J. Cw.'m+)m+y$.jS.P5+!m+~m+CI ~3 Zk.}j.{m+]m+_/ ^m+/m+(m+J6._m+:m+<m+y5+[m+=Y.{7+}m+C,.b/+g<+6z C@ P; w  3* A8 |m+1m+2m+3m+4m+4  5m+6m+/).#@+7m+-..>_ R  ,' 08 xR Di A^ ($.PJ xR ** 8m+2Q OO 11 jd 9m+l) o@ ;_ R  4* .* 7- F) x@ x@ x@ x@ 8- 9- &' @  J$ $> Ii a@ 0m+Cj+R&.am+bm+cm+dm+F$+em+fm+gm+hm+2 .im+:u jm+Qk km+P] 1{ T! T! <[ l> lm+mm+nm+om+pm+qm+2&.'|.>d.13+C[.rm+sm+&{.g+.~g+,d+tm+w9+''.d~.se+|'.um+vm+L)+v!+OM H=+@t.m_.W{+NU.Es./{+8(+*)+Wj+wm+xm+ym+zm+Am+Bm+!#.Cm+#,.Dm+Em+Fm+Gm+Hm+-k+Im+4c.m8.m|+x/+-:+tf.6j+Jm+Km+Lm+5j+n4+Yd.Y_+",
"Mm+Nm+Om+Pm+Qm+nL 9V qu Rm+ew uW Sm+f$.Tm+VC :,.fQ r| AW e,+Um+Vm+Wm+Xm+Ym+9-+Zm+`m+ n+.n++n+@n+#n+K:+$n+%n+&n+{+ j(.IS.*=.`F ,9 `k.Pa.-J.5j t( Au.x%+X!+X!+8h.6c.Ga.q8.E5.cc.;} m< !l $} Qd WC k6 hh.}0.x' Ah.Va.Ah.x' zX zX Ah.Va.;3 Ah.^e.k6 0Y.8$+U% U% y7+9:+CD.,U.*n+P]+qS.pK.`<+>@.O:.km.Ta.Ta.x' a< v] ;{ c! 7!  = R. AU ^]+Oa.=n+-n+.e.Wi.W@+Gu.lg+!)+ o.6h.po.ro.Al+;n+>n+7H 8d+{` ,n+'n+gq.Gi+)n+!n+o0 G~+{m+~n+xf {n+w>+]n+^n+/n+(n+_n+:n+<n+yT.[n+}n+5q |n+E@ {- ]- ]- k) 4* 3* $B ~a+1n+2n+2n+9s.3n+^).Fx mK }L ~' j~ :> :> ]( t@..6 a: 4n++_ de 8b BM Yb 9I.;_ &* 5n+6l+6n+'% s  z^ 4* &' ;% 8- F) F) 8- F) 8- ;] Dg+01 J$ 7n+$  0q {% 8n+9n+0n+an+bn+cn+dn+cm+[5+en+ W fn+O< cq I2 j  *w sc /b Os H{ t2 9W gn+hn+in+jn+Bl+,4+4&.kn+ln+mn+nn+on+[T.pn+>%+qn+t`.Ah+ha+{'+rn+sn+7|+tn+un+T'+df+({++f 0[+Tq.qf.lu.e~.}L.P^++<+p~+vn+r +%/+O..wn+xn+yn+]a.zn+An+Bn+Cn+Dn+3j+3j+En+Fn+o]+0^+mu.El+ra+y0+jR.lR.Km+{d+Cg.Gn+Ba.",
"dD.]S.Hn+In+Jn+Kn+Tj+Ln+Mn+Nn+On+Pn+V@./3 &{ CD.v] SW.Qn+Rn+Sn+Tn+Un+Vn+Wn+Xn+Yn+Zn+`n+ o+.o++o+@o+#o+$o+%o+&o+Le._I.j2+e;+*o+ac X. Vk.Vk.u:.n}.Wn.4G.4G.SE.Df.Df.9G.9G.cc.cc.l< ;} q| ~/ Xd Xd k6 f..k6 x' ;3 Up.;3 Ah.Ah.Ah.Va.Up.Up.;3 x' hh.0Y.T. U% U% 9:+z7+l_+,U.1o.yX T/+Rk.-q.U_ ic.02+mc.lG.Ua.^e.>3 #} E' 5.+>m+=o+%{ 6$+'[.h| h| v2.+~+rZ.Ep.Xn..o.wu.0h.po.E7+*[+e,+-o+;o+>o+,o+,n+!=+23.'o+j .(l+6w 34 ^e.GR ZZ fP.)o+!o+~o+{o+]o+^o+/o+&u (o+_o+:o+:f Vb >T k_ m) $* ~] {( .@ T3 Ag+>f+D+.>f+<o+Ag+c- +@ +@ ~] v^ E@ E@ u^ |e+BM ;7 [o+}o+8b sw |o+aX t^ DM ce p@ q@ r@ !- 4* N) >% C@ ;% ;% ;% &[ &[ h~ &[ C@ C@ >% @  h$ J$ i$ /~+nd 1o+V= 2o+3o+4o+5o+6o+#`.!W.7o+83+8o+9o+/u Kh GM .J $r 0o+Kh 2{ ao+bo+co+do+>O.2K eo+U5+'=.5).1s.fo+go+ho+io+jo+ko+u#+lo+xm+{g+z3+d~.!'.MU.s]+!m.||+~1+mo+R=+En.-k -k.rf.X=.t5+H*+n=+u~+no+8b+oo+po+qo+ro+so+to+uo+vo+Hh+]2+Cg.wo+xo+yo+zo+Ao+={+Bo+(1+Os.n4+9i.Wk+Co+4j+Do+yo+Eo+",
"Hf.s}.lZ.Fo+Go+Ho+Io+Jo+Ko+Lo+Mo+No+Oo+O}+Z> @; UO.~3+Po+Qo+Ro+So+To+Uo+Vo+|t Wo+q2+~D.Xo+HB.Yo+Zo+#z.Me `o+Mo dC.^R. p+.p++p+;#+w# .~+;m+n}.G&+V}+wu.wu.Lp.&e.Ef.Ef.Ef.G[+;m+=} -} p6 hh.!/ x' f..M7 ;@.^e.Up.T1 `E.Up.Va.Va.;3 Up.`E.Up.Ah.^e.@X.8$+U% B' BU qt.CD.Or.x2.'@.>@.Sa.1o.=q.km.ur.@p+dt.Zk.,o.zX u] s] b! #p+$p+B7+%p+/!+5-+5-+&p+9'+^.+2h.Wn.Kx.Bf.)@..N 's.*p+_R.=p+-p+;p+>p+{` O5+G( Rm.xS (l+,p+e! aS.=P.>; Ao.'p+)p+!p+~p+{p+]p+^p+/p+(p+5[+_p+:p+$] *D C^ <p+Y: y8 [p+J$ }p+h` E& /* S  v^ v^ '% `h `h 0~ r  oB T  =T PO Vc l~ |p+1p+2p+Y&.3p+4p+jd o@ R  ,% N) N) Q  Q  C@ 2* 2* 2* h~ h~ *1 x} x} x} ,( ,( N) 4* k) a~ >' '] bI I) U= 5p+6p+7p+8p+9p+0p+(5+[^ uj tj ap+$r Hu *a )^ )^ FM qo bp+cp+dp+ep+fp+gp+1h+hp+!N 8U.ip+jp+kp+lp+mp+np+jo+op+pp+qp+Jd+Uk+2>+d~.oX.^{+#K.IM.lH.%^+rp+rp+j*+';+s;.y/+y/+ /+i[+6i.sp+:c+r +%/+tp+I/+up+vp+wp+!$.Pd+xp+d}+]_+MC MC Ql.yp+Hs.zp+={+Gs.Bg.mb+5j+jR.Ap+4j+Bp+Cp+jn.",
"]<+z2.fV.Dp+Kn+Ep+Fp+Gp+Hp+Ip+Jp+Kp+Lp+Mp+_$+2V.44 dd+Np+Op+Pp+Qp+Rp+Sp+Tp+Up+Vp+:D.%x.Wp+Xp+Yp+Zp+`p+ q+.q++q+@q+#q+$q+%q+&q+qL _-+Ff.0h.jK.K8+)@.Ef.Ef.=e.=e.0h.0h.0h.cc.s}+p8.cc.G5. F.x' ,o.Rp.fh.;j.j{+~]+G~+ic.G~+ic.ic.ic.G~+~]+G~+9t.Sa.i%.AU 9:+qt.CD.qt.T/+T/+yX x2.>j.Tk.Rp.02+Sk.eh.et.*q+lc.lG.oc.;3 Y2.V1 8O xj.yj.=q+-q+;q+>q+,q+E7+kK.h| Ck.!7.0h.v2.*s.'q+ W.)q+!q+~q+{q+]q+UG.^q+NW [6.z_.>=. ^+y# /q+>~+K@.(q+_q+:q+<q+[q+}q+|q+1q+2q+GS 3q+'W.4q+5q+6q+V) I! G! [s Xb+7n+X& Zg 7q+g` Z( ,] t^ .% +% 1- oB ;f+w-+Du Ls iK <4+Eg+8q+9q+0q+aq+bq+o&.cq+S= n@ v^ dq++w Mz.h_ .* 27 1* Nj $1 x} nk+G8 G8 57 h: h: U4 j: d_ P; !- W: k/ eq+fq+.h _@ YS.gq+hq+*  _- iq+I8 t` jq+^G K| fy kq+<y -^ e7 $M lq+mq+nq+;j %!.D< &i+_K oq+)9.bh pq+qq+rq+sq+tq+l5+uq+`Y.vq+wq+|j+c|.r9+2T.y~+xq+yq+:W.:W.zq+^O.Aq+f|+xR.b1+d&+Bq+Cq+a^+Ks.Dq+Eq+[c+Fq+Gq+Hq+Qd+.r.Iq+Jq+Kq+fn.'7.'7.Lq+L,+K,+wf.u)+Mq+B/+yo+xo+4j+Ap+Ap+Nq+Sh+Oq+",
"Pq+-9 cN.Qq+Rq+Sq+Tq+Uq+Vq+Wq+Xq+Yq+Zq+`q+ r+.r+MT.L5++r+@r+#r+$r+%r+&r+*r+=r+-r+;r+9[+:i.>r+$f+,r+'r+&U.)r+7Y.!r+~r+{r+]r+^r+U`.)3+jG.jG.5$+QW.D#.n%.v8.n%.n%.jG.0h.0h.cc.;m+s}+;m+{7.^7.R> lm.9t.|o.}o.~]+~]+}o.|o.ic.G~+ic.9t.9t.ic.G~+ic.ic.p}.@X.VA.9:+BU qt.~7.~7.~7.T/+S]+bw.gh.9t.K}+M[+U]+et.lc.mc.nc.mG.;3 jw./r+e| ~h+(r+_r+:r+<r+[r+[g.D' 9! W.  (.,/ '[.f2+Al+RS.}r+|r+1r+2r+3r+QF.>, QZ -l 4r+He.8$.P++k.+5r+6r+7r+8r+9r+0r+ar+br+cr+dr+er+fr+kb gr+HW.hr+0P Z< [6 U) Wb ~' }e+L$ ir+jr+kr+lr+Y( j/ oB F@ q  Z|+L9 V9  M |= ~8+mr+mr+nr+or+pr+qr+rr+sr+Rg tr+ur+9X Xj vr+6e+=...@ >- uH 'u A3 f2 nk+nk+G8 G8 nk+i: x} ,> B) => =| )f A: {E wr+}~ j$ C$ xr+A) /( ~> yr+{2 <#.sH Ts zr+Ar+Lj %H @0 zT Br+V>.[d+Cr+0j+sW Dr+Er+WT E-.ir <-+Fr+Gr+Hr+Ir+cl.Dn Jr+v#+Kr+Lr+Mr+=;.Nn.d{+Nr+m#+Or+Pr+Qr+RX.dL.ks.<p.Q:+a8+d}+#2+Rr+77+>;.18+|8+89+Sr+Tr+Ur+Vr+Vr+Wr+Xr+Yr+Zr+`r+zb.n|+Ab. s+5d.Yq.09+ni+A>..s++s+Nq+Ap+@s+Sh+xo+",
"Ht.lL N@.)h+qo.B2.s1+[)+#s+$s+%s+&s+M-.*s+=s+-s+Yi.@: ;s+>s+,s+O_.'s+)s+!s+~s+{s+(K.]s+|'+1$.^s+/s+(s+_s+:s+<s+[s+}s+{r+|s+1s+sw.v8.Ef.=e.)3+s%.w:.1*.w:.u8.3*.v8.*= Q> Na.Na.<0.dc.<0.'.+sr.dh.gh.>j.|o.G~+9t.fh.;j.ic.Xu.ic.j{+}o.j{+ic.G~+G~+Nr.@X.p}.@X.Ra.U_ T/+hc.k_+nG.!<+Sk.ic.j{+S]+!<+!]+5w.4w.jc.mc.ft.oc.;3 6! 2s+/K 3s+4s+5s+6s+7s+8s+9s+vK.jw.po.84 yt.{k+0s+as+bs+cs+ds+es+fs+gs+2{.hs+rs is+gU.js+h .ks+ls+ms+ns+os+ps+qs+rs+ss+ts+'}+us+vs+ws+xs+P9 qa +u.o9 w:+b: 2R.!a lo x8 $7 Ns az 4: I9 I9 ys+ur+zs+%@+As+Bs+!s+Cs+Ds+Es+Fs+Gs+Hs+Is+Q>.Js+Ks+Ls+Ms+Ns+Os+O(+Ps+Qs+5y.~9+D$.vR #w nN z3 x} m8 $H $H 0I 0I 0I z@ I  I  H  H  =| &] u  6n+/* >0+|L %] U  Rs+F3 Ss+c2 :D 'D q4 GT r4 .a n: Ts+Us+Vs+Ws+Xs+7n.Ys+Zs+jJ.G-.,=.EL `s+<V  t+.t++t+@t+#t+w`.P.+$t+%t+_c.(j+U#+#f.&t+*t+=t+-t+;t+Ko.>t+,t+|d.|p./d+@r.'t+)t+/d+!t+~t+{t+]t+Ur+^t+^t+/t+(t+^t+_t+:t+<t+[t+}t+|t+1t+2t+z;.|1+jc 3t+4t+5t+6t+7t+8t+9t+9t+Bp+",
"); '+ ~+.AN.*{ W. 84 0).0t+at+bt+ct+zf+dt+et+ft+D8+v:.J-.gt+ht+a)+it+(Y jt+kt+lt+<=.mt+1'+nt+ot+pt+qt+rt+pm++#.st+tt+ut+vt+wt+xt+jG.Df.Df.v8.t%.B;.B;.B;.nt.w:.u8.W> *= #; z8.'.+<0.-J.-J.(Y.Gf.8K.D8.fh.j{+gh.gc.fh.G~+Xu.ic.}o.gh.}o.9t.~]+~]+U_ AU j%.+: w2.kG.hc.1o.~4+y%+~]+ic.ic.km.km.gh.P]+hc.j{+Ru.et.@p+@p+mc.Up.)} BP yt+zt+At+Bt+Ct+Dt+_<+Et+r^.o# %: ^3+h'+Ft+I@.Gt+Ht+It+Jt+Kt+gs+2{.Z*.Lt+Mt+PK.It.3+.Nt+Ot+Pt+Qt+Rt+St+Tt+Ut+Vt+Wt+'B.Xt+vC Yt+Zt+`t+ u+p9 Rh Rh Z] I9 6{ *&+*Z .u++u+@u+pa #u+0 +_g $u+kb %u+&u+*u+=u+-u+*f mf+Zc+;u+>u+,u+'u+)u+!u+~u+{u+YP ]u+^u+/u+(u+_u+:u+LL &Z Nz.sm l: N) &[ |* *% Q: f_ Q: E  }* I  H  [* F  B  $' d_ <u++% Yb oB j[ k_ [u+cI }u+|u+}y %Q 1u+[#.Y&.T..2u+3u+4u+5u+B/.6u+hj+Q' F].PZ.n.+iO 7u+8u+9u+L3.4i+0u+au+bu+ d+cu+du+{a.+)+vX.eu+fu+gu+hu+iu+ju+ku+lu+mu+n|+nu+ou+@r.'t+pu+'h+qu+ru+(t+/t+su+tu+tu+uu+vu+wu+Ur+xu+E>.@-.yu+e^+zu+Au+Bu+Cu+Du+Eu+Fu+M .:9 Gu+8t+9t+Hu+Sh+",
"w< _/ Iu+Ju+&M.5Z Fa.Ku+s| n5 u< Y[ Q> Y`.Lu+Mu+Nu+mZ.(h+_l+Ou+uq+Pu+Qu+Ru+Su+Tu+<5+Uu+Vu+Wu+Xu+Yu+Zu+`u+ v+R4+#q+.v+;[++v+@v+`> += fc.fc.xX U. *{ 9! V> +: U. .: xX 5Z z8.^]+N:.Ef.Ga.]0.^0.Cf.t8.s8.t8.6h.Bf.7K.2,+=e.m%+}:+XE.d_+Y*+&j.#v+3,+Sa.O:.yX >@.w2.O:.U_ T/+Xu.bw.bw.~]+!]+!]+Vu.Xu.U> @4+BU 9t.Zk.@p+$v+%v+7j.j| )} !R TP $+.ks+G@.Wh.{R IV.+9.=X.K#.vL &v+k,+<!+*v+=v+-v+;v+>v+/=.Y*.eL |K ,v+'v+)v+!v+~v+{v+]v+pI ^v+/v+(v+_v+$G.KR.W1.:v+<v+[v+}v+|v+u^ ,] h2 d7 A^ C/ D! `L hb 1v+2v+3v+3v+4v+5v+6v+7v+8v+9v+']+0v+av+I!+bv+cv+dv+ev+fv+gv+$m. m.KM.Oj.hv+cl.iv+jv+kv+lv+mv+nv+ga ov+Z-.C2+}s S) pv+(> 07 <* O  ^6 N  |* A@ L  )( O: N  C  B  %' '> p@ s  W: 8X aR  _ !9+D8 qv+W} v/ rv+sv+tv+uv+vv+wv+xv+/= mj yv+wW }V zv+,U ;/.Av+Bv+U(.Cv+jm Dv+H@+Ev+Fv+c. Gv+vq+Hv+Iv+=T.Jv+Kv+Lv+Mv+Ex.Nv+Ov+=O H-+Xr+Pv+Qv+Qv+Rv+Sv+Tv+Uv+Vv+Wv+Xv+Yv+Yv+Wv+Zv+`v+ w+.w++w+@w+#w+$w+$w+%w+&w+*w+kf+=w+-w+;w+>w+,w+'w+)w+Gu+!w+",
"~w+#e Wh.{w+]w+Z_ Qa.dQ.^w+/w+(w+eQ._w+Cu.:w+<w+[w+}w+W4+|w+1w+2w+{y G[.al+.H.3w+4w+Mw.5w+E>+6w+7w+8w+9w+[k+0w+t .:v.aw+bw+X% 64 m0 TO.^4.m< VC VC V> :,.:,.j%.U. '@.xX 5Z ^]+m%.=e.r8.]0.^0.Ga.q8.$e.s8.Ef.t8.t8.6h.r8.%j.#v+YE.b_+S!+.F.d_+kD.kG.O:.yX >@.>@.F5.kG.R&+ic.G~+~]+G~+5w.jc.5w.T/+t# T% B' R&+lG.@p+$v+cw+dw+OA.]1.ij ew+KI fw+gw+hw+iw+I0.jw+kw+nG lw+a).mw+<!+nw+ow+pw+qw+rw+)m+sw+tw+jb.Hz uw+^y.~v+vw+ww+xw+yw+F1.zw+Aw+Bw+Cw+:d Dw+>$+Ew+0]+Fw+w-+Yb Gw+>| Z] G3 sU Hw+fd Ro.j&.Iw+Jw+Kw+Lw+Mw+Nw+Ow+Or+U4.Pw+Qw+Rw+c~+(8.Sw+Tw+Uw+Vw+Ww+3o Xw+5< bg *w.r=+D-+Yw+Zw+`w+ x+.x++x+@x+#x+$x+X(+yP.%x+&x+Q) F) x@ x@ -% M  J  &1 E  e_ 5- 5- w@ C  $' i~ '0+'( A: e2 CT IS -v E8 cp tw *x+=x+-x+;x+>x+,x+'x+)x+Dr+!x+/+.VZ ~x+It.<I.{x+]x+K(.12.^x++Q./x+(x+f'._x+:x+%/++N.<x+[x+2O.}x+|x+1x+2x+3x+4x+5x+tX.Xr+6x+7x+8x+9x+2p.Iq+tu+0x+ax+bx+bx+cx+dx+Xv+ex+fx+gx+hx+ix+jx+kx+kx+<*.lx+mx+kf+nx+ru+Rv+7x+ox+px+qx+rx+sx+",
"tx+M' ux+vx+wx+xx++N +(+d%.yx+(w+zx+Ax+8G.Bx+Cx+Dx+Ex+Fx+Gx+V*.Hx+Ix+Jx+Kx+5X.Lx+Mx+Nx+Ox+Px+Qx+Rx+Sx+Tx+Bl+hp+5i+Ux+:!+Vx+Z% N@.4j M7 {l Gq jS W1 $} }H }H E#.j%.+: A#.3*.l%.m%.=e.t8.s8.{0.q8.t8.$e.q8.Bf.q8.$e.{0.r8.Bf.ZE.ZE.S!+S!+S!+#v+ZE.Sa.Ra.F5.w2.w2.F5.gh.}o.gh.}o.jc.5w.jc.4w.jc.R&+T> b! T> BU oc.j^+Wx+cw+Xx+Yx+Zx+R` AD :/ 4B `x+ve. y+D# .y++y+@y+Kq D].#y+$y+%y+&y+*y+=y+-y+MI ;y+>y+hb.[9.,y+'y+)y+!y+~y+{y+U@.<I.P0.]y+^y+/y+;#.(y+_y+:y+<y+GW.3l+J9 =T E! XV R|+mr+[y+}y+|y+1y+N +>]+2y+Qr+3y+[t 4y+5y+6y+7y+8y+Bg 9y+0y+ay+{g.by+cy+dy+ey+fy+gy+hy+iy+jy+ky+ly+my+ny+oy+py+qy+ry+sy+6<.ty+uy+vy+wy+xy+ * Hi (> 27 Oh O) *] E  5- 5- 5- N  E  |* z@ $1 *1 x} yy+HZ ]Y g2 &_ s/ zy+Ay+By+Cy+Dy+;t+Ey+Fy+-*+Gy+LW E].bS )` o,+i$+A@.Hy+Iy+Jy+Ky+Ly+My+Ny+9@+Oy+Py+Qy+@N.Ry+Sy+Ty+Uy+Vy+Wy+Xy+Yy+Zy+`y+jc  z+@r.,h+.z+%k++z+.r.@z+#z+$z+%z+%z+%z+&z+*z+=z+-z+;z+>z+,z+'z+)z+!z+~z+{z+]z+^z+/z+(z+Uv+_z+:z+<z+[z+px+:9 ",
"}z+*, ,= |z+1z+2z+3z+=#+iS x].4z+5z+Ax+gc+6z+7z+8z+9z+0z+YC.az+ul.bz+C,+cz+dz+ez+fz+gz+hz+iz+jz+kz+lz+mz+Qg+nz+4l.oz+x$.#q+Ft+-+ ZZ  `  2 aY B] ou $} }H *K i%.E#.j%.+: u8.1*.l%.n%.!7.{0.7c.s8.N:.9G.Ef.Bf.t8.Ef.-e.=e.q8.1m.&j.tr.7K.Y*+XE.kD.U_ kG.O:.F5.F5.x2.gh.|o.;j.gh.4w.5w.jc.jc.4w.9t.s] E' S. z7+oc.ft.6j.pz+qz+rz+bd+v}.(J !@.G;.sz+tz+uz+vz+wz+xz+yz+Po ;R.p1+zz+Az+Bz+Cz+Dz+<|.Ez+Fz+Gz+Hz+Iz+Jz+'y+Kz+Lz+%/.Mz+Nz+NG.|<.k(.SG.Oz+Pz+Qz+Rz+Sz+Tz+Uz+7|.hb /, Vz+Wz+_V.Xz+Yz+Zz+`z+ A+V;+.A++A+@A+#A+$A+%A+M|+&A+*A+f/.1o =A+Rr Wr 3C.-A+;A+>A+,A+'A+)A+!A+~A+{A+]A+^A+/A+(A+_A+:A+px.o~++p.<A+[A+Xt+;x+}A+Ex |A+7y.1A+h_ Q  '> i~ C  5- 5- N  N  E  |* |* A@ J  r8 f2 37 yy+i: e2 ^( E! U9 2A+3A+4A+5A+6A+7A++q+}M.$B.k .8A+,U _<.r1.9A+0A+&t.aA+bA+cA+dA+eA+fA+gA+hA+iA+.++jA+kA+lA+35+Xy+mA+nA+ce+Q[.oA+Xr+6x+pA+qA+Ih+rA+sA+jf+tA+uA+vA+wA+wA+xA+yA+zA+AA+BA+CA+DA+EA+FA+GA+HA+IA+JA+KA+LA+fx+MA+Vv+NA+OA+OA+8x+8x+,h+",
"PA+&@.QA+RA+SA+TA+UA+Bt.Et.(4.x:.VA+WA+Qx.XA+YA+ZA+`A+-=+,9.rI.k!+4O. B+.B++B+@B+#B+$B+%B+&B+*B+=B+-B+;B+>B+I] ,B+'B+)B+})+!B+~B+fj 5(.2l.. +~X.+b >} n< ~/ ~/ n< j%.+: u8.1*.1*.o%.}h.b<  (.Fp.#j.-e.Bf.r8.Ef.S!+b_+-e.$e.=e.2m.Ef.Bf.m%+S!+kD.Sa.Ra.O:.x2.;j.;j.>j.Rp.-j.*j.4w.5w.kc.w}+w}+ic.9:+S. S. 9:+;3 mG.H7 .} {B+N2.q] HX &W D@.+& q5 ]B+^B+/B+(B+_B+:B+<B+Ga+OS.[B+}B+|B+1B+2B+!=+3B+4B+5B+6B+7B+Z&+8B+)R.ss r_.I0.)9.Cj.g(.Ao.9B+0B+.^.aB+bB+cB+dB+eB+fB+Tq gB {y N[.gB+m`.hB+iB+jB+kB+3t V,+h~.66+lB+mB+nB+oB+pB+qB+rB+sB+tB+uB+vB+wB+*v.xB+oT yB+zS.zB+AB+BB+CB+DB+EB+FB+GB+HB+IB+=^.JB+#_+XJ.=g+KB+LB+MB+NB+OB+cl+PB+-..6n+<u+C@ C  #' N  N  N  E  |* |* I  &1 *1 f2 x} y} &7 *5 6{ 1#.QB+RB+SB+TB+UB+VB+Uj+]s.F%+;=.5&.8Y <X.D_.6g.WB+XB+YB+ZB+~G.`B+qb  C+.C++C+@C+#C+$C+%C+&C+*C+=C+=C+4g -C+Zc+oA+~t+;C+:9 ]2+>C+^d+Rr+,C+'C+)C+!C+~C+{C+]C+^C+/C+(C+_C+:C+<C+IA+FA+[C+}C+|C+1C+2C+3C+4C+5C+6C+Zv+Zv+7C+8C+Rv+9C+0C+",
"<S.aC+oo.bC+cC+dC+r%.:$+y_+Xh.Q,.x#.eC+5t.F8+fC+[Y. , D-.NW w;+(>.3d gC+hC+iC+jC+kC+lC+mC+vJ.nC+oC+pC+qC+rC+sC+Ta+tC+uC+vC+}r+q;+PP o;+'4+w>+(h+Xr.Y1 q| >} >} >} +: U. 1*.1*.u8.w8.|h. (.2h.}h.-e.-e.=e.{0.#e.wC+wC+#e.q8.-e.m%+Bf.=e.ZE.S!+GL.Rp.O:.x2.F5.;j.;j.;j.;j.=j.[1.4w.5w.kc.w}+kc.!]+R&+z7+y7+Sa.Ah.;3 6Z :j S` LR NR !@.=, $e xC+:H yC+zC+5$.AC+BC+CC+DC+ZD.EC+x$.FC+GC+HC+IC+JC+KC+LC+MC+Y* NC+OC+PC+G++wN.c$+%` QC+[V Xn (|.[s.RC+SC+np.TC+wX.(d.UC+VC+WC+XC+YC+ZC+{&++]+`C+ D+.D+kk ji +D+@D+Qn #D+$D+%D+_o 5m &D+*D+tB+=D+-D+;D+Rh.YU >D+EG.,D+'D+)D+)q.Em.!D+~D+{D+]D+^D+/D+(D+_D+:D+(i <D+EJ [D+}D+|D+{>.1D+2D+3D+(b+4D+F$.-( E) w@ N  E  E  |* |* z@ H  &1 *1 *1 y2 =( &7 E@ c+.5D+6D+7D+8D+9D+0D+aD+bD+cD+S[+;; T,.L1 E].,: dD+eD+fD+gD+hD+Uy+iD+hh+jD+S@ 3$ kD+6a+lD+mD+nD+oD+}` pD+qD+r#.:7+rD+sD+tD+uD+[1+>C+^d+Cq+vD+>>.wD+xD+yD+zD+AD+BD+CD+DD+ED+FD+GD+HD+[C+ID+n+.JD+KD+LD+MD+ND+6C+6C+OD+Zv+7C+8C+PD+ z+QD+",
"ST._S.>/ w:.RD+SD+TD+[h.;#+>R.8V c!.e_+4t.t%.r%.Ha. F.UD+VD+WD+XD+q!+YD+Cx.ZD+`D+ E+.E++E+K .ns.@E+#E+$E+%E+&E+*E+=E+-E+;E+>E+!m+'U bS.,E+:h+'E+Ce.*/ )9 p6 Y1 Y1 .: .: w:.w:.+4+v2.rZ.Sn.hK.3h.[w.Np.Mp.Kx.:w.)E+9_+Np.Bu.^t.O/++o.wu.dr.Ix.S!+gh.Ra.gh.gh.gh.Rp.Rp.>j.*j.[1.4w.4w.]e.]e.w}+/]+T!+!E+}o.kG.x' .b Nq ^n NH }4.Q!.t}.,#+~E+zy .d.{E+]E+^E+/E+.d.(E+_E+:E+3M.(|.<E+-o+[E+}E+|E+1E+2E+3E+4E+5E+6E+PC+7E+yz ~<.+U cV 8E+9E+0E+!q+aE+bE+cE+dE+eE+fE+gE+hE+pp+iE+jE+P2+ws.kE+lE+mE+nE+cr oE+:v H^.H^.pE+qE+QU QU qE+St qE+]W rE+{W sE+tE+uE+vE+wE+xE+yE+zE+AE+BE+CE+DE+EE+FE+GE+`` HE+IE+JE+KE+LE+ME+,k =:+Rd+NE+OE+PE+QE+RE+g[ F$.s@ A  C  C  B  |* |* |* z@ I  &1 *1 *1 p^ p^ U4 t@..0 $u+SE+>E TE+UE+7A+VE+WE+*p+XE+-; AW :M.^N wW YE+ZE+',+`E+)t. F+.F++F+4. @F+o& a3.ph+#F+$F+%V %F+&F+[t+:7+*F+99+=F+,h+-F+@k+@k+;F+El+^2+,z.dn.>F+sf+,F+'F+)F+!F+~F+~F+{F+]F+^F+/F+(F+_F+:F+<F+[F+}F+|F+1F+2F+3F+4F+Wv+Vv+5F+ z+Jq+e=.",
"6F+VA+Q> N:.7F+8F+9F+0F+&= =s.K5.yP )9 D8.QW.jV.]4.aF+bF+cF+MG.cj+#D J$+R!+dF+eF+fF+gF+gs.hF+iF+jF+kF+lF+mF+YC.nF+oF+pF+ld+qF+!m+|! 6U.rF+sF+NZ.e2+QW.o] .: n| m< $: $: 9! M'.QW.Fi+h| Sn.hK.Dk._z.[w.[w.Lx.<:+tF+uF+_w.$e.wu.yu.Xn.%e.@o.Mp./t.F&+j{+j{+9t.9t.j{+}o.}o.*j.[1.Ru.Ru.[1.Ru.4w.5w.-!+!E+F&+gh.Ra.S1 Nq ^n r*.B-.{n -+.d>.vF+wF+xF+yF+zF+AF+BF+]B+Kv CF+DF+Dw.EF+FF+GF+HF+IF+JF+KF+LF+MF+NF+OF+PF+QF+wN.RF+@b :3.eV ;x SF+TF+Mt.UF+VF+WF+XF+YF+_>+ZF+^L.:^+K] gv+17+`F+N%+1-+ G+.G+B%+J%.Ot Ev +G+@G+#G+%S hT P;.$G+qE+{W rE+%G+&G+*G+=G+-G+;G+JV.>G+,G+'G+)G+!G+~G+]q.{G+jj.]G+^G+Zr.yB+&I./G+(G+_G+:G+<G+u&.[G+F +}G+|G+zs+Fx $> 3* '> '> i~ i~ $' $' z@ => A@ $1 O) '( %[ c7 AT Os+5K 1G+2G+3G+i). /.yo.Z,.4G+Q}+nj+zW ^&.E( qs 5G+v/+6G+7G+#d 8G+40+9G+,4 0G+aG+bG+cG+8Z.5++dG+eG+fG+lP Du+jc Xr+Vr+gG+xp+$k+$k+xp+c(+,C+f[+hG+iG+3@+jG+uf+<9 kG+lG+mG+nG+oG+pG+qG+rG+sG+tG+uG+vG+ND+wG+xG+yG+zG+AG+BG+tu+/t+Vr+CG+ r.",
"`k.`k.G[+G[+Df.[h..e.Oa.X. X> %} $: o] po.nL +{ DG+EG+FG+aQ./l GG+vB.HG+IG+JG+KG+LG+MG+NG+53.OG+PG+QG+RG+SG+TG+UG+VG+WG+XG+zZ.0t+;=+YG+E++,l+Be.ZG+`G+ H+M0+,} p# A-.m5 n6 <l .H+dC+Y4++H+p%.2V.f>+$j.`i.T!+}3+@H+#H+2,+Tn.$e.Cu.hr.$H+%e.%H+O/+7h.sr.[1.=j.4w.jc.vr.5w.Rp.Rp.Rp.>j.Rp.Rp.gh.|o.}[.0c.T!+gh.j{+mG.@[+6Z vX r*.1c H].vo.[R &H+*H+=H+-H+;H+>H+,H+|6.{k 'H+)H+!H+>i+Mi+~H+{H+]H+^H+/H+(H+_H+[~.:H+<H+dJ.h*.N~. & R@.cw VZ n'+(|.[H+3~.}H+|H+1H+2H+3H+/r.4H+T{.5H+6H+7H++m 8H+9H+0H+aH+(M.bH+(M.6<+cH+dH+eH+fH+RU gH+hH+iH+jH+UX kH+lH+mH+nH+tB+nx Q~.oH+by+pH+-S qH+rH+rH+sH+^[.tH+uH+vH+wH+vJ xH+yH+{A zH+AH+WG 9{+BH+CH+3y.DH+EH+jU 5* E@ +* 2- %B FH+4- 6 +>( v.+Q  t^ 7: B^ vj GH+s,+2G+_O.Ni+eo+4M.qS 7h AP u_.,=.'=+bS o.+*4+HH+rz IH+JH+hO.KH+LH+!c MH+NH+1 .$.+3++mh+OH+PH+h=.g=.}8+}8+79+QH+89+a%.28+RH+#h+Tk+#h+#h+SH+xm+TH+s#+UH+VH+WH+XH+YH+qG+(F+ZH+`H+ I+.I++I+@I+Q7.#I+$I+%I+&I+*I+=I+uA+-I+Il+;I+>I+,I+Fq+",
"Z. Q> Q> Na.Na.:0.Na.G[+;m+W% '/ V% 0! `. 6O (l 'I+)I+FG+:S.`_ !I+~I+{I+]I+^I+/I+^I+(I+E-+_I+:I+<I+[I+}I+|I+1I+2I+3I+4I+5I+6I+7I+8I+P[+9!.ou /7.9I+0I+aI+K#.jS u< N~.`Z ,].oL bI+cI+W@+sZ.Cu.#j.gh.fh.,e.}[.Ja._0.H~+'e.Bk.Bk.<N.wu.dI+k++eI+fI+|m.fc.(Y.Oa.8K.ur.C8.*j.gh.Rp.>j.>j.>j.Rp.Ra.kG./Y.gI+Zi.$j.Rp.Zk.k| ~j.<j LH tG D( $y No Ym PF+hI+iI+jI+kI+lI+mI+nI+oI+pI+qI+rI+sI+tI+5E.uI+vI+wI+xI+yI+zI+AI+95 kj tf *, `a 3!.Zo 1H UZ %d.BI+CI+DI+EI+FI+GI+HI+II+JI+KI+kg LI+MI+NI+rY OI+OI+PI+C%+QI+RI+SI+gC Sr TI+UI+*q VI+WI+XI+R#.YI+TX ZI+`I+ J+uB+9F Ot .J++J+&b.&b.vQ $L _P @J+#J+$J+%J+&J+*J+<P =J+Ft -J+;J+>J+H).x!+5i.,J+2y.'J+yn )J+6{ ]u 5* .% k) %' E) !J+7q ~J+B8 8{ Wc }a+{J+]J+^J+.f.gw /J+(J+_J+=F Mq o[.<&.J-.~s.{R.(<.!=+2A.:J+<J+[J+}J+|J+9> 1J+^c 2J+[Q.3J+h-.w6+@&.P..3@+4J+5J+69+5J+6J+69+}8++!.|8+7J+8J+Sr+f=.)C+Fq+9J+0J+aJ+bJ+WH+cJ+dJ+dJ+eJ+eJ+fJ+nz Ie+Ie+,b 6%.%/++&.ym+gJ+Hq+hJ+iJ+jJ+Hq+kJ+8J+lJ+[c+",
"`_ Z. Z. Q> Q> Na.*= *= w# W% '/ V% 0! `. qo.-n y#.mJ+nJ+4_.nL !I+p2+oJ+pJ+`7+qJ+rJ+sJ+tJ+uJ+vJ+wJ+xJ+yJ+<s.zJ+'o+J@.AJ+Tj+BJ+CJ+6d+DJ+ P.o6  (.EJ+FJ+)4+.N r6 4O #B.e,.yP '/ 0h.Yn.}.+GJ+HJ+IJ+3w.w2.>@.,@.f>+rK.JJ+$j.$e.[z.Kp.Lp.wu.IH.KJ+LJ+7h.]0.Oa.^0..~+'.+A8.[1.gh.Rp.>j.>j.x2.O:.Ra.kG.5V.MJ+Ja.`i.}o.Tp.mG.S> }].DU ~F >I.2B Oo J_.NJ+]A OJ+PJ+QJ+RJ+SJ+(i TJ+UJ+VJ+WJ+XJ+:H.os YJ+]u.ZJ+`J+ K+.K+)j +K+MG.@2 uN V7+S7 Va EI cS LI c| @K+#K+$K+%K+&K+*K+ci =K+-K+;K+>K+,K+'K+)K+!K+!K+~K+{K+;G+(W ]K+;G+}v ^K+/K+(K+_K+:K+:K+*D+<K+<K+`I+[K+!A+RU }K+Ev .J+|K+1K+2K+3K+YH RD 4K+5K+6K+7K+8K+9K+]I [-.QU VI+3i 0K+aK+bK+Es.cK+dK+eK+fK+&{+W] jU Gk D& P; 8- Wg B& gK+Pw.lU I;+hK+iK+jK+kK+3i.`Q lK+mK+nK+oK+pK+Mq !R qK+;N rK+Ef+5i+sK+<(+tK+uK+L +vK+wK+xK+yK+:6+zK+AK+BK+CK+rA.DK+EK+FK+,c+(,.r#.GK+HK+HK+IK+JK+KK+b0+Ae+18+LK+n^.MK+/Z.~g+>d+NK+A0 XH+OK+PK+QK+QK+RK+SK+TK+TK+UK+VK+WK+I/+XK+Fq+YK+)C+gJ+ZK+`K+Gq+ib+ L+iG+",
")[.)[.v:.`_ Z. Z. Z. Q> w# W% '/ po.`. `. qo.ZT .L+5c nm.Na.:$+RA+5f++L+@L+#L+$L+%L+&L+*L+,i+=L+-L+;L+vS >L+p$.VV.ww.~m+<3+,L+'L+TW.vj.)L+mL Ma. =+!L+jV.yt.~L+{L+y1.9(.+G X> *e.]L+t%+^L+vb+/L+dh.yX >@.5Z =!+JJ+(L+#e.Kp.+o.%e.(t.8G.`n._L+:L+Df.]0.3t.4t..~+dc.'.+5w.Rp.Rp.>j.;j.x2.x2.Ra.Ra.;o.<L+Ja.ac.G~+Xu.oc.Q% ut.-@.G;.>I.Nd |{.[6.:4 [L+}L+|L+1L+2L+3L+^6.4L+5L+6L+7L+8L+9L+0L+aL+u5.~L.bL+cL+dL+2g.^{ eL+fL+tN W~.'; Va )<.VZ C_.gL+hL+)3.iL+jL+kL+lL+mL+nL+oL+pL+qL+ o rL+sL+tL+uL+vL+wL+xL+yL+zL+AL+sE+/W BL+sE+*I CL+DL+EL+CL+FL+GL+HL+HL+IL+Op J%.JL+1K+KL+LL+ML+k*.NL+_P OL+PL+QL+RL+SL+TL+P;.UL+VL+m4.WL+XL+YL+w~.mf.p@+lu+ZL+`L+ M+le mK `h w  #% ;] t@ vm mo w.+gr+3u+.M+u).+M+&r.lK+@M+#M+$M+%M+_3 5B b*.} +n'+&M+]H *M+&G FJ =M+-M+;M+>M+,M+'M+b, )M+nh+!M+z`.~M+{M+]M+4@+Vg+49+Zc+Q[.d0+^M+^M+/M+(M+_M+_M+b0+KK+18+:M+Ah+%/+<M+[M+ja+}M+|M+OK+PK+OK+1M+2M+3M+4M+5M+6M+'F+%/+m0+ L+|8+kf+1` Sr+8J+ym+Fq+[c+Eq+TH+",
"xt.xt.J5.J5.74 84 84 j< j< o| ,9 %} )3 Zd x( %: #B.u< 4! W> 6*.7M+eo+0D+8M+9M+0M+aM+bM+cM+dM+eM+,B+fM+s5 3Y }{.gM+Xo f .hM+iM+jM+S0+&p+kM+K8+|h.v%+SE.-K TW.GG+lM+o'+(<.mM+YC 6h.nM+oM+pM+qM+<m.Tk.E#.w2.xX fh.!<+d_+9G.#e.@j.%e.aD.5G.2G.rM+sM+Ar.dc.eh.eh.-J.:0.z8.>j.;j.;j.F5.x2.O:.O:.Ra.Ra.51.)P.Zi.Qp.}o.O]+Er.Q% tM+N` =: C# uM+'N -l vM+wM+xM+yM+zM+AM+[O aE.BM+CM+DM+EM+FM+GM+HM+IM+JM+KM+LM+MM+NM+AZ.jY w_.AR 14.&K T;.1c >l VZ OM+PM+QM+RM+SM+Qn TM+}c UM+VM+WM+XM+@o Op |C YM+ZM+tL+`M+ N+}h+;G+0&..N+zL+DA (K+}v G+++N+OA pT @N+#N+$N+%N+&N+*N+=N+p*.-N+Ac.1K+;N+>N+sH+qQ k*.]I _P ,N+'N+)N+=$.hT I%.!N+~N+{N+MU ]N+^N+bK+ik.v!./N+(N+_N+A,+jo Gk +J x  -( +J ke T9 :N+'{.<N+[N+;u.}N+|N+h4 1N+2N+3N+#2 ]T YZ yW ~s.jP.4N+5N+6N+7N+8N+9N+nA.0N+!s+!@ aN+F- 8W bN+cN+dN+8[+eN+C@+fN+gN+w!.f6+^>.hN+<_+5P iN+Z).jN+jN+6'.kN+6'.C~.lN+mN+nN+oN+pN+qN+rN+`H+sN+qG+tN+uN+mG+vN+SR.wN+wD+69+xN+B&.&F+yN+zN+kf+AN+Fq+BN+Eq+4J+ea+",
"`T.e2+e2+yt.H5.o6 74 84 84 +{ ,9 %} Zd Zd x( JG.ZC /3 %} V% <,.Uh+:h+[|.CN+nC+DN+EN+FN+GN+HN+IN+JN+LW KN+fV -+.eb.Yo LN+MN+`~ NN+Rq+ON+M0+Y`.2t.KH.G[+SW.ct+Hd+PN+QN+RN+SN+., D#.8G.TN+UN+9h.sr.,@.j%.E#.A#.Hk.Xu.S!+Cf.9h.EO.d>+7G.5G.6K.VN+WN+XN+dc.Vk.-J.Vk.C8.^]+[0.gc.Hk.F5.O:.Ra.Ra.Ra.O:.Pr.YN++e./0.fh.~]+gt.T1 [4 d..05 ZN+ht ,N ES./M.`N+fx U#. O+.O++O+@O+#O+$O+%O+&O+*O+=O+-O+51+;O+q{.>O+,O+'O+)O+!O+ i.+2 P@.'+.Va +=. G =/.OM+~O+{O+^y+]O+^O+/O+(O+yM+6M S:.eJ _O+tA a$+v0.:O+<O+PI+^g.[O+}O+9U.|O+1O+2O+(K+3O+4O+OP G++5O+6O+`I+&N+7O+7O+8O+J%.cy+9O+0O+N8.aO+bO+cO+dO+eO+$L fO+gO+hO+iO+jO+6_.p*.tN.SK kO+lO+mO+nO+!q oO+ev+W).pO+u,+qO+rO+jo _G 4z M$ sO+R9 N(+tO+uO+vO+wO+2h+(m+MC+xO+yO+zO+AO+T7 _/ F;.He.XV.BO+CO+Bl+DO+EO+FO+wv+F;+!s+}a G2+GO+HO+IO+n}+JO+KO+LO+MO+NO+~%+OO+XP.!%+9'.kL.Q-.Ql [8+v,.7'.PO+u6+C~.C~.QO+l0+mN+nN+hb+RO+SO+TO+UO+sG+_F+VO+WO+XO+YO+yD+,I+Sr+@!.@-.@-.&F+E>.ZO+AN+89+7J+la+>F+5J+`O+",
"`F `F  P+uw.8B J~.{} (l (l (l -n -n %: %: JG.JG.8B Xr.po.u8.-o.AI .P+DQ.+P+@P+#P+$P+%P+&P+*P+=P+Ve+&2 -P+<3.jL 7(.S@.&d.;P+[g.>P+,P+ r+L9+'P+Tn.jG./j )P+!P+~P+{P+]P+^P+/P+(P+_P+p%.[m.[3+oZ.oL :,.Y1 j%.,@.gc.j{+4w.5t.|m.Qu.Qu.Ux.SE.8G.|N.K:.XN+Vk.Uk.dc.E5.+= Tk.^]+xX A#.F5.Ra.Sa.Sa.Ra.O:.n%+:P+<P+zf.>@.R&+T1 zX _M [J g$.Az s_.Mz+[P+r_.'x 8J UF 95 .O+}P+|P+1P+2P+3P+4P+5P+6P+}`.7P+d[+8P+9P+0P+L%+zo.m[.~L+Cf CP XZ .G ^N VT aP+C1.bP+h).,9.cP+dP+eP+fP+|O gP+:C.hP+:F sA {{ d7.ts <O+iP+1v gC 1v jP+iP+kP+lP+mP+<B+CA 7q.7q.nP+oP+pP+qP+VU rP+sP+tP+uP+Ac.AQ vP+c0.xQ N8.LL+&b.3K+wP+-$.xP+2b.jO+I%.h!.yP+HG.zP+AP+BP+CP+RG DP+EP+.3+FP+GP+Uu+HP+5I *9+IP+*9+5;.Ro.JP+E^+KP+rx.@n+Bl+LP+@i.fc i[.>R eL+3H /n ^N j ._h+MP+jS.p2+NP+OP+PP+QP+RP+SP+wE _, TP+UP+VP+WP+XP+YP+ZP+`P+[f+ Q+C@+C@+OO+~%+.Q+I'.Kf r#.+Q+$a.U +l0+Dq+Dq+l0+t`.oN+ja+@Q+Q7.#Q+$Q+%Q+&Q+*Q+=Q+-Q+GA+;Q+>Q+1` xu+,Q+'Q+&F+)Q+kf+1` 1` 1` 1` 89+g=.69+00+",
"P}+{K ,R.// uw.8B JG.ZT {} {} {} ZT ZT JG.JG.y( y( 7O o] u8.q}.{/ 3&.Ve+3I.YF+!Q+~Q+{Q+]Q+^Q+/Q+A^+t7.mY gM+eV Cf (/ II BI &p+(Q+{v._Q+[3+#C.Tn.'/ 'I.:Q+<Q+[Q+}Q+|Q+1Q+2Q+3Q+@ +4Q+L9+nZ.5Q+6Q+n6 w( 9! +: A#.Rp.4w.Kf.7Q+FL.xA.2w.6K.0D.8Q+9Q+!]+$e.B8.-j.G[+D8.Rp.|o.*= '@.yX kG.U_ U_ Ra.O:.+4+0Q+aQ+8c.>@.U_ `E.a< >y bQ+S/.+` 0V ^9.cQ+dQ+g,.!x UF ss eQ+fQ+gQ+hQ+iQ+I-+jQ+kQ+Ll.lQ+mQ+!~.nQ+oQ+pQ+qQ+dP.QG.(K  n rQ+sQ+Po UP aP+tQ+uQ+oV vQ+wQ+xQ+v7.hu yQ+zQ+6J ~C xA /F yA C# !+ C++)[+AQ+) +CA BQ+AQ+/+.m$.CQ+DQ+<B+iP+c$./+.(+.nP+EQ+FQ+GQ+HQ+IQ+JQ+)M.KQ+G}.LQ+MQ+rH+>N+ML+NQ+LL+OQ+PQ+f@.QQ+RQ+jT SQ+TQ+UQ+VQ+WQ+XQ+YQ+6C ZQ+2k `w *k `Q+i!+ R+ea .R++R+@R+E_+#R+$R+MM.%R+{` H1.&P.&R+G] Cj.-<.oS oS 4(.GP g).4k+#m+X}+Eb+*R+=R+-R+;R+>R+,R+'R+hr+pa E1+)R+!R+~R+{R+]R+^R+-S./R+(R+_R+:R+Z_.d<.~%+<R+[R+}R+|R+,d+s +t`.1R+ L+$a.#a.@Q+2R+.I+3R+4R+8D.5R+6R+I` 7R+0..8R+9R+ix+E>.<t+0R+,Q+)Q+kf+1` ]t+nx+aR+=w+1` QH+}8+Be+",
"4&.4&.S%+'= h! B] B] &: $, vw.C] C] .2 Ce.Ce.(4.x] |H *{ D8.D8.Y1 R7 RG.bR+iS.cR+P_+dR+eR+fR+gR+hR+HN.AZ.^I.2l JS.,l+KK.G' so.,P+iR+jR+D8+kR+fr.j5 @ +:Q+lR+mR+nR+oR+pR+qR+rR+sR+h4.()+tR+/!+{k+x] 7O {/ w( n< ^e.-j.Gf.bh.Q/+FL.8t.Df.&e.Sx.uR+3w.[0.Tk.Hk.Tk.^]+v# *= ,@.T/+ (.xX ,U..: u# 9:+oS.Pr.vR+wR+.: t( !/ bc /M 6j m..gY 8!.iY !R Az x1.S5.xR+3Y i( [O +D.yR+zR+AR+BR+JM.s/+X7.CR+DR+`J+ER+FR+EF+GR+HR+d| hM+pr 1+.or IR+It.u .(|.JR+KR+o7.LR+z[.r .qS MR+]J }M SA.0h NR+OR+2(.PR+QR+RR+SR+TR+UR+VR+)K+Kf+z1.%N+WR+aH+XR+YR+~X.ZR+`R+ S+.S+YU q*.+S+@S+T'.}P.#S+$S+%S+%S+aO+;N+LL+eO+2-.&S+*S+=S+-S+;S+ot >S+,S+'S+)S+4T SN =J+Ft 5G+*E [d /(.1D.!S+~S+{S+]S+^S+/S+(S+_S+:S+<S+gJ.oG  G PG.cO }V [S+2&.}S+pY.}M.|S+1S+-U.Z5+vB.2S+3S+4S+5S+6S+7S+8S+9S+0S+J&.aS+bS+cS+dS+o}+,Y.eS+fS+~c+gS+P[.3b+,>.5&+hS+jG+iS+jS+#a.,F+ia+sf+#a.gb+kS+lS+mS+/8+nS+oS+pS+qS+rS+sS+>Y tS+Sd+uS+vS+wS+xS+yS+zN+zS+=w+AS+BS+BS+CS+_t+Sr+la+6J+",
";=.&=.:K S%+'= A] A] DS+(/ (/ (/ aY aY aY BN.KK.f2+qL s( 5Z 8K.^7.rf pS ES+nz+5f+FS+GS+HS+IS+JS+KS+LS+MS+NZ.:K NS+n1+BI OS+4q.Ct.Hn+)4+b< X@+-e.l< 'I.]R.PS+QS+RS+SS+TS+US+VS+WS+XS+:$+@N BI YS+^v.oo.N'.YC !l ~/ gc.:0.sr.Cr.7Q+xr.&e.Ef.m%+@H+|o.[0.D8.+= Tk.fh.O:.ZS+Ra.W> W. W% E#.9:+Or.)U.)P.*o.wR+0Q++: ,/ HR S1 it.Nq ^n >n Ya.!+.B-.ZZ O. !F ZN+n:+`S+]y+ T+.T++T+dF.gp+-k.Kd+@T+#T+$T+%T+&T+ X.4v.:3+*T+l# =T+Z,.~N .e+-T+;T+>T+,T+9B+Cw.;L+'T+z[.r .E( ]{ K%.MH t6 =, xC+~E+uM+)T+PR+!T+sL+3C HK.ZD eJ.!T+uM+iJ.~T+{T+]T+dj CW ^T+/T+(T+]].sG pe.Ph._T+:T+<T+[T+}T+|T+%S+sH+rH+2K+1T+dO+2T+3T+,x CQ 4T+5T+84.M%.LA NG OG o..+G+nx 1m 6T+Ld+Fs.7T+8T+9T+0T+9!+h}+aT+bT+cT+dT+[4.`E.>} D-.C].PZ.BL [/+eT+fT+_+./R.cj+Ve+hq.Bl+I(+gT+hT+iT+jT+kT+lT+Cm W< >~ mT+nT+[$.oT+pT+.S.>O qT+rT+OE.;3+sT+tT+uT+vT+wT+xT+yT+zT+AT+TK+BT+NK+@Q+o^.CT+DT+PE.ET+ C+FT+I`.GT+HT+l).fe+IT+7R+_N.JT+Au+@!.ZO+{t+nx+nx+aR+ru+KT+BS+aR+Sr+lJ+ L+",
"TV.$B.~n ~X.~X.T@.+e +e +e +e 5(.Jq ~L+zs ^=+LT+g2+MT+o6 '9 A2.PT.[_.|4.s0 S!.NT+#i+OT+nz+dU.<!+PT+QT+RT+ST+TT+UT+b,+!h+[l.Om.VT+WT+~.+rZ.Hp.&j.A2.<P.|l XT+YT+ZT+`T+ U+Rj+.U+-o.Tn.2*.U. +b zP y] y] ^v.{y.Hq VC ;} s}+:0.ur.4w.=j.N:.n%.`i.+U+|o.G[+z8.Tk.Hk.gh.P]+)F.@U+Q> u# U. .: 0:+#v.#U+$U+-o.Bb+%U+i%.Ma.V> ,9 $= *K ;/ Pd eE 5,.rc.t< q0 ^@.sG EL _h &U+*U+=U+)L 1^+x!+Y{+i9+-U+;U+>U+,U+'U+bt+TF+)U+HR+X&+PZ.oY.=T+I%+!U+~U+{U+Ff+]U+F1.'T+[<./<.z_.^N .U su CP 1c /9.^U+~E+2(./M./M.IK./U+2C 0F DS.c$+(U+_U+:U+6V ]T+<U+[U+c*.u_.,l+}U+|U+H;.d!.zc.zS.1U+>A+>S+2U+3U+4U+vP+5U+6U+1K+7U+jz.8U+5U+9U+Bc.i!.0U+U'.aU+ZU Kt 0t bU+cU+dU+eU+fU+gU+hU+iU+l]+jU+,i+kU+lU+mU+nU+oU+!j.R`.yX Y,.pU+<3+l,+3!+#y+/R.9F.=B.cj+qU+B| p2+rU+Zv.sU+tU+uU+vU+wU+xU+yU+zU+AU+BU+Q_.4v+;}+en+I/ CU+DU+K` D.+EU+FU+GU+HU+L( $Q+=Q+IU+JU+KU+LU+B+ MU+NU+OU+PU+K# QU+Nm k)+3a 8|.RU+SU+7++TU+UU+/R+VU+eO.B&.kf+{t+nx+nx+aR+ru+BS+_t+aR+Sr+la+ L+",
"TV.$B.$B.cO ~X.2l fj Bf fj fj T@.9C.Xo S!.WU+ec+V5+/v./4.-n p] XU+8j.XU+]l +b !K CI ;; +e+YU+=[+ZU+`U+ V+Im..V++V+)e+zt.)e+@V+7V #V+$V+Y`.Wi.jG.W> i5 9(.{I.Fw.zZ.k,+.U.sg+#M.m%.Df.8K.;@.EW m .{K {K h2+9S.w] Hq 4! k< #; -j.9t.gh.s}.u8.Ha.K4+>j.;m+D8.;j.;j.fh.~7.%V+&V+hc.u# j%.E#.j%.qt.*V+:P+^$+,U.=V+$=+ (.h| v:.u] i5 y++Fq `o g*.8j ZT mE 'l v%.H].-V+;V+>V+xd.:^.,V+mI li.8o t!.'V+)V+!V+~V+t .uQ+|=+{V+K. F@.XT XT ux+]V+!U+v[.'T+^V+bC.s .c(.aU.^&.Bq Aj.1,.]+.nG bY dQ+sz+sz+/V+/V+~E+>I.YM+|C v0.v0.3U.5w (V+lE {n _V+:V+!s.AP ,I.O~.<V+[V+z}.Kh.}V+|V+1V+2V+!v.)g.%S+3V+*b.4V+5V+6V+rt :x 7V+8V+VD..L Z2.[W 9V+9V+f!.;I.A%+f!.&(.tQ VM+0V+aV+bV+cV+dV+eV+fV+gV+hV+u*.<j u^+D8.u] iV+!N jV+og+#y+]R.kV+r1.<} lV+r].mV+nV+oV+$E+pV+qV+rV+sV+tV+uV+-) vV++j+wV+=p xV+|V.la dq 8) yV+zV++F+AV+BV+CV+DV+q@.JY EV+EV+FV+FV+GV+HV+B6 IV+JV+}& 4+ KV+-<+q+.la fd LV+MV+NV+GT+Es+OV+PV+QV+RV+|8+|8+89+Sr+Tr+]t+aR+nx+{t+AN+79+>F+",
"rz.$B.$B.~n ~X.~X.2l fj 9C.9C.9C.~n $B.$B.TV.nY.;; 'q+`F L' {} SV+&} *} A2.#; u8.-o.TV+@N iV.X4+UV+ko.VV+WV+XV+YV+G~.ZV+`V+ W+.W++W+VT+U`.K8+qZ.TL.H5.$, @W+k$.e-+s0 /3 u] x2.=e.6h.yX !} S7 4l =N </+I' ~K >{ g5 n| p| ,@.Rp.U_ O:.'@.u# Qr.Pr.O:.cc.'@.yX >@.A#.w2.im.#W+$W+.: t( *{ h| po.&; =V+.I.%W+&W+*W+V>  (.U% Fr.n| jw.it.Wp.$ +9w ac z%.nu (&.su F] {= 'j (v =W+-W+y)+;W+z~.y~.>W+,W+'W+_<.)W+|R !W+,=+~W+{W+]W+]W+Z@.dS ~s.OM+1<.J_.dN.NG.AL ZR+(l+DI sg+^W+vL 0B CP Mq /W+(W+_W+%=+xC+{{ bv av av av q*.; +; +u^.:W+1U.<W+mu 0!.$=.UC [W+'l.DU Kh.}W+|W+1W+2W+3W+>A+4W+5W+5U+6U+6W+7W+8W+CN 9W+4U+0W+aW+Qp bW+cW+cW+Fv Pp Sf.+L dW+eW+ZH fW+gW+hW+iW+jW+kW+lW+PI+mW+yN 8w g| 0< sg+}&.V!.b$._+.E_.Ej.mJ.nW+6M.oW+pW+qW+rW+sW+tW+e*+uW+(N.vW+wW+xW+yW+zW+AW+BW+CW+DW+EW+[a FW+9* 6_ uV+GW+HW+IW+f; JW+]c n- 5+ |& ^c ^c i* i* 2& i* KW+4( LW+6~ .. rl+7;.MW+NW+OW+PW+QW+{y RW+SW+TW+UW+69+69+g=.QH+7J+89+89+fG+fG++!.iS+ea+",
"rz.rz.rz.~n ~n 9C.9C.9C.Kq VW+VW+$B.~B+J0+(h+(h+d,+Gk+3&.zs Bj.vw.G2.MW.Df.4G.!)+%H+4N.9Q.w8.1Y.}h I5.V`.~F.WW+`i.x++nt.XW+f5 YW+ZW+(Q+`W+_P+R0+7V  X+^/ .X++X+R,.p# @X+w2.l%.}h.pZ.8*.=P.Bf $/.WT j.+R[+CI rb+aj W1 }H j%.x2.Ra.E#.&= >/ xV.l( ~7.#; 5Z W> xX ,@.>@.P]+fm.#X+!P.,/ o] o] &{ V> (o.(o.,3 ^F.$X+BZ. (.ED.Fh.Wp.$} +} Hr.34 %} i5 h5 sL nu Bs `!.%X+&X+*X+=X+{H.-X+WF.w;./y+;X+>X+,X+'X+!X.n[.qK+*3 )X+!X+Fe.!X+8>.xW n[.dN.iu _3.e .]{ cw .G F;.z].~X+II {X+|,._&.x%.FH zN 6v ~C BD $e $b oh.$b.$b./o.s7./o.Bv ]X+60.^X+/X+Ya.9j r| _T AE+>l.9G CE+(X+-A+2W+UQ+>A+!v._X+-S Ac.5W+:X+<X+sN.DN >z [X+9O+It Wr nx nx Vr Qp 5v dQ }X+|X+7C.$z 1X+2X+3X+4X+5X+6X+7X+l0 8w 'K 8X+WT 9X+A].Cj.jJ.mY mY &2 0X+aX+bX+cX+dX+eX+_A.fX+gX+j).bn.yb.hX+iX+jX+dy.kX+tS++g+ Q.vk mb lX+mX+h} ^1 s~ nX+oX+~  vV+!h pX+qX+rX+sX+tX+uX+vX+wX+q& [| z{ xX+S} :( yX+zX+AX+BX+hk+CX+4[+DX+EX+fe+FX+GX+(N.dO.HX+lf+F>.B&.&F+&F+xN+iS+00+`O+IX+",
"i.+i.+-P+-P+-P+R%+y1.y1.R%+-P+i.+.X.VV.gP.bU.xw.JX+.p+KX+WU+1l @b 9V !3 SE.LX+MX+NX+OX+PX++o.8Q.F5+1h.Ip._w.dD.0D.oD.[J.xV.lZ.5Q+Dp+QX+QX+RX+SX+TX+UX+VX+KK.9V x].WX+B^.X> G&+XX+(Q+YX+ZX+`X+fT+~x+ Y+,= I' z] (4.{/ }H Y1 ~/ @X.j%.po.Y>  + u( CD.'@.W> W% '@.Ra.w2.Ra.!F..Y++Y+BU po.8$+@4+Z_ #v.@Y+#Y+ED.%W+>/ KD.@4+$Y+%Y+&{ S. a7.m< 4! i< @4+0c `1 #P AN &Y+^m+kb.*Y+=Y+-Y+Q{.h~.;Y+>Y+,Y+t7.e-+jE .n ]+.6>.N@.nE RH =P.%N uu +=.FP wz+$K N!.;F UC su 0B AN.f! !3+'Y+|,.O. FH 5Q )Y+!Y+~Y+(x +z ]9 dt .q.0v }e.}e.iw.k..fY.)-.{Y+)].8j I;.)-.V/.]Y+{G+5Q ^Y+/Y+(Y+3W+_Y+:Y+Nh._X+_X+=S _X+}P.<Y+[Y+ev :x 0,.dO+}Y+OX Xr F^.HA jz.=C |Y+1Y+2Y+3Y+'].4Y+5Y+6Y+7Y+8Y+9Y+0Y+6$+F' aY+k'+zl+3!+7&.wP uP M0.kY *b bY+cY+2N+sI dY+eY+{x.fY+gY+hY+|*+4r.iY+jY+kY+lY+Zy+mY+nY+oY+pY+t,+sT.kt+Pi qY+M} rY+sY+tY+to uY+X' vY+SJ wY+xY+JM yY+zY+AY+[9 BY+CY+DY+EY+FY+GY+Ti+el C2+Rg GW.Qu+HY+}i+IY+I` %-+JY+pD+KY+ @.}R+cO.cO.LY+MY+M*.NY+]M+",
"VW+-P+Xo y1.Kq zs zs zs Ae.v6 VW+jO TV.VV.J0+)W+zv+2d+J0+/l+OY+R!.Ce.)3 Ff.PY+QY+RY+SY+TY+UY+K~+Hu.nr.6K.'!+VY+<h.WY+XY+|J.YY+ZY+`Y+ Z+.Z++Z+@Z+:r+#Z+$Z+Te+$*+k$.7V 5-+5-+Rq+%Z+&Z+*Z+*e+/l+=Z+_=+;; 'q+,R.AI e2+/4.L7 YC n6 .+ =-.7!.1q.8*.#M.z7+'@.xX Q> yX ~7.,@.W> ~4+hm.-Z+)U.,/ 9! BZ.}C..I.fm.]F.%W+*{ po.0Y.,3 ;Z+>Z+La+U> U1 Sn.m< 0c &W+r] r< f6 PK eL+v6 ,Z+'Z+)Z+aE.!Z+~Z+{Z+]Z+^Z+s[.Df iY CP B-.*y JG.)R Wa.yI .e {+.+p d$.F] wP ;F ); .& #=.m ._4.)K i$. , rc.pG N` 5Q Uy /Z+2x :T }M BD 'C AD 'F x1.h..k..nh.KX k..^o.)-.(Z+am.^G+X` V` _Z+GX UH.:Z+<Z+2U+[Z+>S+}Z+|Z+1Z+5T+2Z+3Z+4Z+}P.mj.)M pK+4V+5Z+6Z+V'.O;.~I [F.=C 7Z+8Z+9Z+0Z+aZ+bZ+{w+cZ+dZ+eZ+fZ+gZ+hZ+Y,.WT K@.iZ+~|.z1.jL ~= ec jZ+kZ+lZ+mZ+nZ+oZ+pZ+qZ+rZ+sZ+tZ+uZ+=Y fb+vZ+wZ+&f f3.[8+xZ+yZ+be+zZ+x@.AZ+)f+k  '7 {[ Vf+H} :u B- BZ+CZ+DZ+,6 <: EZ+EZ+/. {7 FZ+GZ+HZ+IZ+JZ+z- 0} Of rm Ti+Fw+6;.KZ+/  LZ+MZ+NZ+cW.OZ+q#+PZ+QZ+RZ+yh+Mk+Mk+d<.d<.}!.BZ SZ+",
"mg+~L+Ft.-y (/ i! TZ+i! r0 `% UZ+T@.'=.cO 1&.|l |l ~X.IP jO $B.rz.Kq Ft.8B ac Q> Qa.tb+VZ+WZ+XZ+G8+C;.+j.YZ+ZZ+`Z+34.~{  `+w^.3U..`+%[++`+@`+#`+Bz+$`+%`+N6+<|.-L+Dc+&`+vZ.*`+eP.NZ.7P.7V $, #=.oo.oo.=`+=s.D(+qL tw.C(+-`+;`+>`+>P+E7+|H 0! o] +: Z. W. W> gh.9t.;j.[0.fh.,`+'`+nG.*= E#.BU Nr.vs Hr.)`++}  (.%} 0c Uo w{+!`+jt.vs vs $: $: Gr.ym.g< Yd `o /F.vw.h! ~`+[<.{`+]`+^`+/`+(`+_`+:`+G-.)I.ZF oo.*; <`+2s+== |,.i$.,I.HI z].6V GW 4l z-.Fz >+.CP nG m .cY 6>.'K nG _&.05 05 w%.Bs ~{ :J KK _T ]M |J 7Z d*.|J FD.'F &W 0G FD.X` 8o.IU OG vr 6v 4T L%.ED GN [`+}`+ B.<].-l.EV.]G+Vr.4C.'l.|`+1`+mT :7.{9 U7 9O+,G+W;. L SN VD.TK ;P 4T 2`+3`+%s.8.+%R.C++4`+CQ+5`+NZ.g).cS lV.C].g).D].a(.$y 1{.<H 6`+7`+8`+9`+0`+:V a`+b`+<}.c`+Vm >;+{g+mN+xh+d`+OO+e`+E>.f`+g`+h`+i`+2a+j`+M3 k`+l`+J[.m`+n`+S! >0 /_ xh L6 :U o`+p`+7} q`+r`+s`+U5 t`+u`+v`+~7 w`+x`+y`+z`+[4+g% A`+B`+3} T$.C`+D`+E`+B+ F`+G`+Z+.H`+I`+J`+2b+K`+L`+M`+C+ ",
"Ft.Ft.(/ (/ TZ+/3 ~} ~} dY r6 r0 DS+A] ,; ,; ,; T@.As }3.HP TV.]y./l+rz.>; K' ZT fQ :S.N`+O`+P`+QW.Q`+sr.R`+S`+Tm+T`+[/ U`+V`+><.Bq z# W`+X`+Y`+Z`+*A+``+  @. @+ @@ @# @$ @% @& @w>+7P.8V x].7B i< `. nL mL .N +N * @uo.= @- @; @= @> @, @)[.,/ V% X. *= gh.ic.fh.'.+A8.Ru.X8.' @~]+>@.p}.z7+@4+>3 F8.Ir.it.$: n| }H vs % +Jr.) @Uo Uo 84 >3 ! @0o.~ @,} >3 0c {} K|+{ @] @Jt.^ @/ @( @_ @: @< @%*+tw.hV.hV. P.== *; #+ +n vL ]+.&N &N ~+.6h Df cY $N nG CP nG 0B $N $N 6>.m .$N 0B 0B 0B CP _&.yN Rd Rd Wa Wa ^M LK Rd NR 'F NR DU NR yD xD GD cJ [ @_x 4T >P qt HN } @| @1 @5C.2 @9m.7o.7o.0m.V;.wB+3 @4 @7T >F t0 5 @6 @7 @dJ 3v tr p5 tA o..8 @9 @0 @a @b @c @pE+d @=A+7#+e @}<.(h+[{.|&.6&.C_.s .q .f @(=+g @h @i @j @k @Q).l @m @1w+Pn.={+6J+n @[f++V.o @0J+YO+p @q @6&+E5+wY+r @s @AE t @s` u @@|+v @w @x @q`+y @NS IO z @A @B @C @D @E @:p F @{O G @52 Aa H @$c n_ || I @J @K @$Q+L @M @N @O @P @DT+Q @R @|_+g%+-u+uO.S @D&.T @",
"Ft.Ft.(/ (/ TZ+/3 ~} ~} ~} /3 /3 TZ+B] h! h! -+ Xo VW+rz./l+9Y.9Y.U @V @e;+=+ BN.{} &} W @X @IO.pZ.6*.xX B^.Y @Bj.gP.Z @_s.5l.ct+TV.yL ` @ .@..@X}+7d++.@@.@#.@$.@%.@&.@*.@=.@-.@j2+TW.K0+(l gE o6 nL `_ 5j )1.o}.@V+Pm.QX+;.@>.@>`+,.@, @u:.v# Q> V. xX G~+G~+8K.A8.ur.5w.Ru.gh.Ra.@X.@X.S. ED.u] 34 Xp.Gr.u] VC n| u] jt.'.@).@O1 q< 5j Uo Fr.!.@~.@bc q| 4Z 2!.9!.{.@].@J@.^.@IC+/.@(.@_.@e @4-+:l.>9 ++ uQ.uQ.uQ.>{ :g.:g.oG {X+%N ,I.j$.{+.cY #=.Fz Fz #=.#=.#=.Fz ,+.N. 0O 0O 0O 0O #=.jj N` ^M LK LK LK #{ MR LR LR MR )F 'F >W /j./j.FD /F vr qA :.@FD 8C.GD !C <.@[.@7o.ao.}.@DE+|.@1.@t*.[V+oU+oU+yc.!@.t0 bG u*.qJ vA tr uA p5 tA  L _V+2.@-I YD Vr 3.@4.@5.@6.@}O G0.HN.|=+IS.S%+dO t[.u .8F.7.@8.@9.@5g.0.@_{ K:+a.@b.@c.@d.@e.@f.@Ed+be+ O.g.@[++h.@^j+VK+i.@@@.zW+j.@k.@e7  6 l.@C=.m.@3 .n.@m9 l`+7} 7} o.@5#.B @p.@q.@r.@`0 s.@t.@l9 (b Z5 t4 n{ 2{ p(.t) 6, u.@<Z J` HU+v.@sG+w+ ~4 w.@x.@y.@z.@A.@B.@C.@D.@#J.E.@F.@",
"K' K' aY aY Ce..2 .2 9V `Z `Z 9V .2 Ce.Ce.(/ Ft.@, WU+_ +]y.G.@X~+H.@Qn+I.@V @=+ Ft.C] (l fQ &} h4.:/+Z. sf #, sz.Nt.J.@K.@L.@M.@N.@3s+O.@P.@Q.@sh+g0+a-+i;+=y+R.@S.@T.@U.@V.@W.@SS.ec+5-+~y.sf o}.n}.v:.,/ 5j v:.@N bN.uo.;`+>`+5q. X+;#+,/ E5.Q> G[++= Ru.Ru.vr.ur.5w.*j.+= *= V% +: t] u( R. ,3 jw.Hr.%q.q< VC i< q< q< Xp.X.@6m.jw.,9 Uo $= nN.pS.Up.;} N[+6j M. Y.@Z.@_R pY `.@ +@.+@gV+++@^/ b! Q.  = #N 64 w] 7O ^j )R zP oG 0B y].,I.y].N. O@.N. 4!.DP eY ZZ O@.N. '+.#=.xI 0O '+.#=.,y d..LK LR MR LR wN Rd ^M 8c Wa [M 0G FD.>W 0Z 0Z ,C ;P /F qA }M L%.@B.!C @+@#+@DE+|.@$+@%+@Zr.&+@oU+wB+V;.V;.[V+|-.U7 x< dG $e d4 'x d4 _O+_O+y< ~D+*+@v0.;X.=+@Jv -+@;+@>+@wQ+hp+bq.:<.kO T!.VT p1+,+@]R.9F.Ij.6l 0S s-.'+@)+@!+@~+@{+@5r.]+@L$+^+@/+@(+@_+@vJ.:+@<+@[+@}+@I` |+@1+@2+@'[ &^ B/ s4 AC 3+@QS zO ab 4+@o`+5+@6+@]..7+@G+.8+@9+@0+@a+@(p F5 FE u9 k{ o~ G{ Y  8f aN+zV+AW+b+@c+@d+@.3 e+@f+@K+ g+@h+@i+@}G.@d+j+@k+@l+@m+@",
"LT+BN.%l+%l+L' C] C] `Z A-.A-.c!.`Z `Z C] .2 aY 8P.F-.ZX+n+@N.@7I+o+@o+@p+@q+@(h+}S+~X.qu >R.I5.qL M0+'[.8V OZ.r+@s+@t+@u+@v+@w+@x+@Gk+Bf+y+@z+@>T+SG.A+@B+@|r+C+@D+@E+@F+@G+@H+@,U -; z] y( z%.Sn.Sn. : W. Y. &=  + eg+OS+xx+#~+M6+PW.u:.X. -J.0h.#j.7K.Ar.57.yr.yr..F.#j.l%.o%.t2.jK.I~.HQ.s] I+@T. zG.J+@&; V> >/ B' S. #Y+K+@L+@Z_ BZ.Z_ 8$+M+@%V+TH.*} CU l..N+@O+@P+@Q+@xz.{A+R+@S+@T+@U+@RH WA.V+@;K 0j Hq l0 n6 O7 l0 Xr.4h ^j yI Lm.0w O@.xP P@.5O r| `M  2 5O P@.'R xI |*.'+.'R xI 3J  b Wa 8c 3Z 14.@/.x].x:.&K W+@W+@14.3Z @P LK (J TR -P lA _F HX U` >l.>l.LK X+@|.@&+@Y+@9m.6o.9m.Z+@oz.fo.`+@t*.t*./o.G#.h*.IH @& `!. @@Sf.[F B:..@@j4.f!.+@@@@@dr #@@$@@%@@&@@|/ MP+oY p$.{I.VZ |=+*@@^R.=@@t5 t-.[X.-@@/}+;@@>@@,@@'@@)@@x&+!@@~@@{@@]@@^@@/@@*0+(@@AL._@@:@@<@@qe Y9 {' =T #_ [@@,^ }@@|@@1@@Ou 2@@3@@4@@)0 i> 5@@6@@7@@8@@]s 9@@gK Nc <#.#7 0@@>5 a@@f@ b@@c@@d@@e@@f@@g@@h@@n' i@@j@@k@@l@@m@@n@@o@@p@@nS+q@@r@@FX+",
"LT+LT+BN.%l+L' L' C] `Z A-.A-.A-.A-.c!.c!.`Z C] s@@+e+*e+0s+%~+7I+Tj+Tj+t@@H.@u@@fT+v@@U!.$*+w@@At.pL  U.Xh.x@@y@@z@@A@@B@@C@@D@@E@@7P.F@@G@@=; NS.H@@'9.I@@J@@Wm.|)+K@@yZ.L@@o+@<3+z# Y,.^/ /7.u:.h| Ma.7c.X. 5Z :,.Z> bN.M@@Om.Nm.+N Z. #; 5t.Ef.xr.hD.7Q+7Q+hD.Br.+j.n%. j.nt.pZ.SL.xf+N@@O@@8! 0Y.^F.P@@&; BZ.s( 0Y.U% mt.Q@@R@@&{ &{ *{ t] 9$+ke..v.n< o# }4.Qo S@@T@@U@@%P.V@@W@@X@@Y@@ru >n mt.oN.U% W1 W1 #} 6! m| )l ~y.%: ,].,].Xr.iS m5 xP  ` 5O  N `M  N 5O EW rf  ` xP  `  ` xP |*.8c 6Q W+@6J.Y @Z@@x:.W+@vX 6Q 8Q +P Wa @P LK #{ _J @F _J 'v.DX 8Z 8Z 5C.X/.vX _P.X+@`@@Yr.Wa  #@FV.dY.`+@zc.fo.s*.]j.~@.6).+& -, .#@+#@%b <3 uG u*.@#@-I hr ##@$#@%#@&#@*#@=#@-#@;#@Hi+D1.JP PG.V++fT+F_.=@@-b -a+>#@,#@o2.'#@+Z.c1+]G.+++)#@X_.!#@+.+pO+~#@{#@]#@^#@=u./#@(#@_#@lX Z9 Nz.i/ Bu Ws 98 Mc :#@<#@&M <#.3s 12 4= [#@k= qh+m-.}#@|#@Ui+1#@c8 2#@'g A/ CC {2 c{ p~ 0' a_ 3#@_i+4#@5#@6#@V8 %~ 7#@8#@.$ 9#@0#@a#@b#@c#@d#@e#@",
"no.no.SW.iE f;+f;+J~.ZT -n -n gE Y[ Y[ Y[ yP %: Yh+o>++p+Al+f#@g#@N.@7I+h#@i#@'~+og+_I.}M.VV.WU+V5+7V ^3+SW.j#@k#@l#@m#@n#@o#@p#@AZ.Et.rL Ct.)s.cS D_._<.u[.q#@r#@)j+s#@e&.,4+t#@u#@5k+CI 0S.VL.B' w2.;m+^<+s}+[0.xX o] oL =`+)L++N v:.*= B8.Ku.+j.2w.1z. y.Vx.Ap.|m.+j.0h.l%.w:.G&+oZ.v#@<Y.(/+#M.t] oN.oN.8$+BZ.*{ Z_ U> ED.61.R@@@4+V> *{ Z_ P0+]F.w#@${ pc.b*.X!.x#@y#@z#@iV A#@B#@C#@D#@$` 7j ,U.Or.Nr.$} >3 34 $= vs 9w ac o6 74 h5 H5.yP 2!.1j 1j 4j =n 2h 4j 1j 4j 1j *n *n *n Qd P1 !} vX 8Q Ht.Ht.&K p# 7Q 3Z E#@6Z CU +l.$W E#@E#@R` ut.[x tM+F#@%9 (7.tM+G#@H#@3c I#@%9 J#@xN ^l vm.K#@FV.L#@]o.fo.fo.ix ix 8,.f)..F 8(.kj Ez d$.xC+Wc.LX M#@eH+dr N#@O#@P#@Q#@R#@S#@XK.T#@U#@1g./R }V )N i(.;` V#@ /.W#@3k.X#@[5.{%+K`+Tm 5K.Y#@Z#@b<.`#@ $@F^+.$@+$@e3.@$@GU+eS+#$@$$@%$@-%..a 9p &v +1 #~.#1 mn vH 2#@qo q2 &$@*$@B_ FT+=$@-$@`R.}v+H2 p).tO tO p).H2 ;$@[@@e7 uj <[ A, g% >$@,$@>4 [0 '$@)$@6+ >! !$@5( ,. ~$@{$@DZ M@+",
"no.no.SW.SW.iE f;+f;+J~.ZT -n -n Y[ Y[ Y[ Y[ s< |q.Yh+V5+]K Al+6d+KX+Ft+q;+q;+u@@u@@/R./R.F_.]$@Q}+{k+AI // 7P.,4+^$@/$@($@_$@x@@vj.7!.9! _$+@V+>; U!.&/.b$.G%+l'+Vx+T[+)` X%+*p+P++I' {K M4+:$@<$@k_++= Vk.Vk.dc.G[+X. }h }h h4./7.Sn.E5.Pa.Q0+6t.7t.[$@}$@Qu.6t.Gk.xr.0h.0h._-+5$+6*.xf+|$@(/+lK.t] La+T. po.V> BZ.T. ED.B' @4+1$@oN.`_ V> 8$+2$@mz.%l.D|+F;.{X.C_.iC 3$@4$@f'+5$@6$@7$@[3 LG.g| Nr.VA.p}.n< a< Y2.34 q< vs 9w Zd .N /7.N~.i< gE Y[ 2j 2h 2j 2j =n 4j 4j 1j *n Qd Qd P1 !} hE vX +P 3Z 8c :M @/.x:.x].bw 4Z 2c CU N[+O` 5! @[+Tf.F#@8$@:e.9$@:e.c0 0$@a$@b$@G#@S` vm.xN 3j c$@pz.FV.Z+@oz.|-.yc.ix &I.t^.GH 8(.d$@.F  i.eb.e$@.L +& f$@^W g$@h$@i$@j$@k$@l$@BM+m$@H( n$@}/ mY WU+[{.o$@yz.hp+p$@vM.q$@r$@q@+s$@t$@u$@v$@w$@zK+x$@pS+y$@z$@A$@B$@CZ C$@D$@E$@F$@F1+G$@H$@s} vK dp c]+I$@v} 0e V(+jX h{ J$@K$@.4+L$@M$@N$@O$@P$@Q$@z2+WN.p).p).:L 2p+R$@@0 UL S$@T$@U$@sY+hl.V$@x2 z: <0 W$@X$@Y$@L$@Z$@`$@ %@.%@^#.%u.",
"+%@Xh.SW. P+uw.y( 8B J~.+G iS Gq s< gE ^l Q1 2j x( cN.cN./v. P+4-+=+ &=./l+ww.ww.~m+}M._I.p$.w^+@%@</+^/ ZC >R.+ +eP.*`+ct+AZ.Be.84 #; m%.[,.;s.Wo Ft.'= mM+5k+*+ #%@$%@%%@&%@@v+'q+vj.BI *%@=%@-%@~7.^]+.~+]0.^0.Vk.E5. (.)1.)1.Sn.Ma.^<+P&+xf.Fa.6t.Ap.Ap.Cp.Pu.wr.EO.s}.0h.u2.jK.6*.;%@>%@f5 ,%@P> M'.jK.QW.!1.P}.<,.l( 4.+!1.'%@+X.QW. (.)%@.{ !%@~%@bb.'=+|=+{%@]%@^%@/%@(%@_%@:%@<%@[%@@W+=n )9 v( Ah.hc.~7.z7+z7+qt.y7+BZ.>/ u:.5j u:.i5 Y[ Q1 Q1 L'.L'.-9 -9 -9 -9 GR 6B i| 7B 7B 7B *n vX <M +P 6Q 7Q &K 6B GR Cz @W gt.l| 40.PQ.gt.Tp.}%@%; QQ.<1.Ze+^P.yV.|%@1%@2%@3%@4%@Lk.E#@p] 5%@!y.6%@7%@pz.^o.L5.VD VD .@@8%@t}.9%@0%@+U 9(.H].xC+%K Op a%@b%@&l c%@d%@e%@f%@g%@h%@Hd+i%@j%@k%@F_._R eP.l%@Bw+dV+ep.m%@n%@%2+*f o%@J'.p%@q%@r%@K` s%@t%@u%@v%@w%@eS+x%@y%@z%@p$ +) A%@u/ E8 B%@C%@kn &B D%@E%@C1+S..F%@s$ z%@G%@H%@I%@J%@/x+=<+K%@U .H3 a{ X-.L%@jX @_ tO w:+5|.zT M%@k.@im+N%@O%@1[ P%@l+ Q%@R%@S%@T%@O+ .j U%@V%@W%@",
"Xh.SW. P+`F ^/ uw.(v.f;+f;+JG.mE (j (j 2j 2j 2j ac x( x( JG.y( uw.K' mg+Kq ~n ng+IS.V@.V@.V@.X%@F|+$%@[l jS 9V C] 9P.O}+s@@JG.u^+Y%@Z%@|m.C;.`%@aj =y )I.AN. &@wL YS+y# [g..&@[g.tQ.,{ rb+ , W[ C' A#.G[+.~+ec.Fa.Da.Ck.Sn.h| h| Sn. (.Uk.5c.+&@Fa.Dp.Cp.Pu.6t.*C.EO.wr.s}.jG.jV.s%.7*.`%@@&@#&@$&@%&@QW.G&+QW.!1.P}.<,.l( &&@o%+*&@P}.+X.M'.=&@-&@;&@>&@,&@i .Gi+'&@)&@!&@~&@{&@&@@]&@^&@xF+'I.*n v( }0.Up.nG.T/+z7+z7+AU i%.*{ `_ u:.5j u:.n}.'9 p] Q1 Q1 L'.L'.-9 -9 -9 GR 6B i| R1 7B 7B &K 'R ); 14.14.14.14.FR FR 2c @[+T1 Va.x' >o.bw.#y.$F.om.Y!+~P.$g.%; S> ~j.a5 /&@(&@ q.(&@AX Q1 _&@Wr.xB+pz.`Q.fY.bZ O~.EG.gY.$s.:&@r7.<&@F] As vP l ..#@w0.[&@i( }&@|&@1&@2&@3&@4&@5&@6&@7&@)y 8&@qQ+hp+Z5+9&@0&@a&@b&@c&@d&@e&@)).f&@g&@h&@i&@j&@k&@l&@m&@n&@v'+o&@p&@q&@r&@s&@s~ J[.t&@u&@nU '6+vH v&@w&@x&@y&@*J -..qa #M 4) V@ z&@A&@B&@*i C&@gm+^$.D&@Qw.E&@F&@f]+Z] ,| G&@,T jW H&@I&@J&@{, P! K&@(0 L&@4% M&@yK+*$ $. N&@O&@yW.W%@",
">R.MK. P+// // `F KK.iE MK.ZC f;++G jS Gq s< gE -n -n yP mE mE .2 L' $l+Ft.'= 2l }V )N }S+~B+9Y.R6+u$+8X+g| i| 7w (j )l ,9 MW.P&@Q&@R&@Ou.BO.xt+ + !l 'n v] `> k0 J8+S&@yf+T&@T&@k( kg+U&@>9 .+ Y> Z. w# .~+Pa.N~+ec.S/+V.  :  : v# p8.Da.+&@+&@^0.Kx.+o.Kx.wu.(t.@o./t.Pp.]S.4*.D;.H~.V&@W&@X&@Q`+!1.jK.G&+s%.<,.P}.P}.Y&@Z&@N0+~F.5$+xV.>U.`&@ *@.*@+*@@*@#*@&`+-#@$*@%*@&*@**@=*@-*@;*@7E+6(.hE ^e.Ah.`E.hc.U_ Nr.VA..: V% jK.RW.pZ.pZ.RW.v:.+{ ^l gE gE Y[ Y[ 2j 2j 2h 2h 4j 1j ]l *n *n &K EW z}.*, *, 7Q 8Q wX bw Va.Up.T/+|o.D8.z8.e>+aw.M[+v}+C}+>*@l1+om.r(+ez.f_+R/+aj.gz.4%@,*@WC [C.'*@)*@<b.!*@xS.bZ E2.~*@%s.kx tL+{*@ht Gz iJ.{<.6(.]{ }K+]*@i( ^*@/*@(*@_*@:*@:*@<*@gB.[*@}*@|*@1*@Se.2*@3*@4*@5*@6*@7*@8*@9*@0*@a*@b*@LE.c*@$.+|9+a3.w=.m-.`c d*@Ds+e*@f*@g*@h*@i*@pd+W-.CT VE dH {/.j*@k*@l*@m*@y8 Ls z`+n*@o*@p*@q*@`3+Fv+5K.r*@s*@t*@u*@v*@w*@NJ PO PO =T ra x*@y*@+) B! ;~ `  !  O@ n7 Lm Fo z*@A*@+j+}9+B*@C*@V1.",
"5-+>R. P+// z] y] // `F `F (v.MK.f;+JG.mE %: (l -n c!.(j  N  N )+.`Z Q,.TZ+B] +e fj dj T!.9>.k'+4+.F|+[M.:l yf XT.m< p| l< 1w.D*@E*@F*@IJ+4*.~.+B;.,@.w2.F5.AU AU Nr.T. ED.A' A' G*@WA.G*@WA.T% Z> 9! W% S/+^0.Q0+Pa.Uk.W. t(  : V. p8.Da.+&@xf.Da.Wn.Wn.Da.Jx.Yn.Mp.Op.[w.Pp.4h.#=+H*@Ja+H~.I*@M'.5$+G&+jK.t%.P}.+X.+X.&&@J*@H6+>U.h| xV.K*@L*@M*@Pm.l-+2+.N*@O*@P*@Q*@R*@S*@T*@U*@V*@;+@I_.%` Cs Ah.Va.Up.U_ yX +: +: Z. Z. G&+RW.RW.RW.G&+v:.84 3j ^l ^l gE gE Y[ Y[ 2j 2h =n 1j ]l *n *n *n xP O!.*, *, Ht.14.4Z wX k6 x' ~]+bw.}o.ur..F.#F.Br.bh.Cr.zr.!]+#y.82+]P.cw.Z!+W*@Ch.X*@4%@AX 4Z Am.Y*@Y*@Z*@M5.xS.1U.`*@%s.' + =@tL+<O+Mz+Cj.y1..=@ir =I qL++=@@=@#=@$=@%=@&=@*=@==@-=@lK+V0.Qg+(v+;=@>=@,=@'=@)=@!=@~=@{=@]=@^=@[++/=@(=@_=@:=@#&.<=@[=@}=@|=@1=@2=@|!.q%@3=@@- 4=@5=@n&.7: a: 'g B/ _$.t@.dq+#w z8 2=.kW 6=@L# 7=@#$ d+@D&.hA+8=@9=@Sj.n=.0=@a=@Po.V|+<0+Wb f]+#7+.u+jh Z3 b=@V; Im +. c=@~. R} :% u1 d=@e=@ca ]E.f=@",
"LK.`T.)s.'s.YS+1l.1l.1l.YS+g=@Uh+y_+f2+hJ.hJ.K5..2 ZM r| j! R,.v< )+.`Z r| /3 (/ h! S%+2&.-; F%+Po+ p+mM+,+.Qd R1 Hq Yd >/ Bf.h=@i=@j=@5G.BO.&-.u8.#j.1m.2m.tr.2,+m%+f>+,)+0c.zf.ac.AU z7+ED.,3 T% #M..: G[+(Y.Mu.Pa.$e.s}+W.  : V. p8.Da.5c.5c.{0.Ep.Fp.$e.$e.Vn.Kp.Cu.Op.^-+6V./Y.k=@H*@I*@[,.QW.jK.G&+5$+M'.P}.xV.xV.P}.>U.s%.G&+/7.K*@&/ l=@@&@m=@n=@o=@x$.p=@q=@r=@s=@t=@u=@v=@w=@x=@LW y=@/M Up.HR bc AU .: '/ &= jK.G&+G&+G&+2k+2k+L9+:/+)[.74 74 o6 o6 ac ac ac )3 w( Yd Hq 9w 9w 9w ou xP O!.*, *, &K 7Q #W 4Z M7 k6 ic.!<+wC+wC+z=@A=@~C..y.1z.xA.iD.B=@$F.X8.C=@PA.W*@0j.Lk.D=@_e.FR Z1 E=@Y*@F=@Z` Z` G=@H=@I=@@R.AA ]T+4`+!#+4V 2l gM+Y!.(E+4.@J=@$O K=@L=@M=@N=@O=@P=@Q=@ZW eV+iS.%D.R=@S=@T=@U=@V=@W=@br+X=@Y=@Z=@`=@ -@j}+l5+|D+.-@+-@@-@#-@aH $-@AH.kc %-@&-@*-@=-@8@@/, }a+9@@--@e7 *6 G3 ^- 8{ 2R.(*+;^+O} ;-@>-@7=@,-@'-@)-@GV+P^ QU+!-@n=.~-@{-@]-@|v+*&+f]+#7+^-@@c /-@Y  (-@la _-@#5+w1 x) =4 [5 /Q.dm+:-@d*@Xz+",
"`O.AI h2+G' y# Qm.#4+#4+~3+<-@/q+[-@y_+LK.f2+f;+TZ+i! *: t| j! j!  N `M  2 dY TZ+Ft.,R.I' Q}+hg+$q+}-@1&.j$.+b +b 9S.E7+@~+5$+M~+|-@1-@&J.CO.5*.Bf.Dp.6t.Ou.7t.Bp.[$@Ap.Tx.Tx.ZE.1m.z8.Tk.Ra.9:+T> T% y7+Rp.zr.Uu.3t.Vk.;m+X. t( W. s}+^0.Fa.Fa.Fp.}h.|h.Bk.Bk.Vn.hr.hr.Jp.<N.Pp.3.+(-+H&+C;.F8+5$+jK.G&+5$+t%.<,.P}.+X.M'.s%.G&+QW.<,.P> P> P> N@@T`.2-@*e+r#@A{.3-@4-@5-@6L+6-@7-@8-@9-@0-@`!./M `E.HR bc p}.&= X> Z. jK.jK.G&+RW.2k+2k+L9+:/+)[.74 o6 o6 ac ac Zd Zd )3 )3 Yd Hq W1 9w 9w ou EW z}.z}.*, Ht.14.4Z 2c x' ,o.j{+!]+|:+uR+a-@b-@c-@d-@e-@}1.f-@f-@D}+D}+' @ez.24 aj.`p.g-@h-@50.q# /F.i-@j-@k-@{-.:W+H=@l-@#R.m-@n-@o-@YR+/&.nO -P+w1.=x Jv p-@q-@9r 7f.3E.$b+r-@s-@t-@u-@v-@w-@x-@y-@z-@A-@B-@C-@D-@D-@E-@Aq.KP+e.@F-@|d gL.T3+lf+G-@H-@I-@J-@{c+&a.K-@#a.P.+f`.L-@M-@9W N-@#M O-@P-@Q-@{[ '1 o/ =Z =Z Z4 E} R-@S-@T-@2| U-@^# V-@W-@X-@QU+Y-@Z-@`-@`t+(b+~a n:  ;@S$@.;@sd +;@@;@oq.en+O& e, Z) y* ~& #;@$;@%;@&;@*;@",
"ZF AI BI h2+YS+-= ;= X% X% ~h+@v+~3+QA+=;@X4+`F qu qu |g.|g.){ *:  &  & Q7 r6 Iq y] g=@/q+-;@C>+U[+'~+;=.-+ `F *o+(!+;;@SX+`W+3h.KH.>;@+o.q%.p%.Kx.}N.,;@}N.';@);@!;@~;@8z.GA.Ap.|m.#e.-e.2*.)@.0! 6$+z7+9t.Vu.B=@az.jc.G[+W% X> w# cc.dc.Q0+Q0+jr.Dk.Dk.jr.Ep.Un.hr.{0.Wn.[z.Hu.Tn.[m.BO.CO.Y`.Y`.RL.RL.RL.7Q.F8+{S.&-.&-.7Q.5*.{;@];@Ne+p%+^;@l( .+ [l.+e+,+@/;@(;@_;@:;@<;@[;@v=@};@|;@wF+`!._j n0 n0 9c :,.`_ n}.s( G&+G&+2k+1;@1;@2k+2;@XS+'[.o6 o6 ac ac Zd Zd Zd Zd )3 w( Hq W1 9w 9w ou 5O |4.z}.*, 7Q 14.#W 4Z Up.Xu.3,+&j.eZ.9_+)E+3;@4;@VN+a4.5;@Qu.Qu.#F.m1+6;@rS.Ch.{)+:]+7;@X*@@v. b. p l..&l.8;@9;@hY mW+0;@a;@b;@$R.F++C%+f .nO G4.UT :k 5C c;@d;@e;@f;@g;@h;@i;@j;@k;@.,+Jk+l;@m;@n;@o;@p;@q;@r;@s;@t;@3K u;@pO v;@gw 8p.v;@w;@x;@#r.w9+e].<d 8%+pe+y;@z;@A;@B;@C;@p>.D;@5#@9=@n*@E;@F;@G;@H;@<4+{] %Z T..I;@i*@J;@K;@L;@n, y& M;@N;@O;@8] P;@Q;@R;@S;@T;@Nz.U;@aq+V;@W;@X;@Y;@Z;@+i `;@GO+ >@X, [9+.>@j%+&@+1q 3_++>@",
"fV.fV.ro.@>@RX+VV+#>@>.@6#+T++$>@x{+F7+// ^/ j$.LT+LT+LT+9(.@b i! *: j! Q7 DP bj E|+xL %>@Hk+o=@Ue+p1+&>@Kq ^=+*>@=>@->@;>@Qq+oZ.m%.#j.#j.CO.+4+9h.Ou.6t.IJ+>>@Wx.,>@Qn.'>@7z.Ap.Px.Px.wr.9G.Bk. (.'[.E#.Tk.-j.[N.l1+)>@Q> Q> Z. Z. *= [0.(Y.=e.Dk.~S.Yi.[m.Tn.2t.hr.$e.{0.hr.hr.Ep.jr.Gp.[m.Wi.[3+<$+G8+G8+G8+[3+q%.~S.[3+rZ.BO.H5+!>@~>@#=+lS.=o.'[. P.;; 3M.~=+{>@]>@^>@/>@SC+(>@_>@*U :>@sG 8w i%.p}.p}..: v2.u2.D#.v2.pZ.qZ.}h 1Y.TL.:/+K8+o6 (l -n -n yP Zd )3 )3 Zd )3 w( Hq W1 W1 9w ou eY &, S7  ` xP P1 P1 O% Nr.y%+m( ,e.m( bc.<>@ I.[>@qK.}>@b_+-j.3w.L[+G}+QQ.sc+|>@,*@`a.~q.1>@:U.L}+|,.|,.2>@3>@4>@5>@9.+ab.6>@Y@.1+.7>@8>@9>@)N )|.,X.0>@dr a>@b>@c>@d>@e>@$^.f>@g>@h>@i>@j>@k>@l>@m>@n>@o>@v3+a{+K(+Q)+Jw.qk.p>@q>@r>@X~ /p./+ s>@t>@u>@u!.Pz+v>@w>@*}.x>@y>@qa.bd.z>@A>@B>@F`+C>@2| D>@E>@F>@t*@kX :$.G>@b=+oe H>@I>@J>@K>@L>@M;@M>@N>@O>@P>@S2 Q>@R>@S>@(g ud+T>@wE O@+U>@V>@W>@X>@Y>@.T.Y=  > Z>@P`.`>@ ,@.,@+,@@,@",
"[,.$e+#,@$,@%,@&,@*,@=,@-,@;,@{h+F%+~j .n kL >,@l$.$*+h'+9P.B] TZ+/3 /3 Q7 0O {R z].8U.4&.*+ 9X+LI /<.s[.PG.1l ,,@',@8P.Km.8V x( V> j%..: +4+u# *= [0.[0.B8.2m.=j.kD.gD.7Q+xr.EO.Br.cr.cr.xu.=e.*= ;} f..oc.Xu.9t.Xu.=q.Ja..= Ma._-+u2./0.),@!,@1h.b< Ek.3h.b< 9Q.Cu.$e.%e.Yn.Au.%e.%e.Xn.Lp.Bk.jr.jr.Ep.b< b< Ep.Hp.Hu.jr.Tn.^-+4;+%o.x7+iG.~,@P}.oL cN.oq+m[.J%+{,@],@^,@)Z+/,@}O k,+&v+8U.!K LD.t%.oS.+4+)3+Dk.3h.Wi.3h.)@.jV.v:.84 +{ o6 (l A-.A-.A-.A-.A-.yP s< (j (j (j w( Yd LD.)/ )/ L7 0O #b ZZ eY P7 v] -{ WA.a! u( t# 7! 5.+J8+F' (,@B7+_,@:,@J#.NK Cz g0 <,@f:+9$@ID.:P.Nk.[,@_q.},@|,@1,@2,@3,@4,@t(+5,@O[+[q.6,@7,@8,@9,@VW 0,@m'+0$.a,@b,@c,@$m d,@]k e,@f,@g,@h,@i,@j,@k,@l,@m,@sy..y .y m1.n,@8l o,@&!.p,@q,@r,@s,@t,@ps u,@v,@w,@x,@y,@z,@A,@B,@C,@D,@E,@$:.F,@G,@H,@p[+b8.I,@J,@K,@L,@M,@N,@zu O,@P,@Q,@D:+8@@O# R,@hP jq 9$ S,@T,@U,@V,@W,@a+ z{ ,c X,@ib Iz.Y,@Z,@`,@ '@.'@+'@@'@#'@$'@/@ ^' N/ 2{ %'@&'@*'@='@{*.",
"[,.bI+V`. r+UA+-'@;'@>'@,'@;,@_!+{V+6&.~<.''@N,.}V nY.UW.^=+'= 0).,I.&: &: y].z].DI 0>.S,.=T+sz.WV.Zm [6.I_.PG.HP Kq qu $l+ZC JG.L7 Vo o] po.u# p| X1 xX A#.w2.yX fh.fh.`i.7K.&j.7K.Ix.Ix.br.|m.^]+z2. F.oc.1o.T/+kG.O:.Pr.)'@jV.+4+D#.51.4V.@b+gI+ (.Dk.Xi.Hp.Ep.Ck.Wn.{0.%e.%e.%e.3G.`n.IH.SE.wu.Kp.Wn.ir.{0.Bk.{0.ir.Vn.Wn.Jp.<w.[w.fr.[w.iG.oS.LD./)+UZ+m$.Zm i( !'@~'@{'@]'@_|.TV.=+ '{ ,{ Mm.s%.~S.4*.1h.[m.t7+nr.Gp.v8.)3+'9 ,9 gE (l (l A-.A-.A-.A-.c!.)+.s< (j (j (j Yd Yd )/ Vo Vo g5 ZZ EP ZZ DP g5 O7 XA.b! %= ={ T_ =o+~%@^'@8X+J' /'@b'+('@_'@;l bV ~<.J0.-: {{ :'@/U+YR+Sh.M> <'@['@}'@|'@~h+1'@hZ+*%@2'@3'@7,@4'@5'@6'@7'@8'@9'@0'@JZ.a'@^ +b'@k>+c'@@m d'@e'@f'@g'@h'@i'@j'@k'@z$.VZ.M)+E!+l'@m'@n'@:G+o'@@9 p'@q'@jg r'@s'@t'@u'@v'@w'@x'@y'@z'@A'@B'@C'@D'@E'@F'@B,@G'@H'@I'@J'@`%.K'@L'@M'@k`.N'@O'@P'@T*+<y+Q'@R'@S'@rX+T'@U'@V'@N;@W'@X'@Y'@Z'@`'@ )@.)@+)@@)@#)@$)@PM.%)@&)@*)@=)@NW+-)@E/ j  R] ;)@>)@,)@')@o]+",
"U`.;s.;%@dg+fc+;s.))@!)@~)@{)@,~+]$@[{.</ ])@r_.<X.^)@n>+'4+/)@|&.JS.h! K' A] mM+T,.8$.I%+Y%+)n+(I.(R [6.r .DN.y_.2l ~L+BN.$, JG.jS l0 )3 `. *{ X1 p| m< q| w2.w2.,@.+= $j.e>+7K.&j._t._t.xu.Ar.z8.G5.y2.R> y%+k_+y%+O:.n%+MQ.Qr.w:.D#.u2.H*@()@_)@~>@Ek.Vi.}h.Hu.Hp.fr.Cu.ir.Da.Bu.Zn.6K.3G.IH.Bu.er.er.Bu.Da.Da.Bu.Au.Bu.er.Xn.(t.Kx.wu.(t.[w.3*.9!  U.MK.^N [6.Gf :)@gu AM+<)@Er+}S+=N y] oo.LD.!1.B;.-o.4h.4h.^-+^-+Xi.u8.oS.X1 i< Y[ c!.A-.c!.c!.c!.c!.c!.)+.(j Gq Gq Gq Hq W1 W1 9w 'n n6 ZZ ~9 N. ,+.64 O7 #M.@: %{  = )l+[)@})@~%@~K .U.|)@1)@2)@Q5+3)@4)@wQ+5)@6)@mI+7)@8)@d,@9)@0)@a)@b)@c)@d)@Q}+z] )n E|+Y,.CL e)@f)@g)@h)@i)@j)@4+.XW k)@a,@Vn l)@FS.m)@~ +n)@o)@p)@c/.q)@r)@s)@O)+7!+%,+s!+V^+t)@u)@^p.v)@w)@x)@y)@z)@ei r'@A)@B)@C)@D)@E)@F)@G)@H)@I)@J)@I)@K)@L)@M)@N)@O)@~:.P)@Q)@R)@S)@Qd.pa+wh+a%+T)@U)@V)@W)@X)@Y)@Z)@DV+`)@ !@.!@+!@@!@#!@e+ $!@%!@&!@*!@=!@#k 1'+[;+-!@;!@>!@,!@cZ.[^ 5f jm+.< '!@)!@!!@~!@1W.=m.",
"S0+Et. P.w] `. Y> oL bN.x# {!@*[+9>.}S+y_.2H L@.]!@^!@SN+/!@. +UW.:K 8P.@, @, 4&._K I%+(!@_!@K@.C_.1g.r ._6.a(.NK.nO 9C.K' MK.f;+Dz N'.)l 7!. + %} '9 4! p| +: w2.yX w2.=!+e>+7K.tr._w./t.:w.7Q+fh.q(+z2.{7.F5.P]+~4+nG.)P.;o.:!@=o.D#.Ma.U@+<!@[!@}!@|!@F5+Wi.Xi.Hp.Fp.Wn.[z.Kp.Bu.Da. o. o.3G.er.er.Bu.Da.%e.Jx.Bu.Au.Xn.Au.Yn.wu.Xn.Yn.Lp.<N.)@.w:.6O ZC 4(.U@.[I.7#+1!@i( t7..^+1&.E|+`O.{y.LD.M'.!1.B;.2!@4h.4h.Pp.1h.3*.+4+V% i< 2j )+.)+.3!@3!@)+.)+.)+.`M Gq 2!.2!.2!.W1 9w sL m| C' ,} Fz UC #=.'+.O7 O7 #M.@: 5.+4!@5!@VO.nQ.b2+~X+6!@7!@8!@9!@0!@a!@b!@`n+c!@d!@&m+kE.e!@f!@g!@~V+h!@i!@j!@k!@]W+}q.AN.[l }&.>N l!@m!@n!@o!@p!@q!@I@.^|.r!@s!@bP.t!@MS.Xn 8H+u!@e,@B^+!^.7H.v!@w!@x!@ ;+|^+,{+y!@t)@z!@A!@Sa B!@C!@D!@E!@F!@G!@H!@I!@=K+J!@K!@L!@M!@N!@O!@P!@Q!@H)@R!@S!@T!@U!@V!@W!@4o X!@Y!@Bd.Z!@`!@aB+h3. ~@.~@+~@@~@#~@$~@%~@&~@*~@=~@-~@;~@ep+>~@,~@JX.'~@oT.yh+)~@(i.(E.!~@;M+~~@{~@]~@[0+#M D; ^~@/~@(~@_~@67+`s.:~@",
"W4+lV.S%+(/ (l o| X1 Y1 ,} mj+[l |&.}V 0b.{I.EN.<~@[~@}~@SN+U5+KX+_ +NZ.*=.F-.OZ.V @|~@_!@nV It./<.c(.WV.)|.B].]X.4V A].9P.Xh.>R.8B |q.]/ 7O 64 $: %} ,9 '9 p| >} F5.x2.gh.>j.tr.%j.tr.2,+gD.hD.~]+mG.lm.A2.W> F5.U_ Sa.B;.*o.1~@)'@B;.t2.Fi+MT.nS.2~@3~@4~@5~@E&+b< Ck.Un.Vn.{0.er.Yn.Xn.Xn.wu.Kx.Lp.Au.Jx.%e.%e.Jx.er.Lp.Au.er.Au.Au.er.Xn.Jp.Ep.w8.)[./4.oq+^&.o.+6~@7~@K% xS VW+*N !K /4.)l )[.v:.`_ Z. _-+)@.3h.Wi.Dk.w8.D#.&= i< 2h  N  N ]} ]} `M `M `M  N lL 5O ;n ou 8w g| m5 a4 94 `1 $=.#e '+.eY l0 Hq 'n C'  + N% 8~@kg+ , mj+z( PS.9~@0~@a~@b~@c~@d~@e~@f~@LB.OP+g~@h~@i~@j~@k~@l~@m~@n~@or Iu+ab.b*.,; |l eT+XV.o~@p~@q~@r~@xi+>n+^|.s~@t~@,X.R_ u~@v~@w~@x~@y~@l7.z~@A~@5~.}X. ;+@'+B)+,{+B~@C~@D~@E~@1}+F~@G~@H~@I~@J~@9r K~@L~@6t M~@N~@O~@P~@Q~@R~@S~@2P T~@U~@V~@W~@X~@Y~@Z~@`~@+c.wZ  {@9a..{@ca.+{@@{@E<.#{@x(.${@%{@&{@*{@={@-{@;{@>{@,{@'{@){@!{@~{@{{@]{@Kz ^{@/{@}6+({@1i+sd _{@:{@<{@[{@}{@|{@5W 8g 1{@2{@3{@",
"4{@;U.5{@1l C] Q1 nm.(S.M7 VC =y E|+mM+)N &>@G.@.#.6{@0z+7{@8{@u$+KX+NZ.9{@OZ.NZ.Te+0{@|~@)` o,+a{@WV.WV.)|.=Z+k .W!.4V S%+LT+Xh.iE `O.cN.x] aS.,} $} )3 ,9 i< m< j%.w2.Ra.;j.>e.%j.2,+kD.Sx.jc.9t.mG.10.R> A#.A#.>@.yX Sn.B;.b{@c{@B;.)3+7Q.{S.q%.5V.}!@_)@d{@e{@&o.lN.f{@Hu.$e.Kp.Op.Kx.Yn.wu.Yn.Au.er.Da.Da.er.wu.(t.wu.er.Jx.Da.Bu.Da.er.wu.Wn.D5.RW.)l [l BW cS c(.OM+c(.C].mM+<g.^j Yd i< 74 )[.)[.n}.RW.u2.}h.|h.Vi.C#.X> '/ i< $: 2!.lL  N v<  N  N  N lL 5O EW 8w 8w g| m5 `1 l5 X[ X[ jj T;.P@.lL Zd o6 nL Y> }h nL @N oL 9*.<`+g{@h{@i{@j{@k{@l{@m{@n{@o{@p{@q{@r{@s{@t{@2H.gs+{4+u{@Y&+ag+KI D++v{@t_.!n ng+q;+w{@4N+x{@y{@z{@A{@B{@v[.Yn Kz+u~@Z* C{@D{@E{@F{@G{@H{@D7.s{.R{.B_+I{@mI mI m9+[! J{@K{@L{@M{@N{@O{@P{@Q{@R{@$E 9y+[~.S{@T{@U{@V{@W{@,d.X{@Y{@Z{@`{@ ]@.]@+]@@]@#]@$]@%]@&]@*]@=]@-]@b1.b1.;]@>]@,]@']@)]@!]@~]@]L.{]@]]@^]@/]@(]@_]@:]@<]@[]@LP.}]@|]@Gu+Sr+1]@K +Ew+D; 2]@&'@3]@4]@5]@fN+R)+6]@jB.'n+7]@/'@",
"8]@9]@0]@a]@dV |4.aC+aQ.bQ.b]@;n _4.xL 2&.oY.U5+c]@e&.Np++r+d]@(!@KX+.U.OZ.UW./)@.U.9{@2d+~x+)n+eT+h(.UZ =Z+=Z+k .5&.5&.mM+'= no.Xh.Xh.>R.uw.zI ;{ ,} L7 w( w( n| m< )9 F5.fh.fh.;j.2,+m%+kD.Ru.Rp.|0.Tp.oc.Sa.F5.x2.U_ jV.B;.)3+=o.)3+jV.r%.5*.xV.xV.L4+b{@e]@Af.x8.La.m{+JJ+l%.t8.m%+f]@g]@9h.Da.^0.*e.Cf.Df.&e.+j.gZ.Cf.Da.%e.Jx.Da.Jx.]0.*e.wu.p8.)3+;{ E|+^=+==.~s.h]@fO V!.[&.+n p0 $} p| ac Zd Zd s( 5$+_-+)@.C#.C#.)@.Z. '/ i< $: Gq lL lL lL  N lL lL 5O EW EW rf  ` xP 'R 3J .p OK uX k! k! @=.'R W1 %} v:.n}.po.n}.lK.Q. :$@:Y.i]@FN.j]@k]@l]@m]@n]@o]@p]@q]@r]@s]@t]@u]@v]@-L+8)+.E.8A+6Y ;~+w]@x]@s_.1H =/..E./3+1I+y]@z]@A]@B]@C]@qP fr rY UT D]@}O+}O+vQ.E]@F]@G]@78+]i H]@:A.I]@>k J]@m9+>#.K]@L]@M]@N]@D(.H'@O]@]q O(.P]@kC Q]@R]@S]@T]@d1.Ym ;V+;i+U]@jb.V]@P~@mU+W]@X]@m;+{z Y]@Z]@S]@`]@ ^@z0.O#.;$.S%..^@+^@@^@#^@$^@%^@&^@*^@=^@-^@;^@>^@,^@'^@)^@5< e7+!^@~^@{^@_y+]^@^^@/^@(^@_^@-Z.Yc+:^@<^@ n.[^@1S+=e+TZ x{+",
"}^@|^@1^@2^@<I.3O 3^@j_+AO._S.R1 q6 bj J' _=+,m+T[+Tj+Vx+4^@5^@Z,._ +F-.+ +',@kV.ec+-=.&=.e;+==.~B+4F.UZ <X.bS k .AW AW %=.=N s@@Km.vj.b,+Xh.z( E;.O7 g5 L7 l0 Hq n| p| j%.w2.;j.>j.7K.7K.2,+[1.oc.>o.10.SH.hc.kG.Sa.nG.6^@^$+Ma.MQ.D#. : r%.D;.RW.7^@8^@P> P> 6^@+4+r}.9^@0^@-!+Bk.GL.a^@b^@Px.9h.7h.@j.gZ.9h.*e.Da.Jx.Df.]0.Jx.Da.^0.]0.^0.Cf.er.$e.i%.UO.xj.8'+j.+$+.c^@:R.} +U,.=P.Gq >} GR (l {} -K ac nL jK.jV.)@.w8.o%.'/ &= i< $: Gq Gq lL lL lL lL lL 5O EW rf  `  ` 'R |*..p OK uX f6 tu :J z#.@P u] $} >/ v:.po.5j T% d^@e^@f^@g^@E%+h^@i^@j^@k^@l^@m^@n^@o^@p^@q^@r^@s^@t^@bD+(J+.U.',@b).w]@Od {1. U  n <X.t[./s.Rg+6N+u^@v^@w^@x^@y^@Iv AQ+!O+w1.QR+KS.jJ.EN.z^@xQ+A^@B^@C^@zB.D^@E^@Fl.Il.J{@F^@G^@->.H^@I^@J^@K^@L^@M^@N^@O^@P^@Q^@=A+)j NW =b =b mJ.Zs+P4.6g.R^@S^@T^@U^@V^@W^@{'@*H+X^@<K+q...O Y^@Z^@L2.`^@W:. /@./@+/@@/@#/@$/@%/@um+^x.&/@*/@=/@-/@;/@>/@,/@B4+'/@)/@!/@n-.~/@h+@{/@]%+k>..~.X7+bR+|S+v@@n$+]/@nj+",
"^/@//@(/@_/@#m+O++c!.:/@aQ.aQ.l< n| uQ.!3+1l.;; n.+,m+!N _ +9>.T,.#/.S%+'=.S%+8P.TW.Se+S%+S%+kV.WU+[{.UP k .VT VZ 5&.L1 (l+%=.mM+-+ no._l.vj.k$.Lm.)R Bz :l l0 Zd Zd $: Y1 v( Rp.gh.3w.3w.=j.[1.|0.|0.lm.O2.Ra.kG.U_ R&+</@*o.M9+c{@Ma.jV.F8+U@+:$+Nb+44 Y&@H6+=o._-+b< 0c.g4.[/@(L+'e.}/@87.|/@1/@+j.%e.+j.9h.*e.+j.+j.&e.]0.Ga.*e.%e.Da.Df.]0.q8.Ff.&; 2/@rQ.5k+2+.3/@4/@h .nr kr .X+ou L'.d%.%: vw.t< N~..N 5j v2.v2.C#.)@.'/ &= $: n| =n =n lL 5O EW rf  `  `  `  ` xP 'R <{.{T {T ]T <M FH AR PK <J vN E8.bc j%.X> t( Sn.Y> ;K 5/@6/@'].7/@8/@9/@0/@a/@b/@c/@d/@e/@f/@g/@h/@i/@dU.<3+I' [l @ + P+bj cY 5>.j/@XR+pE nV.^.@Dc+|r+ZT+k/@l/@m/@t7.n/@xN.,N _M.;<.AL UW.EN.c,@o/@@P.p/@q/@r/@#D.*!.s/@t/@u/@VG v/@w/@x/@y/@z/@A/@B/@C/@D/@E/@F/@-+@G/@j(._6.=` hV UK.NW %& ;d.Q0.<9.QF 'Z+}&@H/@I/@J/@&I K/@L/@M/@N/@RG  >.O/@A*.5[.P/@Q/@R/@S/@T/@U/@V/@ t+W/@X/@Y/@Z/@`/@H!@ (@.(@+(@@(@#(@I.+f].$(@iX.5>+%(@7&@5l.kO E-.Fe.sg+v_.X!.",
"&(@*(@=(@-(@Z8+;(@Ce.XU+^4.(S.`k.'9 Hq aS.>{ g! Q[+BW -N -N =N =N *N &N LT+BN.mg+>(@-+ +%@e-+,; $*+cO V!.4V V!.6&.5&.L1 yW [&.}&.S%+no._l._l.Xh.^/ zI .P.yI aj YC YC Yd n| >} yX ;j.Hk.vr.dh.-j.lm.lm.lm.lm.kG.Sa.U_ U_ ^$+.= 1~@)P.t2. : F8+{S.oZ.,(@L*@Oe+)%@o%+P}.oS.B;._0.mw.[/@@H+ j.:J.'(@)(@!(@d_+Df.6h.+y.f]@EO.$e.*e.t8.Ga.N:.9h.9G.#e.{0.b< s( t^+`Y+_=+X%+~(@{(@](@_'@yW 8B g| Q1 &} .2 L' K5.~y.N~..N qZ.u2.t2.B#.X> '/ i< $: =n 4j EW EW rf  ` xP xP xP xP xP 'R {T {T ]T zR AR PK [M 7c  b <j IR IR Nr.&= j%.,/ h| Y> 0j o< /e.^(@nP+aS 'T+Ii+oV./(@((@_(@:(@<(@[(@6i+}(@V5+fV.qo.Be.(v.(4.=y |,.|(@7'+5`+_R 1(@2(@3(@Uj+4(@5(@6(@}I.s1.I-.N++Y!.FI 6&.[{.A_.~R.7(@8(@9(@0(@a(@b(@AH+c(@d(@e(@f(@g(@h(@i(@j(@k(@l(@{q $s m(@n(@a>@o(@;/.;/.OP iu I_.vW QF+F# /N ]; gu 7B+6)@>9.p(@q(@r(@s(@t(@u(@v(@w(@x(@y(@B..z(@A(@B(@C(@D(@E(@F(@G(@H(@I(@E0.l~@J(@J(@$d.K(@L(@M(@N(@O(@P(@Q(@6W.>H.5]+6+.g0+u .W~+~X+@+ e! II }l %U ",
"R(@S(@T(@U(@V(@F_.5h 4j M7 #; W. V. `_ 9! C' E;.^W+~+.~+.Aj.~+.K' UZ+ D HI $l+Xh.,I.A] 5-++%@~+.TW.@, 1&.8U.2&.8U.a>.:M.b).(l+e>.|&.8P.Se+Se+e-++%@^/ !K .P.yI q0 L7 W1 VC >} w2.Hk.gc.gc.vr.dh. F.R> O2.lm.kG.U_ U_ R&+jV.Pr.vR+)P.c{@)3+F8+r%.:$+xf+W(@Xa+X(@>U.M'.w:.*o.B#. (.,e.8c.+U+f>+s}.Y(@Z(@[/@Y*+p8.YE.:J.`(@e>+#e.n%.9G.Bk.$e.!7.)7.#; Xd o6 --.U[ C>+ _@._@+_@ p+!N BW (/ xI h0 Gt.r6 )= /3 mE ac 74 u:.t( t2.u2.X> '/ i< $: =n =n 5O EW rf  ` xP xP |h |h |h ); ]T zR 7).)M {J zN tN {M  b @{ KR d5 nG.,@.Sa.j%.*{ BZ.v] '} >n 3l i0 '+.@` 7$.kS.eO <+.@_@6i+7I+#_@Af+$_@nZ.U@+U@+qL cN.yt.t< 0w M. |3+~#+%_@t .B .2(@1I.pJ.f!@&_@G/@qS *_@-<.IW 7P.~n .D b(.C_.@^+=_@-_@;_@>_@,_@'_@)_@i] n8+!_@~_@{_@]_@k(@l(@^_@/_@(_@1m ]A __@8.@<6.|{.3Y -m+8.@RW 6D Ij.2g.]; ]; O0.:_@<_@2L+[_@}_@|_@1_@2_@3_@4_@iF 5_@6_@6_@7_@8_@9_@9_@0_@/^.a_@b_@c_@d_@d,@e_@f_@g_@h_@i_@j_@/r.BI.k_@v;@j>.l_@m_@;U._v._K  &@0< 0j Bz !s.^R B< ",
"n_@o_@p_@q_@bt+kO !K 9w .: Q> v# Ma.t( V% E#.#n nE cY ]+.%N {+.B] j$.!s.Od {+.>R.#, Ft.BN.BN.UZ+w@@LT+>; -+ >; '= 8U.e>.(l+:M.%=.}&.|&.@, Se+D4.k$.^/ i$.^W+'K ^j O7 sL 9w >} j%.>@.gc.Tk.dh.ur.q(+q(+|4  F.O:.Sa.~7.hc.jV.^$+r_@Qr.YN+.= xb+$e+M0+_$+xf+W(@l=@I~.kK.G&+s%.s_@t_@/0.q}.),@,)+;e.}3+u_@v_@w_@r}.!7.x8.x_@y_@n%.1*.F&+o%.`i.(0.b< k< 1j yt.,p+Y% RZ.z_@A_@B_@C_@W4+;=.>(@UC W+@yU EP @e Af Q7 jS Zd n}.5j u2.v2.X> '/ %} i< 2j 2j )+.`M lL EW rf xP |h |h O!.<{.]T $P )M _3 aG c4 !T 4Q O5.tM+d5 Yu.im.hc.xX Q> Z. *{ Hq )3 %: (j hh.q(+>} m5 yI 5h zj. ^+J' QA+@>@Nm.nZ.Fi+D_@G8+Qm+qL =#+K#.H5.RH +n %=.E_@t[.,T+F_@G_@`&+H_@I_@J_@K_@bV Lq </ FI X!.VZ JP o$@u[.6l.M%+L_@M_@N_@O_@P_@Q_@R_@P_@S_@T_@U!@U_@V_@./@W_@1m X_@^B+!x+W7 fV B4.rS {L+KW A< U`+NW ch Y_@dL Z_@`_@ :@b>@.:@+:@@:@s(@#:@$:@%:@&:@*:@=:@+^@a].-:@;:@>:@y'@,:@':@):@!:@~:@%m t~@)y+{:@]:@zw+D7.^:@5f+/:@ +.g0+}s.u .w^+BW wL |k+k0 0j :g.jE F( (:@",
"_:@_A+::@<:@[:@=+ N@.Yd o] _-+t2.Sn.v# C#.#; m< :l mG $N y].Af cY {+.DS+t_.7>.Aj.'= 9P.mg+mg+LT+D4.BN.9P.K' LT+K' '= lw+u_.bO DI bO cj ,; LT+vj.LT+A] o .{R |,.Wa.8j `1 9w q| m< )9 y2.4'+ur.-j.4'+^7.y2.^7.yX kG.T/+nG.MQ.51.@; w:.e]@}:@|:@1:@xt+PW.=#+XC `> 'n Y> `_ *{ U. &= '/ yX hc.U_ '@.A#.Ra.H8+ [+0:+w# j%.Rk.2:@=q.X> w# y7+@U+3:@9$+_j /7.z( 4:@9$.9'@5:@6:@c'+r#@G|+IS.CW eL+v< (3 7(.>R EP DP ,].Zd n}.5j ,/ ,/ Y. X> j< j< i5 i5 /l (l c!. N 5O rf O!.|h O!.<{.7).)M _3 7:@8:@c4 !M -/ 9:@R` gt.d5 82+0:@nG.Ra.U. o] Yd Yd jS Yd E#.q}.-o.j%.n| 2h W1 v] W1 Hq `. '[.RW.v2.G8+RL.a:@^!+@e+.N mL x( y( LT+9X+b:@c:@I1.wV.wz.d:@e:@f:@g:@Ht *_@0(.Bq X!.k .&>@OM+^R.h:@i:@j:@k:@l:@m:@n:@o:@p:@q:@r:@E!@Bs.s:@t:@ak u:@v:@w:@-m+#*+<3.A4.jZ+n! x:@<-+y:@z:@A:@8t ck B:@bk C:@D:@E:@F:@G:@H:@I:@J:@K:@L:@u(@' .M:@M:@a].5_@5_@N:@O:@P:@Q:@R:@S:@ m T:@7)@Ye+x~@@^+U:@V:@}9.lb.W:@X:@]= /<.)|.~j u_.%N zP :g.zP Aj.n$.,: Y7 ",
"Bl+Y:@Z:@`:@UW. P+]/ )/ 6*.s%.jK.u2.V. p8.S/+[o.2!.Fz mG ,+.y].{R %N Ft.A] U,. <@b).2&.ec+kV.^=+Xh.$l+K' K' BN.BN.K' Ft.lw+v_.u_.bO oq+JS.zs w@@mg+'= ~+.Aj.+n C2.Wa.[h sL VC X1 ;} G5.y2.vr.vr.^7.y2.G5.z2.,@.x2.U_ T/+*o.nt.B;. : t_@6^@.<@($+ZV+++ qo.;#+qo.Mm.'[.mL po.V> E#.p}.Sa.hc.R&+O:.j%.AU T. qt.8$+Y. v:.CD.+<@@<@La+Ma.BZ.,U.*W+#<@$<@[4.%<@&<@3+.*<@=<@-<@;<@><@<+.VV.O++^+.,<@tf eb.ru ]R )= Dz -n mL 5j t( t( ,/ ,/ /T j5 5j 5j (l A-.)+. N EW rf O!.|h O!.<{.7).)M '<@'<@7:@)<@Ud w}.R` EH v( k6 G~+km.kG.,@.X> ,/ i5 N~.}h )1.!<@~<@},.9! .: ;} n( u^+G5.!3 n( X> n}.pZ.TL.4Q+K#.XX+V6+:/+K8+6O e2+Xh.Mp+js+!U+yw+4k+jY.{<@]<@^<@/<@(<@_<@~X.T!.$B.=Z+eT+a{@:<@<<@[<@}<@t'@|<@1<@2<@ST 3<@4<@5<@6<@7<@8<@0V+9<@[i Es $& M0.0<@&Y+a<@b<@c<@(B+vz+MD d<@e<@pZ f<@g<@h<@i<@j<@k<@l<@m<@RR+n/@=+@n<@o<@p<@-(.>6.q<@r<@Vw+s<@t<@u<@aa.N(.@c.v<@w<@x<@y<@z<@A<@J1.=B.kV+>|.mY `m G] `m |{.FI -R 6V /n +p uu jE GP UP d(.e @",
":<@^R.;(@B<@%l+JG.ac Vo G~.~.+f++RL.t2.p8.s8.p8./l r6 m .0B 1,.!s.&N cj 7P.mM+Z@.C<@XT 9>.F-.3&.+%@ZC %l+aY aY aY aY aY Ft.A] 6h #` }l fj Ae.LT+e-+LT+Ft.>(@i$.:g.Wa.xs 94 }H p| ;} A2.z2.<j.<j.y2.y2.y2.y2.,@.w2.yX F5.-o.-o.-o.t2.51.=o.C;.44 D<@[)@K7 YF qo.qo.mL /7.s( t] i%..: p}.l_+kG.t( *{ U> t# BZ.0! 5j o}.&{ V+@L+@E<@zG.T> *{ @: F<@>g.j4.G<@H<@a)@I<@J<@K<@L<@M<@N<@*~+O<@E4.M@.PR eb.x_.]R )= Xr.s< nL `_ ,/ ,/ Y. Z. o| '9 ,9 gE 2!.;n EW rf  ` xP |h |h (3 P<@7).)M '<@Q<@'<@R<@5Q w].S<@T<@hh.G5.Tk.j{+~]+nG.,U.'U.$= f< o# 9*.U<@V<@W<@Nm.'[.o| :/@Vk._S._S.Z[ &} N~.=K I5.X<@XX+Y<@4Q+SL.G&+'[./4.`F O}+. +ww.7F.ZD.SW  o HL+Z<@`<@ [@.[@+[@@[@#[@&v+~s.n'+'E+$[@%[@&[@*[@-a+=[@-[@;[@>[@3).,[@'[@)[@![@~[@{[@<R.y| G] </ ][@^[@/[@([@_[@:[@r..Or L:@' .<[@[[@-]@h<@/ .m(@I/@-G+}[@d$+mS ft |[@1[@LQ+Sp % .WM+2[@3[@kL+4[@5[@6[@'q 7[@8[@9[@[~.0[@a[@b[@c[@yo.V@.=/.rz.dO |l =<.%X+wz+p7.XM fV q_.e ./+.VT cS a{@K@.",
"WU+~n D4.K0+{} `d KD.>/ s( 5$+kK.jK.RW.v2.C#.X> h4.#B.=P.bY 0*.{+.cj 8>.=+ + +9>.7Y SZ d[@nY.=+ b,+8V L' TZ+&: &: TZ+TZ+Ce.TZ+`% ]R Cf Cf `% `% k$.k$.+%@%l+)n AN.'K Wa.f| ;{ W1 $: p| Y1 p6 p6 Y1 q| ;@.;@.>@.A#.'@.5Z q}.Ha.Zi.nt.51.)'@{S.%&@N@@=o+=o+E' <l 8*.0! .N o] V> p}.AU AU O% F5.x2.u# B' S. C' XA.8*.6O 9w wK.{3 Yp.4m.,} 6! @I.nu %N HW e[@f[@g[@h[@i[@j[@k[@l[@m[@7)+/I.fV n[@o[@aw +U Cf Cf Q7 ,].Yd $: 84 Z. &= u# Y1 q| q| $} 94 94 `1 `1 `1 a4 xP xP O!.<{.zR AR )M HK )M HK Vd p[@q[@kh.d5 Ah.F5.kG.`<+ZS+)U.&g.-3 -3  9.r[@s[@t[@$_@-#+}h `d k< E5.HO.B^.l< j< h5 =K pL 9'+XA+2k+qZ./7./7.5j -K 7O )n '{ e>.:h XR+`x+~E+u[@v[@w[@x[@y[@z[@A[@b.+EN.)v+k2+'9.B[@C[@D[@E[@F[@gb.$E.G[@t-.H[@I[@J[@>V+K[@L[@M[@Cp r[.z1.Qo v0.&=+N[@ 3.O[@SX TX L:@- .P[@>q b1.Q[@R[@oM 0k S[@T[@~`+U[@V[@LX TK vr W[@<C.NX X[@Y[@Z[@`[@ }@.}@+}@@}@#}@$}@%}@Ww+&}@*}@=}@eQ+Fw.-}@=Z+S,.T,.dj =<.%X+;}@>}@,}@c<@qS 1{.(3.`m xS OM+h{@",
"k$.5-+.X+s|  N 6J.p] j5 p] '9 +{ nL oZ.mZ.W`.M0+z%.ZT w] zP V[ {X+'}@'}@L1 ,=.$B.)N 8A+5P.)}@T!.UZ+L' Q,./3 Q7 dY r| ^3  2 lL  2  2  2  2  2  2 Iq z( uw.uw.^/ Wo )K i$.^W+zP =P.4h 0w pu pu pu P7 +b ;n ]l ~/ v( m0 MW.Tk.>j.|o.Ra.y8.q}.MQ.K*@!}@~}@xf+dg+qo.)[.o}..N n| VC >} >} ;@.%n v( v( Tk.G[+4! {3 /r+ U.*s.,j.dm.^1.x}.DR {}@FH @q.8%@~K+0q.,X+]}@^}@/}@(}@_}@/;@:}@<}@4!+g(.R%+[}@}}@;R vP +U ]R cc r6 .2 ZT sf +{ &= u# A#.,@.>@.E#.Z> =-.'n Vo W1 9w m| v] fE ]l 14. b 3Z =@.6c ^T |}@8$@1}@ht.it.u] `. .N  + U% lz.Bh.2}@}4 3}@{!+&; 5.+Vo }h 5j V% Z. Ma.Q> Q> Z. Y. 5j /7.qZ.RW. : X. w# W. V. &} m< >3  p 2J r( SH H#.]@.s^.|J 5C.4}@5}@6}@BQ 7}@G:@QW z7.>i+8}@Dw.9}@0}@]+ a}@z| SM P0.SM k# b}@K1 K_.c}@Xn MP 7P.8P.7'+d}@uu e}@xv f}@T#.g}@H^.h}@i}@j}@k}@l}@P/@P/@m}@n}@o}@@3.eF p}@q}@r}@2A 'm !W s}@t}@u}@v}@w}@x}@y}@z}@A}@B}@C}@D}@E}@F}@G}@H}@qB+I}@*B.4k+JP VW+7$.-<.O++}#+rS fV ~; 5).J}@K}@>}@+K+Q4.hb.L}@",
"bj N@.JG.%: `M x].y#.*} XU+d%.o| ,9 mZ.tR+Pm+_/+-#+z%.H5.7O @+ M}@sg+zj.N}@3V k .)N &/.xS O}@P}@Yo Ce.8V .2 Q7  2 ~} )+.`M x].x].x].x].x].x].`M Xr.N@.(4.y( ^/ Wo bj )K 8X+8X+!K )K bj bj )n )n Iq pu +b ;n VC Y1 p6 ^7.}o.=j.fh.Tk.k%.u8.D#.RW.0N.!}@O@@Q}@C' Vo `. nL h| KD.'9 n< Q` P` |j XT.Ta.Tk.Y1 -{ 2F.#N nE I;.R}@tt.S}@v}.EU SA.=, !9.T}@U}@V}@W}@X}@Y}@Z}@`}@ |@.|@+|@i#@(I.MZ.3w @|@9B  F eV aw cc )= /3 s| jS 2!.}H @X.Ra.kG.Ha.c{@HQ.aN.*-.7*. + 'n  + )/ VC }H ]l !} O` FR Y8+!j.8$@he.TH.S1 }H Zd )[.)[.}h @: .M./b.ez.~<+O~+I:.=q.H8+'U.Nr.'/ ,/ v2._-+ : t2.v2.v2.u2.t2.t2.,/ V. p8.E5.`k.p6 ^e.`E.gt.Q` Q% #|@]J.*q.+v.*q.:j $|@%|@&|@*|@`/.=|@-|@Dr+3/+;|@>|@,|@'|@)|@!|@~|@{|@>L+>L+yo.LP %d.]|@tQ+^|@]V+9>.3&.I' n1+/|@gJ.(|@_|@9&.qE+PU :|@<|@[|@}|@@x P%.||@1|@2|@3|@4|@5|@6|@7|@8|@9|@-o 0|@a|@b|@c|@d|@e|@f|@g|@h|@i|@j|@k|@l|@m|@n|@o|@p|@q|@$D+r|@H++Ao.V@.A1.-R qu CN.r[.Cj.9B ~; s|@J}@K}@$M+t|@u|@v|@^= ",
"G' BI MK..X+~y./l SV+j5 &} fQ o| %} t%.:$+XA+V6+1Y.h4./7.+N aj @+ ~X+xL a>.L1 cb.)N 5M.-}@7F.Z* xW Aj.h! (/ DS+r0 &: dY 9V )+.)+.)+.x:.x:.x:.)+.iS Dz Dz Dz N@.N@.Iq Iq )K )K )K )K )K bj )n )n (4.=y +b 2!.i< p| ;@.O2.9t.;j.^]++= x++Ha.-o.5$+w|@O@@XW+N@@T> #M.t] V> i< ,9 4! Xd N[++l.Q` {l A2.R> HR vK.~-.^_.]_.sc.ut..b.S}@q] c4 dG sz+'<.&P.x|@y|@z|@A|@B|@5H++V C|@F(+D|@G|+V++A1.E|@;}@F] ;R Ez aw cc )= /3 9V iS 2!.}H Xd O:.O:./0.MQ.t%.K8+TL.K8+Vo lK.C' 'n VC vs P1 r< N[+bw #W ~j.l| ic.>@.,/  (.h| u:.`_ F|@fm.G|@=q.km.)>@H[+X8.1o.0:+0:+z7++: ,/ ,/ &= Sn.t2.jV._-+_-+jV.v2.Y. Q> =} H|@-} hh.TH.l| l| Up.Up.j| Q% $W gw.y' gw.(U./&@I|@[U.4O J|@K|@5R ,|@>v+L|@M|@N|@O|@P|@Q|@R|@-` C_./<./<.kJ./X.] @E_@~B+TW.|&.*N Ft.II S|@fJ.dE vN.T|@U|@-(.V|@W|@}|@5-.@x X|@X|@Y|@Y|@_m r..@K Z|@eM `|@ 1@&9..1@S%.+1@r4.@1@;:@C'@#1@$1@%1@&1@*1@=1@-1@8v.f<@;1@>1@,1@#@@ad+'1@sS ^{ $K pS vP kj kj )1@)1@!1@~1@{1@nW+]1@^1@/1@",
"+, V5+Km.5-+K0+~y.sf (1@SV+fQ '9 p| U. w:.7Q.RL.v2. : h| }h qo.aS.M}@!X+u_.a>.UP JP d(.s .xo.V@.gw+yW }&.-+ LT+BN.(/ &: .2 9V 9V )+.x:.x:.x:.x:.mE Dz Xr.=y =y Xr.(4.(4.Iq )n bj )K )K )K bj ys (4.Xr.,].Gq w( n| >} k6 Sa.Tk.z8.gc.Zi.zf.)'@51.TV+v#@~}@!}@s] @: 0Y.Z_ $} ,9 +(+&} 6B WC %n 8m.;} M7 !/ it.Kr.f*.lt.I#@YQ._1@:1@V7+N!.#+.><.<1@c:@[1@}1@|1@11@RT 21@31@41@51@&M+It.C].IP e6 D# F] 9B wP >R cc )= dY r| %: (j !l }H E#.,@.1*.+4+/7.h4.}h :/+)/ C' a! a! 0c #n hE fE wX 5! :j Zp.F5.D8.W% v# v# V. X. w# Ra.*n+Rk./<+0:@'<+02+km.*n+BU AU z7+CD.AU V% Z.  : u2.v2.v2.u2.t2.t2.,/ n( =} H|@l< k6 Up.T1 `E.TH.TH.!j.8$@:j :j gw.~U.r(+Z!+N[+.p Bf KE+61@71@81@V9+91@01@>^.K(@a1@b1@c1@}I.ES+WV.$R g(.j .E%+=/.rz.kV.S%+0).@` 6w mW+E] d1@;X.cE Ht $G+T|@|@.:|@W|@K/@e1@^m (m _m f1@g1@h1@k4.i1@=J+j1@uI Z~.k1@l1@z..m1@6-.n1@o1@p1@q1@r1@s1@t1@}m u1@v1@w1@x1@y1@z1@A1@<} UK.1l RF+w_.;+.kL .#@+#@B1@[}@E# ;i+C1@^1@D1@E1@",
"jM+Bf+j'+4-+K' L' Q,.t< Z@@d%.4! )9 gc.+= 2*.0h.Wi.Vi.rZ.Sn.KD.)l *; /|@F1@:M.VT s[.B_.G1@yo.H1@V++} +a).1&.kV.h'+D4.#, (/ TZ+/3 ~} `M x].Gt.x].mE iS jS ,].+b ,].Xr.Dz Xr.Iq ys Lm.)K )K )K zI ys Xr.iS Gq W1 !l Y1 m0 O:.w2.A#.,@.,e.,e.q}.oS.*-.TV+I~.I1@a! #M.8$+8$+}H $: 84 i5 p] 6B 7B 7B .b p| +{ f< kt.G8.tM+d0.J1@K1@L1@@2 q[.N++}6.c}@.m >+@M1@b(@13+N1@O1@P1@Q1@R1@PS.X&+C].R%+S1@qS 9B kj Df Cf )= )= r6 ^3 P7 g| >3 #n p}.j%.'@.&= M'.7*.TV+*-.)/ )/ :,.Z_ jw.,9 ~/ n0 p| .b 7m. e W. D5.D5.C#.)@.Ff.V}+)7.V}+e>+%F.u_@<>@9c.T1@<>@NQ.&6.,U.H8+)U..I.y7+E#.&= '/ Z. ,/ h| h| t( Y. o| j< o| p| Xd bc zf JR IR Zp.<o.0j.2}@l| d5 QA.wC+}3+ : ]/ 8'+)` U1@V1@W1@X1@-l+Y1@Z1@`1@ 2@.2@Dp o$.5M.o$.b(.o.++2@SV.1l Kq '= UZ+{+.YZ 9).@2@r7.v0.#2@S&+;I.$2@=N+T|@%2@3b.H^.4].4].&2@*2@=2@fH+-2@;2@5-+RF+>2@P;.7F ,2@+s - .v(@'2@)2@Q[@ty !2@~2@{2@]2@P[@KG ^2@/2@(2@_2@NM+7B+(J+FL A< :2@<2@[2@L;.;+.}2@2O Q' uS 36.|2@l:@jE.12@",
"lc+lc+jM+;; 4-+#, Be.22@/l G2.Q1 G5.sr.4t.gZ.9h.gr.Hp.Un.Ma.Ma.5j g5 uL 32@b).E].4F.Dj.yo.t5 e @W4+zv+H%+I%+n.+S,.&=.^=+-+ B] &: dY  N 6J.6J.6J.(j jS ,].+b +b +b ,].jS =y pu zI Lm.)K !K !K !K zI Xr.mE iS W1 $} n| '9 j%.>@.w2.>@.k%.1*.1*.nt.%&@I~.I~.I~.C' #M.T. S. >3 >3 h< $} 6B -9 GR 6B n< h< +} Pk.`a.bw 42@52@62@72@82@FD D( NK.Sm.z_+92@02@a2@6!+VP b2@c2@d2@e2@IC+f2@8I+E].Bq *_@p7. F $` S@.cc ){ *: Q7 4!.a4 `1 0c 0c @X.E#.A#.u# <,.Q`+3! Q`+LD.Y> *{ :,.u] 84 n< n0 q| JR .v.9:+v# D5.B#.C#.Ff.9G.9G.t8.tr.kD.%F.xG.<>@t_@yG.g2@YN+&g.#v.)U.gm.!F.$=+$=+9:+y7+AU i%.j%.E#.@X.9c bc bc bc .b .b HR zf JR Vp..M.d5 l| `E.Er.<o.h2@VE.hr.G8+i2@RA+-[+j2@k2@l2@m2@n2@o2@p2@q2@r2@s2@U@.;x is+HP iO !O+hw+VW+Kq e-+Ft.@` $N $=.70.E2.:/ #2@t2@t2@ZM+/U+fJ.Op /G+%2@@K u2@v2@:[@:[@vz+w2@x2@zz 9(.9B FK.Vr F^.$G+y2@ox  ^@-J+z2@A2@B2@Fj.e<@C2@o4.D2@E2@F2@G2@H2@I2@J2@LI+2L+(h 6M.K2@/-.b4 s6 wP i[.G].L2@*e M2@+O+N2@O2@R[ ",
"P2@Q2@T0+YU+*>@no.+%@.X+~y.sf fQ u^+5t.Nu.-C.M~+Kx.q%+QH.Fp.Ma.h| o6 Xr.^W+*3 (K o.+<I.=@@G( I1.7)+p1+K@.It.o1+:R.j .}S+VW+Ae.;+ ){  & v< Sd Sd `M r|  2 ^3 EW EW EW EW eY eY DP .e 5h {+.HI @` zI =y iS mE w( n| n| m< &= U. w2.w2.r}.k%.Qp.*o.>U.I1@%&@%&@&{ }C.8$+S. }H }H }H VC gE `d KD.)1.*K Fq R2@XL.$W 8m.S2@d< T2@U2@V2@JA W2@1g.vS X2@Y2@Z2@x4.`2@qI.rT  3@.3@+3@9B+.P+QZ.#/.q7.@3@`C Yo S@.EP )= TZ+/3 Q7 P@.ou 8w }H }H n< q| Y1 u# QW.6*. +  + 9! 9! :,.t] AU AU i%.p}.nG.Rr.`<+x2.hK.<$+Ek.Ek.Ff.6h.A8.hZ.S/+C8.[:+<>@}!@#3@Ja+$3@%3@&3@AG.61.,3 F|@I+@61.I+@I+@$ +5m.5m.it.Fr.Yp.Pk.vS.^1.xN E#@N[+6Z 6Z Vp.&q.Zp.zf gt.Bh.d5 L[+9K.M&+*3@.0+=3@-3@;3@>3@,3@'3@1h+J7+2^@[} )3@J_@!3@4`+y{+A]. G 5Y (9.@ +oS Cf ]R EP z-._/ H;.s7.~3@:W+N+@C( @9.p[.gj ,#+{3@FK.FK.]3@^3@f}@/3@(3@c).pj.HI Bf lE fC b$+/G+_3@-z [v Kv :3@<3@[3@}3@yq &G+|3@St 13@23@33@}3@43@53@63@73@83@93@03@Oe.a3@YM Ez HW SK.N5+lj+A[.D< b3@c3@x4.d3@",
",q+; @; @e3@YU+j'+,; >(@K0+z%.`d B^.]7.Y%@<m.gc+Np.$H+q%+gr.jr.D5.KD.h4.N@.:&.f3@g3@9q.;|.:|.wV.w[.J@.'~+OS.=e+h3@qY.eT+lV.S!.~L+s0 i! ZM ]} ]} r| dY r6 ^3 eY rf  `  ` P@.4!.DP DP Af {+.HI ]+.Iq pu ,].%: o6 ac Hq h< >/ .: j%.,@.1*.u8.k%.Qp.%&@Q`+>U.>U.&{ 0Y.}C.}C.u] vs #n >3 r< r< !} hE i3@j3@k3@XF WC l3@m3@n3@o3@p3@Oy 0v Z!.q3@$P.Um.r3@s3@;|@t3@%>+55.u3@v3@w3@x3@j2+T,.'= CW jE pS Cf Cf >+ ){ .2 /3 eY O@.Gq Gq VC !l !l q| q| VC V> 7*. + 'n Z_ Z_ Z_ t] U. $=+E#.&= im.Rr.xX v8.uZ.y3@Xi.2V.m%.z8.8K.vr.Na.5Z ;o.N0+Ob+z3@A3@B3@C3@/$+J+@I+@,3 I+@61.,3 61.jt.Hr.tK.%q.Xp.:b.D3@XL.+M.#q. b.lt.y' $W +l..b E3@ht.:]+gz.>y.PQ.Bf.F3@G3@H3@#,@I3@J3@K3@L3@M3@N3@O3@P3@Q3@7)@.2@R3@S3@T3@ G CW 0Y ]&.Bf !9 Oq 1c ;y C] C] 5B h$.rG J;.~3@9).9).Az EP @b Oq #2@A%+;I.w0.'#+dE Np U3@<U+%<@Xh.{9.@b ^U+V3@d7.!+ *=+W3@=x rY X3@Y3@}6.zq nH+a%@yz _B++ .Z3@`3@ 4@.4@S{@+4@@4@sw+d-+#4@jY eV r[.]I.kV+4l.gq.9-+gs+8d+iL+$4@%4@",
"&4@=3@- @Hk+_=+%>@'=.mg+$l++X+<P.=} `k.0V.YZ+*4@Xn.q%+=4@[z.Hp.B#.Y. +{ J~.%l+!n ;l C{@,X.bS.3M.jP.H@.-4@!B+!B+Ue+*+.;4@eO =/.T!.l$.Jq ){ *: *: r0 r0 R7 DP eY eY 5O 5O rf rf 4!.DP .e R7 j$.R7 Dz P7 9j :l L7 Yd 9w >3 V> j%.i%.i%.q}.r}. j.y8.P}.xV.>U.>U.Z_ Z_ 0Y.T. $: 34 +} n| 3j !} r( bQ+!]./F.`1 !} tM+>4@,4@'4@)4@!4@3x ~4@p_.&3 {4@T#@Z2@]4@^4@]r.2E./4@(4@_4@:4@<4@J0+E-.K' 2l.CW H].]R TZ+TZ+.e DP r6 jS ,].yP -n yP ]l P1 *n !l $} :,.BZ.V> o] V> }C.c{@-o.Qr.^$+m( 0c.x8.Zi.o%.b< 2h.[4@[m.1h.q}.O:.i%.4! %} ,9 nL ()+Y<@Y<@}4@|4@14@24@7^@l( ,3 #Y+I+@U% $ +3h 3h %W G8.9Q  p /M 1J d*.F2.N5.lt.xN %W ,y.Zp.zf VA.BU OQ.ZL.1o.q8.%#+34@44@54@64@74@84@94@04@a4@|r+Mi+b4@c4@d4@e4@f4@]&.Ae.Bf .U 7h Df 3H o[.#e '+ A# _/ d!.w%.tu n .H8.}4.J;.hY 0B Ce.$, su @9.%s.b$+g4@{3@#2@Cq h4@i4@h! ,l+$l+!R 9.+3U.:O+ =@%R.:>@j4@k4@l4@a(.-x RR+MG }K+^3@vN.VI+m4@nZ `_@0r n4@o4@p4@q4@r4@<I.]I./R.s4@nz+C]@p2@t4@u4@:4@v4@^}@>J+",
"2z+2z+w4@= @v;+R[+4&.>; 9P.$l+~y.`d l< 4_.Oa.Pa.gr.Ip.Re+Tn.V}+B#.w# `_ 74 6-+aY jE {X.Z* |R 6H |=+EC+3!+!B+!B+-4@Ue+=e+o,+)n+IS.cO 9C.5(.`% `% A] A] j$..e DP eY eY 5O EW EW eY eY .e .e ,I..e Xr.P7 p0 p0 L7 {/ l0 9w a! 8$+8$+i%.3*.o%.m%.q}.nt.P}.xV.%&@t] Z_ 0Y.8$+#n jw.0c !l r< MK 1J r( o# i0 i0 ^n T` R` Ya x4@y4@z4@RK Ef |{.|-+A4@4)@B4@&@@Z4+kU+gu.C4@D4@E4@YT+(|.ng+lw+(/ $l+Bf .U {+.r0 TZ+R7 ZZ Q7 ,].,].2!.s< (j ou *n 1j VC VC 9! V> 0Y.0Y.V> :,.*o.=o.nt.b{@`H.F4@Ja.o%.w8.3.+E&+Dk. (.t2.`_ ac L7 8j N'.cN.|q.M@@G4@H4@I4@J4@M0+s%.!1.xV.S. La+La+q< jw.Y2./M MK  p fE P1 7Q .p N` h%.IX e*.#q.vS.vS.E3@IR 9:+VA.kG.O:.>@.-e.K4@L4@M4@N4@O4@P4@Q4@R4@S4@T4@ X.@q+U4@V4@W4@DS.Yo oS .G dQ+uu ){ n5 A# #e A# +2 #b d!.k! x%.w%.hj H8.(&.70.`T nG Af Af 8h :/ ZM+g4@x]@#2@t2@r7.X4@Y4@K0.!s.{+.AP Z4@`4@4B 3U. 5@C++.5@Sh.{y+#[@l[.fN.+5@uM+@5@#5@$5@%5@&5@*5@hi =5@-5@K!@;5@X:@c[@zZ.eP.3{@>5@,5@'5@)5@#U.!5@~5@{5@]5@",
"$_@$_@Rq+F@@T~+</+1&.4&.'=.-+ $l+#B./l fQ k< ;m+Vi.G8+3h.)@.B#.B#.w# X> +{ ~y. U.aY *N ^&.8Y +2@eT+p$.4k+{|.t[.t[.Ef+*@@{|.yw+}M.o$.o;+p .dV As 9C.~X.T@.Bf Cf >+ '; '; z}.z}.'; '; >+ >+ Cf .e pu q0 P7 q6 VL.w] N'.YC =-.u( S. AU u8.)@.jG.1*.nt.-o.=o.MQ.Z_ &{ 0Y.}C.vs }H w( sL 6j l../F.)} !} Ds |J IX h%.wN ^5@Y_ Tm+#F 6v MR+8D *l }O /5@(5@_5@#>+Q,+:5@<5@[5@}5@I7+u .3&.MK.N@.R7 Bf 6V 0B 0w Dz pu 4h 0w ,].,].q0 iS s< 2!.2!.s< yP )3 v:.Z_ 61.^F.y7+BU Pr.MQ.,e.m( |5@15@Ek.2h.Hu.x7+Gp.Dk.k=@J*@25@f;+I5.h! ,R.%*+J' ~3+35@45@55@J4@()+SL.SL.kK.0! C' r] }J.N1 g*.CV./F.h%.[J <J d.. 2 S7 .` 0Q /_.&X.+M.`a.&q. e AU E#.o%.Ma.D5.<w.65@1.+75@85@TW.95@05@a5@b5@<E+c5@d5@e5@f5@gr As .G Aj.!s.AP !s.&: Q,.e$.j! ZM S'.;F g5@K%.6).6).f).Va z-.3H ;y VF VF ;y 1c sG &y C( :/ @9.ft t}.|3+h5@I=@aY %N Af 9).R'.~3@j/@i5@uL+j5@yW TP hw+k5@ES.,N iw+e}@(|@(3@l5@m5@lI+ :@+4@fi n5@o5@p(@{l+p5@@m+1I+q5@r5@s5@gj+t5@u5@v5@kI+w5@",
"@e+9'+x5@Pe+Uh+P}+R[+WT S,.2&.-+ %l+K5.t< `d u:.TL.SL.RW.v2.v2.C#.w# W% X1 +{ N~.*s.5-+`F zj.[&.E].o.+h(._+.E_.*@@4!+sF+4!+]R.}k+}M.V@.PP o;+O<@TV.~B+ng+2l !n Cf '+ '; !{ |4.!{ '; '+ EP @e EP 0w +b q0 q6 9*.uQ.aj N'.D(+7!.a! 8$+;o.k%.n%.0h.Qp.MQ.;o.*o.}C.0Y.0Y.0Y.}H VC sL {3 /F.1J r( 7j NK  p y%.0Q .` LH _T IK ~w+EU O,.MR+[%@y5@eC.-e+z5@&E+A5@B5@C5@D5@E5@F5@Z8+3M.8U.f;+pu ys h! &N |,.RH Xr.pu RH 4h +b ,].+b mE -n s< s< -n (l yP KD.}C.*W+L+@X2.G5@:!@51.y8.)@.b< b< b< 3h.8Q.8Q.Hu.r}.%3@H5@I5@J5@8$.lV.Ga+k'+F%+yL ;>@K5@Jn+L5@~}@I~.TV+I~. + )/ #: Fq r^.r^.CV.z#.-@.g%.y%.}J d!.T;.xI O. '-./_.Za.#q.Hr.HR U. u# v8.B#.C#.8Q.M5@N5@O> O5@P5@Q5@R5@S5@<v.T5@U5@V5@W5@X5@5-+fS *3 &N 5h @` 6>.Q7 u< u< ZM u< z:.>F g5@K%.N!.ah 1c 3H ){ i! EP ;y Zo GH Q!.f).tG /9.f).sG /9.1c C-.!l.I=@5-+cY cY 8).9).> +9).{1.]9.L.  <@KI Sh.UT fN.:>@S&+>x uN.Ay /M.Y5@Z5@ :@`5@7H+ 6@.6@+6@9B+@6@#6@Co.|r+$6@%6@X/@e!@&6@*6@S[@.^@",
"iK.t2.}h pL `T.,R.%>@_K 9X+=T+2&.S%+ P+MK. U.B2.PW.pL =K mL X> W% W% G[+W> Q> ,/ h4./7.*s.`T.z] ZR+(+.-/.H_._I.mV.*@@Ef+sF+#i+#i+]R.mV._I.-}@;(@)W+)W+(h+}S+dj 6h >+ '+ !{ !{ !{ '; '+ A# EP EP 0w +b +b q6 0< e! @+ VL.PW.;#+0! BZ.*o.,e.m%.V}+,e./0.*o.*o.AU @X.t] BZ.%} h< ;/ }J.!-.wS.T8+/F.c0 ^T @P qG lG D] ~F ;F S'.,<@%M+=6@(B+-6@;6@U#@Ta+*^.>6@,6@'6@)6@!6@~6@X}+2M.sQ+nE p0 Xr.Xh.UZ+|,.yI =y pu P7 q0 ,].,].+b mE -n (j  N )+.)+.(j i5 V% &g.{6@#W+G5@]6@3*.2h.}h.Wi.Wi.tZ.Ip.nr.Gp.Op.)@.*{ 9s+^6@/6@Vn Ef+Dw.,+@jP.nV (6@_6@:6@WS+xt+7*.,(@X(@8! Z> )3 w( `o g*.s^.0Q d..0G )F >W AD =: #b S7 pG }J l.. b.tK.O1 @X.V% v8.u8.m%.o%.E6+,(@so.a'+<6@5:@[6@(s.}6@#m |6@16@D]@jO .X.PV.k$.y]  D <4 6>..2 !{ %, '; j! 3>.K;.:3.e).Ef 26@d$.jL Ez aw kj #+.~1.r7.t}.t}.dQ+p[.dQ+t}.o[.Zo .U gt g4@`% 3H o[.(&.70.8!.v%.Od {9.lS 36@[U+of QV.!j /M.C7 (|@&=+46@56@66@Bp o/@76@76@qB+{=+{k 86@Z:@96@06@a6@b6@( @c6@d6@_>@e6@9<@f6@",
"hr.Ep.v# .N Nm.*o+R[+PZ.pU+F%+9X+WT j'+J|+g2+LK.LK./)+pL =#+`_ '/ Q> Na.cc.G[+W% t( h4.}h pL hJ.uu bV 0(./R -}@/R.~|.g6@5i+5i+8Y.sF+*@@mV./R.NS.f2@OS.xw.]$@}S+!n @e EP '+ '; '; '; '+ '+ >+ '+ 0w +b +b q6 0< #N  , == :l.7!.+N s( nt.q}.m%.Ff.y8.y8.51.MQ.p}.i%.V> o] `d h< r# h6@]n ,j.>n i6@]1.>4@ b OH Az 9%@#+.^+.j6@k6@l6@e4 +K+Lt+m6@8#+n6@o6@p6@q6@r6@s6@t6@u6@;#@%_@!l.m..X[ P7 >(@o .'K yI 0w 4h P7 ,].,].+b q0 jS (j ;n rf 5O lL 1j $: Ma.@X.3:@v6@0:+Ma.C#.Dk.[m.1h.Ek.or.Gu.#C.or.Vn.cc..N 5-+a).w6@x6@B .Ot.FF+y6@z6@A6@B6@YX+*s._/+kK.7*.,(@T> #M.sL Hq ;n i6@C6@8o.NR #P FD.i..#s.cG _/ ~9 jj g$.i6@k3@tK.Yp.!F.y7+1*.v8.m%.1*.XW+D6@Hk+E6@5:@F6@#6@G6@H6@I6@J6@tS AZ.g(.&P.J0+4&.CI &N @` &: .2 !{ M' .& &, A:.K;.e).ah ip+_{.]{ .F d$.kj kj .F ZN+~1.t}.dQ+p[.HH HH p[.GH 4>.cw K6@r7./n z-.1c $=.05 B-.8!.9.+Od >-.{9.rQ+f3@D]@rs E|@W2@:H L6@])@S1@66@M6@N6@O6@P6@Q6@R6@S6@>T+T6@[v.U6@V6@'B+W6@X6@Y6@Z6@-K+`6@SC ",
"C8+`n.7c.h| PW.KK. 7@e;+zv+m'+u$+n.+*+ s1+5d+Km.Xh.k$.Be.xt.ac X1 ;} MW.:0.A8.Bf.jG.jV.pZ.TL.=K dY wI {<.-P+^I.}M.~|.g6@_h+!m+.7@5i+,+@4!+]R.^R.zl++7@G|+X%@&/.dj 6h EP '+ '; '; '; '+ '+ >+ '+ 4h q0 q0 P7 uQ.== *; *; U&@.+ Mm.`_ )3+u8.2*.0h.k%.k%.r}.y8.p}.i%.V> o] o6 9w #: {3 ,j._l _l )} f:+X5.vN ij ~1..G gS -<.$K =6@N[@@7@v-.tz+#7@$7@Ta+%7@p6@&7@*7@=7@-7@sE -U.)v+w]@^n m| P7 z].z].yI q6 q6 p0 q0 iS jS q0 q0 jS r| eY rf 5O  N =n +{ Y. Z. mN.M+@Or.Ma.)@.F5+Ek.kr.qr.Gu.or.;7@qr.{0.Rp.p< 0).AZ.4!+f&.>7@,7@Dz+'7@)7@!7@~7@{7@*s.;s.},.:$+K8+`. lK.{3 p< s< l5 0Q F2.'F :J c4 ^F zA uG cG H;.ij KX /F.2J Yp.Gr.G|@(o.]7@y8.Hu.+4+M@@^7@/7@(7@_7@:7@<7@[7@}7@c}@OK.UV.;(@_+.!B+k,+TP Y,. P+Be.ZC dY j! ZM S7 &, A:.K;.|7@17@#& ])@#& /V+/V+$K pS F] !9.!9.y=@y=@xR+xR+HH lE lE HH .G ~9.dQ+Oq VF cc .=..=.lG ]F 9).Od oE >-.kr 5Y zq TM u].27@c @R:.vI e6 Cp ,v+37@S6@.m 47@57@67@HN.,+@`,.77@{`+87@n$@97@_>@N4.*6@S^@07@",
"|$+3G.Bk. (.-#+f2+O}+Al+d,+~x+Y%+Y%+pU+nY..U./)@a,+TW.7P.+%@cN.{y.)3 ,9 .: A#.k%.1*.+4+jV.hK.KD.h4.N~.8V 9(.9C.}S+kO _v.3!+4!+5i+8Y.5i+4!+sF+8Y.a7@a7@cU.^R.j2+PP T!.cV 6h >R EP ,R >+ h*.cc +2 S7 4!.4!.0w Lm.WL.!3+M}@T`.gV.b7@7!.0! >/ s( X> .: .: U. E#.AU AU i%.V> t] $} Hq sL o0 P'.Nf.,n c0 :e.0Q Q!.d>.<6.G].c7@;6.d7@wM+Rt.e7@e7@f7@g7@h7@i7@j7@k7@l7@m7@n7@7A+JC+JP -i+#N D(+e2+!K ^/ 0w P7 yI :l q0 mE iS P7 ,].mE ~} ^3 ou (j -n ac  (.S. *{ KD.,3 #v.;o.3*.|h.3h.Nm+N5@N5@Nm+o7@or.E5.>} Bz =N X%@BO+p7@aE+q7@aE+r7@S5@s7@jM+Qq+kM+oL lK.'n s( `_ BZ.jw.bc E8.!} P1 LK U/.V` !C 9,.'M.8,.; +/@.bm.3,.y:.wS.e*.CV.t7@ej.Jk.ED.X> *s.>= u7@v7@w7@x7@y7@z7@A7@$m+Zm MZ./R JP B7@'~+y>+TW.// !K bj Ce.C] *: &, !{ !{ YM K;.Ef 17@ip+=6@C7@f$@fJ.#+.vP 9B -+.`C xR+y=@y=@y=@HH 4>.lE p[.4>.p[.t}.uu Zo K0+5B _/ lG 5B CP bY ,-.>-.b*.)<.4r+OP _3.D7@C7@])@vI 46@rs aP.E7@Tn U}@{A+F7@G7@H7@(|.<4@S8+zJ+@q+LR+}O Ji+QF I7@J7@K7@",
"|.+[.+<.+|h.Fi+nZ.5Q+L7@jM+@%@m'+F|+Vx+'~+h#@M7@5r+N7@O7@P7@P9+VX+'q+QA+* @hV., @nL n}.,/  : v# g;+g;+KD.9o.J~.)n oq+5&.a).sz._v.#y+:+.Q7@#q+!m+Kt.=4+/3+'9.,+@yz.*@@i$+V@.fP.CN.-|.aw R7@h*.M@.S7@QR T7@#b 6>.!K g! g! U7@V7@tQ.Zh.M}@oo.f;+K5.Q7 ^3 8w r< u] n0 AU i%.z7+i%.:,.0j E;.@+ ;-.K~.0Q vN cG I0.{= W7@lj {A X7@Y7@Z7@`7@ 8@.8@+8@@8@M!.#8@$8@%8@&8@*8@;,+=8@B< zs 's.-8@;8@>8@pL )l aj w] ZF 4h Wa.,+.Q7 mG ,+.ZZ +b mE H5.=#+@e+nZ.K#.!<@w|@kK.}h Z&@,8@k=@Wi.3h.gK.fK.u7+lr.Bk.Yi.o6 J~.D-.ux+Tj+'8@)8@!8@~8@{8@]8@^8@d,+'s.9! W> !l ac *K Nr.Sa.'@.p8.*j.bw. F.j| }].LR ;M.mt l! x]@ew+0;@2U./8@:O+q*.&y /@.&s.; +cZ !D+(8@~F 9C._8@:8@Bz+<8@[8@}8@|8@w[.:I.G4.}l CW dj WT ;N } +0).DP Q7 dY dY dY *: t| ~9 ~9 A:.Q}.e).!<.q[.!<.|C -: p[.GH ZN+9%@t}.lE HH HH nS +=.+=.+=.nS lE {n Zo R@.VF Q@.8h 3H R@.R@.VF ;y sG GH Df lE +=.;l 7q.4Y ><.@3@18@d>.18@'N %R 28@IZ..m 38@48@58@68@78@[B+u .:<.{R.<<.Ew.,E+w7.-b gu $q ",
"2.+ =+kr.Nx.rZ.1Y.x5@88@'q+Z% o=@l,+PS.qm+!m++7@7I+%~+%q+x@@98@}(@*Z+08@w4@Dp+ro.qL )[.,/ t2.W. s}+E5.[o.+(+i5 x( oo.)K xL -N ==.X%@q;+G|+0t+cU.a8@#m+a7@Y~+T6@5l.U:@qI |s.qY SK.*` -|.:6.b8@c8@d8@e8@f8@A:.z-.{+.~K ., ~3+<-@g8@i'+!n+JS.mg+-y !9 $, C]  2 a4 9c y7+Sa.Zi.VA.S. o0 f| ^W+,p+]j NH NR ft #K h8@3g..+.i8@j8@k8@l8@m8@n8@o8@t6 p8@O_@mP q8@r8@s8@t8@:r.mV+!x+Ce.5q.u8@v8@w8@f5 Vo >9 M1 --.'K ZZ DP A# '+ ,+.ZZ +b )l ;#+nZ.V6+V6+|Y.()+v#@7*.1Y.P> x8@~>@2V.F5+y8@z8@A8@sZ.or.[3+*s.bb.B8@C8@D8@E8@F8@G8@H8@I8@J8@K8@L8@M8@,} Y1 a4 g| vs n< ,@.#; .~+bh.J}+3w.4'+^J.>y Lr.@s.9h N8@w]@|3+!l. =@3P.O8@dQ+C# :'@e$@e$@Jt P8@`U @*+Bi+Q8@R8@S8@T8@U8@V8@yw+ng+fj Bf `% h! S%+9>.8U.6>.4!.eY  2 r| r| *: t| A# A# YM kL e).!<.!<.:3.C( /9.Q@.Zo GH o[.lE {n HH HH nS +=.+=.+=.+=.lE gj Zo 3H VF GH 1c 3H DW Q@.8h ;y Q!.Q@.Va :/ 9%@:h Po xW E@.E@.:{.e .e .><.k5@J6@IZ.W8@X8@58@Y8@Z8@)q+`8@-4@{R.o$@e(.o$@|-+c[@TZ.T:@ 9@",
"!L+K&+Gu.Nx.Sn.h4.*s.'I.Uh+ 7@#%@!N _v.3!+Ef+PS.y>+I.@Ft+Ft+g#@.9@6d+Al++9@Uh+`O.=s.o6 j< Y. X. cc.;m+V. Sn.)1..N  U.ZC y] S6+;; oY.2d+<3+jV+#y+!B+,+@#q+5i+r#@_h+_h+,+@qI D1.qY [I.^m+(9 r5 :2@@9@#9@$9@eL+Df {+.~K ~K [M.[M.!n+(l.i'+e>.8U.CW e-+QC+T`+vw.,].a4 S1 bc z7+z7+La+P. %9@{X+n1+!R ij NR &y K_@&9@2Y *9@=9@@^@-9@d;@;9@>9@|O B# PB ,9@mP '9@)9@!9@~9@gu.{9@]9@%l+^9@/9@(9@_9@:9@1q.]/ mj+2s+C2..2 ZZ B( t| ,+.ZZ ,].)l ;#+()+V6+V6+@e+}h TV+>U.pZ.5$+P> ^$+&o.&o.<9@[9@}9@Bk.Nm+Y`.> @|9@19@29@39@{%@49@59@69@79@89@L<@c]@C>+iV+z( Bz xs N7 74 X> A#.0h.%j.T!+>j.)9 N[+X[ Y` E2.R'.9.+Z4@Z4@{1.HE+99@09@nS K6@qr !+ ;: !+ Np w2@a9@b9@c9@d9@e9@f9@g9@h9@mV.cO +e j$.B] `F 4-+ 7@P}+m .O@.4!. 2 r| r| t| t| '+ '+ YM kL ah :3.:3.:3.o[.1c Zo 8h gj gj {n uu HH lE +=.+=..G +=.+=.4>.4>.Zo z-.VF Q!.Q!.R@.z-.su Zo Va o[.Q@.8h Q!.Cf :{.1H ZR+Gz cQ+Qo H0.EL N++w1.i9@`S+Tn j9@k9@l9@m9@st+zZ.3!+OM+H_.V@.D_.z[.K_.eC.k(.n9@",
"o9@=4@tZ.}h.uZ.}h I5.7V =;@o>+j'+==.pU+fT+n'+n'+{V+<3+0{@k'+k'+Gk+6d+Al+*>@{k+`O.=s.ac o| j< G[+G[+-J.E5. (. (.h| }h *s.cN. P+[-@P}+*+ _K p9@[/+l'+%+.U[+Po+Po+#q+#q+5i+_h+yz.qI D1.7#+nJ.,Z+MW ^3.A4.ec ec Ez Df HI HI &N u_.DI :M.:M./&.W!.OG.z1.As LT+6(.Ce.q0 l5 Y2.34 34 ${ ]_./e.B-.!s.m .z#.&W @9.(3@-6@QJ+q9@r9@s9@jF t9@u9@v9@w9@L6@(G+x9@y9@z9@A9@B9@~9@C9@D9@'X+#, b,+E9@F9@G9@vc+|H hJ.'I.:g.@G r6 0O [H A# ,+.0w {/ x( 6O ;#+()+nZ.o}.5j P}.o%+jK.RW.51.Qr.15@3.+H9@I9@d4.Bk.Re+r%.WS+J9@K9@L9@Vn 5l.}} M9@&G N9@O9@P9@J@@@_@m'+s1+~K )R aj h4.9! l_+r}.V}+Qp.x++BU f< N7 nE Q9@R9@!+.N8@0;@|(@N8@S9@a.+^9.gt T9@*=+U9@N++FI 2H ,v+V9@W9@X9@Y9@Z9@-4+Gi+_I.|l 0).Af zI )n h2+DJ+YS+:g.xI 4!.^3 r| r| t| +2 '+ '+ 3>.;+.%K e).:3.e).Zo Q@.Q@.Q@.gj {n {n gj lE 4>.+=..G .G .G .G +=.uu 8h VF VF o[.Az Q@.GH o[.Az 8h Zo Zo Az C( Df )<.7$.>l jr ^9.mS ;: 0%@EL !O+_h `9@^k l~@ 0@.0@+0@iP.M7@_v.d(.g(.EN.WV.Fw.$m+@0@dC.|6.",
"#0@j>+Ip.Vi.uZ./7.K#.*s.`T.Yh+*o+4&.G-.IS.v@@v@@kO v@@]$@(h+(h+e;+9{@3&.8P. P+8B %: -n p] d%.MW.G[+t8.E5.v#  (.Sn.)1.}h -#+B2.Nm./v.BI '{ M8@m-+$0@hg+t$+6)+1!+$q+cU.8Y.1=+1=+4l.4l.%0@%0@&0@Rm+#4@yO+x:@i[.ec vP wP Df 7h .U P!.vo.(+.dN.]<.=` q .2w *` Lq s0 Q7 xI ]3 ^n Z1 i0 H#.n .Az Va #b }J FD.C( *0@&9@!2@q9@=0@`[@-0@$O ;0@c;@>0@hL ,0@'0@y9@)0@!0@~0@{0@]0@Hd+UV. P+c,+^0@/0@k-+(0@_0@:0@mj+zP QH 0O N. 05 N. yI 0w YC x( 6O 6O ()+SL.5j &= i%.i%.u# +: MQ.=o.x++v8.|5@<0@[0@F5+Ck.[3+}0@Lf+|0@7Y N5+10@20@N'+oI.F)+30@h~@ D.>5@q#@I.@P}+uw.hJ. U.A' &W+^$+b< 51.c{@</@U% ~ @tL 40@0!.> +R'.:W+:W+S|@CS. =@Cq E@.V,.50@XR+fN.iO NG.&3 60@70@80@90@00@a0@8Y.gP.|l 5h RH 64 aS.<l.%p+b0@nE xI 4!. 2 r| r| t| +2 '+ '+ 3>.;+.%K e).:3.e).su Zo lE lE gj {n {n 4>.+=.+=..G .n 7$.7$.)<..G 4l {n +p /n 4>.p[.ZN+x]@c0@#2@Oq S@.Oq g4@d0@$z jr db.db.~1.9%@dQ+J0.H0.*_@Y!.rs J6@e0@f0@S[ H1.5i+pg+4k+EN.}R s[.=` Zm Sm.g0@aq.h0@}3 ",
"q%+q%+Hp.jr.V. h| /7.h4.e2+`O. P+4-+S%+S%+cO U!.&/.]$@(h+&>@IS.ng+&=.=+ @, Ft.y( mE yP p] p] u^+cc.t8.)7.E5.p8.v#  : qZ.Sn./7.K#.=K -s.]/ =`+6Q+i0@j0@k0@s$+l0@_!+Po+qm+m0@Oo+n0@n0@T#@P5+o0@({ Ua+p0@7.@*b x:@q0@w0 $`  F F] }{.wW q ./{ t7.%& r0@o! F( *` dV @e m ..` g$.N` uX #P !@.D] WF B( )F _T {{ yz &9@s0@t0@5G+kC u0@c>@v0@w0@x0@E|@y0@z0@ap.A0@B0@C0@D0@$w.Z8+5M.{K Go+E0@F0@F0@bj+G0@H0@--.zI 'K ,+.DP mG $=.yI pu )l -K qo.qo.M0+o}. : '@.yX >@.E#.Nr.*o.B;.Qr.1*.CO.e{@I0@e{@Wi.Ep.Nx.^;@yf+3V -b kp+J)+~'.J0@Y)+E=+Ly.0<+K0@0w+xw.1&.+%@f2+|k+2/@L0@L4+ (.c{@6^@yG.+X.M0@xK.t^+Ya.So ^@.+` N+@N0@O0@A++s_.(9.of YT ~#+P}@l[.l[.wQ.P0@Q0@R0@S0@T0@eq.nz+kO >; ys n6 Z> =-.U0@.(+[l.Bz '+.eY r| ~} ~} t| '+ '+ '+ YM kL ah :3.:3.:3.;y Va {n gj {n uu uu {n +=..G .n .n 5V 7$.7$..n oS gj {n +p {n gj dQ+#2@:O+4B 4l S@.+p t2@8.+c0@Qo lE lE Az /9.Az y=@sz+<&@;<.[R <R V0@XT+oV /c+C_@E_.WV.i(.MZ.DN.iu j(.;|.y^@:|.&i+z| ",
"gr.gr.Hp.Hp.B#.t2.)1./7.H5.yt.f;+(v.K' Ft.mg+Xo U!.^I.^I.o$.]I./R ng+9C.Ae.;+ TZ+9V c!.y#.y#.8j.!7.Wn.hr.ir.ir.Ep.Ep.|h.Ma. (.Sn.h| /7.5j qZ.TL.+W+G@@W0@wt+X0@Y0@_!+Z0@`0@Wm.Rg+uh+Uj+ a@*(+.a@Li++a@@a@p0@#a@JW 8&./9 2O XM *R Q' Le.2{.}/ >, $a@<>.gc G].F4.dV @e 3H UC %, <M PK 0G t6 t6 AN _T >W zA zy %a@&a@N~@*a@=a@-a@$Y :)@g$@;a@X5@>a@H).on.,a@'a@)a@!a@~a@Z8+GG+g=@{a@]a@^a@/a@X% (a@_a@C2.f;+(4.RH )R Bz rc.yI pu x( -K qo.qo.;#+o}.h| )9 v( v( Xd O% :,.V> S. @X.t%.:a@<a@[a@),@Wn.QY+}a@oN.|a@1a@2a@3a@4a@5a@6a@7a@}n.%R+O-.i%@|s.)N h'+,R.8a@OW.9a@%&@t2.E&+0a@),@oS.aa@ba@8~@o0 (Z+I;.m..O'.3,.ca@da@|3+Gz :h eS .D ea@bS =U @m fa@ga@ha@ia@x{.1S+#i+g).mg+=y 9w BZ.TV+ja@ka@la@^j P@.^3 ~} 9V ~} t| '+ A# A# YM kL e).!<.!<.:3.uu uu uu uu uu {n cw cw .G .G 7$.5V 5V 5V 5V .n .U lE gj +p uu Oq Oq t}.4>.uu @e /n Oq 4>.~1.S@.gj Oq Oq 1c Q!.cG B# M#@ir Kf+V`+=l ma@gL+Z @:h+IN._I.i(.0b.=<.@U >: ;/.y[.>L+,E+D1.Z%+",
"gr.Kp.Tn.Hu.w8.C#.t( KD.h5 J5.6-+J~.L' Ce.(/ ~L+VW+i.+.X.o;+PG.r[.|l ~X.l$.;+ &: ~} c!.y#.na@8j.!7.Wn.hr.ir.Vn.Vn.Vn.Vn.Un.Ep.Ep.Fp.b< 7c.Ck. (.oa@$,@pa@45@qa@Ex+<)+_!+ra@sa@1I+ta@TG+ua@_/@*(+bR+Li+Dr+va@@a@yv+wa@bY+f4 Ne.&e @i.(:@>, xa@O4.>, 2{./N =b 0P.v6 -y ;+ i! ~9 k! _3 {J zN sD (x KK _T zA S&+ya@za@*5@t0@-5@=5@Aa@v0@w0@Ba@+N+Ca@Da@Ea@Fa@Ga@Ha@Ia@Ja@|/ + +V5+Ka@La@^a@Ma@7M+ P+;-.oG (4.(4.Wa.*y ^j yI yI =y x( -K qo.Mm.;#+N~.g;+X1 >} O% #n VC nL 'n T> u( 7*.P> Na@Oa@W2.<N.Pa@Qa@*o.Ra@Sa@Ta@Ua@5a@nm+<A+Va@Dq.Wa@Xa@Ya@A| p$.UW.BW Za@`a@1F.Y> _-+Wi.5h.m( 1*. b@.b@U% $= Hr.g*.f*.I;.KX bm.@R.!l.}K of {X..D )}@D].7F.@m +b@@b@#b@$b@%b@]U+t[.U!.h! +b BZ.E#.C;.6!.N4@>s.0j 4!. 2 9V `Z ~} +2 A# ~9 ~9 A:.Q}.e).!<.q[.!<.4>.gj uu uu gj 4>..G .n .G .n 7$.5V 5V 5V 5V 5V .n HH gj Oq {n /n Cf 7h +p Df s0 4l /n Oq p[.@e dQ+gj Va Zo =: =: `!.xR+H].,<.'R.J_.:R &b@*b@5l.4k+f(.O<@G4.2O &` jY wS Er+'1@Fw.Fw.t7.",
"Jp.gr.!7.2*.1*.o%.X> `_ i5 74 (l ZT JG.+G Ce.@b Xo -P+jO IP IP IP cO l$.5(.){ dY `M x:.x#.na@nm.jG.[z.gr.hr.ir.Vn.Vn.Bu.ir.er.Au.Au.er.Da.%e.Bk.=b@}0@#,@Qe+-b@>`+:=+,~+;b@[)+>b@!q+,b@'b@)b@69@.a@^= !b@V#@~b@oW+{b@WD+Av+9.@]b@V]@<V Fr+^b@ew #p /b@(b@F# [6.y_.!n +e >+ A# L;.7).EU iG *P *P Ud 9G BD C# vF+66@LE+~'@p(@_b@.4@:b@<b@[b@=x }b@|b@)i 1b@2b@3b@4b@5b@Z8+F-.@ +E9@6b@j-+@Z+7b@o .8b@ca@`T .e 0w yI uQ.E;.uQ.w] )l -K H5.J5.~y.N~.h| i5 1j a4 P7 jS VL.9b@VL.9*.5.+lK.%W+0b@ab@m%+OX+bb@=o.lr cb@db@eb@qb.fb@gb@hb@ib@k*+fp.jb@kb@b}@QG.4R lb@mb@nb@5.+&{ )3+x++-!+!E+}>@ob@pK.gt.a7.Cs zV.7j Pd pb@qb@^(@;~+lr rb@sb@ea@pE tb@^ +ub@vb@wb@xb@yb@lM+yw+6&.DS+(j .: +: C;.[,.zb@>s.64 ^3 ~} 9V ~}  2 +2 '+ A# A# ;+.Q}.%K ah :3.q[.uu {n gj {n .n cw .n .G )<.7$.7$.7$. G Bq Bq P!.]&.#` Yo .U .U #` Yo oS .n #` Bf 6V +=.+=.cw cw Df S@.R@.1c Q!.1c `!.sz+9B }{.r .1<.qI j9@Ab@Bb@9F.JN.#U M0.q0@=R =<.G] tS `D.%m+N5+^X.",
"Cu.[z.jG.s}.q}.1*.'/ X> 84 84 (l -n %: mE /3 TZ+~L+-P+-P+HP HP }3.9C.Ae.-y i! .2 )+.![.y#.na@nm.0h.[z.gr.Wn.hr.ir.Bu.Bu.Bu.er.Zn.Zn.dG.cG.Y@+%e.b<  (./7.O7+Cb@Db@%Z+^k+Eb@Fb@ZV.'8@!q+Gb@Hb@Ib@-y+$^+Jb@({ h4 Kb@~b@+a@X:@<V 8u+46.v|@r].)o+ew Lb@b .(b@u7.}6.NG.$/.Bf S@.#b 3!.)M WR *P +F 5x BR Mb@U7 -: #K !j }-+Nb@Sn OC+Ob@>K+Pb@Qb@ y+#3.Rb@r>@:J+Sb@Tb@Ub@Vb@hp+_l.'I.Wb@Xb@Yb@Zb@~W+HI !R 8).nG r0 4h )R 9*.#N aS.w] )l -K H5.H5.J5.~y.K#.t< ,].yI Lm.z( ,{ Yh.#+ 9S.T`.5.+u( P0+`b@ c@.c@Re+!<@+c@@c@zB.`8+#c@$c@%c@&c@*c@CC.=c@-c@;c@Jb@zz.LP U&+,=+>c@,c@<l v:.0c.F&+'e.%F.'c@92+km.M7 WC `a. p ^n !-.Nk.R9@v{@D++)c@rb@k .cS kS.!c@~c@{c@]c@^c@/c@k2+v@@S%+ys ou j%.,@.-o.I*@(c@[Y.q6 ^3 ~} 9V 9V ~} ,+ A( t| +2 A:.Q}.%K ah ah :3.+p Oq {n {n .n .n .G +=.5V 5V P!.P!.^N ^N GP jE GI #` Yo GW .U oS #` GW .U Yo 6h 6V .G .n ]&.]&.uu Df @e VF su R@.w_.Ez cV A1.=` qP I1._c@:c@Z @9F.JN.kY &` &b /9 q0@G] SK.lJ.`D.;` JP ",
"-e.N:.Ff.)7.;m+W> .: u# +{ +{ o6 o6 ZT %: iS &: qu R!.Kq Xo Xo Ae.mg+mg+BN.L' JG.yP gE p] <c@MW.Na.0h.Ff.V}+t8.r8.ir.ir.Bu.Bu.Zn.Zn.}.+}.+4$+Y@+kr.Nx.W@+].+X`.^!+Pe+ti+jM+|<+[c@}c@|c@1c@S4@2c@3c@4c@Uj+5c@56. /.G# 6c@7c@8c@9c@0c@ac@bc@H{@Xm ]; +i.QW nY }6.7q.^N #` 5h ~9 M' fL+vf ;W $F gD Y_ gA ,C zA E] cc@G++dc@za@-+@ec@fc@<k ]3@@o u2@gc@hc@ic@jc@kc@lc@7A+Dw.s@@, @In+mc@nc@oc@pc@p[.>+ 8h YZ 0B rc.nE aS.J8+rL UL.Mm.6O H5.-K H5.yt.K0+MK.B] 0).lw+S%+S6+qc@iV+x>+ZO.--.uQ.n6 r[@rc@sc@tc@W<@>~+uc@vc@wc@A)+!1+a{+xc@yc@zc@Ac@Bc@Cc@vB.)~+~3.oY E_.Gp Dc@9S.=#+oN.+: R&+Ec@Fc@92+O]+hh./b.Zu.Yp.g*.m..2>@5>@Gc@w]@Hc@Ic@L1 W~+gw+Jc@Kc@Lc@Mc@Nc@x6@'E+&/.,; 0w P1 w2.xX +4+<,._Q+lZ.,].r| 9V 9V 9V ~} A( A( t| A# ;+.K;.ah %K l .3O /n 6V cw cw cw .n )<.q7.5V P!.Bq ^N ^N GP GP jE P!.GW oS .U 6V .U .U 6V .U GW .U cw cw .U GW .U #` S@.7h Oq uu +p jL H].z1.NK.=l *B.<<@Oc@Pc@Qc@7#+MW KW ^3.w0 /9 q0@M0.lY TK.:I.:I.MZ.",
"N:.-e.n%.V}+G[+^]++: .: i< %} ac o6 {} ZT mE Dz BN.LT+zs zs ~L+mg+9P.K' $l+f;+J~.(l ^l XU+XU+MW.Na.Na.Ff.Ff.V}+t8.r8.ir.Vn.Bu.Bu.`n.}.+}.+cG.cG.QH.or.or.|t.iK.U@+M0+M6+0'+Bf+Rc@Sc@Ct+Tc@|c@Rn+Uc@Vc@Wc@DO+DQ.Xc@p$@Yc@Z5+Zc@`c@ d@T0..d@5R xa@N0.jb.Ij.1g.dN.iO EI .G @` 0O ,y tN !M Uy /Z++d@@d@#d@(F FD 'M.&R.n/@ya@:k %5@WI+vz+ 3.$o ,P $d@%d@Q_@%0+&d@*d@=d@-d@p1+WL.6*.;d@>d@,d@'d@d}@Q!.cc Va B-.bY 'l W[ b7@2q.2q.YF qo.6O -K -K -K J~.k$.Se+=+ 1&.G-.e;+: +#%@: +nj+<-@)d@*; 9*.@} !d@~d@{d@fZ+[-@2l ;/.]d@=4+^d@Ie ;w./d@(d@_d@:d@<d@[d@BQ.}d@|d@*M+uQ+lO s1+Et.)l+1q.1d@2d@3d@-q.*= ;3 4d@bj.7m._M 04 {Y+p_+~3@{R c*.7'+5d@:M.7/@6d@%P.7d@8d@9d@0d@ct+a).*P.RH hE hh.5Z _-+M'.~<@_/+%: s| s| 9V r| ^3 +2 t| ~9 _/ N!.6).e).e).3O ad@.U 6V cw cw ]&.]&.7$.)<.7$.7$. G  G Bq Bq ^N GI 7$.]&..U .U 6V 6V 6V 6V ]&..n +=..G 6V #` #` oS Bf GW cw {n /n 7h F] e .(+.=U aS bd@`.@cd@dd@kj+J%+MW (9 ed@w0 B1@&b -|.G] sS PP PP r[.",
"-J.B8.dh.3w.>j.;j.U. '/ !l n| )3 -K yt.yt.=s.8B $l+#, BN.9P.9P.s@@KK.KK.MK.yt.H5.o6 +{ -} -} MW.Q> -} Q> Na.G[+cc.;m+r8.s8.s8.Vn.Bu.Da.Da.Bu.Bu.er.Vn.Vn.Vn.Fp.}h.pZ.SL.-#+Pe+{7@fd@gd@hd@id@jd@kd@a4@ld@md@nd@od@lK+pd@Qg+[*@w$+q].qd@|<@KC+dh rd@nY y[.=` NK.AL yW {j 0*.aO qG 7c Ud GU /Z++d@wG sd@p( ED kt >I.S&+td@ud@e7.Op uN.,x Yy ax _F.vd@wd@Wl.xd@yd@zd@Ad@SS.l0 _-+ r+Bd@UV+yt+4>.h*.j6@cc .e 0B 'l mQ.eg+b7@;s.lZ.6O ;#+H5.-K %: 8B &v+;R.J0+X%@zv+jV+y>+U5+Cd@*p+_=+I' Dd@kS aj |k+Ed@Fd@Gd@f| mE C] ~<.Lt+6)@ T+Hd@Id@Jd@Kd@Ld@Md@Nd@Od@Pj+7A+DQ.Pd@Qd@Qn+>= -= M}@Rd@2J.zm.h6@ (.TH.Sd@Td@-3 lz.34 dm.:U.nE <h :W+ew+C-.b*.L. C%+C1.Ud@Vd@2-+]|@ww.T,.b*.P7 #W k6 )9 V% Vo }Y., @%: s| `Z 9V  2 eY '+ +2 #b UC 6).N!.:3.q[.ah eL+6V ]&.cw ]&.GI GI P!.5V %/. G  G Bq Bq ^N ^N GI 5V ]&.GW oS oS .U .U GW GW cw .G cw GW #` #` oS 7$..U Bf 5(.6h GW </ Cj.L@.*i+Wd@Xd@Yd@Zd@`d@GF+oJ.MW 8.@JW  e@oK+ec -|.^R /R o;+/R 9Y ",
":0.:0.'.+8K.D8.#; V% U. !l Hq YC x( =s.yt.yt.hJ.iE #, BN.K' s@@ P+KK.(v.e2+=s.-K ,9 +{ -} Q> G[+l< -} n( n( Q> G[+;m+s}+E5.q8.Vn.{0.{0.Da.{0.Bu.Da.Da.Da.Bu.er.hr.!7.u2.RW.|Y.7V Rq+#>@.e@+e@@e@#e@$e@%e@&e@*e@=e@-e@;e@}X.Z~+>e@6!+68+T0.RM <9.u7.qs j(.{I.nO GP *P.b*.;-.,K S/.vN }].,e@'e@)e@!e@~e@sd@(F GD kt d7.d7.#5@{e@1e.TK kv =C ]e@Gr ^e@/e@(e@_e@:e@<e@|r+n.+'n Hu.[e@H4@VV+x>+EP T~.KG.MG.L' Af /r+W[ b7@YF lZ.kM++N =#+J5.-K %: %l+.U.xw.p1+p1+Po+Po+}e@Po+|e@1e@@%@nj+>c@^W+oo.nb@2e@3e@4e@3m.Ah.XU+14.5e@m[.6e@7e@8e@@o+GJ 9e@|t 0e@*D.ae@be@ce@de@>E+ee@}-@6d+fe@ge@M}@,c@he@)l a7.ie@je@W*@&q.IR %W i6@nu ke@st.`T r0 AP 0;@le@)X.me@ne@oe@7-+*/.e>.]+.ZT Q1 ;} !3 u# 0! |H hV.=y r| 9V 9V r|  2 t| *: '+ #b ;+.;+.ah O' `!.l ..U 6V ]&.]&.GI GI P!.5V Bq ^N ^N GP GP WZ WZ WZ jE .U #` 6h #` .U ]&..U 6h GW 6V oS Yo oS .U .U >l !n w@@Jq ~9.zz 2C 6<+4r+*i+V0@:y.pe@qe@re@se@te@MW A< ue@ e@oK+ec -|.Cj.r[.IP O++}l ",
"hZ.ec..~+B8.#; s}+X> i%.n| w( YC )l /4.cN.e2+e2+iE (v.KK. P+Yh+Yh+Yh+`O.iV., @qo.s( s( Q> )@.G[+l< d%.p] 8m.n( -} w# ;m+;m+s}+p8.7c.Ck.Bk.b< {0.er.Zn.IH.IH.8h.*e.r8.)7.B#.qZ.}h -#+ve@we@qa@xe@ye@ze@Ae@Be@Ce@De@Ee@Fe@tJ.*G yl+sB.Ge@bR+JN+TZ.<R Oo /R IP X!. G D-.a*.D|+'l ]_.LR ]1.,e@'e@Ya He@He@@d@vG GX cm.zA {{ {{ zA sA qA =C Ie@Je@Ke@Le@Me@-O.t6@Ne@Oe@Pe@ec+i%.<N.Qe@Pm+Rq+wL K%.Re@YM ,R Ce.R7 #N uQ., @U`.kM+_/+=K =K ~y.H5.ZT $l+U @-4@Se@@_@`8@vZ.5I+5I+}e@9'@t$+Te@]/@~X+:g.'l !].<o.~P.O~+Ue@Gf.)9 pc.Ve@We@Xe@Ye@Ze@`e@49. f@.f@+f@@f@+z.#f@T9+$f@Eo.%f@7I+>U u' O}+mb@&f@C2.Zp.*f@ie.Ch.JR Xd 4j 2!.r^.=f@|U.+` N. m .-f@;f@>f@,f@'f@)f@!f@9X+J' N@.(l j5 k< )9 VC -K hJ.ZF pu r| `Z s| `Z ~} ,+ ,+ +2 ~9 >,@KG.7(.:3.:3.w_.#` oS .U 6V GI P!.5V )<.^N ^N ^N GP GP WZ 6&.WZ 4(.jE 4(.}l jE >l (9.q7.jE 5V P!.}l CW jE P!.GI 9Y jE q7.ku m-@~f@GZ.nP+]<.tz.{f@J++hR+]f@*y+^f@/f@6M.y| (f@@|@d).ec i[.z1.CN.CN.CN.6h ",
"Da.Jx.-e.aw.-!+^]+W. &= >/ %} `. )3 YC ]/ ]/ /4.f;+8B uw.uw.AI /v./v.|q.ZF ]/ Mm.Zd s( Z. W% W% l< d%.p] 8m.;} -} w# ;m+cc.s}+E5.7c.Ck.Bk.Ck.{0.Bu.er.Zn.IH.^0.]0.{0.Bk.Ck. : RW.1Y.K#.-#+_f@:f@{r+US+Um+2)@<f@[f@}f@|f@Fe@mz+1f@&G `C.D< 3]+`J }-+7q.IP 2l 1H rQ+.`+K|+Xa.Nf.!-.CV.S` c0 S<@2f@3f@4f@5f@TH GX yD u0 ]9 U7 U7 /F E^.6f@Je@7f@8f@9f@0f@D^@af@bf@cf@df@;=.o}.m%.#=+*-.rL 'l _J v| U;..2 ZC y( >{ {y.PW.fV.M0+=#+-#+-#+z%.yt.e2+5d+}-@><@S5@ef@ff@XG+gf@vZ.tt+<+._!@F%+BW (l+oE XZ 1j 8$@/[.s{+Kf.sr.F5.N7 F7+G%+Aw.hf@if@7A+I( jf@kf@lf@mf@a&@nf@of@((@pf@qf@iP. #.!W++ +rf@!n+8B &q.PA.%g.:]+O1 fE Gq X[ sf@tf@s^.O. qG dY R'.uf@vf@wf@xf@e)@Ip G-.s@@N@.q6 L'.p| !/ #n )3 yt.w] iS ZT t< t< ZT ~} r6 +2 ZZ #b t| yf@~I.3O w_.|g.Bf Yo oS .U GI 5V )<.q7.5V 5V Bq P!.^N ^N GP GP jE P!.P!.jE )<.}K ku `x+b>.b>.q7.jE 0Y P!.P!.4(.9C.ku ~f@zf@B++T3@FI y_.xS z^@I}@Af@Bf@Cf@=#@Df@Ef@nJ.RW -m+@|@d).kn+ec As cV iJ.HW 5(.",
"Bu.*e.Kx.Gk.$o.7K.$j. j.C#.5Z nt.U. &= v:.v:.,9 /l (l ZT mE +G +G JG.J~.J~.J~.-K -n ,9 '9 '9 n( n( n( n( u^+[0.[0.[0.[0.!7.r8.q8.{0.Bk.Jx.{0.{0.p8.p8.p8.p8.p8.p8.p8.p8.V. D5.t2.u2.pZ.qZ.qZ.K#.7V Se+==.=e+Ff@Gf@Hf@If@Jf@Jf@Kf@Lf@*(+5c@)~+=_@$R W!.|l '=.e>.F1@L0.9.+8!.n .3l e*.aZ `a.[4 DR v}.Mf@Oy -W -W TR uD ED 7v )v.Nf@Of@Pf@Qf@Rf@DK.#x Sf@Tf@Uf@Vf@Wf@K@@eP.no.Zd xX += qm.Xf@Yf@,4@Y[ {/ aj oo.hJ.'I.B2.J5.)[..N .N N~.pL Zf@/!+=>@`f@^$@ g@.g@+g@Do.@g@#g@$g@w{@'~+fT+V++k .^&.q7.,I.4h _l e*.q< `d ,9 =3 Iq z] ,=.~s.%g@N<@&g@i;+ D+`v.*g@=g@Pj+-g@PF.X}+n0@}6@;g@]V+. +5H F1@I5.BX S> $W `a.ou {} jS )-.hj.DE+MR HX .& A# >g@,g@vf@'g@)g@!g@~g@R[+y# Be.]/ W1 a! @4+{g@nN.mL  + L7 )1.K#.{/ xt.K5.pu .2 8B $, L' @b ;+ ;+ s0 qu 0).~+.HI &N Aj.z].:&.:&.Aj.&N oq+o .*N *N *N *N ~+.Aj.Aj.o ..U nS Qo aV H0.)9.-+.H].F] ;R  F  F q7.E@.T3@~9..n GI FI 'N J_.LE+h$@]g@^g@/g@(g@0A+Zm.|s.i$+G].fV kn+7(.3O ^+.;R bV uP pS ",
"er.er.Au.Xn.Cu.Jp.Bf.Bf.)7.0h.3*.u8.5Z *= Z. o| 84 ^l -n yP mE %: JG.J~.J~.J~.ZT -n -n gE p] p] n( n( u^+u^+[0.[0.[0.[0.9G.t8.r8.s8.Da.Da.Bu.Vn.E5.V. V. V. V. V. V. V. V. D5.D5.B#.B#.D5.D5.V. k< Z@@$, ec+Qn+_g@:g@<g@Ae@[g@}g@|g@1g@Jb@2g@w7.(I.BW 4&.>; '=.cj C-.iY Od 9).Q'.!-.Eq r^.f*.MR ]M -W <x <x <x <x Nf@(F -W 1x Oy z4@3g@4g@5g@UD.ZQ+6g@0r 7g@8g@9g@0g@R6+*>@Dz m< 9V.ag@m_+4S.bg@o] @N YF @V+`O.e2+=s.x( h5 5j KD.N~.cg@0'+E9@dg@eg@fg@w+@gg@hg@+g@@g@ig@=4+'9.#i+yw+_+.(I.xS AL D-.n1+,l 4H :4.eE Gq sf q0 P7 :g.,p+jg@x{+kg@lg@mg@lB+ng@og@BQ.pg@qg@;g+mc+Y~+s4@p$.=/.n$._l.%l+CV.:j 04 ^_.ys 8V 6>.n..rg@7%@GX LH '; DW YU sg@tg@ug@vg@wg@xg@F7+V5+I5.@+ x( K#.`. {g@yg@%W+s( .+ 7!.7!.XC {y./4.JG. U.8B 8B %l+aY ;+ ;+ -y qu >(@0).HI o .Aj.z].z].z].Aj.&N &N o .HI HI HI HI o .Aj.&N ~+.#` .U 6V GW 9B ;R ;R  F  F ;R /9 ;R jE 5V +=..n .U GW q_.&R }6.s0@I[@zg@Ag@H(.Bg@Cg@Dg@U:@N5+F( =R B1@3O .#@eb.wP  F +U 5(.",
"wu.Au.Da.Jx.{0.ir.r8.t8.p8.E5.C#.o%.5Z xX W> o| 84 ^l -n -n %: ZT J~.J~.J~.J~.ZT -n -n gE p] p] n( n( n( n( [0.[0.[0.[0.6h.9G.t8.r8.^0.^0.er.ir.E5.V. V. V. V. V. V. V. V. D5.D5.B#.B#.D5.D5.V. V_ *} /j @ +AZ.Eg@`0@nw+Fg@Y:@C+@9-+Q9+Ve+lj+t5 JP VZ dO |l Kq zs Ae.Bf !R N+@4,.Y` )-.j..8o.R}@8Z (F xG vG vG vG vG vG TH 5g@+d@D^.Gg@Hg@Ig@Jg@zr #S Kg@L[@Lg@Mg@Ng@Og@Pg@oo.V> ;@.4'+4'+;@.q| :,.xt+=`+fV.hV.@V+=`+1q.)[.u:..N =#+M5+Qg@;>@Rg@Sg@Tg@Ug@Vg@Wg@;<@Xg@dq./3+:Q+#i+/R.e(.g(.h(.U@.:h c*.!R bY 2,.{@.o# h| -n iS uQ.Yg@Zg@`g@ h@.h@+h@ ~.@h@68+#h@$h@%h@&h@*h@_8@<+.kP.=h@]y.e;+zL K~.xs N@.mb@<K CI JS.-h@;h@>h@h$.#e $, oS ,h@'h@)h@!h@~h@^l.{h@'}@X4+AI |q.H5.J5..N ED.]h@mt.>/ =#+qo.J5.z%.{y.7O JG.J~.(4.y( aY aY B] B] @b !9 UZ+>(@~+.HI &N &N Aj.Aj.Aj.&N o .HI HI HI HI HI HI &N o .~+.0).HI #` 6h 6h 6h eV pS vP  F ;R 9B !n CW #` oS 7h 4l jL B4.'R.W{@^h@/h@(h@_h@:h@Ta@<h@o'+Z%+tS rS <H l .l .`% @e #` 6h 5h ",
"Mp.Lp.Au.Da.{0.ir.q8.q8.7c.Ck. (.C#.xX '@.5Z W% o| ^l (l (l {} {} K5.K5.J~.J~.ZT -n -n gE p] p] n( n( n( n( [0.[0.[0.[0.Ef.6h.9G.9G.*e.Ga.Au.hr.E5.V. V. V. V. V. V. V. V. D5.D5.B#.B#.D5.D5.E5.Vk.[h@j< {} KK.-=.U5+Q7@x$.^.@}h@oV oY cC.Fw.3l.A_.He.bS UP X!.~X.R!.LT+cw 9%@~3@et Y` (F.8o.FX EX (F xG vG vG vG vG eA wG X_ |h@D^.1h@2h@2h@3h@*C 4h@V'.5h@2)+6h@7h@8h@'q+E7+oL :,.E#.}H 'n 'n Q`+},._$+qL U`.|H 1q.`. s( n}.mL -s.9h@SX+0h@|s+ah@bh@ch@}s+tt+)j+`8@#q+zl+|S+7)+^R./R._I.e(.H_.'N T3@~9.{R 05 KX 2J Cs 8w 2!.l0 aS.Yh.sQ.[g.dh@hj+0F.R4.eh@oY +U.< @.7@fh@gh@hh@p1+ih@NZ.](@9{@Y,.`F iV+6,@{l.Y% /)@C<@g:+.`+uu s0 2l.1H jh@kh@lh@mh@Uh.nh@oh@'}@X4+WL.B2.)l v] Zd 5j 0Y.S. '[.@N O7 ~y.)1.N'.uQ.Dz +G Iq N@.(/ (/ B] B] @b  i.h! A] >(@~+.HI o .o .o .&N &N o .HI ~+.~+.~+.~+.0).~+.HI HI o .&N GW oS #` #` vP vP  F ;R 9B 9B A].A].CW Df R@.su e).p7.$y ph@qh@qg rh@sh@th@uh@vh@x3@Ao.<I.=d./9 jL %` S@.#` o .]+.cY ",
"Ox.Kp.Wn.ir.ir.Vn.{0.Bk.p8.Ck.Bk.)7.W> '@.W> W% o| o| 84 84 74 74 J5.J5.H5.H5.H5.o6 o6 +{ o| o| -} -} -} -} Q> Q> Na.Na.0h.0h.6h.6h.9G.t8.hr.hr.E5.V. V. V. V. V. V. V. V. D5.D5.B#.B#.D5.D5.E5.^0.Oa.[0.4! ac f;+no.a,+$%@,m+h .qY.tb@(I.}R }R )}@<X.~s.bS ]X.W!.dj zs Bf ]{ o[.+& zD 7T @q.EX EX iA =/ ^5@#d@[x wh@xh@yh@zh@Ah@Bh@Ch@Dh@Eh@Fh@Gh@Hh@TD.a$+Ih@Jh@Kh@jM+VV+Lh@}Y.;%@`%@=-.[Y.xf+3! 5!.XA+()+W`.mZ._$+:/+jK.pZ.o}.MT+UT+fg+|z+|s+4s+Mh@Nh@Oh@Ph@H.@}-@G|+OS.OS.7)+^R.^R.^R.|s.qY q .2H e ..U VF x%.}J IX Cs m5 W1 n6 eg+<l.Dt.G' 0Y ,|.N++NG.U@.^X.D_.xw.oe@Qh@39@Eg@;T+It.It.. +*+ Rh@Sh@Th@Uh@%~+W4+Ip nr (l+}l w@@Se+#[@Vh@Z~ Wh@Xh@Yh@Zh@6,@Y,.k$.f;+uQ.x( Yd 9w o6 Hq lK.h4.~ @`h@uQ.I5.0w Bz Dz JG..e R7 r0 r0 DS+B] @b  i.(/ B] DS+,I.5h {+.@` @` ]+.@` {+.5h 5h 5h 5h 5h j$.j$.{+.%N !s.%N 7h 7h S@.S@.S@.Df $` kj %` F] GP WZ }l 7h #e B( 6).17@ju wz ;y+ i@!o+.i@+i@Cy.@i@L%+e @<I.PG.0(.4(.oS &N HI E|+zI 0w ",
"[z.gr.hr.ir.Vn.{0.$e.$e.!7.p8.Ck.E5.Q> 5Z *= W% o| o| 84 i5 h5 h5 J5.J5.H5.H5.H5.o6 o6 +{ o| o| -} -} -} -} Q> Q> Na.Na.Ff.0h.Ef.6h.9G.t8.hr.ir.D5.D5.D5.D5.D5.D5.D5.D5.V. D5.D5.B#.B#.D5.D5.E5.Cf.Oa.Cf..~+V. KD.=K xt.LK.`F CI a>.#/.#/.#/.} +fO eT+eT+fO <X.B].4V ~X.LT+.i.Ez !<.+& BD ct mt vD >C ^5@^5@[x #i@#i@$i@%i@zh@n3@&i@*i@=i@Eh@-i@;i@>i@,i@>l.~3@'i@)i@wt+!i@Lh@Ct.}Y.WT+>s.[Y.~i@3d+&-.XS+V6+XA+{.+XS+pZ.v2.qZ.-#+M5+]k+O7@{i@{r+]i@b'+5)+%~+%~+,L+0{@0{@0{@xw.OS.7)+7)+5v.5v.&i+Dj.*` jY -<.]{ 5B k! yN Ds !} >3 #: R. ={ f5 ^i@eE ,y >+.8).b*.cj L1 ^g./i@(i@_i@0)@:i@<i@xw.[i@}i@l.+SZ.|i@1i@2i@3i@4i@h$+BW X!.TW.+ +UZ a{@|=+VW 5i@6i@9>@7i@(l.SW.I5.aj ~y.N~.,} Hq Zd lK.H5.2F.*y =y 6-+pu ^j yI RH cY y].Af .e ,I.DS+s0 !9 %l+aY B] DS+,I.5h 5h 5h {+.5h ,I.,I.j$.j$.j$.j$.j$.DS+,I.]+.]+.,I.;+ `% ;+ ;+ `% Cf Ez $` %` F] ^N GP 0Y 7h UC 3!.;F )1@B4.8i@;y+pg 4:.9i@0i@ai@@D $i+yz.8F.i(.G4.A].9Y |&.-+  P+N@.L7 ",
"[w.fr.[z.Wn.hr.Vn.Ck.Bk.jG.V}+E5.E5.;m+G[+Na.G[+-} -} &} `d N~.N~.~y.~y.H5.H5.H5.o6 o6 +{ +{ o| -} -} -} -} Q> Q> Q> Q> Ff.Ff.Ff.Ff.6h.t8.hr.ir.D5.D5.D5.D5.D5.D5.D5.D5.V. D5.D5.B#.B#.D5.D5.E5.t8.*e.Au.]0.{0.7c.D5.Y. )1.N~./4.AI )s.{K qc@Y% pU+{V+)n+V++s[.U@.y_.CN.As Bj.@b 3O bi@ci@6J WD.eo./_.~[.(7..b.di@di@ei@fi@gi@be.hi@hi@ii@ji@ki@li@mi@ni@oi@)-.pi@qi@ri@si@45@H4@ti@ui@vi@wi@5!.C;.5*.xi@2;@yi@{.+XS+RL.jV.pZ.pL zi@Ai@W4+Bi@Ci@N7+F|+q+@Ft+,L+ Y+d,+V @n>+~m+xw.7)+|S+[y.#m+R4.fM+hV KW rS #& d$._/ eY ]3 fE #n &{ P}.s%.~.+<,.j%.=} +(+VC ,].f;+<g.Di@nj+Ve@Ei@Fi@Gi@+2@NZ.kh@Hi@Ii@Og@Ji@Ki@[c@Li@Y%+==.:K ^&.dj + +IS.)W+og+5^@Mi@Ni@'=+5H b*.)n .X+B2.{} h5 m| YC K#.64 w] +G #B..2 ZZ Q7 ,+.nG YZ $N m .6>.y].Af R7 &: L' iE (v.uw.z( Wo )n bj bj bj bj )n Wo z( z( z( z( Wo z( )n i$.{+.(/ $l+$l+s0 s0 ;+ `% Cf @e wP  F GP GP 4(.4l .=.M' T7 (-.fV 1s.Oi@pM .T+Pi@Qi@Ri@kE.Ve+[y.Rm.WV./I.U!.)N WT  7@{k+^v.XC ",
"{Y._z.Op.Ox.Kp.gr.)7.E5.m%.jG.!7.E5.E5.;m+G[+Na.n( -} &} /T 5j N~.~y.~y.H5.H5.H5.o6 o6 +{ +{ +{ o| -} -} -} Q> Q> Q> Q> V}+Ff.Ff.Ff.9G.t8.ir.Fp.D5.D5.D5.D5.D5.D5.D5.D5.V. D5.D5.B#.B#.D5.D5.V. b< Ep.Wn.gr.Yn.Ga.r8.t8.E5.t( o}.-#+7V k$.RX+&*+[/+Si@eO aP+=/.0b.r[.z1.E( Lq qu aw LG.Ti@-F Mt O~.bm.iw.(T tt.F#@Ui@Vi@ei@gi@gi@Wi@ce.Xi@Yi@ii@Zi@`i@ j@G#@)y..j@+j@@j@#j@W0@$j@%j@&j@~.+5*.4*.CO.~S.g++yi@xi@xi@7Q.7Q.QW.:/+Nm.kc+x@@s#@*j@=j@tg+'~+G.@N.@0{@u#@d,+6d+n>+0{@xw.#i+8Y.#m+!b@8)+q4@nW+RW {; s1.][@Oq ~9 iS 1j *K i%.w:.+4+^;@M9+,)+}o.>@.V% s( YC WL.{X+&f@*d.-j@;j@>j@:h WZ .5@,j@'j@hg+)j@!j@~j@{j@9$./)@:K Y[+Po VW+[{.v@@6H ]j@]j@T[ &=.%=.&N z( 6-+mE q0 .N Yd L7 =s.uQ.J~.0O DP H8.hj mG r6 m .m .nG 0B m .6>.y]..e &: Ce.MK.iE uw.^/ Wo )n )n )n )n Wo Wo z( ^/ ^/ ^/ ^/ z( ^/ )n AN.@` B] $l+%l+Cf Cf ]R ]R ]R ]R aw +U WZ GP jE 4l .=..& T7 %M+2O ^j@J[@/j@(j@_j@:j@<j@MN.Ve+lM+^V+LP _I.9Y.{V+,U =[+(!+QA+=`+",
"9Q.4;+[j@4;+9Q.2t.!7.E5.E5.p8.{0.{0.S/+Vk.-J.dc.;m+G[+Q> X> u:.5j o}.)[.=#+=#+mL o}.mL mL v:.`_ o| o| o| j< W% w# w# w# v8.o%.jG.0h.Ff.Ff.Hp.Hp.V. V. V. V. V. V. V. V. V. V. V. V. V. V. V. V. iK.V@+D_@jr.Wn.hr.Au.hr.Hp.B#.pZ.@e+#V+Qq+}j@{7@#%@!N F%+g).g).V!.X!.A].CN.Lq 9(.|g.|g.LG.$9@:3.5w l-@@2@4,.U/.{o.|j@tG.e0 1j@2j@fi@3j@4j@5j@6j@7j@*F.8j@7o.bm._a@9j@0j@aj@#>@#~+bj@kM+QW.1*.s}.O}.H&+cj@dj@ej@fj@cj@MT.5$+7!.)d@&+ -4@@g@Ib@}I+gj@1=+zZ.ct+xw.~x+ Y+N7@0{@0{@xw.|S+hj@hp+ij@!b@R4.va@B< &2 fP.rS ~9.8%@Nf.,n 9w V> *o.c{@-o._-+o%.D5.1*.j%.s( =-.kg+>{ D|+C2.jj@kj@5>.bY su /n !X+~l.&v+lj@mj@mV H%+g$+2&.;~+AA jr 'I.@ +g).OV.nj@oj@Vh@dO k$.(/ TZ+h4.~y.yP 2!.s< ~y.xt.oo.:g.6>.3H VF R@.R@.R@.m .cY YZ CP mG #=.,+.Q7 r6 dY ZC f;+y( N@.Iq Iq Iq N@.ys ys Iq N@.y( 8B f;+f;+y( (4.N@.N@.(4.y( ZC 8V L' $, L' i! cc DW z-.7h l$.2l }l 7h 3H .=.;+.)1@D# BF+t0@4f.pj@65.qj@rj@sj@`&+5l.LR+'o+*@@=e+p>+tj@BJ+TW.7P.,{ ",
"Pp.x7+0Q.Pp.9Q.]S.n%.V}+)7.p8.Bk.$e.^<+S/+dc.:0.s}+cc.Q> W% ,/ 5j .N mL =#+=#+mL o}.mL mL v:.`_ j< j< j< j< W% W% W% W% o%.o%.jG.0h.Ff.Ff.Hp.Hp.D5.D5.D5.V. V. V. V. v# V. V. V. V. V. V. V.  : Fi+)4+V@+D_@jr.Wn.hr.hr.jr.}h.qZ.1Y.uj@`W+Db@%Z++e+9{@Z% S,._K X!.}V dj T@.{<.ru vP wP a3@B1@]{ ZR+=i+vj@ZM+-X.@q.D7 K8.tG.wj@xj@yj@zj@Aj@Bj@Cj@Dj@Ej@Yr.!F IV.Fj@Gj@Hj@.9@Gk+08@[-@|H 9! += 1m.)@.^;@Ij@Jj@Kj@fj@g++U@+G~.2q.NS+,U Lj@Mj@Nj@Oj@rJ.l%@Z8+4v.nz+OS.Qn+5r+I.@Qn+OS.s4@/3+Pj@Z[+t1+Qj@Dr+J%+fM+[I.fP.^N :{.S|@FW /r+~3 a! +X.s%.u2.4*.5V.t%.P}.Rj@*M.=`+yt.mQ.5,.'l ]o.^o.Sj@(l r*.uL Fe.i'+Tj@Uj@Vj@S,.0>.*P.K0.lu 5w  5@F++Wj@kS.ze.Xj@(D+g3@'= DS+r0 ~y.Sj@sf (l %: ]/ oo.#+ +n ]+.VF ;y su Va su $N m .XZ YZ $=.Fz N. DP r6 dY f;+8B y( N@.Iq Iq Iq Iq ys ys Iq (4.y( f;+ZC 8V N@.Iq ys ys Iq N@.Ce.$, r0 &: )= cc >+ >+ cc ;+ !n CW Yo S@.EP DW 3O iL kY rI 4B+Yj@vx Zj@`j@ k@.k@+k@87@Tm.7]@,T+@k@#k@ef@$k@A .t$+P}+",
"2V.Yi.Dk.3h.8Q.^-+s}.jG.=e.6h.q8.Bk.^<+Uk..~+dc..~+dc.Na.Q> Y. u:.o}.o}.=#+=#+mL o}.mL mL v:.`_ j< j< j< j< X> X> W% W% o%.o%.jG.0h.Ff.Ff.2t.Hp.C#.B#.B#.D5.V. V. v# v# D5.D5.D5.D5.D5.D5.D5.t2.1;@1;@1;@Fi+iK.Vi.Vi.jr.Vi.Vi.Fi+1;@a:@%k@&k@(Q+ti+a,++p+;; R[+8U.=N !n l$.Ae.5(.+U +U '|.x_.HW /R )|.YT +5@qr rr (F.UR /P.yG *k@4g@Py =k@K8.do.3C.ZA.G#.dZ -k@;k@>k@~R.G|+xw.U @3&.z( Hq 4'+dh.+4+Q`+,k@`e+3d+Ja+C;.7Q.fc+0S.5&.{s.UG+YK.'k@-(+)k@!k@;|@Z5+Mi+hp+& @7I+H.@H.@h#@:Q+~k@{k@]k@]k@Ve+^k@V#@K%+=B.qY IS.)N yW >-./|@d2+F' `> #M.u( :/+},.*-.fc+5.+OW./k@DG.64 ]n Pd r^.ID.2Z =@.2Z ]3 JG.,l 3)+(k@_k@zL bO -h@mW+/@.gY.{D+:k@<k@/6@oj@[k@}k@QI+0Y ;+ DP ^3 Sj@t( sf %: pu =P.II 1,.4l jL 8(.m! Zo 8h su R@.Mq Mq _&.$=.#=.,+.Q7 dY f;+8B y( N@.N@.Iq Iq Iq ys Iq N@.(4.y( 8B f;+ZC cN.cN.|q.|q.y( 8B ZC 8V $, L' Ce.r0 Af y].DW Cf 6h 6h Bf 5(.`% 6h ;R *R j(.|k@KF+1k@}A.C!+(r.{x.2k@3k@I@@}s.2I+68@4k@5k@6k@M7+7k@as+2d+",
"Ek.3h.|h.2h.Tn.^S.l%.0h.2m.1m.N:.Ef.-J.Vk.S/+S/+dc.<0.[0.[0.Q> X> n}.o}.=#+=#+mL o}.mL mL v:.`_ &} &} &} j< X> Z. Q> Q> o%.o%.0h.0h.0h.Ff.2t.2t.)@.)@.C#.B#.D5.V. v# v# D5.D5.D5.D5.D5.D5.D5.t2.X`.X`.X`.Fi+Fi+iK.iK.Vi.iK.G8+U@+L9+8k@#,@iR+ON+88@S0+F@@V5+QA+{K {K '= v_.fj 5(.-y 9(.9(..i.7&.(I.Z%+(I.iu '<.>x at VD.M2.Ny (F 9k@@F 0k@kA M2.OG $b dZ ak@bk@ck@=b |o Z @x3@8Y.>l+',@Ce.4j ;@.}C.I~.K8+X`.H~.dk@zb+I~.fV.z] D].{l+ek@fk@gk@hk@j/+%'+ik@jk@kk@Z5+ U+)j+Q7@$q++7@lk@bt+Qt.EQ.]k@T#@mk@5!+5l.6l.~|.og+b$.S,.a>.*d.)X+Ee.d2+mQ.S% %{ XA.nk@E' I5.F' /k@ok@6S.H5.wS.l..Rd tt.Dj@&@.2h (j qc.Wo pk@qk@vj@{9.S|@N+@G;.Q!.ts rk@<k@sk@tk@uk@vk@^D+4(.T`+C] rf (1@SV+-n iS pu )K ~K HI 4l jL 8(.m! Zo 8h su R@.Mq Mq 05 _&.mG N. Q7 dY 8B y( y( (4.N@.N@.Iq Iq Iq Iq Iq N@.N@.N@.N@.N@.cN.|q.|q.|q.y( 8B f;+ZC $, $, L' &: .e 6>.3H 3H Cf Cf +e 5(.T@.!n y_.[6.aS wk@L~@/h@<A.xk@yk@0l.#P.I@@3k@B .Lt.zk@Ak@Bk@Ck@Dk@Ek@WG+zJ+",
" (.|h.|h.2h.}h.3h.Ff.)7.tr.tr.tr.%j.4t.TO.Pa.^0.9h.9h.=e.n%.v8.D#.jK.G&+SL.SL.SL.TL.SL.SL.G&+`_ i5 i5 i5 84 X> Z. Z. Z. w8.w8.w8.w8.w8.)@.2t.2t.w8.)@.)@.C#.B#.D5.V. V. D5.D5.D5.D5.D5.D5.D5.t2.qZ.qZ.+~+Fi+Fi+Fi+U@+G8++~+Fi+U@+RL.L9+L9+L9+8k@x5@M5+`W+5Q+Fk@=;@=;@SW.E|+HI cj }l CW CW }l G4.:|.=_@cC.L2@r .tz+>x ,W cJ Gk@/F Hk@qt Ik@yA !I 3v Sf.h!.Jk@Kk@5$.+i.Lk@Mk@Nk@Ok@Pk@NT+ej ZC t< g5 oL Mm.!<@N@@Qk@W(@mZ.e2+-+ p$.VK.QC.`;+pp.oy.Rk@v)+xF.,H.C^+aD+Sk@Tk@ee@qm+lk@lk@Bo.C]@EQ.;g+0]@5N+C]@Uk@T6@!m+&l+XV.a{@bS ,=+b).8>.,l a*.rc.!q.R% 5.+P. YY+-#+cN.Vk@Wk@Xr.4h *y 9j Z1 fE XF ]l 1j pu @G q_+Xk@X4@a;@S|@N0@$s.t2@E@.Yk@Zk@`k@ l@.l@/6@^D+.U *s.}h 3!@SV+![.lL eY ys )n E|+HI $` ~; 17@MR+d$.]{ ;y R@.lG Mq fY 05 @=.'+.^3 ~} +G ]/ ]/ {y.{y.N'.N'.7O N'.N'.7O w] aj VL.aS.uQ.uQ.uQ.uQ.uQ.uQ.uQ.RH RH Bz yI DP Q7 DP ZZ ,+.,+.z-.3H 7h oS 9Y nO }R Z%++l@j] I!@zg@ t+@l@#l@|*@+q+^s.}h@B{@,j+$l@%l@&l@*l@=l@[g@-l@gq.",
"b< 2h.Vi.|h. (.2h.E5.p8.#e.1m.&j.2,+)e.Lf.5t.(Y.7h.9h.Ef.Ef.o%.v8.5$+jK.SL.SL.SL.TL.SL.SL.G&+`_ v:.84 84 84 X> X> X> X> w8.w8.w8.w8.w8.w8.Tn.Tn.w8.)@.)@.C#.B#.B#.D5.D5.D5.D5.D5.D5.D5.D5.D5.D5. : t2.hK.+~+Fi+U@+U@+U@++~++~++~+iK.iK.iK.G8+U@+}0@9'+9'+x5@x5@'I.'I.'I.y_+y] zj.u_.DI 5V P!.{I.[y.JN+PW SM B< A< D#@;l@5M tt bx [ @ZH Fy o8@&x 1K+QK Fy VM >l@,l@'l@^+ )l@.q+!l@~l@23.qY #*+I5.J~.l0 2q.|H ;s.;%@!<@*s.`O.Kq =B.hL+W>+ep.s=+H,+I,+LM.A*+*;+T_+{l@]l@eo+Oo+dU.lk@^l@/l@1I+Pe@jS.(l@Pe@Do.@g@#g@ U+r#@iZ+Ue+B7@I%+XT _l@:l@{j u%._l ]3 '} >n <l@pc.=P.'K [l@}l@uw.)K qc.nE pc.8j Cs Cs h4.ys (v.q_+|l@a;@'l+bY ~1.aV 2l UP 1l@2l@3l@2l@W@.~#+oS 7V .N 5c Z@@x:.EW P@.Lm.E|+zj.bO  F <H ~; 5).jL jL R@.R@.B( lG fY fY .` '+.^3 mE {y.{y.{y.]/ {y.{y.N'.7O N'.7O w] VL.aS.9*.E;.0< e! e! 0< 0< 0< 0< nE nE rc.Bz N. ZZ ,+.0O #=.#=.5B 5B Va ]&.4V g).<<.b}@4l@5l@6l@P(.9u+K> fw 7l@13.]s.,T+[v.8l@9l@0l@al@bl@cl@m2@dl@el@",
"Ma.rZ.}h. (.Ma.2h.E5.p8.=e.#e.2m.&j.)e.Kf.R`.Gf.fl@&e.9G.t8.)@.w8.jK.G&+SL.SL.SL.TL.SL.SL.G&+`_ v:.84 84 84 X> X> X> X> )@.)@.w8.w8.w8.w8.Dk.Dk.)@.)@.)@.C#.C#.C#.B#.B#.B#.B#.B#.B#.B#.B#.B#.B#.V. V. D5.t2.u2.v2.RW.RW.Y`.RL.G8+Vi.}h.jr.jr.Wi.+~+O7+4Q+@e+uj@cg@cg@'I.Be. P+,R.-+ '=.}&.e>.C].^k@)~+y7.dh Q0.p0@{1@Rt.VM *o gl@`c.Vp jD hl@il@jl@kl@ll@ml@nl@ol@Sf@pl@ql@~L.d!@rl@'m+C< w6 v6 (/ Dz cN.B2.K#.K#.K#. U.(v.1l 5v.27+I( >H.b{+/n.sl@tl@p&+r3+}|+ >+CQ.6N+at+^l@ul@^l@Oo+vl@Fo.(l@wl@xl@yl@|)@xZ.;<@Xg@st+h#@xw.fT+cS dS {X. n gJ.g%.}].9Q d..+b /e.n# I5.<g.zl@bb.NS+<K Al@mb@ys Qd CU >n D|+~K S_ Bl@c*.{j 1,.]&.)<.nO bS ww+Cl@Dl@bP.cS X!.6h $, A-.W~.@/.p# rf '+.:g.<g.'}@<&.9B iL ~; ~; %` %` %K %K 5B B( fY fY .` '+.,].%: N'.{y.{y.]/ ]/ {y.N'.7O w] w] aj VL.aS.uQ.9*.E;.9*.uQ.uQ.uQ.uQ.uQ.)R )R RH 4h ZZ ,+.N. 0O 0O N. S7 ~9 z-.}l dO Si@x[.{l+El@s'@Fl@Gl@p/.6u+Hl@Il@iV t .Jl@Kl@Dz+Ll@Ml@Nl@Ol@Pl@Ql@Rl@Sl@",
"Sn.|h.2h.b< Ma.|h.)7.E5.=e.N:.#j.2m.%j.3t.#j.gZ.7h.Df.q8.p8.D5.C#.jV.RW.RW.RW.SL.pZ.SL.RW.G&+jK.`_ +{ +{ 84 X> Y. Y. Y. )@.)@.)@.w8.w8.w8.w8.w8.)@.)@.jV.)@.v2.C#.v2.C#.u2.X. u2.X. ,/ X. ,/ X. V. V. t2.t2.u2.RW.RW.G&+{S.5*.p%.3h.Wi.Hp.gr.2t.h++2;@2;@L9+XA+M0+kM+qL 3q. P./v.'I.@ +// ~X+} +w[.Pk@lM+Gj.H] r0@A< {L+yQ+UM UM wv Tl@Ul@Vl@Wl@Xl@ q Yl@Zl@`l@dY+ m@.m@+m@Je Wv.@m@H(+#m@$m@H] cO Xh.b,+iE x] ]/ -K =s.SW./)@Gy+Dg@jB.)r.%m@&m@A-+%f.~}+*m@=m@Q_+-m@CQ.;m@R4+p5@Kt.>m@,m@.g@'m@wl@)m@!m@xl@~m@~m@1I+{m@]m@eU.*+.=+.=/.VZ 4V .U P@.z#.}J KX Y` fY kS ^m@;-.SW.q_+S_ H' /m@xj.'K #} Y[ 3l O'.II @ +>-.K0.<4 ;+ Cf P!.}V JP (m@_m@:m@E%+!X.Se+Bf i! U;.j! ,y O@.,+.m . D iY F;.]&.jL 5).~; <H kj %` ]{ Va ;y CP XZ *y rc.p0 {/ -K N'.N'.{y.]/ ]/ {y.N'.7O aj aj aj VL.VL.aS.aS.aS.aS.aS.VL.VL.VL.aS.yI yI 4h 4h Lm.y].Lm.&: f;+K0+#B.ZC  i.zs ng+=+.<m@}6@[m@}m@|m@1m@2m@3m@4m@5m@6m@v[.7m@,T+Xm.(l@8m@9m@0m@De@am@bm@cm@",
"Vi.jr.Un.Ep.Fp.b< b< b< Un.Hu.^S.Pp.]S.N:.]S.[w.<N.Jp.Tn.Hp.Vi.Vi.Wi.G8+hK.iK.Fi+G8+U@+U@+Fi+pZ.&= &= '/ Z. X> Y. ,/ ,/ X> X> Z. Z. Z. Z. X> jV.jV.jV.G&+jV.v:.X> v:.X> u:./T u:./T i5 &} i5 i5 5j qZ.qZ.qZ.pZ.RW.G&+jK.s%.QW._-+jV.v2.B#.D5.hK.)4+h++dm@g++yi@L9+L9+SL.:$+LD.7!.x( xt./4.uQ.qQ.XT sz.ww.IS.JP JP G].fP.,: qs QF+em@fm@{x+gm@#M+hm@im@jm@km@lm@sW |y.L'+mm@nm@{r.om@pm@tz qm@rm@qI ;(@UW.Se+BN.8B K5.B2.MK.$*+5{@Um.sm@ce@NN.tm@um@'u.vm@]&+C-+wm@xm@K'+ym@zm@M2@Y~+`0@Am@ye@Bm@wl@ta@(l@(k+(k+(k+TG+Cm@vl@Bo.!m+:<.SS.kS.~j jE ~+.1,.{1.mW+BS.J;..P.Bz 25@Dm@Em@ , ]v.--.Fm@&4+'n r# }J.j0 +b 0w $=.fY Zo Q@.cc >R As S1@`I+pP+Gm@AW ,; #, %l+6>.R7 ,I.CW fj 2l 4(..n 4>.su kL K%./W+:3.l .4l +p +p ]+.]+.^W+a*.2s+25@j0 <l )[.Mm.qo.;#++N +N qo.=`+YF rL rL rL rL <l.<l.<l.<l.e! E;.uQ.aS.>{ >{ mj+ P.>{ mj+,{ )n ^v.z( ^v.^/ QC+Bj.QC+w@@#*+.X.(<.D|@Hm@Im@Jm@Km@Lm@Mm@Nm@-*+Om@s[.JP ^<.K% ,y+pP +q+Pm@Qm@.>+ >+Rm@",
"8Q.Gp.Tn.Hp.Un.Ep.Fp.Fp.Hp.Gp.9Q.9Q.Hu.2t.2t.Tn.]S.Gp.Tn.Hp.Vi.}h.Vi.Wi.uZ.uZ.hK.iK.iK.iK.Fi+pZ.&= &= '/ Z. X> Y. Y. ,/ '/ '/ '/ '/ Z. X> Y. ,/ RW.RW.RW.RW.n}.n}.n}.n}.`d `d `d `d `d i5 i5 i5 o}.TL.TL.TL.TL.SL.G&+jK.s%.QW.D#.jV.v2.u2.u2.hK.=b@Sm@Tm@Um@Vm@)4+].+].+t%.M'.*{ o] Y> LD.<l >9 G' 8'+5d+:K BW V!.V!.i(.:I.8F._|.<)@t5 Dr+te@+a@Wm@Xm@Ym@Zm@`m@Ev. n@->+.n@%R++n@w!@ik@@n@cF.qm@L_.-b #n@^I.~X.UZ+TZ+L' Be.TW.Ga+w{@0]@$n@%n@&n@*n@=n@-n@S;+;n@>n@][+Dn.,n@'n@)n@Gf+_g@!n@~n@{n@+g@]n@^n@/n@/n@ v+(n@Wc@Gb@Do.at+^s.ij+D_.=/.W!.xW DI *N ~+.0.+_n@:n@6,.@} d! 6/@<n@>9 2q.[n@5!@*M.h6@vK.Z1 04 f6 jj &, .=.e).l .}2@]3.}n@|n@-z 5d@*o+ P+$l+(/ 1,.HI JS.$*+)N -/.^R IW $` x< zN v].]J g5@ah +p {n F;.C-.~K vL M}@M1 >m+S% T>  + 6O +N =#+=K =K +N , @fV.|H YF UL.b7@1n@1n@1n@1n@uQ.aS.VL.aS.WL.WL.>{ mj+,{ 9S.)h+^v.)s.)s.)s.// qu 9(.Bj.2l.2n@i.+4k+Ff+3n@4n@5n@6n@BM+7n@8n@`C.cC.MZ.PG./+.V`+NP nf Z&+Qj@Dg@ '.9n@0n@",
"V}+V}+V}+V}+Ff.0h.jG.jG.!7.0h.n%.jG.V}+E5.E5.)7.jG.Ff.!7.)7.V. v# V. V. Sn.h| h|  : t2.t2.pZ.pZ.&= &= '/ '/ Z. X> X> Y. '/ '/ &= &= '/ Z. Z. X> pZ.pZ.pZ.pZ.u:.u:.u:.u:.5j `d `d `d `d i5 i5 i5 mL SL.SL.TL.SL.SL.G&+jK.QW.QW.D#._-+jV.v2.u2.iK.2h.yi@Um@Um@7Q.+~++~+RL.G&+jK.nL Y> `. 0! )/ UL.f2+k$.vj.s@@P}+1&.T!.MZ./I.Er+8F.}3 Hj.dC.-B.hb.an@bn@cn@n/.Cg Qy.dn@en@Vy.cV+1{@fn@rI.x)+gn@hn@in@5R *4+Hj.tS 0(.#` @e 9(.LT+UW.>l+lM+jn@kn@ln@mn@nn@on@pn@qn@rn@sn@tn@un@S,+UG.Q9+Kt.6i+vn@wn@xn@yn@zn@An@SG+md@Bn@)b@(n@Wc@Cn@df@}s.yz.t[.d(.AL 5V 0Y -y gJ.Dn@>v.En@{Y+q0 ]n e^@Fn@2F.iZ.2F.J#.]n _l =3 ]_.'-.OH k! Mq l .d$.C7@B4.<k |W =x n$.^=+,; aY aY 4l 5(.Se+n$.5`+f$+{X.!n Cf %, PK 3!.d!.#e 3H %N AP 'l+ D vL ^W+V[ nb@/r+>K 6! a! =#+=K -#+K#.K#.=K D(+qL , @fV.YF 2q.Gn@1n@1n@1n@aS.VL.VL.aS.WL.WL.mj+)I.)h+^v.^v.^v.)s.)s.BI y] qu @b !9 Hn@v6 I_.K_.In@YT+Jn@Kn@Ln@Mn@Nn@On@Pn@wV.4F./I.{I.[6.No *U T:@S0.}} ;|@hS.Qn@",
"E5.E5.E5.)7.V}+Ff.jG.n%.p8.)7.V}+V}+!7.)7.)7.V}+!7.)7.E5.p8. (.Ma.Ma. (. (. (.Sn.h|  : t2.pZ.pZ.V% &= &= '/ '/ Z. Z. X> Z. '/ &= &= V% V% V% V% RW.RW.RW.RW.n}.n}.n}.n}.`d `d `d `d i5 i5 i5 i5 '[.K8+:/+:/+:/+:/+G&+jK.QW.5$+D#._-+jV.v2.u2.u2.:.+jR+cI+h++].++~+{.+&-.SL.TL.mL nL 0! LD.Y> ;#+/)+5-+LK. P+s@@no.^=+VW+[{./I.H_.8F.Ej.Rm.bC.KN.va@]; 6B+Rn@a(@Bg Sn@Z~+Tn@sI.Tn@hI.Un@Vn@Wn@Xn@t,@Yn@Zn@^q+rd@(R /+.E( jE 9Y O++.^+>l+.E.lM+A^@pj+dn@`n@ o@.o@rn@D-++o@@o@T-+#o@$o@~k@C_@CJ+t@@qF+yn@ua@md@%o@%o@&o@*o@&o@Bn@=o@-o@Rg+|h+EF+aq.}R GP ZR+5V :&. D `T ;o@>o@,o@5,.*y nE 'o@)o@qf Wa.eE De.iw.]@.zD 5J $b a$+ip+#& vN.qE+!o@c7@+N+VT cO oq+5(.Bj.#` l$.h'+.D 8>@~o@{o@P!.4l 3!.); M' 3!._/ ~9 6>.1,. D AP ,l D|+2s+W[ o0 6! '} W1 =K -#+K#.K#.K#.=K PW.D(+, @fV.|H UL.Gn@Gn@3q. P.VL.VL.VL.aS.WL.mj+)I.ZF 9S.)h+)h+^v.)s.)s.BI y] s0 LG.wI {3.=d.r0@]o@u5@^o@/o@6n@(o@_o@:o@yB.Hd+<o@/<.^X.(I.<I.Dj./N I4.N4.)~+O2@[o@}o@",
"v8.o%.)@.B#.D5.V. v# v# D5.B#.C#.C#.B#.B#.B#.C#.!7.!7.)7.E5.V. v# v# v# Sn. (. (.Sn.h|  : pZ.RW.V% V% &= &= '/ '/ '/ Z. V% V% u# u# u# u# V% &= 5$+5$+5$+5$+s( s( s( s( i5 i5 i5 i5 3j 3j 3j 84 Y> Y> nL '[.)[.)[.`_ `_ s( s( '/ '/ Z. X> Y. u2.2k+X`.|o@|o@X`.L9+Qm+oZ.Qm+K8+nL LD. +  + 0! '[.D(+D(+Nm.|q.`T.Be.+%@9P.|&.}V )N &/.kO e(._+.o$@-` v7.Gj.<h+1o@ n+zQ.O-.2o@3o@0x.4o@|y.5o@6o@7o@8o@.R 1K 9o@0o@8#+/N r .NK.OG.}V VW+B<@. +. +GG+lV+ao@UF.bo@co@do@eo@eo@fo@go@ho@io@*M+eP.NZ.5r+jo@ko@lo@mo@no@oo@po@po@qo@ro@so@An@)5@m_@to@jn@OM+{I.DN./+. G 0Y ]R sG uo@vo@wo@xo@R'.~3@FW 8).8).n .:W+-X.4,.et 9h a$+at yo@zo@y2@Ao@Bo@;V+Co@o.+jO WZ As 9(.9B P!. G V!.pE Do@k .*N {R pG 'R ,y @=.mG #=.zP C2.uL |,.QH ,K ,K >n eE 04 ;n /l z%.z%./j /j z%.~y.xt.yt.=s./4.]/ {y.x] x] ZF ZF 7O =y pu 4h _4._4.zI N@.)K bj )n Wo // // // B] MG.Eo@MG.{3.gV P4.1E+p)@Fo@Go@Ho@Io@yM.Sy.11@>i+Ff+'U %d.C1.3l.8F.QW }/ *|.*d+|*@ '.Jo@",
"3*.v8.o%.)@.C#.B#.B#.D5.w8.w8.)@.)@.C#.B#.B#.D5.0h.0h.Ff.Ff.C#.C#.B#.B#.h| Sn.Sn.Sn.Sn. : pZ.RW.V% V% V% &= &= &= &= &= +: +: +: U. .: V% &= '/ s%.s%.s%.s%.po.po.po.po.84 84 +{ +{ ^l ^l gE gE 0! `. Y> nL '[.'[.`_ `_ `_ s( &= &= '/ Z. Y. u:.:/+1;@X`.L9+W`.W`.|Y./7.M0+()+;#+`. LD.LD.nL mL )[.mL +N qo.qL ^3+f2+`F xL }&.5k+WT ==.IS.n>+]y.(I.v .{R.b4@3k@gq.hq.Ko@zQ.Lo@12@>#@Mo@No@wu sW ^u.^{.Oo@Po@w;+:>.O4.t5 Ej.:I.O<@1l h'+w@@w@@#*+,,@Qo@i%@|P+Ro@So@To@Uo@Vo@Wo@Xo@Yo@0]@cj+.U.`X+Vm.TG+=o@$f@2Y.<I+Zo@`o@`o@po@ p@.p@+p@|g@DQ.@p@b4@WV.^X.]I.VT f .5V aV oS #p@$p@%p@JK.7>.UZ+{9.Gc@0;@j/@@9.8,.z%+rr rr &p@$2@vz+G:@7$@*p@>a@:o =l O<@^R p .Lq -<. G aB TV.&/.TV.&v+h'+]+.>+.'+.O@.xI Fz 0O zP C2.|,.Wa.PH =3 _l i0 X[ P1 2j KD.h5 ~y.~y.~y.J5.H5.=s.=s.yt.yt.yt.yt.hJ.hJ.e2+e2+JG.JG.+G =y Lm.=P._4.Lm.)K bj )n z( `F  P+ P+aY C] =p@MG.-p@0X+b .;p@>p@xB.rU+,p@&A.~L.43.'p@)p@$i+!p@7m@nV.J1.Sm.H] $0+8l.qU+)~+Go.i~@",
"w8.w8.)@.w8.w8.o%.v8.v8.o%.w8.C#.C#.C#.C#.C#.B#.0h.0h.0h.0h.w8.)@.C#.C#.t2. : h| Sn.Sn. : qZ.RW.V% V% V% V% V% V% &= &= .: U. U. U. U. U. .: .: t%.t%.t%.t%.o] o] o] o] ,9 ,9 ,9 ,9 Y[ Y[ Y[ Y[ LD.LD.`. Y> nL '[.`_ `_ `_ s( &= V% &= '/ X> n}.:/+()+M0+_$+U`.kM+9'+K#.uj@@e+=K =#+)[.)[.u:.5j 5$+RW.pZ.jK.kK.;#+qL ZF 0S.8X+1l.J' </+S,.j.+9{@AZ.9X+fO K@.H@.TF+sh+Zm+i,+iE.~p@Po@'p@eX+{p@]p@^p@/p@/p@(p@sW Re.U0.Zm.%0@5v._p@lV.!X.^=+LT+9(.e-+$U :p@`C.oB.DB.<p@[p@}p@|p@1p@2p@-y+/c+*~+ct+Pj@Ik+Cn@3p@6Y.9l@4p@4p@8m@8m@=U.>v+Gx+O9@5p@6p@Y~+dP.!|.F_.g(.m[.z_.ES.O++W3@RR+!#+;l n$.^&.{o@V,.qr  U E] {3@0t Jt C:.w0.Ht 7p@x0@8p@9p@0p@ap@o:+JN.bp@=<.As dV 7&.F].pY.sz.(h+UW.Se+A] .e Q7 Dz 0w yI RH )R Wa.Wa.Bz 9O ,j.eE `1 8w 1j gE KD.74 J5.J5.H5.H5.-K =s./4.=s.yt.xt.xt.^3+e2+|q.ZF Dz +G +G Xr.ys zI zI ys Wo z( ^/ uw.KK.KK.KK.%l+,<@cp@n[@dp@ep@fp@%o+5H+}H.Y,+gp@v!@hp@Mo@ip@0S Gf+cq.5l.h:@'T+G7+P0.SM *e xa@O5+`%+vh@",
"u8.3*.o%.w8.)@.C#.C#.C#.B#.D5.D5.B#.)@.w8.o%.o%.V}+V}+V}+Ff.C#.B#.B#.D5.u2.t2.h| Sn.Sn. : qZ.RW.V% V% V% V% V% V% V% V% Z. '/ V% U. j%.i%.i%.p}.t%.t%.t%.t%.o] o] o] o] %} %} %} %} 2j 2j 2j 2j Hq LD.0! Y> nL '[.`_ `_ v:.s( &= V% &= '/ X> n}.K8+Qm+_$+jp@_/+#V+@~+~v.#V+_/+D(++N )[.mL n}.n}.w:._-+u2.jV.jK.:/+;#+, @At.^v.)s.Uh+T~+iV+-;@</+7P.Mp+'4+AZ.y>+3!+t .H1.SG.KC+Zn@kp@Z7 lp@mp@np@op@pp@qp@6o@iU.rp@^:@sp@Jb@|h+#m+hP.9Y.9{@-=.3&.~X.o;+5v.]k@tp@up@vp@wp@xp@yp@zp@ho@[k+X}+zZ.C_@4v.Pj@4{@mc+Ap@2B+Bp@i;+6p@'5@Cp@ek@Dp@Ep@2{@I7+Z:@nz+Fp@~|.FQ.!|.gP.^<.g(.s[.m[.^X.b$.OV.Gp@C].^&.:U+Mp '#+/U+0t It b @$2@cE Tt Pb@Hp@Ip@Jp@Q^@28@&R+lY <6.CN.v6 $*+{I.eT+fO eO D].}V 9P.$l+$, (4.0w .P.^j Wa.*y *y ,n Pd Z1 04 8w 2h 2j d%.KD.74 J5.J5.H5.H5.-K =s.=s.]/ /4.yt.yt.e2+ZF )I.>{ RH 0w =y Xr.N@.N@.y( 8B (v.(v.iE iE SW.SW.KK.%l+Kp@Lp@~&.lZ+Mp@Np@Op@|w )L.Zj@Pp@Qp@G).Rp@Sp@Tp@Ym./l@]H 5l.oY I1.g4 dC.Gj.w7.Up@qU+bR+",
"X> Z. Z. '/ '/ '/ Z. Z. &= &= &= &= &= &= &= W> #; Na.cc.;m+X. w# W% Q> Y. Y. Y. Y. ,/ ,/ u:.u:.'/ &= u# u# u# V% '/ X> Z. '/ V% .: +: E#.i%.i%.!1.<,.<,.!1.po.>/ >/ po.%} %} %} i< 2h =n =n =n )3 )3 )3 )3 Zd ac +{ 84 84 84 j< o| o| o| '9 ,9 XC PW.PW.Nm.cg@Zf@Pe+7V ro.)L+-s.;#+nL nL jK.G&+p%.1h.w8.t2.v2.s%.oZ.K#.()+, @hV. X+Vp@'s.>P+QA+k$.ti++9@Al+*e+Te+)W+mV.{|.E1.C< F[@)&.Wp@Xp@Yp@Hl@Zp@Zp@sW `p@'n@4]+,o+u4@ q@,j+.q@vZ.c]@,4+y>+X%@_I.G0.&d+Z4+W+++q@@q@#q@$q@%q@&q@*q@Z4+Z8+4v.nz+8Y.!p@>T+=q@H1.H1.<s.jj+B . X.L|+]k@to@N6+^v+>m@]m@tg+eU.t .h{@u[.}<.(<.(<._<.ij+FQ.FQ.ij+_<.m[.-q@TR+sL+c$+V[@0 @g!.3B Ur uB+HZ.;q@L++>q@,q@`9@AZ.0P.#U fS U+@-P+o$.G_.e(./R.H_.U@.^N Yo s0 B] L' aY y].$N Fz nE ,n eE 6j ]3 2h KD.`d i5 )1./l t< t< t< {} {} K5.K5.Dz Dz Dz Dz (4.(4.Iq ys yI ^j Bz )R zI Iq ys Lm.^/ ^/ ^/ (v.+%@+%@KK.B] AO+nD 'q@)q@!q@#i.~q@G{.4H+J<.{q@]q@^q@/q@mj &0@mk@Xm.Hi+5l.U:@b4@=B.&i+oJ.K%+Ji+L%+#^+",
"Y. Y. X> Z. '/ &= V% V% V% u# u# u# u# V% V% 5Z xX #; [0.G[+W% Q> *= W> '/ '/ Z. Z. X> X> v:.n}.'/ &= &= V% &= Z. Y. ,/ ,/ X> &= u# U. +: +: +: M'.!1.!1.M'.po.>/ >/ >/ ,9 ,9 %} %} 2j 2h 2h 2h )3 )3 )3 )3 Zd ac +{ 84 84 84 j< o| o| o| '9 ,9 =#+I5.)L+4q.(q@_q@:q@Fk@9h@5Q+Nm.qL 6O nL RW.t2.hK.Wi.C#.B#.u2.G&+jK.SL.|Y.M0+qL -s.At.@V+* @ X+7V Qg@Dp+T~+o>+a,+UW.;R.]$@_I.3l.<q@Bz.hb.]; A@.Yp@ m@[q@}q@|q@pj+1q@ '.2q@3q@4q@*l+~m@xZ.5q@6q@L@@.7@;U.P5+L1.M_.Vy.7q@8q@-c@$w.O_+ >+*q@Qg+X}+ct+(J+mV.o$@3l.3l.Ej.Fw.yw+{|.u .&M+Tm.]H Xm.B{@9q@0q@aq@[B+iZ+'o+h{@h{@3M.dP.u .!p@/|.&g@&g@x[.PK.UT bq@*z TU cq@0 @YD .y+Q~.ZD Sr NI+ZX dq@eq@fq@AZ.jJ.-P+7&.HP o;+PP D_.dP.{|.<<.WV.NK.fS CW 6h Ft.BN.DS+,I.Af yI [h ,j.`o i0 4j i5 3j +{ <P.t< t< t< {} {} {} J~.J~.+G Dz Xr.Xr.(4.N@.zI =P.nE nE nE ^j _4.zI zI zI Wo )n )n z( KK.KK. P+B] eL+gq@>}@hq@iq@jq@kq@lq@mq@nq@oq@pq@/v 'p@mj qq@mk@eq.Hi+4l.U:@b4@Ew.&i+rq@Y7 -b 7l.8(@",
"Y. Y. Y. X> '/ V% .: U. .: U. U. U. U. U. .: '@.A#.D8.^]+#; W> 5Z xX xX u# u# V% &= &= '/ `_ `_ Z. Z. '/ '/ Z. X> ,/ t( t( Y. Z. V% u# .: .: u# t%.M'.M'.t%.>/ s( s( >/ ,9 ,9 ,9 %} Y[ 2j 2j 2j )3 )3 )3 )3 Zd ac +{ 84 84 84 j< o| o| o| o| +{ xt.hJ.)h+V[ sq@tq@uq@vq@Rq+zi@Nm.qL Qm+K8+pZ.h|  : t2.v2._-+RW./7.qZ.G&+}h :/+M0+()+M0+mZ.U`.@~+_f@ZW+$j@Pm.so.[-@no.h'+Se+1l ng+4F.|<.(R uS }3 5g.#p t-.bc@wq@27+M9@}d@2q@+p@:I+xq@yq@zq@Aq@Bq@=j@1I+!P+<h@@i@Ry.hI.Cq@Dq@$;+#o+Eq@Fq@Gq@Hq@Bl+:<@UV..X.o;+IP -P+R%+R%+$*+rz.IS.kO q;+OS.0t+qm+.v+e&.Iq@Jq@Kq@Lq@J@.Ue+J@.<+.:v.:v.7]@Mq@~` `,.{s.gU. ; x .Nq@Oq@YU 8.+$z >G+<O+VR+D%+Pq@Qq@Rq@Vh@&v+/&.v6 U+@y_.MZ.H_.yo.I1.'T+G7+>L+J_.0-@|{.E( !n ~L+qu @b n5 r6 4!.nu Z1 #: Yd 74 o6 Y> o6 t< t< t< {} ZT ZT J~.JG.JG.Xr.pu =y y( (4.Lm.:g.mG Fz 0O N. y].Af .e r0 ,I.5h {+.{+.>(@UZ+UZ+>(@eV $K %X+{1@Sq@Tq@[q@Uq@Vq@Wq@Xq@Yq@~H.,, G# r].5!+Zq@5l.U:@U:@b4@Ew.9F.Z%+,E+E1.@q+`q@",
"Z. Z. X> X> Z. V% .: +: +: +: j%.j%.j%.j%.+: A#.,@.+= D8.^]+xX xX '@.'@..: .: u# V% V% &= s( s( X> X> Z. Z. Z. Z. X> X> X> X> X> Z. '/ V% u# .: s%.t%.t%.s%.>/ s( s( >/ %} %} %} i< 2j 2j 2h 2h )3 )3 )3 )3 Zd ac +{ 84 +{ +{ o| o| o| o| o| +{ {y.|q.)h+ &@ r@.r@uq@$4+F@@Fk@5Q+-s.M0+jK.v2.t2.5$+G&+G&+QW.jK./7.)1.pZ.1Y.K8+kK.G&+K8+:$+:$+M0+Qe++r@@r@|$@bN.]v./v.iE 5-+b,+e-+Kq U!.ng+o$.f(.3l.<q@P0.i0+G]@cL hL+8d+#r@oc+J7+$r@%r@&r@*r@=r@-r@9l@'5@O2@;r@>r@,r@'r@Ge )r@!r@az+T-+-m@Hq@Bl+Gy+lY IP v6 Lq 9(. i.6(.5-+Xh.4-+S6+,= Gk+d,+Cd@~r@t@@{r@ p+l'+6!@)` rK+K@.Ue+!B+&l+Ux+^s.Mq@&g@0'@0$.IR+]r@^r@/T+/r@^].8b@(r@i5@]T+{#+_r@:r@<r@[r@TW.WZ 9C.h'+/+./R g(.Ao.LR+=q@j$+bB 'j t].}r@_3.}{.z1.l$.-y s0 TZ+dY 4h 0j 64 Y> mL K8+_$+qo.J5.t< {} ZT ZT %: JG.+G +G =y 0w =y y( y( Lm.:g.0O ,+.Q7 DP Af Af R7 TZ+,I.{+.]+.%N &N &N o .cj A].E( 2w .:@|r@Np@3<@1r@2r@3r@4r@^,.[A.~p@=4+h4 %0@bq.6l.yz.wV.e @Z%+=@@Fw.Rm.b}@wV.[y.",
"p| X1 '9 o| o| 4! X1 m< Y1 q| >} n< ~/ n< >} M7 p6 y2.y2.z2.)9 )9 )9 )9 p| p| p| X1 X1 4! %} ,9 Y. X> Z. '/ &= V% V% V% V% &= X> Y. X> &= U. j%.s%.t%.t%.s%.>/ s( s( >/ $: $: $: $: 2h =n =n =n s< s< s< s< yP -n ^l 3j ^l ^l d%.d%.d%.d%.d%.^l JG..X+iE y] zj.{W+U[ {!@VV+Dp+9h@MT+M0+5$+D#.D#.LD.nL '[.nL nL mL 5j 5j 5j v:.`_ Y. v:.'/ '/ n}.fc+}Y.[Y.U0@8*.@N Mm.x( B2.K0+>R.Xh.5d+^=+kV.UW.oY.kO B7@{R.$m+LR+~3.L4.5r@6r@7r@8r@uV.9r@0r@ar@br@81@H(+cr@4o@dr@An.9p.k/+er@ok.fr@gr@sI.hr@D< k%@lY HP {<.Jq ){ dY r| ~y.6-+=s.|q.Vp@RX+ir@= @^k+P7@^k+*e+YU+*+ _=+=T+pU+m'+F|+3!+-4@@_@jr@q#@kr@lr@G@._'@{#+mr@nr@)l.or@ca@pr@qr@Gm.rr@sj.sr@tr@=+ 8P.T@.~L+Bq .^+G_.aq.@E.o7.vc@QF gC.Z{@1L+:4 'R.Oo A1.gS 6h r0 /3 Xr.g5 oL _$+nZ.V6+#,@()+J5.{} {} ZT %: mE Dz Dz Dz pu 0w =y y( y( ys =P.,+.DP r6 Q7 y].6>.Af R7 j$.,I.@` !s.C-.C-.C-.DI VT xS ;/.7g.u|@ur@7<@vr@wr@xr@Rq.D^@5H+yr@#P.zr@7l.E1.E1.Ew.cC.Rm.yo.Fw.9F.=@@u .g6@,+@",
"Y1 m< p| 4! '9 '9 4! 4! X1 m< q| n< ~/ ~/ n< >} p6 y2.y2.y2.p6 )9 )9 )9 X1 X1 X1 X1 X1 X1 %} %} Z. Z. '/ &= V% u# .: .: .: V% Z. X> X> &= U. j%.s%.t%.M'.t%.>/ >/ >/ po.n| n| n| n| =n =n =n =n s< s< s< s< yP -n ^l 3j ^l ^l d%.d%.d%.fQ fQ 3j 6-+.X+ P+*o+8'+J' v;+Ar@YX+Dp+9h@Nm.Qm+QW.+4++4+)/ oL @N 6O +N '[.'[.n}.KD.Y. X> t( t( W% w#  : 7*.;%@~i@Q`+lK.Z_ t] BZ.w( )l e2+LK.g2+_l.zf+Af+Ar@P9+: +pU+)n+(<.Ao.C< M4.q1.}P+Br@p2@Cr@t4@-#@Dr@PF.Er@:A.eu @;+9p.Fr@J'+n-+Gr@UE+!r.i7@1q@T0.Hr@Ir@R%+{<.]R ~9 P@.g| %} nL nL Qm+VT+Jr@Kr@Lr@Dp+V5+V5+Uh+6q.no.J|+O}+ 7@;=.PZ.~x+og+#y+:+.PS.kr@Mr@Nr@H%+zW b;@Or@Pr@Qr@:n@Rr@Sr@[q.3'@Tr@Ur@{h@]W+Km.lw+lw+^N .^+xo.b4@<h+Vr@Wr@Xr@1Y  ]@Yr@<R.QF+Y5@&R (3.F] Df &: pu aS.~i@dg+fC+iR+Zr@a:@J5.{} ZT %: mE iS Xr.Xr.=y pu pu pu ys ys zI _4.N. ,+.ZZ ,+.6>.cY cY 6>.DS+j$.5h %N C-.F;.,l+qK+=Z+~s.h(.=b tw+`r@ s@A/@3f.AH+.s@],.li _l+g0+JC+E1.zo.Ao.=@@=@@Rm.Rm.Fw.kV+kV+4!+pg+t .",
"VC n| n| $: i< %} %} ,9 +{ %} n| $} *K *K }H >} M7 ^7.^7.^7.M7 p6 p6 )9 X1 X1 X1 X1 p| p| $: $: &= &= &= &= &= V% u# u# u# V% &= '/ '/ &= u# .: s%.t%.M'.M'.po.po.po.o] n| n| n| n| 2h 2h 2h 2h s< s< s< s< yP -n ^l 3j gE gE d%.d%.d%.fQ fQ 3j Q,.L' y] s@@%*++s@f>.+p+%Z+Rq+9h@)L+mZ.s%.)3+D#..+ /r+/r+L7 /j 74 Zd ,9 5j X> X> X. W. cc.cc.V. Vo XC C' }C.S. z7+9:+y7+t] V> Mm.D(+Zf@b,+Rq+%Z+^9@@s@^r+(!+==.*/.K1.2g.dL #s@hU..d@aF.5r@hq.sK+nc+ln@$s@+m@pI.`,+%s@=]+]d &s@*s@x=+%R+0x.fu gb.,Z+UK.HP 7&.S@.#b xP *n p| V% s%.f++=s@-s@;s@>s@tR+YF rL 2q.fV./)+'I.>R.k$.no.=+ ;=.k'+0{@jV+Vx+,s@At+'s@}=+>~+m# )s@!s@~s@{s@{/+]s@^s@/s@(s@_s@:s@<s@,R.UZ+JS.WZ /I.3l.aq.Q3@fQ+[s@1<@}s@|s@'l@=m+1s@zM+5l 3Y -R 6V Af Xr.aj U0@[Y.2s@cC+3s@iR+H5.{} s| `Z 9V ~} dY r6 r6 r6 r6 ZZ cY $N m .6>.0O #=.#=.0O 6>.y].y].6>.j$.j$.,I.@` z].C-.:&.e>.I%+It._+.|<.;V+4s@5s@6s@7s@8s@Zw 9s@0s@as@yQ.|I.E1.'1@Rm.;` 6~@8F.Ej.;` E_./R.|S+4!+S8+",
"n| n| n| n| $: i< %} %} i5 +{ $: !l }H }H }H >} ;@.;@.;@.;@.;@.;@.q| Y1 X1 X1 p| p| m< m< VC VC u# u# V% &= '/ '/ '/ &= '/ '/ &= V% V% V% &= '/ o] *{ !1.*{ o] po.o] *{ $: $: $: $: 2j 2j 2j 2j s< s< s< s< yP -n (l 3j gE gE ^l d%.d%.fQ fQ 3j ZT Xr.y( *s.`F #[+2e@x# @ +Zf@Nm.fV.7!.0! 5$+n}.d2+]s@DG.e! *s.z%.)l Zd n}.'/ '/ W% w# Na.G[+W. s( `. :,.0Y.9:+z7+9:+VA.@X.:,.Y> =K -#+7V Pe+}w+bs@cs@O5@QA+J' 8U.4V DN.Cp _|.Hj.g4 <o@Z @jj+Pt.ds@j~@QF.12@es@K'+-,+fs@gs@AE.hs@is@%R+0x.js@+R [} cC.e(./I.iJ.S@.DP Gq p| u# t%.5*.[e@ks@aI+ls@nZ.Hq #M.#} )/ H5.~y.yt.-#+K0+$l+9P.@, :K WT BL 1e@!j@bw+hg+-; !n+ms@ns@os@ps@7S.De.5,@qs@rs@uq@ss@ts@II h! ,; WZ s[.Z%+': RM wq@us@vs@ws@}s@Ld fp@xs@ph@ys@Me.3w hS #` Be.cN.3q.:l.+r@Hn+-s@tR+{} {} s| C] /3 dY r0 r0 r0 &: r0 6>.AP 'l+AP $N cY Fz nE 0O .e r0 R7 Af 5h Cf Cf Yo GW GI jE $/.eT+w^+EN.|<.;i+{b@zs@As@Bs@Cs@Ds@Es@Fs@Gs@Hs@Q3@e @'1@3l.qY #n@6~@;` `D.yo.kV+zz.`q@[s.",
"*{ *{ o] o] po.>/ >/ s( v:.s( po.o] *{ 9! V> BZ.+: j%.E#.E#.j%.+: 9! *{ *{ o] po.o] *{ 9! *{ o] .: .: .: .: .: u# V% &= &= &= &= &= '/ Z. X> Y. *{ $: po.i< %} %} %} %} n| n| $: $: $: n| VC VC Hq l0 YC x( H5.o6 Zd )3 74 %} $: i< +{ 84 +{ ,9 84 $} !l 5j 84 34 tK.6m.VC 84 %} w( 74 74 1q.)l xt.(,@oQ.Dm@e! )l H5.74 84 /T j5 [o.[o.k< n( ;} o] 9! t] }C.U% B' U% S. ED.T. V> )[..N .N =#++N xt+fc+@N XC 7O x] rb+}q.!n+7b@>= *e+o=@)j@|<+n,+y>+og+g6@h9@4{@Is@Js@Ks@Ls@Xn+Ms@Ns@Os@Ps@Qs@2o@ZT+Rs@ X.6l.=@@{I. F '+ )+.2h $: >/ K8+8k@6z+#e+'[.gE ,9 gE +{ /l sf 9o.Sj@9o.~y.t< K5.JG.Dz Wo -N ~N ~N a).2&.v_.K0.Ss@Ts@bm.9O Fz ,K 'o@^X+Us@Vs@Ws@=X.s0 ~L+m$.Dj.<} @0@p! ao@9o@j @vs@Xs@Ys@Zs@ ]@&o+ph@`s@UK.$U p .e-+Ft.z( (4.7O g5 Mm.K#.%: z%.vw.y].R7 Be.Ft.F;.*N mg+lw+ t@lS t_.z].%N .P..P.|k+=P.RH 4h DP Q7 )= >R $` 9B fV s1./3.wW bp@fP.bp@Q' .t@Q4.wz /O+I/@+t@@t@#t@p(@H++N6@A1@yo.Fw.=@@yo.-B.r1.4M.a}@ib.z| -b Ii+NF ",
"*{ *{ *{ o] po.po.>/ >/ s( >/ po.o] o] *{ 9! V> V> :,.BZ.BZ.:,.V> 9! *{ *{ o] po.o] *{ *{ *{ o] V% u# u# u# u# u# V% V% '/ '/ Z. Z. Z. Z. Z. Z. i< i< i< i< i< i< %} %} $: $: $: $: n| VC $} $} L7 n6 n6 g5 l0 )l Zd Zd 74 ac i< i< %} ,9 %} i< n< j< l< f..R>  F.I:.@(.R/+M7 /T X1 Yd w( w] aS.oo.WL.$t@%t@`h@)l }h Hq i5 /T j5 j5 k< n( m0 p6 +: V> BZ.0Y.S. B' S. }C.%W+T. BZ.po.s( s( s( s( X> Y. v:.s( '[.=#+qL ]v. X+OS+uo.;`+#>@_6@ti+^r+/k+%>@_=+zv+7I+&t@K@@E+@*t@=t@0M.-t@;t@}o@ky+Gq@Js@>t@,t@Ot.<o@-` (+.vP VF T;.g| w( mL }h }0@V6+ac ^l 3j 3j 3j 3j i5 i5 5j 5j `d `d i5 3j ^l %: [l [&.:M.a>.}&.v_.oE Gc@BS.!+.N. dY P@..` yN yN 8o.'t@)t@Q!.-<.wo.[I.<q@}9.fb.:>.!t@~t@/u.s' NZ {t@K!@]t@Y*.2{.^t@5M.',@p .>l b*.&: B2.iS L7 s< ^3 .2 ZC Ce.DS+A] -+ mg+mM+>; >; E-.<&.u_.0).5h #+ |k+|k+WL.RH 4h DP +2 )= 7(.w0 iL /t@(f@$& $& -m+{; {; {= .t@y| o! Es Ba@:3@M[@em@(t@/{ u7.]+ 0q.>L+bC.bC.cC._t@)O+:t@ib.va@<t@9(@[t@",
"*{ *{ *{ o] o] po.po.po.po.po.po.o] o] o] o] o] V> :,.:,.BZ.:,.V> *{ o] o] po.>/ po.o] o] po.>/ &= &= V% u# u# u# u# u# '/ Z. X> Y. Y. X> Z. '/ +{ ,9 %} i< $: $: i< %} i< i< i< $: VC $} }H *K {/ g5 O7 O7 n6 {/ ac 74 ac )3 $: $: i< i< i< $: Xd j< o| zX >o.4'+Tp.cw.Td@40.X1 X1 Hq Zd =s.N'.{y.B2.uQ.xm.P. -K )1.n| i5 &} /T k< -} m0 ^7.v( i%.:,.:,.Z_ T. S. 0Y.BZ.T. 0Y.BZ.9! *{ o] po.>/ Z. Y. `_ o] Vo @N YF ]v.)L+ X+> @V7@(0@}t@|t@>`+)s.y] ,R.ec+'4+w>+AJ+!m+7Y.1t@2t@3t@>v+uB.4t@gQ+5t@>t@6t@X6@<h+k(.No /3.`C 8h [h 9w nL :/+f++7*. + w( 74 N~.h5 74 74 N~..N .N .N }h .N .N N~.z%.`F [M.!n+NS+Y,.E|+~X+7t@QH C2.0w +G mE mE ZT t< lL KX ]j.ZN+q_.wW mY 'y hb.gb.8t@J% ST 9t@n:@0t@at@bt@bt@;y+.O+'j =b .^+NG.I-.T9@Oq .X+`Z +b %: +X+vw.8V K0+%l+0).lw+e-+mM+|&.>; >; ,; JS.~+.@` !3+@+ .P..P.RH 4h Q7 t| )= 7(./9 ~= /3./3.-m+-m+wW <6.p_.<6.p_.[/ bp@wS H4.ct@&m G/@JN.&R+RG.Er+c(.LI kJ.s .kV+dt@dt@u1@W7@et@'E+ft@y{.",
"9! *{ *{ *{ o] o] o] o] o] po.po.po.o] *{ o] o] V> V> :,.:,.:,.9! *{ o] po.>/ s( s( >/ po.>/ s( '/ '/ V% u# .: U. U. U. V% '/ X> Y. ,/ Y. X> Z. i5 84 ,9 $: n| n| $: i< $: $: $: n| VC $} }H *K L7 64 k0 ;{ 0j n6 Hq Yd 9w sL }H $} VC n| $: i< Y1 ~/ Xd ~/ v( O2.Tp.oc.gt@=y.bc VC Yd o6 /j xt.B2.H5.)l YC )l ac +{ '9 j< l< l< l< n( G5.y2.;@.i%.V> *{ :,.&{ 0Y.BZ.o] V> 9! *{ *{ *{ o] >/ `_ po.>/ *{ Z_ T> t# b! >9 >9 3q.Zf@M6+%p+C(+F@@@>@At./4.|q.uw.`F 8P.UW.GG+5{@`q@3k@Tb+n7.8M./v+XK.uV.Cp@p2@ds@)=+*4+}/ rP Oo hS !s.0w x( Y> !1.>U.#M.9w ac h5 h5 74 h5 N~.N~..N }h }h .N N~.N~./j f2+z] )K !K AN.)n Wo oG zI ys =y =y jS iS mE %: ~y.ZM B( kj -<.wo.&2 Gf hb.^H t-.J% -[@ST ws@ht@ws@{t@{t@[R.sw+dP+]+ Le.`m )T+it@^9.0B N. ZZ 9V *s.C] &: aY K' A] JS.JS.|&.mM+8U.'=.,; cj :&.:&.vL @+ .P..P.RH ZZ Q7 t| )= eL+9B $K *R /3.-m+2w 2w >: F].wW ^R *` r[.p_.o;+eN.fN.wo.UW.jt@jO O<@4F.}R d(.d(.H_.RG.OK.=|..^+UV.et@*4+kt@",
"9! 9! 9! *{ *{ *{ *{ *{ po.>/ >/ po.9! V> 9! *{ 9! V> :,.:,.V> 9! *{ o] >/ s( `_ `_ s( s( `_ v:.'/ '/ V% .: U. +: j%.j%..: V% '/ Y. ,/ ,/ Y. Y. 5j i5 ,9 i< $: n| $: $: n| n| n| n| n| VC !l $} k0 k5 d! o< d! V1 ~3 -{ -{ ~3 u] 0c >3 }H VC $: i< u] .b Y1 !3 }0.^e.m0 lt@>y.3m.>3 Yd w( -K x( z%.W1 Hq h4.)1.%} !l 4! o| -} -} MW.MW.{7.A2.G5.j%.*{ po.*{ :,.:,.*{ s( >/ >/ po.o] *{ o] s( v:.%} Zd )3 sL #: {3 d! k0 6/@t^+mQ.WL.&4+&4+oo.PW.Y> s( po.$} #} 9j Xr.Be.zs -P+H_.K_.mt@xQ.%G WK.Z1@u4@el@nt@ot@`%+A7.7M.]= [6.nO A] f;+H5.Zd *{ C' )/ '[.o}.o}.)[.)[.)[.)[.o}..N .N mL '[.'[.J5.I5.e2+e2+|q.)I.|q.|q.9*.=s./4.{y.{y.{y.]/ {y.iS O@. & #e kj gS 2w MW L2@$a@8#+gb.@y 4$.pt@pt@}B qt@pl@*Y+-[@Xr@rt@st@2g.SK.bp@vo.0%@~1.Q@._/ N. R7 &: DS+{+.HI UZ+,; mM+S%+mM+e>.}&.*N u_.z].&N vL vL .P.=P.y].Af Q7 +2 >+ w_.9B ~<.*R /3.2w ;/.r[./+.(K (+.WZ z1.$/.E( $*+Cj. G p .Kq CN.A].Kq }V X!.VZ cS =Z+xS i(.o;+/R G].Er+e @JR+",
"9! 9! 9! 9! 9! 9! 9! 9! *{ po.>/ o] V> BZ.:,.9! 9! V> V> :,.V> 9! o] po.>/ `_ v:.v:.`_ `_ n}.u:.Z. '/ V% u# U. +: j%.j%..: u# &= Z. X> Y. Y. Y. 5j i5 +{ %} i< $: $: $: n| n| $: $: $: n| VC VC 0j ;{ N7 N7 V1 d! {3 p< p< {3 Y2.jw.vs #n *K $} }H >3 a< n< q| p6 )9 !3 Er.tt@Ir.Uo 9w Hq H5.ac 74 %} w( i< +{ &} o| !3 n( n( MW.MW.MW.MW.(S.MW.u# po.po.o] *{ *{ po.>/ po.po.po.o] *{ o] >/ `_ Zd Zd Zd )3 sL 94 O7 {/ 2J.{s@6/@'3 j0 d! 64 LD.P}.k%.k%.;j.}o.|0.M7 fQ  N ,+ 6h gO ut@vt@}6@B .wt@2<.xt@ek@8M.yt@.a@N8+Q3@-b _I.}S+JS._4.q6 sL nL '[.mL o}.o}.mL '[.Y> Y> )[.o}.mL nL `. Y> '[.}h ~y.z%.~y.)l =s.]/ 0< 7O 7O 7O {y.=s.yt.=s.JG.dY A( O' J0.2O p_.7.@ib.zt@At@#p vu Zs@Bt@RC Ct@Gv.Dt@Et@Ft@8t@2E+:H+ch r0@LW ej bV aV +p >+ '+ r0 .X+5-+j$.Aj.cj =N =N |&.8U.E-.e>.cj JS.UZ+UZ+i$.AN..P.=P.6>.Af '+ '+ DW 7h 9B bV /3.2w ;/.U@.T!.W!.(K 1H ^N GP Bq 5V Kq l$.Ae.9(.5(.#` +e 2l.!n dj T!.dO k .B].VT IP F4.OG.}R ;` 6l.",
"9! 9! 9! 9! V> V> V> V> :,.9! o] *{ BZ.t] :,.*{ U. U. +: +: +: U. u# V% '/ Z. Y. Y. X> Y. ,/ t( Y. X> '/ &= u# .: .: U. V% V% &= &= '/ '/ '/ '/ `d i5 84 ,9 %} i< $: n| i< i< i< i< $: n| VC VC L7 n6 O7 0j k0 k0 '} #: 94 v] h< >3 #n #n h< }H h< }H }H ~/ n< m< p| q| HR Gt@w#@Y2.h< $: h4.N~.+{ /T +{ m< p| /T j5 -} ;} u^+u^+u^+(S.(S.(S.MW.*= V% .: .: V% V% u# U. .: u# V% V% u# u# V% >/ w( {/ YC x( Yd m| m| Hq 94 ${ p< #: 0c $} $: BZ.)'@}[.tr.3t.|w.aV.JO.QT.Ku+Gt. 2 6V SV.] @{s.bD+WK.Ht@It@Jt@Kt@Fb+if@sB.`C.@p@Y~+E_.UZ *3 CP ^j J5.6O Mm.6O =#+=K +N qo.7!.qo.+N ;#+qo.Mm.6O )[.}h )[.mL )[.`. 6O 1q.D' =-.8*.UL.=`+At.)L+)L+=s.+X++X+O' ir =R wo.vW ib.$a@]; Ke.]1@Lt@Mt@vz Nt@9o@}! Ot@!t@.d@qh@Pt@,H+*U 7g.*` 2O ;R aw ~I.~I.!9 Cf oS #` !n !n 9Y $/.W!.X!.dj WZ 4(.fj +e HI !K !K @` @` 6>.y].EP EP 7h 4l 9B </ Cj.A1.;/.DN.nO a>.%=.a>.qK+*3 D-.Aj.'= Ft.BN.aY B] DS+aY >R.B] UZ+'= S%+-N ~j ~j 6&.2l fS jJ.H_.t[.",
"9! 9! 9! V> V> V> V> V> Z_ :,.*{ 9! BZ.t] V> o] U. U. +: +: +: .: u# V% '/ X> Y. Y. Y. Y. t(  : ,/ Y. X> '/ &= V% V% V% '/ '/ &= V% V% V% V% V% i5 84 84 +{ ,9 i< $: n| +{ +{ ,9 %} i< n| VC !l L7 n6 0j ;{ k0 k0 94 94 Zd ac %} n| }H h< *K }H !l h< h< VC VC ~/ *K VC vs %q.8,+#n 0c n| /7.%} 4! 4! '9 '9 X1 m< !3 l< u^+u^+u^+u^+]7.]7.]7.u^+Q> u# +: U. V% V% U. E#.U. u# &= '/ &= &= &= s( )3 {/ YC -K )l m| 94 ,} vs h< VC Xd HR x' O% ~7.Pr.E6+2,+7h.Ak.<h.Qt@MO.ag@GO.2j R7 u_.8$.|~@8Y.%`+Rt@St@Tt@W0+Ut@Vt@`[+Wt@DQ.|/ Tm._<.E].JS.f;+]/ oL =-.XC 6O =K =#+6O XC 1q.;#+;#+qo.Mm.;#+=K 5j s( s( s( 0! nL 1q.E' 7!.1q., @qL )L+At.At.cN.z-.~I.#+.H0./3.Xt@6D Yt@Zt@(b@b .uW W:@`t@bn@ u@.u@N_@,j 1<@+u@@u@{'@Y_@%& 6D |{.fV uP vP >R ad@S@.#2@_U+^9.~L+e-+dj ^N ;l nO ~X.WZ GI #` GW aV 5h !K {+.@` 6>.6>.DW DW 4l /n </ -<.y_.y_.`m NK.a>.e>.mM+cj D-.{j b*.~+.UZ+B] B] r0 &: $, $, Ce.&: .e >(@-+ |&.5&.aB f .A].Bq /+.xS LP ",
"V> V> V> V> V> V> V> V> :,.V> 9! *{ o] *{ BZ.Z_ E#.j%.+: U. u# &= Z. Y. X> Y. ,/ t( t( t( t( t( t( ,/ ,/ Y. X> '/ &= V% '/ Z. Z. &= V% V% &= '/ +{ +{ 84 84 84 84 +{ +{ i< i< i< $: n| VC !l $} YC l0 L7 n6 64 k0 ~3 {3 W1 w( ,9 84 +{ n| *K 0c n| i< w( sL ~3 Uo #} sL r] Fq Wp.jt.E8.0c $: +{ '9 n( -} l< l< -} -} n( u^+MW.`k.V_ MW.u^+MW.[h@Q> &= .: +: +: +: E#.i%.i%.E#.U. V% '/ '/ V% *{ -K K5.K5.{} mE ,].g| `1 P1 4Z N[+tS.8$@5S.yf x' ;o.k=@%o.&j.Pu.6w.#u@$u@JO.z2.n| =y z] R[+o=@:+.%u@&u@*u@=u@-u@;u@>u@,u@'u@YK.$n@df@S8+D_.4V ~+.hJ., @, @qL D(+D(+, @=`+rL ++ eg+, @PW., @qL K#.v:.'/ `_ o] :,.s( `. b! oL UL., @, @tw.At.Zf@/v.4l jL 17@p7.56@eN.6D >d.Jj.P4.u|@>y+/b@u|@)u@W:@8E !u@oP ~u@K4.J4.:H+g7@yq uz+ve.C4.</ ;R ^+.@W+oS {u@]u@^u@xW $/.X!.}V }V 6&.EI ^T+0Y Bj.+e lE o .:&.]+.{+.R@.z-.)= >+ Df 7h 4(.jE OG.OG.jJ.{I.}&.Y,.3)+bb./u@,p+Fe.!K z( ^/ z( ys Iq JG.+G =y _&.N. DS+-+ @, =+ dO (K Po $/.&v+xS _+.",
"9! 9! 9! 9! 9! 9! 9! 9! BZ.BZ.:,.V> 9! 9! BZ.Z_ E#.E#.j%.U. u# &= Z. X> Y. ,/ ,/ t( t( t( ,/ ,/ t( t( t( ,/ Y. X> Z. '/ '/ '/ '/ V% u# .: V% '/ +{ +{ 84 84 84 84 +{ +{ %} %} %} i< $: n| VC !l {/ l0 l0 L7 L7 g5 ,} 94 sL W1 i< ,9 ,9 $: !l }H h< VC ac o6 )3 9w 94 '} '} R% Ik.%q.Wp.+} n| Ma.j< ;} p6 )9 ;} k< *} *} n( u^+-} `k.MW.{7.A2.!3 X> Z. V% U. +: +: +: U. E#.E#.j%..: V% V% .: VC -K J~.K5.J~.%: iS 2!.;n r< 4Z N[+~j.!j.(u@P% ;@.B;.D;.3.+^-+tr.Px.!e.~e.#(.z2.*K E;.II iV+,= _u@:u@1~.>p+Tt@`[+St+-(+Yv.<u@[u@cE.WK.1=+]R.&/.}&.^v.|H =`+qL D(+-s.=`+UL.rL >9 >9 UL.fV.|H |H 6O `_ s( `_ o] :,.Y> nL `> UL.UL., @qL tw.)L+M5+^/ p[.xR+][@2O =d.>: qs 6D Zs+]b@X{@}u@}u@tw+|u@1u@2E+G[@Xm F[@2u@dL H] F# 6v.H4.sP B4.;R F] jL wP Bf 3u@^u@it A].WZ 4V ~n X!.^&.!#+m-@C++.G 7h +p >(@&N {+.,I.7h DW cc 3H 7h oS jE ^N OG.-/.}R VZ a>.!n+'}@(l.!X+Fe.!K Wo z( z( ys Lm.zI Dz +G dY P@.r6 B] ,; 4&.$B.}S+VZ ^&.[V (+.i.++ +",
"*{ *{ *{ *{ *{ *{ *{ *{ V> :,.:,.V> 9! *{ 9! V> U. U. .: u# V% '/ X> Y. ,/ ,/ t( t( t( ,/ ,/ Y. Y. Y. ,/ ,/ Y. X> Z. Z. Z. '/ &= u# U. U. u# &= ,9 +{ +{ 84 84 +{ +{ ,9 ,9 ,9 ,9 ,9 %} i< $: n| {/ {/ {/ YC )l x( w( Yd Yd w( %} ,9 +{ %} $: n| m| Hq ac .N K#.~y.{/ n6 0j ${ r# E8.3h JR n0 X1 p| Y1 q| Y1 X1 '9 4! X1 o| l< j< k< *} *} -} !3 X> Y. X> V% U. U. u# '/ .: U. U. .: u# V% u# n| =s.f;+JG.JG.mE mE yP yP 4j 7B 5! 8$@Q% ~o.(u@}0.V> t%.+4+1*.>e.'e.[1.[1.D8.E#.#} 9b@'Y+$+ %>@V @Tm.fQ+4u@XK.|P+`[+5u@5u@<k+3r+6u@7u@8u@9u@nj@0>.~K  P.x] cN.hJ.cN.oo.>{ mj+&4+M1 @+  P.mj+mj+w] )3 Zd 74 w( m| YC J5.7O N'.7O cN.e2+^v.`T.Be.Wo db./V+zo@B4.f4 xz 0u@au@eL ^j@wz ys@bu@cu@du@eu@gu Iz+TZ.[9.1!@fu@u1.No Oo k[.4Y uP x_.+U Df S@.'|.-R ><.fS -P+OG.a(.MZ.^R A1.4Y @3@kE pS eb.Ez #` ]&.oS @e 7h Df @e +p oS GW jE ^N n$.VT g).V!.u_.Aj.&N &N &N HI j$.(/ DS+DS+,I.6>.Af TZ+L' dY 9V C] -y dj dO =/.=Z+%R o.+NK.is+zq 0q.",
"o] o] o] o] o] o] o] o] o] *{ 9! 9! po.>/ s( s( '/ '/ '/ Z. X> ,/ t(  : t( t( t( t( t( ,/ Y. X> X> X> X> X> X> X> Z. '/ '/ '/ V% U. j%.+: .: V% ,9 ,9 +{ +{ +{ +{ ,9 ,9 +{ +{ +{ +{ +{ ,9 %} i< )l YC YC )l -K H5.o6 ac N~.N~.`d i5 84 +{ ,9 %} ac Zd w( Yd YC x( ~y.K#.L7 k5 94 n| h< U1 2}@Up.p| 4! 4! Y1 Xd Xd q| 4! o| j< o| o| &} =} j< X1 '/ Y. t( Y. &= u# &= Y. Y. Z. &= &= '/ Z. Z. +{ /4.y( Xr.=y ,].jS mE yP yP =n P1 bw 2c yf ws hh.&{ <,.)3++4+B;.yX w2.>@.E#.BZ.n6 VL.rb+)d@zj._K }k+:p@SG.'m+qJ..q+gu@QC.PF.hu@iu@Z/@ju@ku@E%+-N 8X+_4.)I.(4.cN.(4.)I.Lm.oo.'K M1 'K >{ Lm.mj+ P.YC YC H5.)l O7 N'.B2.yt.{y.7O cN.e2+^v.`T.f2+5h `C RF+W2@lu@95 tz+x0@;a@u-.u-.eL 5$.du@St.`7@h8@W7+u7.-` u1.G/@G/@4r+PV.OG.2H e .pS .i.s0 Cf @e IW LT+0(.}{.IP ^R PV.NK.m$./+.0(.gS HW +U $` d$.GW cw oS Bf S@.Cf `% 7h #` oS WZ GP VZ VZ C].dO *N ~+.>(@>(@>(@0).,I.j$.5h j$.,I.5h j$.aY aY ){ ,+ n5 qu cO C].WV.mu@uc@g(.UK.zq nu@ou@",
"po.po.po.po.po.po.po.po.>/ o] *{ o] >/ `_ v:.n}.X> W% W% w# X. W. V. v# W. W. W. W. W. X. w# W% ,/ ,/ ,/ ,/ Y. X> Z. '/ &= &= V% .: +: +: U. u# ,9 ,9 +{ +{ +{ +{ ,9 ,9 84 84 84 84 84 +{ ,9 %} -K x( )l x( -K H5.o6 ac }h .N `d i5 84 84 84 84 N~.o6 L7 N7 /r+f| VL.xt.7O k0 ,} i< *K Zp.<o.l| Xd $: 84 n| jw.q< h< 84 %} +{ ,9 $: $: '9 %} q| u# W% v# v# w# *= *= W% V. X. W% Q> W% w# w# i5 /4.(4.pu 4h RH P7 +b Gq 2!.4j 1j 1j 2j &} &} '9 Nr.j%.&= '/ V% *{ po.,9 )3 x( -K =s.8B N@.Lm.HI i.+GG+Z%+7M.pu@Vr@qu@'m+hL++O+13.c| Q+@<S+4R 9Y HI {+.bj DS+Wo DS+)n j$.z( @` ^W+%N )K j$.)n Iq N@.Xr.J~.+G yI ys .X+.X+(4.Iq (v.(v.z( (v.(v.]+.-+.7_.ru@su@[%@8D }r@}r@Oe.7v.TC tu@({.uu@uu@vu@2w F( {I.A1./+.}{.^N GP !n 6V .n uu Oq 'l+~R t}.EL }3.F4./+.O<@O<@-/.jJ.OG.y_.0(.bV q_.F] jL jL Yo GW Bf Jq S@.Cf s0 Cf #` #` $/.WZ V!.dO */.[{.}l @e `% ;+ `% ]R Bf Bf #` Bf +e +e Jq 9(.qu Cf ){ MG.As o;+H_.Rm.,E+cC.Z%+/N *U F# Ap ",
">/ >/ >/ >/ >/ >/ >/ >/ >/ o] *{ o] >/ `_ v:.X> X> W% W% W% w# X. W. W. X. X. W. W. W. X. X. w# h| h|  : t( ,/ X> '/ &= u# u# V% u# .: U. .: u# %} ,9 ,9 +{ +{ ,9 ,9 %} 84 84 84 84 84 +{ +{ ,9 H5.-K )l )l -K -K ac ac ac ac ,9 ,9 +{ 84 i5 i5 o6 ac L7 d! Fn@9s+YY+W[ YY+>K k5 ,9 i< bc 2}@2}@.v.+} $: i5 VC jw.+} +} n| i5 5j +{ %} ,9 %} !l .: *= W. V. W. W% Q> W% X. W% *= *= Q> W% W% o| J~.(4.pu RH yI RH q0 ,].+b ;n 2!.=n 2j gE Y[ -9 >} xX '/ Z. s( Y> ac H5.J5.=s.{y.w] P7 q6 q6 ZZ #` dV /+.}6.;` rd@@R F[@QF `J K_._|.:I./R n$.q7.o .{+.,I.,I.5h 5h 5h ,I.,I.@` %N ]+.{+.,I.DS+(/ z( ys (v.y( =P.zI 8V 8V (4.ys ^/ uw.Wo ^/ z( {R hL v-.D#@wu@[%@vM+<H+<H+]B+ O+xu@yu@c .zu@Au@[}@bV -<.!n T@.+e Bf +e +e GW uu HH t}.ew+9.+R'.j/@%R.,<.r[.^R {I.{I.{I./R F4.F4.z1.-<.bV F] kj $` #` GW 6h #` 4>.4>.4l 4l #` oS WZ WZ V!.dO */.[{.6V 7h Cf ;+ `% ]R +e Bf #` 6h +e fj l$.zs Ae.6h j6@eb.iJ.j(.t7.:R I1.Gj.}/ H] <)@QW T:@",
"s( s( s( s( s( s( s( s( s( >/ po.>/ `_ v:.v:.X> ,/ w# w# w# w# X. W. W. w# X. X. W. W. W. X. X. Sn.h|  : ,/ Z. &= .: U. +: .: V% &= V% u# u# V% %} %} ,9 ,9 ,9 ,9 %} %} +{ 84 84 84 84 84 +{ +{ J5.-K x( )l -K H5.o6 ac Zd Zd %} %} ,9 +{ 84 i5 ac ac x( n6 f| YY+$t@$t@:$@xm.V1 84 h| 4! ^e.`E.7m.F8.u] $: 84 VC p< h6@p< W1 N~.N~.74 N~.74 w( V% W> *= W% w# w# w# w# Q> *= 5Z 5Z *= Q> *= '9 K5.L' &: .e DP Q7 dY ~} `Z `M lL 5O EW rf  ` Qd -} MW.l< j< 84 74 H5.yt.J~.Dz 4h 9j X[ l5 P1 rf %, kL 8(.#& =<.{; 7g.=b W7+a;+Dp [R 7q.Bq D-.t_.+p 7h @e Cf S@.7h 4l 7h Oq +p /n +p +p 7h Cf ;+ (/ ,I.Ft.(/ {+.,I.%l+aY (/ ,I.B] (/ j$.B] ,I.4>.tP d .f7@Bu@tz+vM+w:@%a@Cu@@3.PB Du@Eu@Fu@Gu@c<@sz+4>.]+.DS+(/ aY aY aY 1,.0B CP bY qc.<h <h Hu@U[@QR+k[.NG.4r+gO -/.0b.DN.F].}{.bV q_.`C .F .F ~<.hS ;R `C Iu@Iu@lE Oq GW .U ^N ^N J-.a).9X+S,.6V 3H EP cc ]R @e Yo #` CW !n CW $/.9Y ~X.~X.CW $` ~; *R =` qP L> pP @E.`J R^@Bz.Ju@.O+",
"K8+K8+jK.jK.jK.jK.jK.'[.:/+;#+;#+)[.o}.5j u:.Y. V. W. D5.W. D5.W. V. v# )@.w# B#.W. D5.W. D5.W.  : t( Y. Z. u# +: i%.p}.j%..: &= '/ &= V% V% V% %} %} ,9 ,9 ,9 ,9 %} %} +{ +{ 84 84 84 84 +{ +{ 74 -K qo.x( 6O 74 )[.84 )[.84 v:.o| Z. o| '/ '9 i5 i5 h5 ac l0 ;{ j0 '3 nz.r# T% V> ,/ Ma. (.X. Ma.i%.'U.,U.E#.v:.*{ u( Ku@G*@)/ Y> nL 74 ;#+LD.s( V% u# xX *= w# X. X. *= W> 5Z W> *= Z. '/ >/ t< vw.+G dY Xr./3 JG.Q,.{} 9V Gq lL 4j 6J.2j d%.*} V_ W% j< u:.N~.=#+xt./4.{y.w] n6 64 m| 9w ;n )+. & '+ eL+aw ru -|.=<.$y &R 7q.N++ n cQ+*3 4(..G 9B eV +U pS 9B ~<.~<.I0.-+.]&.H]..G cw oS Bf 9P.lw+'= Ft.~+.5h (/ DS+B] ,I.DS+B] ,I.A] 0).aV D# f7@`s+Lu@Mu@Ff bh }r@c7@Nu@95 yu@(B+ 8@:} Ou@E] Az R@.&: ZC 8V #B.#B.Q7 .2 .2 0w nE 9O f| 0*.E@.bq@QR+w1.UT L@.jJ.`m o;+0b./+.vo.hS ~<. F eV q_.q_.uP e .&R.!+ H].HW bV }{./+.DN.UP =/.b$.i(.-<.Ez +U ru pS /9 bV qS cV cV Cj.j[.}{.9Y dj z1.e}@GK.&R Dj.Hj.+E.@E.R' Pu@TM+K7@gC.Dr+",
"Y<@}0@1;@f++F8+Y`.L9+Qm+Qu@_f@ON+R0+jp@oZ._-+B#.C#.C#.Wi.B#.}h.D5.Wi.w8.Dk.)@.Vi.D5.}h.D5.}h.D5.Y. X> '/ V% U. j%.i%.p}.U. j%.j%.U. V% '/ V% .: i< %} ,9 %} %} %} +{ 84 +{ 84 i5 i5 84 +{ %} i< `. Y> oZ.'[.:/+n}.pZ.,/ G&+X> jV.W% )@.W% )@.W% j< j< Y. X> Z. '/ '/ '/ V% E#.Qr.;o.1*.C#.V. b< gr.j++8Q.f{@E6+p%.U@+^;@Ru@Su@Tu@($+n] '[.TV+SL.SL.G&+QW.oS.3*.w8.V}+Ff.2*.2*.3*.v8.D#.5$+s%.LD.)3 iS YC jS {/ ,].l0 ,].L7 q0 sL 1j m< L'.;} ;} W> Q> jV.X> G&+)[.TL.-#+D(+qL =`+tw.]v.@V+iV.e2+N@.B] B] `% 7h {n cw oS oS jE >l of KI TP L1 n[.@U @|@fV XM 2O q0@*R ~+ /M.3w iJ./3.7q.(+.y_.F4.6&.T!.Xo zs -y 5(.]R Cf )= ){ ]R @e Bf l$.CW  G |{.Oo OP 'R.iu `m Oo -l [R @p $y tz+ve.ru@E|@2B C7 y=@$` i! $, Q,.~y./j s< )1.t< @} Uu@nz.UO._0@]9.Vu@W3@6<+Wu@Xu@'R.&e `m q .|{.3w FI -R P!.bV j[.56@3w v6 wW Aq *` wS `m Az.[-+(t@W7+F# uS >d.7u+Yu@R!.Zu@`u@ v@.v@+v@B@.Zu@JW D#@z< kE *_@rL+@v@#v@_h $v@%v@&v@#E.Y* *v@*9@Bt@Nt@=v@",
"P7+X5+-v@[e@Qe@f++W`. r+;v@ZW+}j@-b@>v@xf++X.1*.Dk.Dk.Ek.Dk.Wi.Vi.Vi.Vi.Dk.3h.Wi.|h.2h. (.|h.D5.,/ X> '/ u# U. j%.E#.i%.E#.p}.@X.i%.U. V% u# .: i< %} ,9 %} i< i< ,9 +{ +{ +{ 84 84 84 ,9 %} i< oZ.oZ.kK.K8+G&+RW.u2.u2.jV.jV.)@.)@.Ff.Ff.Ff.G[+w# *} Q> '@.yX F5.A#.*= /0.ac.m( ]6@D6+F5+2V.9Q.,v@[$+r%+!J.'v@)v@!v@D;.~v@{v@z3@]v@^v@7*.I~.7*.SL.K8+QW.+4+)3+o%.jG.n%.n%.2*.3*.3*.QW.QW.:$+0! LD.Hq sL ,} 0j 0j O7 64 O7 v] v] *K q| m0 A2.A2.)3+_-+jV.jV.G&+G&+TL.1Y.@e+^!+_P+VT+bj@3z+/v@M5+Xh.Ft.>(@]+.{R XZ {R @` ,I.j$.HI *3 lr zW |V /&.-V+(v@(f@ue@jY r5 <6.&R |c wo.G] *` G].F( U@.z_.VZ nO dj fj fj Bf Cf Cf ){ n5 s0 5(.T@.l$.A].OG.NK.j(.[6._6._6.r .0-@'R.7E+'R.|{.&R Aq Aq $y ~+ (3@q5 Ez k6@#B.e$.)+.)+.r< gE W1 6! ;K mz.UO.Fn@ab._v@:v@<v@=x hY.uz+&e Me.xz &R ju 4Y FP )<.-R FI wW wo.[/ iu rs 7g.vW [v@dc@&a@fC.Zt@#y (h /O+}v@|v@du@1v@2v@3v@4v@r5 5v@6v@c .B@.S1@D# Kf+_M.!j v1.rP _|.v7.Jz+:_@J[@@u@7v@8v@9v@0v@",
"#,@iR+XA+~.+&-.$e+$V+Bt.-b@av@si@bv@E7+b7@Vo V% v8.3*.3*.v8.)@.B#.B#.B#.)@.)@.C#.V. Ma.Ma.D5.w8.Z. '/ V% .: U. U. .: .: E#.@X.AU p}.+: u# V% u# i< %} ,9 ,9 %} i< %} +{ +{ +{ 84 84 +{ ,9 %} i< oZ.kK.5$+jK.G&+G&+v2.v2.jV.jV.)@.)@.)@.C#.V}+cc.X. H|@[o.-} >@.w2.5Z W. r}.Qp.Ha.m( ~,@O}.Xi.Hu.fr.{0.Bk.Pp.cv@gI+p%+oZ.mZ.O@@dv@ev@dv@qo.`. 'n kK.oZ.QW.D#._-+o%.2*.m%.0h.n%.u8.1*.t%.s%.:$+0! )/ sL 94 #: V1 V1 e! 0< V1 ~3 #: >3 >} )9 G5.A2.+4+)3+_-+_-+jK.jK.:/+TL.@e+nZ.^!+_/+#V+#V+R0+zt.`T.)n i$.=P.=P.^j =P.zI (4.iE uw.8X+bb.{W+fv@(l+n:+1{.qS =R IW n! z1.(3.ju *R =<.=d.}#+p_.wW iO W!.n$.GP jE 4(.oS @e ]R ]R s0 -y Bf }l }l $/.OG.NK.I_.tS [6._6.}6.'R.[R +N+!j ss eN.Wu@Wu@|c e6 &R.xR+@e ZC #B.U;. N 4j $} ,9 V> S. 0N.)%@Qk@VO.Od %y IK.gv@hv@uB+H:@iv@`s+<-+$y 56@,<.kE )<.-R N++*` 2w <6.wS 'R.5l 7D jv@kv@m6@PC+y0@lv@fC.__@eL mv@nv@ov@ol@pv@qv@rv@sv@tv@uv@({.eN.BC+;x w1.0b.aU.=l '1@<q@eQ+x<@vv@vv@wv@![@t:@-9@",
"xv@8k@XS+5*.&-.G~.!<@{v.U<@NN+yv@>`+> @3q.XC 9! w:.1*.3*.o%.)@.C#.w8.v8.w8.o%.w8.D5. (.v# )@.u8.u# .: U. U. .: V% '/ Z. u# +: i%.E#..: &= '/ &= %} +{ 84 84 +{ ,9 ,9 +{ i5 i5 i5 84 84 +{ ,9 ,9 nL kK.jK.jK.jK.G&+jV.jV._-+_-+w8.)@.)@.C#.C#.cc.n( =} zv@zv@W. w# X. V. V. )@.r}.ac.~,@F5+3h. (.Ck.b< Hp.1h.%-.<,.6*.!<@mZ.b! Av@M0@ = }h -#+)/ Vo *-.!1.5$+v2.w8.v8.n%.Ff.n%.1*.nt.M'.t%.:$+`. 9w m| v] #} k5 k5 0< E;.o< o< ~3 #n $} p| !3 !3 '@.oS.)3+)3+QW.QW.kK.:/+M0+M0+jp@_/+#V+_P+_P+Nm. P..P.=P.Xr.K5.ZT Xr.=y JG.JG.(4.i$.!X+Dd@Bv@>c@b>.nS 7$.P!.4(.cV uP j[.}{.*R (3.3w 3w wo.2w <6.~j ~j  G %/.5V .U Yo ]R S@.Cf Yo ]&.q7.>l  G /+.NK.tS mY ,: _6.t1.V`+SW H4.H4.eN.Wu@ck@Wu@ss ju ~E+1c EP vw.e$.)+.2h 2h +{ `d o] t] },.I~.nk@Cv@~R pj.IK.iw+ud@Dv@{W Y@@Mu@%2 56@tP kE !9..G .n '<.*` wo.wW $U F( 7D %a@&9@[-+Ev@<b@a>@8t Fv@1s@ys@Gv@*2@Hv@Iv@,l@Jv@Kv@Lv@,l@Mv@5$.xF++d.}O+U@..^+g(.;|.,v+Nv@Ov@L> Pu@Pv@n5@J[@7i 0V+",
"_$+M0+K8+t%.M'.po.Mm.tw.Dp+Qv@fe@Rv@Sv@ZY+#N v] 9! w:.)3+jV.v2._-+w:.51.B;.B;.w:.D#.v2.u2._-++4+u# u# u# .: u# V% &= '/ X> V% U. U. u# &= &= V% ,9 84 i5 `d i5 84 84 i5 `d `d i5 i5 84 84 84 84 '[.'[.`_ `_ `_ `_ `_ `_ &= &= '/ '/ Z. W% w# w# '9 o| j< /T +(+j5 Y. Z.  : t( )3+;o.^$+;o.B;.k%.V. o%.1*.nt.!1.Vo 8*.rL UL.25@Tv@Uv@e! 6-+xt.{/ C' lK.BZ.s( ,/ w# W% X. w# *= .: +: 9! *{ 0! `. ,} m5 q6 q6 RH yI yI )R rc.xs l5 Qd =n Q1 p] n( xX 5Z '/ '/ '/ '/ v:.n}.nL nL ;#+;#+-s.qL , @, @aj 9*.9*.YC ~y.74 x( YC )l l0 VL.VL.>{ !3+Zh.-i+}q. D ,l+b*.F;.6V 6V -R </ </ q_.FP zo@~+ (3.=d.Bq Bq %/.1H )<.]&.#` Bf oS oS P!.Gz of f3@^&.F].DN.mY JN.%U Oo OP H4.rs eN.ve.Vv@Vv@wF+ck@vF+r_.x]@60.ZZ {} /l 2j 4j q| Z. Y. u# U. pZ.RW.*-.6$+8!.YU 4P.0%@GK.;D+Wv@Xv@Yv@Yv@56@hL EL ir Qo Qo ;<.}{.,N ,N wW 3Y Zv@*m Ba@-6@a;+Ev@`v@ w@.w@+w@6[.Ut @w@#w@$w@$w@%w@&w@*w@=w@^B+-w@&9@66@[6.QG.VV.>l+_+.K% ^k V0@~O+L> ;w@>w@,w@NC+'w@",
"!<@oZ.QW.o] u# >/ qo.@V+V5+x_+)w@jo.U[ tQ.ys H5.*{ +4+D#.v2.v2.D#.B;.;o.;o.MQ.51.nt.oS.)3+_-+jV.Z. '/ '/ &= V% .: U. U. X> &= .: U. u# V% u# U. %} +{ i5 `d `d i5 i5 i5 5j `d i5 84 84 84 84 84 )[.)[.v:.`_ `_ `_ `_ `_ U. .: u# &= '/ X> Y. ,/ Sn.&} 4! X1 o| /T Y. Z. '/ ,/ u2.oS.51.MQ.)'@s_@B;.&= _-+*{ C' `> J8+WL.cN.@+ !w@FW =P.0w JG.J~.g5 lK.Z> >/ Y. X> W% V. w# *= .: +: 9! *{ 0! w( v] m5 P7 +b pu 0w 4h RH )R yI P7 2!.yP ^l ^l p] '9 Q> Y. Y. Y. Y. u:.KD.)[.)[.+N +N -s.qL , @fV.yt.g5 k0 m| Hq Yd Yd i< Hq m| ,} {/ yt.hJ.x] ,{ f! i$.Yh.0*.-i+,l+C-..G 4(.uP gS -<.1{.D7@~+ -V+}{.Bq  G %/.)<.7$.6V oS .U 6V q7.}K =i+f3@(K (+.`m %U SK.%U ;/.q .iu V`+ya@=m =x wF+ve.ck@~w@IK.3F.ij 4!.9o.`d 2j n< a< t(  : &= u# RW.jK.*-.XC 8!.^].U3@H0.D# 9F pE+.d.[>.v-.tP vI ;: d$@9%@r7.d>.n:+)K+ZD {w@{w@4O+]w@##@^w@T+@dc@PC+,K+B2@/w@(w@_w@:w@|L+<w@[w@}w@|w@1w@}w@2w@3w@'y nJ.4M.;` p$.k,+>l+4w@Tn e0@5w@W8@6w@{=+{=+7w@8w@",
" + *{ o] U. .: i< )l x] [-@9w@~g@0w@>~+Km.7V }h >/ )3+D#._-+_-+)3+nt.=o.-o.B;.B;.51.MQ.=o.w:._-+&= '/ Z. '/ &= u# U. +: '/ u# U. .: V% V% .: +: VC i< +{ i5 i5 84 i5 i5 `d i5 +{ ,9 ,9 ,9 ,9 +{ n}.v:.v:.v:.`_ s( s( s( BZ.:,.V> o] >/ `_ n}.u:.)1.5j 84 +{ i5 `d 5j 5j >/ 5j KD.v:.jK.jK.xV.N0+:,.`d Sn.ac O7 E;.WL.i$.Wo MK.0*.YZ y].6>.+X+B2.H5.Vo  + >/ Z. V% W> X. W% W> .: U. 9! LD.7!.l0 W1 ;n ,].jS Xr.=y ys ys ys =y Xr.%: (l 3j gE Q1 '9 o| &} &} i5 i5 `d KD.N~.h5 J5.H5.-K x( )l )l +N @N <l Z> 'n :,.9! V% BZ.&{ Z> Mm.+N -s., @At.hV.|q.tw.@+ V[ +n AP gj .U 6V ;R vP XM hL 27@z< q_.q_.q_.-R e .FP e .-R e .e .N++'<.[V 'N m$.'N iu Oo q .Oo Oo q ._3.eN.Xu@ck@E|@ju ~+ lu@lu@d>.N+@,j.+b /l 84 $: >} f..v# b< u2.+4+s%.+X.HQ.6$+05 $s.d$@sz+Ib+=N+aw@7_.7_.7_.hL ])@H0.J0.HH p[.FP EL bw@B%+;k@cw@*q X5@*m }v dw@5C au@-6@eP+ew@Co@fw@gw@#9 hw@iw@jw@3k kw@-1@lw@<i <q@mw@#n@zo.(<.ct+eP.3M.2M.GN./k @m nw@,X+,X+ow@gk ",
"t] +: U. +: Y1 i< )l oo.6q.pw@qw@rw@+ +'I.>R.{y.`_ D#.+4++4+)3++4+w:.nt._-+jV.D#.-o.^$+)'@;o.nt.U. .: &= Z. Z. '/ V% u# V% u# .: u# '/ '/ V% .: $} n| %} +{ 84 +{ 84 84 84 +{ ,9 i< i< i< %} %} n}.n}.v:.v:.`_ s( s( s( &{ t] :,.9! po.`_ n}.`d VC %} `d KD.KD.`d `d `d s( u:.n}.s( pZ.Sn.pZ.:,.i< )1./7.x( aj oo.!K a*.BP MK.@` !s.cY cY 22@#B./7.6O LD.nL s( +: U. Q> Q> W> .: 9! )/ LD.@N l0 (l -n mE iS Dz Dz (4.(4.(4.(4.y( J~.t< /l yP 2h i< 4! ,9 +{ ,9 +{ 84 i5 N~.h5 H5.-K )l YC YC {/ 1q.oL oL 0! `. *{ *{ V% i%.&{ 'n 0! 1q.XC b7@YF )L+zt.Nm.tw.f! AN.^W+ D .U +=.)9.H].B4.tP 27@27@hS q_.q_.hS FP ,|.,|.,|.d>.N++Kf+;<.!O+k[.c$.hO [R V`+V`+V`+'R.iu ss ve.#v@Vv@Z!.cc@e7.cH+.o 3(._&.:l 2!.(j n| n| X1 -} *= V. v2.)3+t%.%&@HQ.=-.0O 8%@d$@>I./G+iT f}@v-.9D sw@vI tw@]{ %` 3H Df -+.e .*_@DS.uw@vw@tB+ve.*m :k Pb@Ba@:3@kv@nf ww@dr xw@[o FL yw@]E+zw@Aw@Bw@Cw@!2@Ke.C1@te@Fp@:<@7)+[:@eP.IN.dP.v[.K_.K_.Dw@Un Ew@Fw@Gw@",
"&= u# U. >@.;@.Y1 )3 =s.Et.{!@P++Q}+S6+KK.y( L7 `_ Z. '/ V% U. E#.@X.Nr.V% &= '/ Z. '/ u# +: E#.u# .: +: j%.+: .: &= Z. Y. Y. '/ &= Z. Y. &= E#.!l ,9 5j KD.i5 ,9 ,9 84 84 +{ ,9 ,9 ,9 84 i5 `d 84 84 84 84 +{ %} $: n| u] #n sL W1 Hq Hq Yd Yd m| ou Gq yP ac o6 ac ac w( )3 Y> '[.mL )[.Y> LD.,} 9w l0 g5 4h _4.vL {X+z].z].j$.%N y].8V ,+ .2 l0 J5..N o6 %} j< o| m< j< m< VC %} )3 m| n6 )l Gq s< %: iS pu _4.)K bj (v.y( f;+ U. U.%: mE -n (l 3j sf /l /l /l /l (l %: %: mE iS jS iS %: {} N'.l0 x( )3 W1 %} KD.+{ VC VC w( Zd )l l0 w] aj iV.@V+@V+iV.9S.II ^W+]+.oS ]&.H].F] XM wz+;}@~1@eV ;R -R -R }{.j[.2H N++'<.!O+c$.c$.k[.k[.w1.)T+ct@]w@`n +N+ck@Xt@Aq ss /M./M.2B sP e6 vF+#K <&@$=.mE <P.(j *K VC '9 '9 4! X1 *{ :,.Z> a! XA.N7 05 tG u[@Dv $2@3B xv yQ+:} 7_.:-+p7.%` $` DW @e ]&.+=.#` #` Nz+*N+6<+0(.wo.3Y -l H4.7D @p 6D 6v.Hw@Iw@8p@c;@xs@Jw@Kw@Kw@0`+M!@Lw@~A 8#+U#@V#@@q+sF+|S+s4@#i+t[.3M.Z%+=@@z[.1<.t7.0q.*U ",
"t( Y. *= xX A#.Y1 Yd {y.Be.Uh+</+J' 4-+(v.+G 2!.>/ u# U. j%.E#.i%.E#.E#.U. u# &= '/ Z. Z. '/ &= '/ '/ &= u# +: E#.p}.@X..: U. j%.i%.U. &= V% j%.n| %} 84 84 ,9 %} 84 5j +{ ,9 %} %} %} %} ,9 +{ +{ 84 84 84 84 84 84 +{ $} VC w( w( Yd W1 9w 9w 8w ;n Gq (j w( w( Yd Yd sL sL  + )/ )/ Vo Z> a! ~3 -{ d! V1 oG 'K vL AN.,l+ D 5h 0B YZ Fz =: $=.,n 0j 9w Hq %} 5j +(+&} &} &} +{ i< w( Zd -K x( (j s< mE Xr.zI Lm.)n z( ^/ ^/ ^/ N@._4.nE ^j +b mE yP %: s< iS Gq ,].+b +b ,].jS ,].pu q0 pu Xr.)I.mj+]/ -K L7 W1 w( }H w( Hq W1 L7 {/ {y.{y.{y.ZF )I.tw.|q.^v.i$.1,.+p .G +=.-+.~<.B4.C4.v-.wz+iL H].FP ,|.4Y 2H 2H iO !O+!O+w1.!O+m$.(+.c$.PR+`n LG HZ.LG =m wF+ck@ck@sP E|@E|@e6 E|@/M.W2@;: 05 q0 (j m5 ~3 0c h< Xd n< *K *K ,} lK.k0 `> 0< u%.8h {3@Qh.6_.Vr xv Mw@x| 7_.D# tw@`C 8(.uu Oq K#.GW .n 6h dV cV CN.0(.>: [/ LW $U ^m+Ff 66@kv@Nw@Ow@[o ec@>K+Pw@Qw@4g.Rw@07@'w@o5@Pu@O4.8(@%0@pY wV.sF+wV.ij+g0@z[.3l.;` <I.8F.|<.NW ",
"h|  : B#.Na.#; 5Z o] 1q./)+y_+Uh+V5+Yh+|q.mE 2h po.*{ :,.Z_ t] :,.o] >/ o] o] >/ s( `_ v:.n}.n}.Z. X> Y. X> V% E#.y7+qt.BU z7+BU BU AU U. V% U. n| n| n| $} h< *K VC i< i< $: n| VC VC VC VC VC VC VC n| $: i< ,9 o6 74 w( )3 Zd Zd {/ L7 g5 n6 ;n 2!.(j (j Gq 2!.Hq Hq 9w 9w Vo LD.LD.)/ Z> lK.-{ r] To j0 --.--.^W+bj !K {X+1,.v%.R9@YA.D2.KX wS.g< {3 #: *K %} &} j< o| j5 84 !l Hq h5 ~y.{/ -n A-.s| .2 &: &: aY #, Ft.B] DS+6>.B-.`T bY 0O r6 ^3 Q7 ^3 DP P@.0O 0O N. ,+.ZZ ZZ 6>.N. y].y].iE ~K )K N@..P.nE q6 ou ,].q6 [h Wa.)R zI ys Lm.II ^W+#+ bj [l &N ,l++=.:{.,|.e .hS C4.D7@E|@tP #& 26@])@z< lu@2B ss -l V`+SW !j rs 0-@wS iu !j [v 4C Iv Iv Sw@Tw@BC+ud@ud@e7.hv@hv@vN.Uw@vN./U+aO 8j :l o# Z1 XF _j Ds !} !} `1 8j ;{ Bz *; 'K <4 /n !+ cq@.[@IL+<v <k (B+x| hL ])@)9.#+.lE lE 7h p[.dQ+{n .n ]&.q_.,|.}{.}{.>: wW 0-@H4.SW NP Zv@NP 0u@QF+gw@Vw@OJ+|B Ww@Xw@jI+![@Yw@Zw@5R OW ;L+=_@@q+*e K_.T:@|6./N r0@6v.NW vW 7g.",
"jV.)@.)@.Ff.0h.Na.'/ nL fV./v.Yh+AI x] {/ $: 4! i< *{ V> :,.V> *{ s( v:.`_ s( >/ >/ po.>/ >/ s( V% '/ X> Y. '/ U. @X.y7+0:+CD.BU y7+i%.'/ Y. X> %} i< n| *K #n vs #n h< VC VC !l $} }H *K *K h< #n #n #n >3 h< }H Hq Yd 9w Hq Yd Yd l0 L7 l0 ,].,].Gq s< (j 2!.;n Hq w( W1 Hq LD.`. nL Y> LD. + ,} -{ @} N7 #N 2s+wj.AN.vL @G |,.+` hj iw.bZ I#.I#.Uu@<l@Fq E8.0c p| o| p| 4! $: $} 9w w( {/ P7 r| r| /3 /3 &: B] h! Ft.>(@HI Aj. D ,-.!+.8).YZ nG CP CP 0B 0B CP YZ nG YZ YZ CP YZ XZ YZ 0B %N :l@36@2'@~+.vL YZ Bz ,+.yI Fz pc.XZ 'K %N {X+,-.gJ.,-.C-.Aj.z]..G nS ,|.kE kE kE ,|.46@~w@cc@GK.])@_{.])@/V+cc@wN.7E+SW SW zq _h G/@0-@F( `m -l ss |c ve.ck@Wu@Xt@~+ 56@/M.~w@wN.wN.td@^3@td@~E+bY .` xs pG nu |*.`1 +P a4 |*.8j mG Wa.CP a*.'l+Df Oq OR+4P.+o 9F LD bE ru@wu@E|@zo@EL H0.nS lE r7.dQ+/n uu s_.s_.EL d>.Y!.,N ya@Tw@]w@ct@`w@Zv@4O+G++[R hu zM+ x@;J+ty Rw@fp@Nt@Bt@v5@qh@3L+3L+vc@$m@;L+j$+&v@.x@NJ+a;+&9@&9@&9@0u@66@",
"CO.Yi.1h.Gp.Cu.jG.)3+QW.xt+@V+hV.@V+oL :,.A#.m0 m< VC VC VC n| $: $: i< +{ %} $: VC !l !l VC n| +: .: u# V% u# U. E#.p}.VA.p}.+: .: Z.  :  : Y. i5 i5 84 ,9 $: !l $} $} VC VC !l !l $} *K h< h< r< r< !} !} r< Qd 8w ou g| 8w +b ,].pu pu =y iS jS ~} ~} ^3 p0 9j p0 P7 k0 0j 64 g5 l0 l0 XC <l Vo C' .+ 8*.:l.9b@--.&4+c2+4H oG )R P7 m5 r( bQ+T/.^_.^_.r^.`a.>y 1j gE =n ]l ]l =n ;n 9j ^j q6 jj xI 0O ,+.Af {+.o .Aj.DI 7>.t_.>-.oE 0V 0V ~R gJ.&d.ew+,-.!R 0V ,-.iY ,-.,-.Od Hu@Hu@,-.<4 :&.+x@@x@#x@%/.bO aV ~R dQ+YZ 8h XZ 4>. D .G K0.2P.T9@gt :{.>l b>.*_@18@,<.Kf+lu@/M.Z!.n/@=m ya@Z!.-I.L6@RF+Ib+cc@3.@G++NP zq Cp Az.Cp t1._6.0-@OP _3.Aq eN.|c |c ss 56@ju ju 56@C4.B4.wz+D# C4.H].1c Mq _&.w%..` %, jj <M @=.d!.>+.Zo <4 aV >-.db.oS .G iw+IK./M.wN.!o@vM+>0@bE vF+GK.@3@0%@jr ZN+dQ+/9.p[.p[.~1.p[.db.{*@$x@gv@6<+:v@=x UI+Sw@4C Lp [v [v 4b.KG J/@v1@8k 0k {A p4@K!@qh@%x@]O+]O+5l@LC+:i &x@@t@*x@/O+=x@-x@;x@>x@2i Et ",
"BO.2V.9Q.<N.Op.Op.3.+<,.!<@U`.U`.7!.Vo w2.Hk.Hk.n< $} !l VC VC !l $} }H VC !l $} }H }H $} !l !l E#.E#.E#.i%.p}.p}.@X.AU p}.U. V% V% &= '/ u# j%.i< %} ,9 +{ +{ ,9 i< $: n| n| n| VC !l $} }H *K 1j 1j ]l ]l ]l ]l ou ;n g| 8w q0 P7 RH RH 4h 0w  2 r| ^3 '+.eE >n Pd xs V1 N7 ;{ 0j 64 64 .+ XA.'n Z> =-.<l J8+S&@!e+nb@*; d2+F' ,j.o# *n Ds 7j m..nE ,j.Z` Z*@(M !} hE 4j Qd Qd ;n :l >n 9O 4h @=.@=.Fz 0O @` ]+.Aj.C-.*P.8>.t_.b*.:&.C-.'l+<4 K0.lS L0.t_.oE c*.{j 7>.oE ~R 0V Hu@Hu@0V <4 5V ,x@vE+ N+hw+Y[+V,.ht 'x@Cq 9%@^9.s_.s_.ku )x@4U.!x@hr Ay td@$x@^3@+5@~w@BC+hv@eH+.o Tw@Tw@=x wN.&p@y< :H dJ.Z!.wF+NP _h TT J_.}6.G/@Dp _h SW SW Xu@Xu@X5@Vv@X5@wF+cc@/M./M.vF+D7@D# D# D7@z< vI p[.GH [H [H WF ~{ ~{ MH ~{ H;.Q!.t}.jr D( }K }K ku mS bw@B%+gr ~w@l5@G:@5h@5h@Xu@cc@_M.f4@:U+{*@:&@8%@#2@:&@t2@^U+s_.~x@{x@IK._M._M.wF+#v@Tw@[v !T+SR+hY.Ft [&@&I 2[@4k &:@]x@^x@>J+/x@+D+(x@+D+V^@kg U^@_x@S^@W{@lv@#7@:x@Et Et 3i 3i ",
"<x@/-+[x@}x@|x@DO.6V.H&+bI+fc+xt+7*.<,. j.tr.-j.~/ }H $} !l !l $} }H *K *K *K h< h< *K }H $} $} p}.p}.@X.AU Nr.VA.VA.y7+VA.p}.E#.i%.p}.i%.@X.VA.h< *K }H $} VC VC VC !l $} $} $} $} $} *K h< >3 FR WC P1 P1 P1 r< a4 `1 [h 8j 8j 8j Wa.Wa.nE ^j 0O N. 0O >+.tL ,K PH Wa.0< 0< 9*.aS.VL.aS.E;.D' C' *-.I1@.{ 1x@S&@J8+>9 UL.uQ.e! J#.2x@Y2.+} 3h ,n +G :l {Y+sc.04 ]l /M !} r< `1 Z1 ^_.I#.,K Bz ,y @=.>+.>+.1,.!s.z].C-.DI *3 U,.<&.:&.,l+ D C-.(9.}K }K :{.:{.T3@T3@Gz Gz ~9.jr mS K6@s_.^9.cQ+3x@R_ C{@4x@CA 3C I-.*=++@@'#+gv@+@@+@@<v@3C JV.qE+pE+8F pE+5x@9&.Sw@@@@hY.*q *q Sw@4O++N+}O+I-.Pp 1e.zy e}@Z!.ck@SW G/@TT TT 6x@}-+7x@8x@G++:k Wu@+/.|c |c 2B 2B E|@e6 *0@yz W2@D7@D7@W2@:H c @~1./9.Q!.H;.+& NR+NR++& != != 9x@,#+3(.yz :>@IK.B++V,.3C 0x@Sr =m fc@[&@[b@!o@Vv@n/@+5@Nz+V,.qr j/@mW+:/ sG #2@#2@K6@^9.uM+f4@6<+I-.=m #v@Vv@X5@<v@$x@3.@ax@[b@bx@cx@5k Cw@~[@7i dx@@=@ex@fx@=a@H!@gx@(v hx@^x@YE+ix@@w@P[@}|@jx@=2@h}@",
"(-+(-+6V.x7+DO.x7+Qp.51.xV.Q`+Q`+Z> -o.,@.%j.;j.E#.$} $} !l !l !l !l !l *K *K *K *K h< h< *K *K 0Y.AU &{ AU 0Y.Nr.8$+VA.U% Nr.0Y.Nr.}C.p}.t] Z_ >3 #n 0c #n >3 h< h< h< #n #n >3 >3 >3 0c vs u] Nq Nq q# Ds i0 Z1 )} 7j _l >n ,j.,j.PH PH 9O rc._&.@=.mG O. tL _l rc.q6 uQ.O7 uQ.64 aS.0j e! d! *-.6*.w|@Xa+kx@!}@`%@6$+)l+`> @N j0 r] h< 34 F8.lx@jS 9j )].k3@9o.Sn.fE /M fE ]3 e*.ps@9;@^_.>n >+.aO +` `T ,-.!R 7>.7>.U,.F1@ t@(9.kr ^9.c*.+=.(9.'<.`x+*_@}K gv@mx@IK.it IK.ht IK.c).sL+%R.TR+<1@>X.nx@P}@ox@bq@<v@UR+SR+:v@!T+MG 1v bq@;x  o %5@H:@Kv ox HZ.%5@}v =q fr &q =z *m G++px@<1@Lp qx@rx@f$@zy *0@Z!.+/.[R _h Mt+sx@tx@ux@G++px@4O+px@wF+NP ve.ck@ck@ve.Wu@3.@3.@wN.Z!._M.3.@:v@IK.s_.9%@t}.p[.sz+9x@sz+#+.#+.J0.;: r_.yz n/@=x =m !T+I-.bq@;x G++]w@^w@Pb@;a@n4.ct@Vv@PR+:>@:>@ht K6@:O+g4@Iu@jt jt Mz+Mz+Nz+:v@!T+rL+[v Sw@hY.4C eH+e7.Tw@H:@MD vx@wx@r<@xx@yx@zx@Ax@_x@*a@Bx@U^@Cx@9i ex@mU+'w@ar v1@'2@5i KG Et v9@-J+",
"&{ Z_ i%.E#.j%.j%.j%.:,.t] t] t] *K BZ.n< j%.j%.BZ.BZ.:,.V> *{ po.s( v:.`_ s( &= V% u# u# V% po.:,.:,.Z> Z_ C' Z_ Z> t] LD.9! Vo V> )/ V> 'n C' Hq W1 sL m| ,} ,} ,} m| m| m| ,} v] #} '} ~3 -{ Z1 )} )} i0 xs [h nu Pd ,j.Pd eE xs [h [h xs ,n 8j X[ xs o# nu 04 8j a4 q0 a4 xs ]3 nu i0 _l R% HQ.xb+{S.&-.5!.},.},.7*.~i@`> XA.<l @N  + s] ;/ #} ~3 z' #: ,} 9w 9w m| r# 94 -{ 1J.Dx@}J.6! >n +` `T !+.8!.&d.ew+mS jr T3@`x+[P+,N =i+,N =i+Nd U9@W2@2(.yz f4@(3@:v@ y+I-.BC+!T+.o SR+.o I-.+5@jP+jP+jP+QR+;x bq@iP+RR+ox@Lp iP+RR+Ex@Ex@'K+jV FA ;q@Fx@;q@Gx@;q@Yn ,X.0C.<S+5F.6F.R_ >X.0C.LS.!+ E] Hx@U3@!+ uM+cc@Z!.Xu@Xu@uz+uz+x0@xF+n4.fc@`w@px@)R.*m [O+'K+jV jV Ix@Jx@<1@<1@Kx@Jx@Lx@~y+Mx@Mz+Mz+ku iw+2(.Nd Nd cc@cc@Xu@wF+X5@Vv@Nx@+N+4O++N+ux@ux@Ox@Px@Qx@nu@nu@Rx@Sx@4O++N+#v@#v@6<+W3@+5@6<+6<+6<++5@W3@:>@I-.Tx@bq@ox@ox@ox@ox@UI+*I ##@^w@Ux@X_@a>@a>@xx@:b@#O %D+~z ~z $Y ,1@Vx@Wx@=]@.4@'w@%D+Xx@Ob@Yx@=A+:o :o =A+Zx@",
"vs vs 0c #n >3 h< *K *K 0c #n h< *K *K h< >3 #n BZ.BZ.:,.:,.BZ.t] Z_ &{ 0Y.&{ @X.p}.i%.i%.i%.t] 'n Z> C' lK.lK.lK.C' Z> u( u( #M.lK.'n Vo  + 'n Hq W1 9w sL sL m| m| m| ,} ,} m| ,} ,} v] 94 #} nu nu nu 8j q6 P7 q6 :l +b +b +b ,].jS ,].+b q0 l5 X[ 04 04 X[ `1 m5 g| `1 X[ ]3 o# 04 o# Z1 r] o%+xb+C;.^;@MT.%&@I~.Q`+$&@T% b! `> =-.XC =-.k0 r] y++r# y++6! -{ -{ {3 #: ,} v] r] h6@h6@N1 ^_.60.8).!+.hY Z4@j/@ U  U V,.V,.:v@I-.!T+!T+Tx@!T+cc@Ay (3@cE hr _B+cH+5x@hv@.o Tw@=m =x #v@Vv@X5@;x !T+ox@iP+AQ+) +SI+BQ+`x@`x@ y@rY |v .y@D{@Yn +y@@y@@y@+y@#y@#y@$y@%y@MS.R_ YD.B_.%R aU.xS U@.</ jL ]{ d$.H0.0%@#K yz 2B E|@8D 8D tz+&y@uz+x0@Mt+Nw@sx@)R.Jx@Ix@MS.MS.v~@*y@Vh@Vh@=y@=y@*R.Gi@y{+YR+7/@7/@QR+jP+PR+PR+rs rs rs rs rs SW 66@66@Nw@i9@-y@-y@`9@`S+jY.(k (k Px@Px@)R.+N++N+=m =m -q@-q@-q@QR+jP+PR+)T+fN.fN.)T+QR+Tx@ox@RR+nP+fr Ba@;y@;y@pL+v:@A:@>K+>K+ 4@Ob@$q >y@Xx@,y@8w@'y@)y@E:@ck !y@~y@!y@Ew@{y@]y@g$@^y@! +Fx@",
"h< >3 h< h< *K }H $} !l 0c >3 *K $} $} }H >3 0c 8$+0Y.t] V> 9! V> :,.BZ.&{ Z_ Z_ Z_ &{ 0Y.}C.8$+t# t# R. 8! 8! R. t# T% u( #M.lK.'n LD.`. `. 0! Yd Yd Yd Yd Yd Hq W1 9w 9w 9w 9w 9w sL ,} v] 94 p0 :l p0 P7 +b ,].+b q0 9j 9j 9j 8j 8j [h [h [h X[ X[ X[ X[ `1 m5 8w ;n m5 `1 l5 a4 g| g| `1 '} 0Y.%&@>U.L4+N0+&&@)%@8! WA.8! ={ o0 j0 j0 o0 @} <l@^_.3l ]_.wS._l _l T8+eE _l >n ,n _l !-.{-.m..J;.> +^(@`4@ZM+ZM+2P.~x@*=+bw@rL+TR+Sw@hY.4C gr cH+Uw@Ht Ht cH+gr =I (E+UI+Tw@=m Tw@`n }v HZ.Iv ox@Lp RR+1v DA b.+dF dF rY rY /y@we.(y@(y@we.we._y@Kz+/y@/y@we.(y@we.:y@`x@e[@KV.UT [V !O+'N n:+*_@;: ;: ;: r_.uM+3.@BC+X5@X5@x0@x0@x0@xF+kv@<y@dc@m6@Px@Qx@nu@nu@nu@nu@Kz+h.+NI+NI+[y@}y@[i@|y@4x@Tx@Tx@;x -q@QR+px@G++rs rs QF+QF+:4 :4 :4 :4 66@[-+ww@ww@*U Ym NJ+)j 8B+<b@dc@kv@Nx@]*@/B+UI+QR+jP+PR+fN.yN.hO ES.ES.[V ES.hO fN.)T+)T+PR+X5@n4.n4.n4.n4.au@;a@F:@F:@;a@Ba@Co@,K+`v@eP+M[@,K+m6@<b@em@<b@m6@`v@eP+dc@m6@m6@m6@`v@M[@",
"vs vs u] u] u] u] vs vs Y2.jw.0c >3 h< >3 #n 0c U% T. 0Y.t] :,.V> :,.:,.:,.:,.BZ.BZ.BZ.BZ.:,.:,. +  + 'n 'n 'n  + )/ LD.LD.LD.0! Y> nL nL `. LD.w( w( )3 )3 )3 w( Yd Hq 9w sL m| v] '} ~3 z' 6! o0 ,j.>n >n >n >n _l _l Pd Pd Pd Pd ,j.,j.Pd ,n )} )} )} )} i0 ]3 04 X[ l5 o# i0 i0 ]3 o# o# -{ U% H6+l( DD.J*@I+@-%@1y@V+@vK.!q.nz.J#.xm.~ @~-.~-.am.T/.am.{-.)-.I;.)-.^_.j..9;@iw.!-.bZ {Y+^@.N0@`*@Gc@Gc@lu lu tL+T9@sL+Mp )K+BA Iv *q Sr Sr gr 9F _B+hr  y+wN.vF+2B +/.Wu@ve.ck@`w@:k ]w@2y@Lp iP+nP+nP+`x@'K+e[@4x@UT QV.Z* vQ.u~@C{@>X.<1@}O+}O+QR+QR+QR+QR+QR+QR+)K+TR+rL+!T+gv@{x@IK.f4@Nz+fJ.S&+&R.{x@Nz+BC+ y+=x =x Nx@Nx@Nx@au@;a@;a@m6@eP+Px@Qx@Rx@Rx@Rx@Rx@3y@NI+Yn Yn oj@oj@4y@MS.LS.QR+QR+jP+jP+X5@G++G++NP uz+jv@jv@jv@jv@jv@jv@66@[-+ww@(t@]+ ]+ Gf Gf *U ww@ww@[-+Lt+w:@>0@Y@@ve.ES.w1.c$.'N k[.k[.'N c$.c$.!O+!O+w1.!O+!O+!O+ve.[%@ve.[%@ck@Y@@wF+l5@wF+l5@px@x0@NP w:@!j 7E+Zv@Zv@!j c7@px@[b@xF+%a@Lt+w:@c7@xF+[b@",
"R% R% r# Fq Fq vK.vK.vK.y++;/ r] p< {3 z' ~3 ~3 }C.8$+T. B' U> %W+ED.La+S. U% B' U% T. &{ :,.9! R. 8! WA.WA.WA.R. t# T% Z> C' C' Z> C' a! s] t# @: @: u( #M.#M.u( @: s] WA.G*@;K mz.7$+-%@$M.h6@`]+5y@5y@`]+`]+`]+5y@5y@CG.6/@2J.2J.5/@5/@5y@6y@vK.vK.vK.vK.Fq Fq r# r# y++Fq 2x@h6@h6@7y@2x@2x@mt.,3 ,3 oN.I+@I+@8y@Ik.! @r[@%l.{-.^_.]_.I;.{-.2,.9h ^@.9h n .D] P:.D] 05 cG ^@.~F hj ~@.gY ~F &y x]@5e@:O+T9@zz 2C DS.3C MG {w@*q 9y@0y@(K+TI+ZD *z *z ay@)K+<v@QR+PR+QR+QR+LS.Lz+D]@KS.l[.KS.a(.gO L@.KS.KS.l[.b(.%R 8q.8q.ZD.ZD.*i+5F.5F.vQ.jP+W3@:>@_M.,N Nd 2(.2(.f4@IK.&R.U3@OR+ir !9.H].P!.7$.kE d>.Kf+;<.[V [V SW SW zq zq [-+Ev@Ev@Ev@NJ+NJ+)j M6@M6@by@`9@`9@}-+$v@YD.YD.ZD.YD.T}@cy@UT NP NP NP NP 7E+i9@jv@0u@0u@y5@dy@}i }b@}i }i yC+ey@<R.PZ g7@fy@rI rI #y FL 8i@ys@QZ jp+tu@<-+'R.PV.a(.dN.z_.dN.dN.a(.PV.gO L@.KS.D]@QV.Lz+PR+PR+wN.W3@wN.+5@3.@:v@BC+I-.BC+$x@^3@Nz+(3@Nz+6<+:v@QR+QR+Vv@PR+Xu@Wu@eN.95 tz+@8@gy@gy@",
"r# r# R% R% r# Fq vK.hy@y++y++;/ ${ 6! z' ~3 #: }C.T. B' %W+&; ,3 F|@F|@ED.&; mt.I+@I+@mt.,3 G*@A' mz.N% 7$+7$+N% A' A' 7$+7$+N% mz.mz.|C.$M.A7+Rj@2$@2$@2$@2$@2$@2$@Rj@d^@d^@d^@d^@!.@Ku@iy@jy@6/@5/@`]+5y@%l.zK.xm.!q.P. '3 >K To <l@P. <l@To 2x@N1 N1 N1 N1 N1 N1 N1 Fq hy@N1 7y@h6@h6@7y@2x@1d@zG.I+@oN.,3 3h y++vK.2x@CV.I#.]n _l >n T8+KX WF WF WF WF WF WF [H G#.G#.G#.H;.G;.G;.cG {F 8,.#2@#2@5e@g4@~x@T9@Mp Mp rL+SR+Sw@hY.@@@{w@+d.Iv ky@(M.GZ.*z MG rL+;x jP+Tx@bq@4x@LS.D]@k5@4r+L@.is+QV.LS.4x@'K+Ex@D{@KE+<1@>X.R_ 6F.5F.*i+*i+nx@;<.U9@U9@r_.*_@d>.;: ;: I0.;: d$@d$@xR+m! ]{ 9B jE P!.FP EL ><.><.'N k[.H4.H4.Cp Cp (t@(t@(t@(t@*U *U *U *U ly@ly@,v+aS <R TT $R $R B_.B_.$R %R H4.H4.H4.H4.V`+V`+Y5@Y5@Es TM <R.1s@gw@gw@gw@{E+-w@-w@<R.<R.my@my@my@my@g7@t].__@b0 5$.jp+tu@`s+OP a(.dN.dN.dN.dN.dN.dN.gO 4r+L@.l[.is+D]@UT UT fN._M.=i+_M.Mx@f4@:U+IK.:U+IK.{*@&R.'x@U3@'x@'x@:U+!#+!#++5@W3@_M.Nd vF+bE ny@oy@oy@=(.",
"'3 >K g< o0 @} o0 j0 g< j0 o0 o< V1 N7 N7 N7 #: U> @4+@4+B' U% U% s] s] R. 8! G*@A' N% |C.V+@UO.=M.c++4!@4e@4e@4!@c++c++*M.*M.Di+UO.8~@Di+py@4!@Ku@Ku@iy@iy@iy@Ku@Ku@<$@iy@Ku@Ku@Ku@iy@jy@qy@qy@`]+6y@ry@xm.J#.Uu@>K j0 To lx@g< To !q.ry@zK.~ @Ik.-g.}J.}J.h6@7y@7y@7y@N1 vK.y++r] ${ r] r] ;/ Fr.8,+it.$ +$= +} p< r( ^n ^n =3 H#.S/.NH '-.y:.~F xC+-: -: {{ {{ -: xC+av a$+a$+a$+av bv a$+rr 5e@#2@#2@x]@S&+S&+{x@{x@+5@6<+#v@=x 4O+4O+4O+=m Lp sy@7/@Y[+YT eS ;l n[.aB eS .D ty@cb.B].dS .D ty@.D sb@gw+uy@uy@Fp 3x@3x@pE OV.gU.:R.]V+]V+4R ;l 5Y  n  n E@.Gz E@.cQ+jr ^9.s_.gt K6@^9.r7.s_.ku Mx@Mx@.5@~#+YT KS.l[.Ep Ep $v@$v@K% K% vy@vy@)j )j )j NJ+NJ+)j $v@$v@J6@o:+cy@T}@Ep 8q.Ep 0U.V`+V`+Y5@TM Es Es o(@o(@__@t].wy@1s@xy@xs@=m+1L+-w@ey@1s@{E+Md Md Md Md lv@1s@<R.^B+Mv@yy@Z*.Lu@a(.cb.cb.cb.B].]X.k .k .B].cb.cb.He.He.cb.cb.cb.E].W!.T,.W!.T,.Bq qK+ G  t@(9.>-.db.>-.db.!R 7>.F1@lr 5d@of YT fN.)T+X5@>0@5h@zy@zy@Ay@",
"~ @J#.P. >K g< g< lx@>K j0 @} V1 k5 k5 N7 o< {3 G*@%W+B' T. }C.}C.u( u( R. T% s] #M.a! `> XA.D' ={ %{ 7! %= S% %= %= 7!  = S% 7! ={ ={ 7! s# 8~@8y@8y@$M.1C.1C.$M.-%@-%@2$@2$@2$@I8+By@!.@Ku@iy@Cy@6/@2J.`]+`]+%l.xm.Uu@lx@j0 j0 '3 ~ @5/@CG.CG.wK.i3@j3@zm.@I.Dy@Dy@Dy@@I.Ik.Fq ${ 6! p< r] y++5m.5m.it.8,+$ +E8.`o i6@bQ+`o ij '-.iw.am.{@.5J /9.B# B# 9x@@& @& 9x@B# ah !; B# )+ )+ @& B# `!.p[.p[.dQ+ZN+mS 3(.iw+f4@+5@+5@ya@ya@ct@:k :k QR+XR+XR+!#+!#+Sh.Sh.Sh.Sh.Ey@hw+RV.gw+SV.g3@5`+Fy@ N+ N+Wj@]r@~y+~`+Gp 3x@Fp 3x@$G $G $G |R Gp@Gp g3@~#+Gy@YR+7/@XR+7/@c).it V,.V,.:U+ku gt {*@jt ht .5@Mx@=i+Ey@Ey@D]@D]@Ep 8q.$v@-y@`9@`9@`9@`9@by@by@M6@M6@M6@y5@-y@}-+}-+i9@*i+Z* ( +LS.u~@KV.px@px@Hy@jv@&9@66@[-+QF+{E+gw@,0@dy@ix@PJ+]E+;9@z:@z:@,0@,0@y0@Md Md lv@ph@t].__@b0 jp+jp+t|@iv@PV.He.He.cb.B].k .UP VT dO V!.VT E].B].cb.He.dS d| Iy@Iy@ e+ e+zW TP zL b).8>.U,.*3 *3 b*.F;.C-.(l+3V zW _l@f ..D KS.is+'R.<H+uz+Jy@Ky@",
"5y@6y@~ @J#.J#.J#.~ @ry@J#.J#.nz.Uu@<l@lx@o0 z' #M.S. B' T. Z_ Z_ u( R. %= ={ c! b! E' S&@U&@>m+7! %{ ={ 5.+c! c! %{ %= E' c! ={ ={ ={ 5.+E' XA.I~.3! 0N.n] )%@)%@9N.9N.9N.9N.l=@Oe+Ly@My@44 ;K  = s# Ci+Ci+ = ={ E' XA.=-.<l `> c! %= Ci+8~@8~@|C.7$+7$+|C.V+@-%@-%@V+@|C.7$+mz.A' mz.mz.mz.A' +} 3h $= F8.F8.$= 6j 7j 6j 6j H#.KX )-.k..bZ yc.q*.bv {{ Ny@)+ `!.e).%K q[.!<.:3.:3.:3.:3.!<.!<.Q@.bY M. tG 4B Iu@gt K6@f4@f4@:>@+5@QR+QR+)T+hO of `x+Mz+ht Y[+.5@.5@Mx@YT ^#+aB ^&./&.^&.f .^#+Ey@hw+Sh.QI+C%+^D+ N+Oy@Py@Qy@_r@Lx@D%+Ry@Sy@Ty@k] T&+5`+hw+Ey@Ey@rb@Gy@Gy@!#+!#+!#+7/@c).c).c).]#+j5@Y[+!#+Sh.rb@RV.{y+Ep 8q.*i+5F.Uy@Uy@Uy@Uy@aP.-y@&H+-y@6x@u1.9q.8q.Z* D]@+2@#[@SV.RZ gw+is+V`+V`+[R H4.'R.-l Es Y5@TM :4 <R.1s@<R.<R.1s@1s@OB #7@gw@gw@Md Md fm@my@fC.PZ t].eL h8@5$.tu@`s+(+.AL ~j ~j ~j /&.^&.(K /&.AL (K n[.;l ;l aB ty@Vy@Vy@Vy@_'@F@.[ +!W+Ve@'=+AW #/.E-.}&.bO <&.(l+>= >= S,.WT [{.*/.}R o.+<I.gc /{ 8i@{x+",
"xm.2x@!q.vK.!q.N1 J#.7y@nz.2x@xm.h6@xm.N1 Uu@r# &; %W+@4+ED.F|@,3 T> C' E' E' 5.+7! ^i@>9 ++ S&@S&@b! ={ %= S% S% %= %= %= %= %= 7! 7! %{ %{ ={ )%@)%@)%@Nb+3! TV+7*.},.3! Q`+I~.I~.I1@I1@I~.*-.6$+=-.@N 1q.1q.1q.Mm.qo.8*.8*.8*..+ `> D' XA.`> u( #M.a! a! #M.#M.a! C' #M.lK.'n Vo )/ LD.0! Y> n| VC VC !l !l !l 9w ou (l s< P7 .` ij iw.L5.fY.!D+d,.Cv UD dZ av -: Ny@!<.:3.ah l .l .l .ah Va $N 0B C2.B-.5>.p[.iY .G cw kE }K _M.Y[+6<+;x <v@m-@ 5@%R.)x@mx@C++!#+Y[+of of {X.5Y aB f .^#+Ey@RZ of YT Y[+y{+QI+vL+vL+Wy@Wy@l4@{K+Xy@Yy@Zy@Xy@`y@`y@e$+f$+~y+5`+~`+~`+~K+~K+QI+U~+Yk@ z@ z@Yk@#x@Ic@.z@.z@QI+~K+Py@Py@Ix@<1@Jf+R_ `S++z@%m _k Qx@nu@nu@Sx@<S+nx@vQ.LS.D]@RZ RZ Ey@~#+=i+5d@;l 7q.OP -l -l OP iu OP o(@qs hu Es t].t].PZ wy@<R.yC+ey@1s@1s@lv@lv@fm@fC.my@<R.wy@^B+Mv@Mv@xu@u].7q.EI ^&.EI ^&.1H AL 1H aB Po eS :h ^#+ n RZ g3@9$.](@8I+8I+8I+8I+[ +[ +'=+Ve@8$.#/.,=.}&.[S+[S+YU+Gk+nY.9{@/l+TV.-}@:I.'1@1<.7~@]'@]'@",
"Hq VC W1 $} sL h< v] #n ,} >3 '} jw.z' q< 6! q< U> z7+B' F|@AG.P@@1C.N% oL 7!.=`+|H hV.)L+iV.UL.YF UL.2q.b7@2q.UL.|H fV.S&@++ J8+J8+J8+J8+++ D' *-.TV+Q`+Q`+Q`+I1@w|@HQ.0N.0N.$&@l=@Xa+Tu@($+@z@py@UO.s# S% S%  = %= 7! %= %{ ={ 5.+c! b! XA.6$+Y> '[.)[.mL o}..N h4.h| '[.mL o}..N o}.o}..N }h u:.5j KD.)1.5j i5 ac )3 9w g| 8j Pd m..I#.)].bZ ~@.~@.~@.~F et {F G;.]F G#.Mq #e #b A# '+ '+ A# pu pu VL.yI )R cY _4.j$.%N +=.K0.ku sQ+T3@Mx@it v{@S|@[K lS L0.K0.#G #G kr :l@5d@#G GQ.5d@5H KI 5H rQ+5H ;~+#z@Ra@|a@Ra@rr@2V $z@0H+%z@0H+%z@&z@*z@=z@9H+.G+-z@;z@>z@,z@'z@'z@Da+1V )z@lb@)z@Ic@-j@vj@7'+7'+50@sy@vL+vL+Qy@Qy@C{@C{@0C.,X.,X.MS.Jf+u~@vQ.UT 3x@sb@sb@^#+QI+-j@-j@Di@uL+vj@!z@DL 'N !O+[V [V [V w1.w1.SW 'R.V`+rs QF+QF+QF+[-+66@TM TM dw yq 'y ]+ u7.%& u7./{ r0@6v.Ff Ff iv@&R EI *3 N}@U,.(l+D-.qK+DI %=.DI qK+D-.:M.*3 (l+>=.<X.]V+gU.OV.pE 3x@Fp Fp 3x@g3@gw+g3@SV.aB B].]X.~N !W+ux+!W+~s.]V+PK.uc@~z@z^@{z@]z@]z@",
"}H ~/ >3 !/ u] n0 u] n0 *K n< !l Y1 VC q| }H ~/ V% u# o] po.>/ >/ 0! Vo Mm.6O qL , @)L+Nm.iV.3q.fV.qL D(+D(+qL |H 2q.rL }h }h -#+D(+fV.YF b7@6$+_$+:$+:$+:$+:$+6*.*-.Q`+3! ,(@Nb+l=@Ly@^z@@z@/z@(z@_z@:z@<z@<z@[z@}z@:z@|z@(z@%M.Cy@1z@|F.4!@MD.V+@|C.N% mz.;K WA.T% @: #M.a! C' C' lK.lK.lK.C' :,.V> 9! 9! :,.Z_ #M.#: p< p< o0 ,j.,j.,j.,j.,j.05 G#.60.cG 70.{F 2,.et gY 9h P:.H;.fY 5B #=.O@.L7 l0 oL g5 aj pu N'.y( .P.AP BP t_.)X+F;.D-.b*. D YZ AP AP  D <4 oE >-.>-.t_.kr {j kr :l@2z@;~+g:+3z@g:+v{@7'+7'+L. D++j5@|a@Ic@4z@)z@#x@rr@lb@7>@5z@rj.Th.rj.5z@6z@6z@7z@8z@ <@KI KI KI KI 5H 2z@2z@rQ+rQ+ n  n {X.eS cb.ty@0U.Z* ( +<S+6F.nx@9z@uy@SV.eS 3R ^#+Z@.lr ]N :l@/u@-i+-i+;-.0z@2'@ n ,N rb@+5@Sh.PR+PR+PR+yN.7E+G++G++7E+c7@i9@-6@Mt+0u@o:+nf aS *U ;|.Gf -` W7+y[.o! q .Me.|{.3w :{.oE 8>.7>.U,.b*.*3 b*.8>.>-. t@{j :l@c*.:l@GQ.SV.pE Fp 5P.5`+Qy@~y+Py@Fy@]r@Wj@C%+Wj@RI+Fy@^g.az@bz@'z@Fy@Sy@/D+Kz+%y@#y@+y@cz@dz@dz@",
"lz.PQ.Zp.PQ.lz.gt.zf T1 9c k6 m< l< +(+[o.j5 /T '/ &= >/ `_ n}.v:.`. )/ =K PW.)L+@V+@V+Nm.Pe+)L+rL YF , @D(+D(+-s.qL -s.eg+b7@2q.b7@YF PW.-#+K#.dg+*-.I~.I1@w|@$&@X(@44 Ly@My@ez@ez@Ly@Oe+,%@X(@kx@fz@gz@hz@iz@iz@jz@kz@lz@mz@kz@nz@nz@oz@pz@iz@qz@rz@`9+Su@Ru@sz@^v@=&@Ly@44 ,%@X(@X(@l=@9N.)%@l( &/ &&@tz@7^@,3 mz.N% V+@vK.P. <l@To lx@j0 ,j.I#.)-.!-.{@.!-.)-.I#.Y` )].j..{Y+k..{-.'-.wS._l lK.lK.Q`+C' .+ O7 XC 7O {y.Iq mj+vL M}@^W+sg+AN.zP ^j zP :g.oG |,.Ee.;-.Ee.Ee.,p+0*.}q.-i+32@mb@[K j/@]9.^(@v{@3z@w]@{9.rQ+DL LN+vj@qj.LN+qj.-j@uz@Da+1+.Wh.KI ]N 5H KI LN+36@sQ+#G 2z@sQ+lS |3+[K 3z@vz@!l.7'+L. Y[+Mx@n[.;l L@.k5@k5@b(.m[.)}@8Y L1 5&.a>.n$+%=.m-+xL [l )n ^v./v./v.ZF tw.,{ DI 7$.N}@(9.b).xW xW xW 5Y w1.ES.hO hO ve.UT 7E+>X.ux@Jf+0>@ut@%m wz@Uy@fq@}-+ZD._h l[.[R !O+Kf+Qo !R b*. D ,l+'l+oE ~R {j 0V c*.Hu@K0.gJ.{9.{9.5Y Kf+;<.Nd _M.:>@W3@+5@bq@bq@ox@rL+Lp TR+RR+3C 4`+Vu@xz@yz@wL+(W zz@Az@[#+:E+Bz@Cz@Dz@",
"Up.;3 Va.x' k6 M7 !3 n( p6 !3 l< [o.[o.*} -} ;} E#.U. o] 9! Z_ 0Y.'n 7!., @PW.7V 7V 7V 7V M6+3q.-#+K#.*s.D(+, @, @D(+*s.h4.h4.*s.|H b7@UL.UL..+ fc+7*.Q`+w|@$&@,%@ez@^z@ez@=&@^z@^z@=&@Ly@44 Oe+54 W(@+; W(@N@@XW+W(@#b+Qk@Ez@Ez@Ez@Fz@Qk@Ez@#b+l=@9N.9N.)%@n] 0N.3! I~.Q`+I~.I~.Q`+3! ,(@HQ.HQ.H6+L4+&&@tz@7^@7^@X(@WA.8y@-%@Di+!q.P. '3 >K lx@To wS.wS.T8+=3 _l ,j.,j.Pd ,j.=3 T8+T8+>n eE ~3 4.+o%+>U.I1@3! lK.<l 8*.UL.7O )I.>{ == Yh.#+ _4.yI yI RH 4h 4h Lm.Lm.Lm.=P.!K )K )n )n )K vL +n {R AP  D <4 <4 AP o .>(@&N :&.D-.*3 *3 *3 *3 *3 D-.<&.u_.v_.A] Ft.h! UZ+'l+{R ]+.@` !s. D u%.,-.0V .`+ab.!l.$R.!K+ z@Yk@Sh.Ey@k5@dN.DN.DN.xS B].5&.aY+qc@P}+S6+s@@_l.5-+`T.ZF oo.]v.tw.=`+, @cN.@ +vj.e-+LT+LT+LT+^=+R!.dj $/.n$.NG.(+.iO k[.c$.L@.b(.B_.cy@tz.fq@Gz@Gz@Hz@5F.*i+Ep KS.k5@'N xW C-.1,.@` ,I.,I.{+.%N 1,.%N !s.!s.1,.1,.1,.1,./n +p F] H].`C -+.-+.!9.!9.d>.EL ,|.kE kE EL ><.*_@&R.jt mx@)x@TR+3C 1v ) +DA rY |v /y@_y@",
"^7.y2.z2.A2.u^+V_ s}+E5.u^+{7.{7.A2.y2.4'+ F.hh.V% '/ u:.5j KD.KD./7./7.pL *s.I5.MT+ro.6Q+m=@Iz@XO.Jz@Kz@Lz@Mz@Nz@Nz@Oz@Pz@Qz@Rz@eV.!l+kg+eg+`> fc+~.+$e+XS+1;@X`.X`.1;@2k+{.+bI+5!.6!.I*@3d+`e+XW+O@@aN.~i@`%@;%@;%@;%@dg+xt+xt+dg+`%@`%@;%@dg+},.6*.},.},.},.G~.kK.SL.h4.h4.h4.TL.K8+G~.6*.},.&-.&-.D;.C;.xb++X.*-.*-.Q`+C' <l =-.XC @N 1q.)l m| m| ,} ,} ,} ,} m| m| 74 o6 ac Zd )3 )3 Zd Zd M'.4*.~S.5*.{S.M'.G~.:$+dg+XC 2q.2q.UL.tw.tw.oo.JG.%: %: ZT {} 6-+B2.B2.J~.f;+f;+8V .X+.X+ZC 8B ZC 8V ZC $, L' L' MK.Be.>R.>R.+%@Xh.BN.BN.#, Xh.>R.>R.>R.Be.K0+K0+.X+ZC -#+}h h4.h4.*s.+X+vw.C] ^/ Wo {+.1,.b*.t_.#G 2z@[P+:h ;l AL F].F].DN.k .vf+Sz@bj+Ge.vq@tQ.G' E7+ro.@V+]v.}Y.U`.M0+()+PW.7V b,+k$.+%@k$.k$.D4.e-+9P.l$.dj 9Y $/.WZ ^N W!.V!.*/.kO eT+Si@Tz@qY.SS.nj@Uz@Uz@8A+dS cb./&. G !s.cY .e &: Ce.Ce.&: r0 y].y].6>.cY cY 6>.6>.z-.+2 >,@3>.3>.YM YM eL+eL+>R aw ru x_.x_.ru cV pS @b LG.eb.^+.ru ru IW cV GP WZ X!.}V }S+",
";m+V_ cc.`k.Na.u^+[0.{7.s}+[h@G[+`k.cc.s}+7c.Ma. : V% Z_ &{ 0Y.WA.|F.}z@Vz@Wz@Xz@Yz@Zz@`z@ A@.A@+A@@A@#A@Nz@$A@%A@&A@).+*A@=o+kg+U&@`> Mm.;#+!<@XS+7Q.{.+RL.2k+2k+L9+XS+f++$e+$e+f++L9+:/+{.+:$+nZ.K#.K#.Qm+`%@xf+xt+M0+fc+!<@!<@fc+xt+dg+fc+!<@G~.G~.6*.7*.*-.},.:$+K8+},.G~.oZ.5$+kK.jK.:/+RW.Fi+Fi+Fi++~++~++~+TL.TL.h4.}h TL.mL ()+)[.nZ.o}.N~.N~.N~.N~..N }h h4./7.o6 74 mL `d .N u:.mL v:.h| Sn. (.Sn.^.+].+)1.h4./7.1Y.+N =#+K#.}h PW., @z%.sf J5.-n -K ZT H5.t< yt.J~./4.JG.hJ.6-+/)+.X+ZC .X+K0+K0+K5.+G (4.(4.(4.8B ZC (v.^/ DS+^/ $, f;+.2 Xr.dY Dz 9V mE 9V q0 eY P7 xP `1 .p X[ 8j PH kS CP 1,.!s.Aj.DI *P.A].WZ  G ZR+k[.m$.(+.~j  ^+i'+{3+`h.e| L6++V+=A@0Y+(/+-A@`%@fc+mZ.6*.XC mj+!K G' ~K ~K ~K 8X+oq+JS.v_.cj 0Y mM+9Y $/.$/.E].=/.C].sz.V++=+.a{@Tz@nj@OV.ea@sb@SV.aB n[.>l <4 YZ 0B cY Af R7 r0 r0 TZ+TZ+&: dY &: dY TZ+/3 !{ |4.'; &, &, &, A# A# i! i! ){ ;+ `% ]R ]R >+ KG.4O +2 cc ){ s0 s0 -y qu zs 9P.R!.8P.",
"q}.>@.r}.A#.1*.5Z v8.*= B#.W> Qp.Sa.(0.P]+8c.*n+Bb+P@@jy@;A@>A@,A@'A@1z@Rz@)A@!A@[n@_,@!h+6Q+* @oo.Lm.oo.)I. , M1 wj.c2+~A@eg+J8+6$+G~.:/+jK.RW.U@+hK.Fi+G8++~+h| h| pZ.G&+jK.oZ.G~.},.Vo *-. + oL @N 1q.qo.6O +N +N =#+;#+;#++N +N +N +N =#+=#+TL.TL.TL.SL.:/+:/+pZ./7./7.qZ.RW._-+5$+D#.5$+jK.U@+Y`.r%.r%.7Q.RL.U@+U@+Y`.RL.RL.RW.1;@qZ.X`.}h h4..N N~.N~..N }h 5j 5j >/ s( jK.Y. pZ.u2.RW.v2.p%.Dk.3h.Dk.p%.p%.jV.RW.pZ.pZ.SL.:/+)[.)[.)[.mL o}.i5 )[.%} `. Zd )[.N~.+N H5.;#+H5.D(+J5.-s., @At.#V+-s.qL ;#+-#+h4.}h .N h5 o6 H5.J5./j K#.K#./j K#.z%.%: l0 ou W1 Gq Yd 2j VC r< vs hE #n hE X[ 9j ^j oG ^W+~K '= -+ -+ '= T@.!n A].CW !n !n =N >; s@@[-@)s.* @+r@@&@{A@]A@]A@yb+yb+^A@!}@O@@/A@@+ !h+rb+f! #+ #+ wL [l ~K wL HI xL v_.v_.mM+[S+G-.;=.nY.e;+k'+V @KX+w>+.U._ +*=.:K '=.'=.,; ^/ 8B f;+ZC J~.J~.J~.K5.J~.J~.JG.%: JG.%: J~.ZT c!.`M ~} `Z .2 r6 .e r0 TZ+&: &: r6 Q7 DP eY 4!.P@.4!.eY ZZ ,+.y]..e j$.B] h! // '= ,R."};
