/* XPM */
static char * right_xpm[] = {
"301 350 31394 3",
"   	c #971F11",
".  	c #96210F",
"+  	c #95220D",
"@  	c #96240C",
"#  	c #97230A",
"$  	c #992309",
"%  	c #9C220A",
"&  	c #A22209",
"*  	c #A61F0B",
"=  	c #AA1D09",
"-  	c #AD1A0A",
";  	c #AE1706",
">  	c #AE1507",
",  	c #B3170A",
"'  	c #B21A0D",
")  	c #AC1F0E",
"!  	c #A5200F",
"~  	c #9C210F",
"{  	c #972210",
"]  	c #972713",
"^  	c #992816",
"/  	c #9A2514",
"(  	c #9B2313",
"_  	c #991F10",
":  	c #961B0C",
"<  	c #951C0B",
"[  	c #992110",
"}  	c #97240F",
"|  	c #961F09",
"1  	c #971E09",
"2  	c #982008",
"3  	c #9A2008",
"4  	c #9B1F05",
"5  	c #9D1D04",
"6  	c #9E1A01",
"7  	c #A01800",
"8  	c #A11700",
"9  	c #A31500",
"0  	c #A61300",
"a  	c #A81300",
"b  	c #A91400",
"c  	c #AA1302",
"d  	c #A71402",
"e  	c #A31805",
"f  	c #A11805",
"g  	c #A01906",
"h  	c #9F1A09",
"i  	c #9F1C0A",
"j  	c #9E1D0A",
"k  	c #9E1D08",
"l  	c #9B1D06",
"m  	c #9B1D04",
"n  	c #9B1E02",
"o  	c #9B1E00",
"p  	c #9A1F00",
"q  	c #9C1C00",
"r  	c #A51D07",
"s  	c #A91A09",
"t  	c #AC1607",
"u  	c #AF1307",
"v  	c #BB140B",
"w  	c #C81A11",
"x  	c #CF1D13",
"y  	c #CD1B11",
"z  	c #C5170C",
"A  	c #BD1B0E",
"B  	c #A81A0C",
"C  	c #982012",
"D  	c #7F2314",
"E  	c #561205",
"F  	c #390700",
"G  	c #3B160E",
"H  	c #2F1107",
"I  	c #341910",
"J  	c #3A231B",
"K  	c #301E14",
"L  	c #1E0D05",
"M  	c #1A0901",
"N  	c #1F0C05",
"O  	c #1D0902",
"P  	c #200703",
"Q  	c #230503",
"R  	c #280809",
"S  	c #2E0E0F",
"T  	c #2E1012",
"U  	c #290F10",
"V  	c #240F0E",
"W  	c #24100F",
"X  	c #241212",
"Y  	c #201010",
"Z  	c #1B0D0C",
"`  	c #160807",
" . 	c #100604",
".. 	c #0E0402",
"+. 	c #0C0401",
"@. 	c #0B0300",
"#. 	c #0A0200",
"$. 	c #160C0A",
"%. 	c #211614",
"&. 	c #221715",
"*. 	c #281A19",
"=. 	c #312121",
"-. 	c #31221F",
";. 	c #271811",
">. 	c #211009",
",. 	c #2F1C16",
"'. 	c #402723",
"). 	c #3E1C1B",
"!. 	c #431716",
"~. 	c #4C1915",
"{. 	c #4E0F06",
"]. 	c #6B2211",
"^. 	c #853119",
"/. 	c #923317",
"(. 	c #932A0C",
"_. 	c #992609",
":. 	c #9C2306",
"<. 	c #9F1F04",
"[. 	c #A22006",
"}. 	c #9C1E05",
"|. 	c #9B1F07",
"1. 	c #982007",
"2. 	c #952108",
"3. 	c #942007",
"4. 	c #932109",
"5. 	c #912109",
"6. 	c #8F210A",
"7. 	c #8F200C",
"8. 	c #90200C",
"9. 	c #901F0D",
"0. 	c #8F200D",
"a. 	c #912314",
"b. 	c #902417",
"c. 	c #902618",
"d. 	c #8D2617",
"e. 	c #8A2416",
"f. 	c #892315",
"g. 	c #8B2517",
"h. 	c #8C2618",
"i. 	c #892314",
"j. 	c #8B2111",
"k. 	c #8D1F0E",
"l. 	c #8E1F0C",
"m. 	c #921F0C",
"n. 	c #951E0A",
"o. 	c #941B06",
"p. 	c #971805",
"q. 	c #9A1504",
"r. 	c #9F1304",
"s. 	c #A51403",
"t. 	c #AD1406",
"u. 	c #B61405",
"v. 	c #BD1606",
"w. 	c #C11605",
"x. 	c #C11403",
"y. 	c #C21703",
"z. 	c #C61B07",
"A. 	c #C61D06",
"B. 	c #C51B04",
"C. 	c #C61A04",
"D. 	c #CB1C09",
"E. 	c #CD1C0A",
"F. 	c #CB1C0B",
"G. 	c #C51B0A",
"H. 	c #BF1909",
"I. 	c #B91708",
"J. 	c #B31605",
"K. 	c #AD1605",
"L. 	c #A91606",
"M. 	c #A91708",
"N. 	c #A81909",
"O. 	c #A21406",
"P. 	c #A21305",
"Q. 	c #A41205",
"R. 	c #A91207",
"S. 	c #AE1408",
"T. 	c #B11509",
"U. 	c #B51509",
"V. 	c #B61206",
"W. 	c #BE1407",
"X. 	c #C21409",
"Y. 	c #C31208",
"Z. 	c #C10F03",
"`. 	c #C30D02",
" + 	c #C50D01",
".+ 	c #CC0D03",
"++ 	c #CF0A01",
"@+ 	c #D50902",
"#+ 	c #DB0801",
"$+ 	c #E20703",
"%+ 	c #E90806",
"&+ 	c #EF0707",
"*+ 	c #F20606",
"=+ 	c #F80605",
"-+ 	c #FF0506",
";+ 	c #FF0303",
">+ 	c #FE0201",
",+ 	c #FC0301",
"'+ 	c #FD0503",
")+ 	c #FC0704",
"!+ 	c #FD0A06",
"~+ 	c #F90602",
"{+ 	c #F80300",
"]+ 	c #F70200",
"^+ 	c #F90100",
"/+ 	c #FB0200",
"(+ 	c #FD0304",
"_+ 	c #FC0203",
":+ 	c #FB0303",
"<+ 	c #FB0304",
"[+ 	c #F90102",
"}+ 	c #F70102",
"|+ 	c #F70104",
"1+ 	c #F60204",
"2+ 	c #F50302",
"3+ 	c #F40403",
"4+ 	c #F50504",
"5+ 	c #F30707",
"6+ 	c #F00808",
"7+ 	c #E80607",
"8+ 	c #DF0503",
"9+ 	c #D60501",
"0+ 	c #CE0500",
"a+ 	c #CE0901",
"b+ 	c #CF0F04",
"c+ 	c #D31107",
"d+ 	c #D61005",
"e+ 	c #D90F05",
"f+ 	c #DB0C04",
"g+ 	c #DC0B06",
"h+ 	c #DA0B05",
"i+ 	c #D80804",
"j+ 	c #D30700",
"k+ 	c #D10400",
"l+ 	c #D00400",
"m+ 	c #D30300",
"n+ 	c #D70300",
"o+ 	c #DA0203",
"p+ 	c #E00104",
"q+ 	c #E80308",
"r+ 	c #EE070D",
"s+ 	c #F00911",
"t+ 	c #EE0910",
"u+ 	c #E9060D",
"v+ 	c #E3060B",
"w+ 	c #DE0607",
"x+ 	c #D30A02",
"y+ 	c #D10A03",
"z+ 	c #CD0A04",
"A+ 	c #CB0C04",
"B+ 	c #C40C04",
"C+ 	c #C00B04",
"D+ 	c #BB0A04",
"E+ 	c #BE1009",
"F+ 	c #BD1009",
"G+ 	c #BE110A",
"H+ 	c #BD1107",
"I+ 	c #BD0F04",
"J+ 	c #BC0E03",
"K+ 	c #B90D01",
"L+ 	c #BA0E04",
"M+ 	c #BB0D02",
"N+ 	c #BE0C02",
"O+ 	c #C00901",
"P+ 	c #C50802",
"Q+ 	c #CD0802",
"R+ 	c #D20703",
"S+ 	c #DE0806",
"T+ 	c #E50607",
"U+ 	c #EB0708",
"V+ 	c #F10509",
"W+ 	c #F70408",
"X+ 	c #FB0208",
"Y+ 	c #FC0108",
"Z+ 	c #FD0007",
"`+ 	c #99200F",
" @ 	c #98210D",
".@ 	c #96220B",
"+@ 	c #972409",
"@@ 	c #992307",
"#@ 	c #9B2308",
"$@ 	c #9F2108",
"%@ 	c #A32107",
"&@ 	c #A71F09",
"*@ 	c #AB1D07",
"=@ 	c #AE1B09",
"-@ 	c #B01906",
";@ 	c #B21607",
">@ 	c #BA1C10",
",@ 	c #B5190D",
"'@ 	c #AC180A",
")@ 	c #A61A0B",
"!@ 	c #A2210E",
"~@ 	c #A02311",
"{@ 	c #9D2413",
"]@ 	c #9D2212",
"^@ 	c #9B1D0E",
"/@ 	c #971809",
"(@ 	c #971A08",
"_@ 	c #991E0C",
":@ 	c #9A210C",
"<@ 	c #97200A",
"[@ 	c #942009",
"}@ 	c #9E1E05",
"|@ 	c #9F1B04",
"1@ 	c #A31801",
"2@ 	c #A41600",
"3@ 	c #A71500",
"4@ 	c #AA1300",
"5@ 	c #AB1200",
"6@ 	c #AD1200",
"7@ 	c #AD1102",
"8@ 	c #AB1202",
"9@ 	c #A61706",
"0@ 	c #A41807",
"a@ 	c #A51908",
"b@ 	c #A31A0A",
"c@ 	c #A41B0B",
"d@ 	c #A31B0B",
"e@ 	c #A31C09",
"f@ 	c #A01B08",
"g@ 	c #A01C07",
"h@ 	c #9F1D05",
"i@ 	c #9E1C02",
"j@ 	c #9D1D00",
"k@ 	c #9D1E00",
"l@ 	c #A11B00",
"m@ 	c #A91602",
"n@ 	c #B11307",
"o@ 	c #B51308",
"p@ 	c #BB130A",
"q@ 	c #C7160E",
"r@ 	c #D11A14",
"s@ 	c #D31811",
"t@ 	c #CD150B",
"u@ 	c #C51307",
"v@ 	c #BF1B0F",
"w@ 	c #A7180A",
"x@ 	c #941C0E",
"y@ 	c #822617",
"z@ 	c #591307",
"A@ 	c #370500",
"B@ 	c #38130B",
"C@ 	c #2E1207",
"D@ 	c #30180E",
"E@ 	c #362219",
"F@ 	c #311F15",
"G@ 	c #1F0E06",
"H@ 	c #2D0D0E",
"I@ 	c #280E0F",
"J@ 	c #260E0E",
"K@ 	c #0D0502",
"L@ 	c #090100",
"M@ 	c #140A08",
"N@ 	c #271918",
"O@ 	c #2F1F1F",
"P@ 	c #2F211E",
"Q@ 	c #251A14",
"R@ 	c #180E05",
"S@ 	c #241711",
"T@ 	c #382521",
"U@ 	c #381E1D",
"V@ 	c #3E1A1A",
"W@ 	c #471C16",
"X@ 	c #481208",
"Y@ 	c #601F0D",
"Z@ 	c #7D2F18",
"`@ 	c #8D3318",
" # 	c #912C0E",
".# 	c #98290B",
"+# 	c #9C2507",
"@# 	c #9D2002",
"## 	c #A12106",
"$# 	c #9D1F06",
"%# 	c #9C2008",
"&# 	c #992108",
"*# 	c #94220A",
"=# 	c #91210B",
"-# 	c #91210D",
";# 	c #93200D",
"># 	c #91200E",
",# 	c #902211",
"'# 	c #902513",
")# 	c #912616",
"!# 	c #902616",
"~# 	c #8D2615",
"{# 	c #8B2413",
"]# 	c #8C2310",
"^# 	c #8C210F",
"/# 	c #8D1E0B",
"(# 	c #8E1E0A",
"_# 	c #921D09",
":# 	c #941D07",
"<# 	c #971903",
"[# 	c #991403",
"}# 	c #9F1103",
"|# 	c #A51202",
"1# 	c #AF1105",
"2# 	c #B91305",
"3# 	c #C01305",
"4# 	c #C31103",
"5# 	c #C51102",
"6# 	c #C31200",
"7# 	c #C61704",
"8# 	c #C51A06",
"9# 	c #C41905",
"0# 	c #C41B06",
"a# 	c #C71E09",
"b# 	c #CA1F0B",
"c# 	c #C7200D",
"d# 	c #BF1C09",
"e# 	c #BB1C09",
"f# 	c #B51807",
"g# 	c #AF1604",
"h# 	c #AB1504",
"i# 	c #A71605",
"j# 	c #A61707",
"k# 	c #A61908",
"l# 	c #A21504",
"m# 	c #A31404",
"n# 	c #A51304",
"o# 	c #A81406",
"p# 	c #AD1507",
"q# 	c #B11508",
"r# 	c #B21506",
"s# 	c #B41205",
"t# 	c #BA1205",
"u# 	c #BE1204",
"v# 	c #C21004",
"w# 	c #C20C00",
"x# 	c #C50900",
"y# 	c #CC0A00",
"z# 	c #D90803",
"A# 	c #DE0704",
"B# 	c #E50704",
"C# 	c #EB0706",
"D# 	c #F00806",
"E# 	c #F60607",
"F# 	c #F90505",
"G# 	c #FE0906",
"H# 	c #FA0502",
"I# 	c #F90401",
"J# 	c #FF0302",
"K# 	c #FF0204",
"L# 	c #FE0103",
"M# 	c #FB0103",
"N# 	c #FA0203",
"O# 	c #FA0105",
"P# 	c #F80205",
"Q# 	c #F20201",
"R# 	c #F20402",
"S# 	c #F40604",
"T# 	c #F10706",
"U# 	c #EC0606",
"V# 	c #E40404",
"W# 	c #DC0200",
"X# 	c #D40300",
"Y# 	c #CC0300",
"Z# 	c #CC0701",
"`# 	c #CE0D04",
" $ 	c #D21007",
".$ 	c #D50F06",
"+$ 	c #D90E07",
"@$ 	c #DC0D07",
"#$ 	c #E00C08",
"$$ 	c #E00906",
"%$ 	c #DB0600",
"&$ 	c #D90400",
"*$ 	c #DC0502",
"=$ 	c #E10604",
"-$ 	c #E50506",
";$ 	c #E90306",
">$ 	c #EF0409",
",$ 	c #F3060C",
"'$ 	c #F70710",
")$ 	c #F2070E",
"!$ 	c #EF060C",
"~$ 	c #E8060A",
"{$ 	c #E60607",
"]$ 	c #E00503",
"^$ 	c #DD0603",
"/$ 	c #DB0503",
"($ 	c #D80806",
"_$ 	c #D50B07",
":$ 	c #CF0C08",
"<$ 	c #C80B07",
"[$ 	c #C20904",
"}$ 	c #C30D09",
"|$ 	c #C10E09",
"1$ 	c #C00F07",
"2$ 	c #C00F05",
"3$ 	c #C00E02",
"4$ 	c #BF0D03",
"5$ 	c #BE0D03",
"6$ 	c #BF0E04",
"7$ 	c #C00E04",
"8$ 	c #C20C01",
"9$ 	c #C60A01",
"0$ 	c #CA0902",
"a$ 	c #D10703",
"b$ 	c #DE0705",
"c$ 	c #E70506",
"d$ 	c #F00609",
"e$ 	c #F50508",
"f$ 	c #F90308",
"g$ 	c #FE0008",
"h$ 	c #9A210E",
"i$ 	c #99220C",
"j$ 	c #99220A",
"k$ 	c #9A2305",
"l$ 	c #9F2206",
"m$ 	c #A32004",
"n$ 	c #A71F07",
"o$ 	c #AB1D05",
"p$ 	c #AE1B07",
"q$ 	c #B21B08",
"r$ 	c #B51A08",
"s$ 	c #C22013",
"t$ 	c #BB190E",
"u$ 	c #AF1608",
"v$ 	c #A71E0C",
"w$ 	c #A72211",
"x$ 	c #A52313",
"y$ 	c #A02112",
"z$ 	c #A12213",
"A$ 	c #9C1D0E",
"B$ 	c #981908",
"C$ 	c #9B1E0A",
"D$ 	c #9A200B",
"E$ 	c #95210A",
"F$ 	c #972008",
"G$ 	c #A41904",
"H$ 	c #A71601",
"I$ 	c #AB1401",
"J$ 	c #B01501",
"K$ 	c #B01300",
"L$ 	c #B21202",
"M$ 	c #B11101",
"N$ 	c #B11103",
"O$ 	c #AF1203",
"P$ 	c #AC1305",
"Q$ 	c #A91807",
"R$ 	c #A71808",
"S$ 	c #A71A08",
"T$ 	c #A51806",
"U$ 	c #A51804",
"V$ 	c #A41902",
"W$ 	c #A51B01",
"X$ 	c #A31C00",
"Y$ 	c #A41D00",
"Z$ 	c #AA1A00",
"`$ 	c #AE0E00",
" % 	c #B90E04",
".% 	c #BE1007",
"+% 	c #C4110A",
"@% 	c #CD140F",
"#% 	c #D41711",
"$% 	c #D4130C",
"%% 	c #CB0F06",
"&% 	c #C40F04",
"*% 	c #C21C0E",
"=% 	c #941A0B",
"-% 	c #872A1B",
";% 	c #5D170B",
">% 	c #360400",
",% 	c #37120A",
"'% 	c #2D1106",
")% 	c #2C160B",
"!% 	c #332117",
"~% 	c #301F15",
"{% 	c #1F1108",
"]% 	c #190B02",
"^% 	c #1E0A03",
"/% 	c #270708",
"(% 	c #2C0C0D",
"_% 	c #2D0F11",
":% 	c #0E0603",
"<% 	c #130907",
"[% 	c #231816",
"}% 	c #261817",
"|% 	c #2D1D1D",
"1% 	c #2E201D",
"2% 	c #261F17",
"3% 	c #120E05",
"4% 	c #1B120D",
"5% 	c #2F2120",
"6% 	c #331F1E",
"7% 	c #3B1D1D",
"8% 	c #441F19",
"9% 	c #44140A",
"0% 	c #571A08",
"a% 	c #772C15",
"b% 	c #893318",
"c% 	c #902F0F",
"d% 	c #982B0C",
"e% 	c #9C2608",
"f% 	c #9D2107",
"g% 	c #9B2109",
"h% 	c #9A2209",
"i% 	c #962209",
"j% 	c #93230F",
"k% 	c #92210F",
"l% 	c #8D200C",
"m% 	c #8B200C",
"n% 	c #8C210D",
"o% 	c #8D220E",
"p% 	c #8E230F",
"q% 	c #8E240E",
"r% 	c #8E210C",
"s% 	c #8E1E08",
"t% 	c #8F1C07",
"u% 	c #931C06",
"v% 	c #941C04",
"w% 	c #951B04",
"x% 	c #9A1502",
"y% 	c #A01302",
"z% 	c #A91103",
"A% 	c #B31307",
"B% 	c #C51309",
"C% 	c #CA1206",
"D% 	c #C71103",
"E% 	c #CA1605",
"F% 	c #C71B07",
"G% 	c #C31A05",
"H% 	c #C01B05",
"I% 	c #C41F0B",
"J% 	c #C4220D",
"K% 	c #C2210D",
"L% 	c #B81C06",
"M% 	c #B31B06",
"N% 	c #AF1803",
"O% 	c #AB1602",
"P% 	c #A81503",
"Q% 	c #A51703",
"R% 	c #A31605",
"S% 	c #A61405",
"T% 	c #AA1405",
"U% 	c #B11506",
"V% 	c #B11405",
"W% 	c #B31102",
"X% 	c #B71000",
"Y% 	c #BB0F01",
"Z% 	c #BF0F02",
"`% 	c #C40800",
" & 	c #CA0500",
".& 	c #D20600",
"+& 	c #DB0602",
"@& 	c #E30806",
"#& 	c #EE0606",
"$& 	c #F20608",
"%& 	c #F50707",
"&& 	c #F80507",
"*& 	c #FA0405",
"=& 	c #FF0305",
"-& 	c #FF0202",
";& 	c #FD0402",
">& 	c #FA0100",
",& 	c #FD0002",
"'& 	c #FB0102",
")& 	c #FB0005",
"!& 	c #F10100",
"~& 	c #F00404",
"{& 	c #F10505",
"]& 	c #EF0506",
"^& 	c #E90305",
"/& 	c #E10101",
"(& 	c #DA0000",
"_& 	c #D30200",
":& 	c #CC0200",
"<& 	c #CD0B02",
"[& 	c #CF0D04",
"}& 	c #D40E05",
"|& 	c #D80D06",
"1& 	c #E20D09",
"2& 	c #E60805",
"3& 	c #E70604",
"4& 	c #E30500",
"5& 	c #E30502",
"6& 	c #E60604",
"7& 	c #EF0609",
"8& 	c #EF0305",
"9& 	c #F40309",
"0& 	c #F9040B",
"a& 	c #F10207",
"b& 	c #EC0306",
"c& 	c #EA0406",
"d& 	c #E60203",
"e& 	c #E30304",
"f& 	c #E10706",
"g& 	c #DD0B0A",
"h& 	c #D80C0B",
"i& 	c #CF0C0A",
"j& 	c #C90906",
"k& 	c #C50C09",
"l& 	c #C40D09",
"m& 	c #C10E07",
"n& 	c #C10F05",
"o& 	c #C20D02",
"p& 	c #C10C01",
"q& 	c #C10C03",
"r& 	c #C20D04",
"s& 	c #C30E05",
"t& 	c #C10B00",
"u& 	c #C40900",
"v& 	c #C70800",
"w& 	c #D30601",
"x& 	c #DA0402",
"y& 	c #E40605",
"z& 	c #EE0508",
"A& 	c #F40407",
"B& 	c #9A230B",
"C& 	c #9C2304",
"D& 	c #9F2405",
"E& 	c #A12104",
"F& 	c #A32002",
"G& 	c #A51D03",
"H& 	c #A91D02",
"I& 	c #AE1E06",
"J& 	c #B31E08",
"K& 	c #B81D0B",
"L& 	c #C82013",
"M& 	c #C4190F",
"N& 	c #B81609",
"O& 	c #B21609",
"P& 	c #AD190B",
"Q& 	c #AC1E10",
"R& 	c #AB2212",
"S& 	c #A82314",
"T& 	c #A42212",
"U& 	c #A12211",
"V& 	c #9E1F0E",
"W& 	c #991A07",
"X& 	c #991C08",
"Y& 	c #9A2009",
"Z& 	c #9B210A",
"`& 	c #961F07",
" * 	c #942208",
".* 	c #971F06",
"+* 	c #A11A04",
"@* 	c #A61804",
"#* 	c #AC1502",
"$* 	c #B71604",
"%* 	c #BA1404",
"&* 	c #B91303",
"** 	c #B81204",
"=* 	c #B51203",
"-* 	c #B31104",
";* 	c #B01206",
">* 	c #A81607",
",* 	c #A91507",
"'* 	c #AB1507",
")* 	c #AC1406",
"!* 	c #AD1404",
"~* 	c #AC1303",
"{* 	c #AC1301",
"]* 	c #AD1500",
"^* 	c #AE1600",
"/* 	c #AD1700",
"(* 	c #AE1800",
"_* 	c #AF1900",
":* 	c #B51600",
"<* 	c #B90C00",
"[* 	c #C40D05",
"}* 	c #CA120A",
"|* 	c #CF120C",
"1* 	c #D5140F",
"2* 	c #D91310",
"3* 	c #D7120C",
"4* 	c #C60E02",
"5* 	c #C61E11",
"6* 	c #971C0D",
"7* 	c #8E2E20",
"8* 	c #641C10",
"9* 	c #390400",
"0* 	c #38110A",
"a* 	c #2B0F04",
"b* 	c #291308",
"c* 	c #2F1E14",
"d* 	c #1D0A03",
"e* 	c #210804",
"f* 	c #260607",
"g* 	c #2B0B0C",
"h* 	c #2C0E10",
"i* 	c #290C0E",
"j* 	c #251110",
"k* 	c #100805",
"l* 	c #120806",
"m* 	c #2C1C1C",
"n* 	c #2B201C",
"o* 	c #28241B",
"p* 	c #0F0C03",
"q* 	c #130E0A",
"r* 	c #271D1C",
"s* 	c #2E1E1E",
"t* 	c #381E1F",
"u* 	c #42211C",
"v* 	c #43170E",
"w* 	c #4E1504",
"x* 	c #702913",
"y* 	c #863216",
"z* 	c #902E11",
"A* 	c #9D2608",
"B* 	c #A02003",
"C* 	c #A22207",
"D* 	c #9E2208",
"E* 	c #93200B",
"F* 	c #941F0B",
"G* 	c #96230E",
"H* 	c #962310",
"I* 	c #90230C",
"J* 	c #93250E",
"K* 	c #91230C",
"L* 	c #90200A",
"M* 	c #901E06",
"N* 	c #901C03",
"O* 	c #931B03",
"P* 	c #951B03",
"Q* 	c #991803",
"R* 	c #9D1603",
"S* 	c #AB1204",
"T* 	c #B51107",
"U* 	c #C11308",
"V* 	c #CA130B",
"W* 	c #D01409",
"X* 	c #CB1104",
"Y* 	c #CC1608",
"Z* 	c #C71A09",
"`* 	c #C01906",
" = 	c #BA1A04",
".= 	c #BC1D07",
"+= 	c #BA1E07",
"@= 	c #B61E07",
"#= 	c #B21C04",
"$= 	c #AF1A04",
"%= 	c #AA1801",
"&= 	c #A81501",
"*= 	c #A61502",
"== 	c #A71807",
"-= 	c #A81908",
";= 	c #A51605",
">= 	c #A61504",
",= 	c #AC1504",
"'= 	c #B01405",
")= 	c #B11403",
"!= 	c #B20F00",
"~= 	c #BD1002",
"{= 	c #C30F01",
"]= 	c #C50B00",
"^= 	c #CB0600",
"/= 	c #D10500",
"(= 	c #E60606",
"_= 	c #EE0808",
":= 	c #F50506",
"<= 	c #F70406",
"[= 	c #FB0506",
"}= 	c #FD0506",
"|= 	c #FB0301",
"1= 	c #FA0200",
"2= 	c #F90000",
"3= 	c #FD0100",
"4= 	c #FC0001",
"5= 	c #FD0003",
"6= 	c #F10303",
"7= 	c #EF0504",
"8= 	c #F00605",
"9= 	c #ED0505",
"0= 	c #E70103",
"a= 	c #DF0000",
"b= 	c #D90000",
"c= 	c #D50100",
"d= 	c #CE0300",
"e= 	c #CD0601",
"f= 	c #CE0903",
"g= 	c #D00B05",
"h= 	c #D40B04",
"i= 	c #D80B06",
"j= 	c #DE0D08",
"k= 	c #E60D08",
"l= 	c #EB0704",
"m= 	c #EB0601",
"n= 	c #EB0603",
"o= 	c #EA0701",
"p= 	c #EC0704",
"q= 	c #F80406",
"r= 	c #FD0209",
"s= 	c #F70106",
"t= 	c #F50005",
"u= 	c #F20306",
"v= 	c #F30407",
"w= 	c #EF0005",
"x= 	c #EB0206",
"y= 	c #E80608",
"z= 	c #E50B0C",
"A= 	c #DD0D0D",
"B= 	c #D30B0B",
"C= 	c #CA0806",
"D= 	c #C70C07",
"E= 	c #C50E08",
"F= 	c #C20F08",
"G= 	c #C21006",
"H= 	c #C10A02",
"I= 	c #C20B03",
"J= 	c #C00800",
"K= 	c #C10600",
"L= 	c #C40500",
"M= 	c #C70500",
"N= 	c #CF0400",
"O= 	c #E00501",
"P= 	c #EA0404",
"Q= 	c #F70207",
"R= 	c #FC0004",
"S= 	c #9A240A",
"T= 	c #992305",
"U= 	c #9A2303",
"V= 	c #9C2402",
"W= 	c #9F2403",
"X= 	c #A12202",
"Y= 	c #A21F01",
"Z= 	c #AC1F04",
"`= 	c #B22007",
" - 	c #BA1F0B",
".- 	c #CB1F11",
"+- 	c #CB1A10",
"@- 	c #C4180C",
"#- 	c #BB1509",
"$- 	c #B4160A",
"%- 	c #B02111",
"&- 	c #B12516",
"*- 	c #A52411",
"=- 	c #9F200D",
"-- 	c #9A1D07",
";- 	c #981E07",
">- 	c #9B230A",
",- 	c #972107",
"'- 	c #962308",
")- 	c #981E06",
"!- 	c #9D1B03",
"~- 	c #A31803",
"{- 	c #AA1501",
"]- 	c #AF1400",
"^- 	c #B51201",
"/- 	c #C01406",
"(- 	c #BF1305",
"_- 	c #BC1203",
":- 	c #B81003",
"<- 	c #B71103",
"[- 	c #AB1306",
"}- 	c #AE1004",
"|- 	c #B01002",
"1- 	c #B20E02",
"2- 	c #B30D00",
"3- 	c #B50D00",
"4- 	c #B60F00",
"5- 	c #B80E00",
"6- 	c #BA1100",
"7- 	c #BB1200",
"8- 	c #BC1300",
"9- 	c #BD1400",
"0- 	c #C11201",
"a- 	c #D01109",
"b- 	c #D5140D",
"c- 	c #D6130F",
"d- 	c #DA1310",
"e- 	c #DE1410",
"f- 	c #DC130C",
"g- 	c #D51008",
"h- 	c #C80E02",
"i- 	c #CA2013",
"j- 	c #981D0E",
"k- 	c #923224",
"l- 	c #681E13",
"m- 	c #3B0500",
"n- 	c #391109",
"o- 	c #290D02",
"p- 	c #261207",
"q- 	c #2E1C12",
"r- 	c #1F1209",
"s- 	c #1C0E05",
"t- 	c #220905",
"u- 	c #220603",
"v- 	c #250707",
"w- 	c #290B0B",
"x- 	c #2B0D0F",
"y- 	c #261211",
"z- 	c #2A1F1D",
"A- 	c #2A261D",
"B- 	c #0E0B04",
"C- 	c #0F0A06",
"D- 	c #241A19",
"E- 	c #2D1D1E",
"F- 	c #371E21",
"G- 	c #43211F",
"H- 	c #431811",
"I- 	c #491102",
"J- 	c #6B2712",
"K- 	c #853117",
"L- 	c #982B0E",
"M- 	c #9E2508",
"N- 	c #A11F05",
"O- 	c #9F2309",
"P- 	c #95200C",
"Q- 	c #99250E",
"R- 	c #98260E",
"S- 	c #902106",
"T- 	c #8F2005",
"U- 	c #931F06",
"V- 	c #921A01",
"W- 	c #941A02",
"X- 	c #971B03",
"Y- 	c #991802",
"Z- 	c #A41203",
"`- 	c #AA1103",
" ; 	c #B71007",
".; 	c #C21107",
"+; 	c #CB130B",
"@; 	c #D21309",
"#; 	c #D3140A",
"$; 	c #CC1205",
"%; 	c #CB1708",
"&; 	c #C51A08",
"*; 	c #BC1703",
"=; 	c #B41801",
"-; 	c #B11902",
";; 	c #AF1A02",
">; 	c #AB1900",
",; 	c #AD1D03",
"'; 	c #AB1B01",
"); 	c #A91901",
"!; 	c #A51700",
"~; 	c #A51701",
"{; 	c #AA1906",
"]; 	c #AC1B0A",
"^; 	c #A81505",
"/; 	c #B01304",
"(; 	c #B31303",
"_; 	c #B41203",
":; 	c #B31000",
"<; 	c #B40D00",
"[; 	c #BD1103",
"}; 	c #C70F03",
"|; 	c #CC0B02",
"1; 	c #D20700",
"2; 	c #F1070A",
"3; 	c #F7070A",
"4; 	c #FA050A",
"5; 	c #FA0407",
"6; 	c #FC0307",
"7; 	c #FD0305",
"8; 	c #FC0405",
"9; 	c #FD0505",
"0; 	c #FF0101",
"a; 	c #F80000",
"b; 	c #FC0000",
"c; 	c #F20404",
"d; 	c #EE0405",
"e; 	c #E60002",
"f; 	c #D70101",
"g; 	c #D20200",
"h; 	c #D00501",
"i; 	c #CE0702",
"j; 	c #D40903",
"k; 	c #D90905",
"l; 	c #E10C08",
"m; 	c #E90B08",
"n; 	c #F30503",
"o; 	c #F10603",
"p; 	c #F00502",
"q; 	c #F30302",
"r; 	c #FF0409",
"s; 	c #FF0206",
"t; 	c #FF0207",
"u; 	c #FA0709",
"v; 	c #F40107",
"w; 	c #F00106",
"x; 	c #EC0609",
"y; 	c #E70B0D",
"z; 	c #DF0D0C",
"A; 	c #D20B08",
"B; 	c #C80805",
"C; 	c #C60D08",
"D; 	c #C51009",
"E; 	c #C21109",
"F; 	c #C30E03",
"G; 	c #C20A02",
"H; 	c #C20A00",
"I; 	c #C20700",
"J; 	c #C50600",
"K; 	c #C80600",
"L; 	c #CD0200",
"M; 	c #D60200",
"N; 	c #DF0400",
"O; 	c #E90504",
"P; 	c #962100",
"Q; 	c #982100",
"R; 	c #9F2402",
"S; 	c #9D2100",
"T; 	c #A62505",
"U; 	c #A62404",
"V; 	c #A81E01",
"W; 	c #B12409",
"X; 	c #AF2207",
"Y; 	c #AE1300",
"Z; 	c #BB0B00",
"`; 	c #CC140A",
" > 	c #CD180D",
".> 	c #C6150B",
"+> 	c #BD150A",
"@> 	c #AF1709",
"#> 	c #B62415",
"$> 	c #AD2412",
"%> 	c #A72410",
"&> 	c #A0220C",
"*> 	c #9A2408",
"=> 	c #9A2207",
"-> 	c #9C240B",
";> 	c #9E220A",
">> 	c #A11F07",
",> 	c #A41C06",
"'> 	c #A91803",
")> 	c #B11602",
"!> 	c #B61503",
"~> 	c #BC1201",
"{> 	c #C11404",
"]> 	c #C41204",
"^> 	c #C31306",
"/> 	c #BF1204",
"(> 	c #BC1004",
"_> 	c #B90F02",
":> 	c #B50F03",
"<> 	c #AC0E02",
"[> 	c #AA0E01",
"}> 	c #AD0D01",
"|> 	c #AE0C00",
"1> 	c #B20C00",
"2> 	c #B80C00",
"3> 	c #BC0B01",
"4> 	c #C30D00",
"5> 	c #C60C00",
"6> 	c #C70B00",
"7> 	c #C70C00",
"8> 	c #CA0C00",
"9> 	c #CC0E00",
"0> 	c #CE0E01",
"a> 	c #D9170E",
"b> 	c #D8130D",
"c> 	c #D6110B",
"d> 	c #D9120D",
"e> 	c #DF1410",
"f> 	c #E01511",
"g> 	c #DE130D",
"h> 	c #D61108",
"i> 	c #CD1307",
"j> 	c #C71B0F",
"k> 	c #96180A",
"l> 	c #8D2B1E",
"m> 	c #6A1D13",
"n> 	c #400700",
"o> 	c #381008",
"p> 	c #1F0B00",
"q> 	c #2F1D13",
"r> 	c #332218",
"s> 	c #1C0F06",
"t> 	c #1D0F06",
"u> 	c #23150C",
"v> 	c #180500",
"w> 	c #1B0300",
"x> 	c #210502",
"y> 	c #240709",
"z> 	c #240A0B",
"A> 	c #271312",
"B> 	c #221212",
"C> 	c #1D0F0E",
"D> 	c #150706",
"E> 	c #0F0503",
"F> 	c #110906",
"G> 	c #180D0B",
"H> 	c #261B19",
"I> 	c #251716",
"J> 	c #2C251D",
"K> 	c #19140E",
"L> 	c #0F0704",
"M> 	c #211515",
"N> 	c #2C1C1F",
"O> 	c #331A1D",
"P> 	c #452322",
"Q> 	c #451A14",
"R> 	c #4A1205",
"S> 	c #611D0A",
"T> 	c #7E2A12",
"U> 	c #8F2D12",
"V> 	c #98260C",
"W> 	c #A31F08",
"X> 	c #A5210A",
"Y> 	c #A0220B",
"Z> 	c #9B230B",
"`> 	c #9A220A",
" , 	c #952309",
"., 	c #98210B",
"+, 	c #982109",
"@, 	c #952207",
"#, 	c #951F05",
"$, 	c #961E05",
"%, 	c #981C02",
"&, 	c #991B02",
"*, 	c #9A1A01",
"=, 	c #9A1802",
"-, 	c #9F1604",
";, 	c #A31102",
">, 	c #A80F01",
",, 	c #B60F06",
"', 	c #C41309",
"), 	c #CD150D",
"!, 	c #D01107",
"~, 	c #CD1306",
"{, 	c #C51404",
"], 	c #BE1403",
"^, 	c #B71602",
"/, 	c #AC1A01",
"(, 	c #A81B00",
"_, 	c #A61A01",
":, 	c #A71B00",
"<, 	c #A71B02",
"[, 	c #A61800",
"}, 	c #A81704",
"|, 	c #AC1907",
"1, 	c #B01A09",
"2, 	c #AE1203",
"3, 	c #B01000",
"4, 	c #B41102",
"5, 	c #B81202",
"6, 	c #BD1000",
"7, 	c #C10D00",
"8, 	c #C70D01",
"9, 	c #D80F07",
"0, 	c #E20E0A",
"a, 	c #EB0B0B",
"b, 	c #F10909",
"c, 	c #F80509",
"d, 	c #FE0104",
"e, 	c #ED0306",
"f, 	c #D60201",
"g, 	c #D00300",
"h, 	c #D40500",
"i, 	c #DB0703",
"j, 	c #E10A07",
"k, 	c #EA0907",
"l, 	c #F70504",
"m, 	c #F70503",
"n, 	c #F80302",
"o, 	c #FF0004",
"p, 	c #FE0002",
"q, 	c #FE0003",
"r, 	c #F70303",
"s, 	c #FA0107",
"t, 	c #F80109",
"u, 	c #F30409",
"v, 	c #EA0407",
"w, 	c #DF0506",
"x, 	c #D60604",
"y, 	c #CE0805",
"z, 	c #C80D06",
"A, 	c #C01408",
"B, 	c #C11102",
"C, 	c #C40902",
"D, 	c #C60B02",
"E, 	c #C80D04",
"F, 	c #CA0F06",
"G, 	c #CC1007",
"H, 	c #CD0C03",
"I, 	c #CF0A02",
"J, 	c #DA0602",
"K, 	c #E10602",
"L, 	c #F70305",
"M, 	c #9D2709",
"N, 	c #9C2505",
"O, 	c #9B2301",
"P, 	c #9E2301",
"Q, 	c #A32705",
"R, 	c #A22300",
"S, 	c #A82604",
"T, 	c #A92405",
"U, 	c #A71D00",
"V, 	c #AA1F02",
"W, 	c #B12408",
"X, 	c #AE2106",
"Y, 	c #BE0A00",
"Z, 	c #CF1006",
"`, 	c #CA1208",
" ' 	c #BC1107",
".' 	c #B61407",
"+' 	c #B82012",
"@' 	c #B32413",
"#' 	c #AC2511",
"$' 	c #A4230D",
"%' 	c #9D2407",
"&' 	c #9E2206",
"*' 	c #A22008",
"=' 	c #A61E08",
"-' 	c #A91C08",
";' 	c #AF1A06",
">' 	c #B41905",
",' 	c #B91603",
"'' 	c #BF1504",
")' 	c #C41504",
"!' 	c #C81204",
"~' 	c #C91204",
"{' 	c #CA1305",
"]' 	c #C91105",
"^' 	c #C71104",
"/' 	c #B40E02",
"(' 	c #B40C00",
"_' 	c #BC0C00",
":' 	c #C90D02",
"<' 	c #D20D04",
"[' 	c #D50C04",
"}' 	c #D60C02",
"|' 	c #D70B02",
"1' 	c #DA0B03",
"2' 	c #DD0C05",
"3' 	c #DB0F08",
"4' 	c #DE150D",
"5' 	c #D9120B",
"6' 	c #D71009",
"7' 	c #DA100C",
"8' 	c #DF140E",
"9' 	c #DC130B",
"0' 	c #C71D0E",
"a' 	c #AB1506",
"b' 	c #97190A",
"c' 	c #902C1D",
"d' 	c #6C1E12",
"e' 	c #420600",
"f' 	c #390C06",
"g' 	c #2D0F05",
"h' 	c #200A00",
"i' 	c #2D1B11",
"j' 	c #342319",
"k' 	c #201209",
"l' 	c #190600",
"m' 	c #1D0501",
"n' 	c #250908",
"o' 	c #260A09",
"p' 	c #23090A",
"q' 	c #240C0C",
"r' 	c #271513",
"s' 	c #251515",
"t' 	c #241414",
"u' 	c #1E100F",
"v' 	c #241917",
"w' 	c #2D1F1E",
"x' 	c #261815",
"y' 	c #2E251E",
"z' 	c #1E1711",
"A' 	c #2F1C20",
"B' 	c #351C20",
"C' 	c #452526",
"D' 	c #491D1A",
"E' 	c #491307",
"F' 	c #611C0C",
"G' 	c #7D2813",
"H' 	c #902C15",
"I' 	c #9A2810",
"J' 	c #A7200C",
"K' 	c #982208",
"L' 	c #972105",
"M' 	c #982005",
"N' 	c #971F04",
"O' 	c #971E03",
"P' 	c #991D03",
"Q' 	c #9C1C03",
"R' 	c #9C1A02",
"S' 	c #9C1801",
"T' 	c #9D1602",
"U' 	c #A21907",
"V' 	c #A41505",
"W' 	c #C81109",
"X' 	c #BB0E00",
"Y' 	c #B51000",
"Z' 	c #AF1300",
"`' 	c #AC1700",
" ) 	c #A81A02",
".) 	c #A61C02",
"+) 	c #A31B01",
"@) 	c #A61C00",
"#) 	c #A51900",
"$) 	c #B41809",
"%) 	c #B31305",
"&) 	c #B41004",
"*) 	c #B60E01",
"=) 	c #BA0E00",
"-) 	c #BE0E01",
";) 	c #C00E00",
">) 	c #CA0E03",
",) 	c #D70E06",
"') 	c #DF0E09",
")) 	c #E80D0B",
"!) 	c #F00A0C",
"~) 	c #FA0409",
"{) 	c #FD0005",
"]) 	c #FE0005",
"^) 	c #F40606",
"/) 	c #F00406",
"() 	c #EC0205",
"_) 	c #E50102",
":) 	c #DF0001",
"<) 	c #D90200",
"[) 	c #F90507",
"}) 	c #F90304",
"|) 	c #F90403",
"1) 	c #FF0103",
"2) 	c #FD0001",
"3) 	c #F80203",
"4) 	c #F80207",
"5) 	c #E90506",
"6) 	c #DD0604",
"7) 	c #D30804",
"8) 	c #CB0A05",
"9) 	c #C11008",
"0) 	c #BF1309",
"a) 	c #BE1405",
"b) 	c #BF1202",
"c) 	c #C21002",
"d) 	c #C40E03",
"e) 	c #C60B04",
"f) 	c #CF0E07",
"g) 	c #D10C04",
"h) 	c #D30A03",
"i) 	c #D60701",
"j) 	c #E40402",
"k) 	c #A0290B",
"l) 	c #A02708",
"m) 	c #A02303",
"n) 	c #A32403",
"o) 	c #A82606",
"p) 	c #A82302",
"q) 	c #AB2404",
"r) 	c #AC2205",
"s) 	c #A91E01",
"t) 	c #AB1E03",
"u) 	c #B12107",
"v) 	c #B02006",
"w) 	c #B31701",
"x) 	c #D10F05",
"y) 	c #CE0F05",
"z) 	c #CE130A",
"A) 	c #C61108",
"B) 	c #BA180B",
"C) 	c #B92211",
"D) 	c #B1230F",
"E) 	c #AA220C",
"F) 	c #A52108",
"G) 	c #A52206",
"H) 	c #A72106",
"I) 	c #A91E07",
"J) 	c #AD1A06",
"K) 	c #B21907",
"L) 	c #B61908",
"M) 	c #BC1908",
"N) 	c #C21807",
"O) 	c #C51807",
"P) 	c #CB1706",
"Q) 	c #CF1506",
"R) 	c #D01204",
"S) 	c #D11104",
"T) 	c #D31105",
"U) 	c #D21207",
"V) 	c #D11106",
"W) 	c #CD0E04",
"X) 	c #C11104",
"Y) 	c #BF1106",
"Z) 	c #C50F04",
"`) 	c #D10F06",
" ! 	c #D91008",
".! 	c #DD110A",
"+! 	c #E00D06",
"@! 	c #E10C06",
"#! 	c #E20B06",
"$! 	c #E50C07",
"%! 	c #E60B09",
"&! 	c #E70C0A",
"*! 	c #E40F0B",
"=! 	c #D8130A",
"-! 	c #D51007",
";! 	c #D60F08",
">! 	c #D81209",
",! 	c #D9130A",
"'! 	c #D31308",
")! 	c #CB1406",
"!! 	c #C91F10",
"~! 	c #AD1708",
"{! 	c #98190A",
"]! 	c #922C1E",
"^! 	c #6F1F14",
"/! 	c #450600",
"(! 	c #380903",
"_! 	c #321108",
":! 	c #210900",
"<! 	c #2B170E",
"[! 	c #36251B",
"}! 	c #25170E",
"|! 	c #1A0C03",
"1! 	c #1B0801",
"2! 	c #1F0703",
"3! 	c #230B0B",
"4! 	c #230E0D",
"5! 	c #251311",
"6! 	c #261714",
"7! 	c #271717",
"8! 	c #261616",
"9! 	c #201211",
"0! 	c #170908",
"a! 	c #170C0A",
"b! 	c #291B1A",
"c! 	c #2B1B1B",
"d! 	c #281A17",
"e! 	c #221912",
"f! 	c #120904",
"g! 	c #201212",
"h! 	c #331D20",
"i! 	c #452729",
"j! 	c #4B2220",
"k! 	c #4A130C",
"l! 	c #5F1B0E",
"m! 	c #792614",
"n! 	c #8F2C17",
"o! 	c #9C2914",
"p! 	c #A22310",
"q! 	c #A81F0D",
"r! 	c #9D230C",
"s! 	c #972002",
"t! 	c #981F02",
"u! 	c #991D01",
"v! 	c #9A1D01",
"w! 	c #9D1D02",
"x! 	c #A01C03",
"y! 	c #A01903",
"z! 	c #9F1603",
"A! 	c #9E1502",
"B! 	c #B61409",
"C! 	c #C40E01",
"D! 	c #BE0E00",
"E! 	c #B01100",
"F! 	c #AA1400",
"G! 	c #A81800",
"H! 	c #A21A00",
"I! 	c #A31D00",
"J! 	c #B11604",
"K! 	c #B71506",
"L! 	c #BD1508",
"M! 	c #BE1206",
"N! 	c #CA0E02",
"O! 	c #CB0D01",
"P! 	c #DA0E07",
"Q! 	c #DF0E07",
"R! 	c #E70E09",
"S! 	c #ED0C0A",
"T! 	c #F4080A",
"U! 	c #FA0608",
"V! 	c #FE0308",
"W! 	c #FE0000",
"X! 	c #FA0300",
"Y! 	c #F80604",
"Z! 	c #F60605",
"`! 	c #F20308",
" ~ 	c #E80405",
".~ 	c #E10302",
"+~ 	c #DD0301",
"@~ 	c #DA0300",
"#~ 	c #DD0400",
"$~ 	c #E20401",
"%~ 	c #FF0205",
"&~ 	c #FC0204",
"*~ 	c #FD0000",
"=~ 	c #F70302",
"-~ 	c #DC0604",
";~ 	c #C80B05",
">~ 	c #BD1105",
",~ 	c #BA1406",
"'~ 	c #BB1507",
")~ 	c #C01303",
"!~ 	c #C71106",
"~~ 	c #C70F05",
"{~ 	c #C70C03",
"]~ 	c #C90D04",
"^~ 	c #D20D05",
"/~ 	c #D60D05",
"(~ 	c #D90A04",
"_~ 	c #E80401",
":~ 	c #EE0403",
"<~ 	c #F40405",
"[~ 	c #A4270B",
"}~ 	c #A52606",
"|~ 	c #A52001",
"1~ 	c #AB2104",
"2~ 	c #AB2001",
"3~ 	c #AF2002",
"4~ 	c #AF1E03",
"5~ 	c #AE1D02",
"6~ 	c #B11C04",
"7~ 	c #B21D05",
"8~ 	c #B91804",
"9~ 	c #C71000",
"0~ 	c #D61206",
"a~ 	c #D41004",
"b~ 	c #D30E05",
"c~ 	c #D5140B",
"d~ 	c #CD1108",
"e~ 	c #BC1A0B",
"f~ 	c #B51C0C",
"g~ 	c #AF1C08",
"h~ 	c #AE1D08",
"i~ 	c #AF1F07",
"j~ 	c #B21D07",
"k~ 	c #B31C07",
"l~ 	c #B71A07",
"m~ 	c #BE1707",
"n~ 	c #C31608",
"o~ 	c #C71708",
"p~ 	c #CC180A",
"q~ 	c #CF180A",
"r~ 	c #D21708",
"s~ 	c #D51506",
"t~ 	c #D81406",
"u~ 	c #D81001",
"v~ 	c #DA1004",
"w~ 	c #DB1105",
"x~ 	c #DC1208",
"y~ 	c #DB1107",
"z~ 	c #DA1006",
"A~ 	c #D40F06",
"B~ 	c #CE1408",
"C~ 	c #CF1308",
"D~ 	c #D71108",
"E~ 	c #DD1108",
"F~ 	c #E4110A",
"G~ 	c #E8110C",
"H~ 	c #E50A04",
"I~ 	c #E90907",
"J~ 	c #EB0A08",
"K~ 	c #EB090A",
"L~ 	c #EA0A0A",
"M~ 	c #E30C09",
"N~ 	c #DB150A",
"O~ 	c #D41407",
"P~ 	c #D21006",
"Q~ 	c #D71209",
"R~ 	c #D51307",
"S~ 	c #D31507",
"T~ 	c #C91504",
"U~ 	c #C92210",
"V~ 	c #AD1A08",
"W~ 	c #932B1E",
"X~ 	c #732116",
"Y~ 	c #490600",
"Z~ 	c #380501",
"`~ 	c #36140B",
" { 	c #240900",
".{ 	c #28140B",
"+{ 	c #38261C",
"@{ 	c #2B1D14",
"#{ 	c #1B0D04",
"${ 	c #1C0902",
"%{ 	c #240A09",
"&{ 	c #200B0A",
"*{ 	c #210D0C",
"={ 	c #221310",
"-{ 	c #251714",
";{ 	c #291919",
">{ 	c #160B09",
",{ 	c #1D1210",
"'{ 	c #2A1A1A",
"){ 	c #2A1C19",
"!{ 	c #2D231A",
"~{ 	c #241B12",
"{{ 	c #110602",
"]{ 	c #29191A",
"^{ 	c #301C1E",
"/{ 	c #412426",
"({ 	c #4A2423",
"_{ 	c #491710",
":{ 	c #5D1B0F",
"<{ 	c #752413",
"[{ 	c #8D2C19",
"}{ 	c #9C2B19",
"|{ 	c #A42514",
"1{ 	c #A81F0F",
"2{ 	c #9C240C",
"3{ 	c #98240B",
"4{ 	c #96240A",
"5{ 	c #992109",
"6{ 	c #982206",
"7{ 	c #982103",
"8{ 	c #A41C04",
"9{ 	c #A31B05",
"0{ 	c #A41906",
"a{ 	c #A31604",
"b{ 	c #A21503",
"c{ 	c #A31706",
"d{ 	c #BE1609",
"e{ 	c #C7170A",
"f{ 	c #C61607",
"g{ 	c #AB1902",
"h{ 	c #A31B03",
"i{ 	c #9D1900",
"j{ 	c #A11E02",
"k{ 	c #AF1402",
"l{ 	c #B51304",
"m{ 	c #BB1306",
"n{ 	c #C7160C",
"o{ 	c #C9120A",
"p{ 	c #CB1007",
"q{ 	c #CF0E05",
"r{ 	c #D61007",
"s{ 	c #D80F05",
"t{ 	c #DA0E05",
"u{ 	c #E70C08",
"v{ 	c #EC0B09",
"w{ 	c #F20A0A",
"x{ 	c #F80403",
"y{ 	c #F90504",
"z{ 	c #F60307",
"A{ 	c #EE0407",
"B{ 	c #E50505",
"C{ 	c #E30504",
"D{ 	c #E90502",
"E{ 	c #F30505",
"F{ 	c #FF0105",
"G{ 	c #F00607",
"H{ 	c #DA0603",
"I{ 	c #CF0801",
"J{ 	c #C40C02",
"K{ 	c #B71405",
"L{ 	c #C31304",
"M{ 	c #C91409",
"N{ 	c #C60E04",
"O{ 	c #D40D06",
"P{ 	c #DB0C06",
"Q{ 	c #E00B07",
"R{ 	c #E60503",
"S{ 	c #EC0402",
"T{ 	c #A62209",
"U{ 	c #A82104",
"V{ 	c #A61A00",
"W{ 	c #A91900",
"X{ 	c #AE1A00",
"Y{ 	c #B01A01",
"Z{ 	c #B01800",
"`{ 	c #B31901",
" ] 	c #B61C04",
".] 	c #B61B05",
"+] 	c #B51A04",
"@] 	c #B61B07",
"#] 	c #BF1A07",
"$] 	c #CD1807",
"%] 	c #D8160A",
"&] 	c #D71307",
"*] 	c #DB140D",
"=] 	c #D5100A",
"-] 	c #C80901",
";] 	c #C01207",
">] 	c #B81705",
",] 	c #BB1805",
"'] 	c #C41707",
")] 	c #C91306",
"!] 	c #D31209",
"~] 	c #D7120A",
"{] 	c #DC1309",
"]] 	c #DC1407",
"^] 	c #DE1305",
"/] 	c #DD1204",
"(] 	c #DF0F03",
"_] 	c #E10F02",
":] 	c #E20E03",
"<] 	c #E30F04",
"[] 	c #E50F05",
"}] 	c #E60D06",
"|] 	c #E50C05",
"1] 	c #E10E07",
"2] 	c #DC110A",
"3] 	c #DB120A",
"4] 	c #DB1009",
"5] 	c #DE0F07",
"6] 	c #E10E05",
"7] 	c #E30D05",
"8] 	c #E70C06",
"9] 	c #EA0B06",
"0] 	c #E90802",
"a] 	c #EC0805",
"b] 	c #EC0807",
"c] 	c #E9090A",
"d] 	c #E70809",
"e] 	c #DF0B08",
"f] 	c #D61408",
"g] 	c #CD1304",
"h] 	c #CE1304",
"i] 	c #D11305",
"j] 	c #D21406",
"k] 	c #D21706",
"l] 	c #CF1808",
"m] 	c #C71604",
"n] 	c #C82512",
"o] 	c #792219",
"p] 	c #4D0602",
"q] 	c #390200",
"r] 	c #3A130C",
"s] 	c #260901",
"t] 	c #29120A",
"u] 	c #38241B",
"v] 	c #322119",
"w] 	c #180700",
"x] 	c #1D0803",
"y] 	c #200804",
"z] 	c #210907",
"A] 	c #200806",
"B] 	c #1C0807",
"C] 	c #1D0B09",
"D] 	c #1F110E",
"E] 	c #211612",
"F] 	c #150A08",
"G] 	c #1B100E",
"H] 	c #241615",
"I] 	c #2B1D1A",
"J] 	c #292116",
"K] 	c #110801",
"L] 	c #271919",
"M] 	c #2D1A1C",
"N] 	c #3A2124",
"O] 	c #462422",
"P] 	c #4A1B15",
"Q] 	c #561A0F",
"R] 	c #6E2013",
"S] 	c #872A19",
"T] 	c #9C2D1C",
"U] 	c #A22717",
"V] 	c #A62014",
"W] 	c #A82012",
"X] 	c #A1220F",
"Y] 	c #992003",
"Z] 	c #9F1C00",
"`] 	c #A61A03",
" ^ 	c #A11504",
".^ 	c #A81203",
"+^ 	c #AF1306",
"@^ 	c #B91607",
"#^ 	c #C0180B",
"$^ 	c #C61C0D",
"%^ 	c #C61F0F",
"&^ 	c #BF1E0A",
"*^ 	c #B91E08",
"=^ 	c #B01E07",
"-^ 	c #AA1E05",
";^ 	c #A11D04",
">^ 	c #9F1B02",
",^ 	c #9C1A00",
"'^ 	c #A01F02",
")^ 	c #A11E00",
"!^ 	c #D70C06",
"~^ 	c #E00F08",
"{^ 	c #E41108",
"]^ 	c #E60F0A",
"^^ 	c #F10708",
"/^ 	c #F70400",
"(^ 	c #FA0202",
"_^ 	c #E90804",
":^ 	c #F00703",
"<^ 	c #F20704",
"[^ 	c #FD0207",
"}^ 	c #FF0107",
"|^ 	c #FC0106",
"1^ 	c #F60402",
"2^ 	c #E50706",
"3^ 	c #D80703",
"4^ 	c #CD0800",
"5^ 	c #BC0F01",
"6^ 	c #B70F02",
"7^ 	c #BB1404",
"8^ 	c #BF1403",
"9^ 	c #C61204",
"0^ 	c #C71509",
"a^ 	c #C50F02",
"b^ 	c #E50A08",
"c^ 	c #E80403",
"d^ 	c #EC0404",
"e^ 	c #F80404",
"f^ 	c #AA1E07",
"g^ 	c #AA1500",
"h^ 	c #AC1400",
"i^ 	c #B21600",
"j^ 	c #B61701",
"k^ 	c #B51500",
"l^ 	c #B81802",
"m^ 	c #BE1B08",
"n^ 	c #B91605",
"o^ 	c #B91806",
"p^ 	c #C31908",
"q^ 	c #D11C0B",
"r^ 	c #D91B0B",
"s^ 	c #D91006",
"t^ 	c #DF140D",
"u^ 	c #DA0F09",
"v^ 	c #CE0700",
"w^ 	c #C90801",
"x^ 	c #C40F06",
"y^ 	c #C41206",
"z^ 	c #CA1407",
"A^ 	c #D41208",
"B^ 	c #DA0F08",
"C^ 	c #E80E0C",
"D^ 	c #E80F0A",
"E^ 	c #E80F08",
"F^ 	c #E70E05",
"G^ 	c #E60D04",
"H^ 	c #E60E03",
"I^ 	c #E60C02",
"J^ 	c #E90C03",
"K^ 	c #EB0C04",
"L^ 	c #ED0D05",
"M^ 	c #EF0C05",
"N^ 	c #EE0B05",
"O^ 	c #EE0904",
"P^ 	c #E90A05",
"Q^ 	c #E30C07",
"R^ 	c #E40D08",
"S^ 	c #E80B03",
"T^ 	c #E80902",
"U^ 	c #E70600",
"V^ 	c #E90600",
"W^ 	c #ED0803",
"X^ 	c #EE0906",
"Y^ 	c #EB0A06",
"Z^ 	c #E90A0B",
"`^ 	c #E60A0C",
" / 	c #E3090A",
"./ 	c #DB0B07",
"+/ 	c #CF1405",
"@/ 	c #CA1703",
"#/ 	c #CB1603",
"$/ 	c #CB1605",
"%/ 	c #CD1606",
"&/ 	c #D01607",
"*/ 	c #D01907",
"=/ 	c #D01B08",
"-/ 	c #C41804",
";/ 	c #C82713",
">/ 	c #AE1D0A",
",/ 	c #951607",
"'/ 	c #942A1D",
")/ 	c #7D241C",
"!/ 	c #520805",
"~/ 	c #3B0100",
"{/ 	c #3A110B",
"]/ 	c #290C04",
"^/ 	c #291009",
"// 	c #36231C",
"(/ 	c #23120A",
"_/ 	c #1C0702",
":/ 	c #1F0705",
"</ 	c #1C0704",
"[/ 	c #190705",
"}/ 	c #190A07",
"|/ 	c #1A110C",
"1/ 	c #1E1510",
"2/ 	c #190B0A",
"3/ 	c #110705",
"4/ 	c #0D0301",
"5/ 	c #130806",
"6/ 	c #2C1E1B",
"7/ 	c #2D251A",
"8/ 	c #2F271C",
"9/ 	c #130C04",
"0/ 	c #251919",
"a/ 	c #2A1A1B",
"b/ 	c #351F21",
"c/ 	c #422422",
"d/ 	c #491E17",
"e/ 	c #52190E",
"f/ 	c #661D0E",
"g/ 	c #812818",
"h/ 	c #992E1E",
"i/ 	c #A22819",
"j/ 	c #A42215",
"k/ 	c #A0230F",
"l/ 	c #9E240D",
"m/ 	c #992106",
"n/ 	c #9B2205",
"o/ 	c #9C2004",
"p/ 	c #9F1E01",
"q/ 	c #A21C01",
"r/ 	c #A51902",
"s/ 	c #A71305",
"t/ 	c #A21605",
"u/ 	c #A71404",
"v/ 	c #BB1807",
"w/ 	c #BC1B09",
"x/ 	c #A91B03",
"y/ 	c #A41C02",
"z/ 	c #A01E06",
"A/ 	c #9F1D03",
"B/ 	c #AE1503",
"C/ 	c #CF1008",
"D/ 	c #D30C07",
"E/ 	c #D50803",
"F/ 	c #E00904",
"G/ 	c #E90E08",
"H/ 	c #ED0E09",
"I/ 	c #F40508",
"J/ 	c #F90004",
"K/ 	c #FA0002",
"L/ 	c #FC0002",
"M/ 	c #F60305",
"N/ 	c #F20809",
"O/ 	c #F10804",
"P/ 	c #F50705",
"Q/ 	c #FB0206",
"R/ 	c #F60400",
"S/ 	c #F40502",
"T/ 	c #D70802",
"U/ 	c #CB0900",
"V/ 	c #BD1304",
"W/ 	c #C61003",
"X/ 	c #C51508",
"Y/ 	c #C41002",
"Z/ 	c #E40A08",
"`/ 	c #EA0809",
" ( 	c #AC1905",
".( 	c #B21300",
"+( 	c #B81601",
"@( 	c #BD1804",
"#( 	c #BE1502",
"$( 	c #C91F0E",
"%( 	c #C71D0C",
"&( 	c #C51808",
"*( 	c #D01B0A",
"=( 	c #D71C0B",
"-( 	c #D61506",
";( 	c #DE120B",
">( 	c #DC0C08",
",( 	c #D20804",
"'( 	c #D20F09",
")( 	c #DA140B",
"!( 	c #E1120C",
"~( 	c #E40F09",
"{( 	c #F3090A",
"]( 	c #F20807",
"^( 	c #EE0903",
"/( 	c #ED0A01",
"(( 	c #EC0900",
"_( 	c #EE0A01",
":( 	c #F10A02",
"<( 	c #F20904",
"[( 	c #F30804",
"}( 	c #F40603",
"|( 	c #E80A05",
"1( 	c #EB0C07",
"2( 	c #EE0D07",
"3( 	c #F00B06",
"4( 	c #EE0701",
"5( 	c #EC0500",
"6( 	c #EC0702",
"7( 	c #E30C0A",
"8( 	c #E10B0B",
"9( 	c #DB090A",
"0( 	c #CA1303",
"a( 	c #C61702",
"b( 	c #C81703",
"c( 	c #C91804",
"d( 	c #CC1807",
"e( 	c #CD1908",
"f( 	c #CE1D09",
"g( 	c #C31804",
"h( 	c #C92814",
"i( 	c #931405",
"j( 	c #94281C",
"k( 	c #80261E",
"l( 	c #560B08",
"m( 	c #3E0201",
"n( 	c #370E08",
"o( 	c #2C0E06",
"p( 	c #2C110A",
"q( 	c #351E16",
"r( 	c #37241D",
"s( 	c #27160E",
"t( 	c #190800",
"u( 	c #1D0805",
"v( 	c #1A0703",
"w( 	c #160704",
"x( 	c #170906",
"y( 	c #18110B",
"z( 	c #221413",
"A( 	c #0C0200",
"B( 	c #120705",
"C( 	c #2D201A",
"D( 	c #2D2518",
"E( 	c #312B1D",
"F( 	c #130F04",
"G( 	c #100903",
"H( 	c #221A18",
"I( 	c #241818",
"J( 	c #2D1B1B",
"K( 	c #3D2120",
"L( 	c #48211A",
"M( 	c #4D190E",
"N( 	c #5E190A",
"O( 	c #7B2514",
"P( 	c #942D1E",
"Q( 	c #9F291B",
"R( 	c #A22418",
"S( 	c #A52315",
"T( 	c #9D250D",
"U( 	c #98250A",
"V( 	c #A41A00",
"W( 	c #A51401",
"X( 	c #A81204",
"Y( 	c #A91305",
"Z( 	c #A41706",
"`( 	c #A91805",
" _ 	c #B01503",
"._ 	c #AB1600",
"+_ 	c #A71700",
"@_ 	c #A21800",
"#_ 	c #9E1B00",
"$_ 	c #A01E04",
"%_ 	c #B21703",
"&_ 	c #BB1505",
"*_ 	c #D0150E",
"=_ 	c #D70C08",
"-_ 	c #DB0704",
";_ 	c #EA0905",
">_ 	c #F20A08",
",_ 	c #F50609",
"'_ 	c #FA0004",
")_ 	c #F60500",
"!_ 	c #FC0300",
"~_ 	c #F60704",
"{_ 	c #FC0404",
"]_ 	c #FF0109",
"^_ 	c #F90306",
"/_ 	c #F40500",
"(_ 	c #CA0800",
"__ 	c #B91202",
":_ 	c #C51103",
"<_ 	c #C90F02",
"[_ 	c #C11406",
"}_ 	c #D30C05",
"|_ 	c #DD0C08",
"1_ 	c #EE080A",
"2_ 	c #F60202",
"3_ 	c #AF1805",
"4_ 	c #B61300",
"5_ 	c #C61909",
"6_ 	c #C61406",
"7_ 	c #D22012",
"8_ 	c #CD1D10",
"9_ 	c #CE1707",
"0_ 	c #D81809",
"a_ 	c #D70E04",
"b_ 	c #DF100A",
"c_ 	c #D70601",
"d_ 	c #DD120C",
"e_ 	c #E3120D",
"f_ 	c #EE100D",
"g_ 	c #F00C09",
"h_ 	c #F30908",
"i_ 	c #F70708",
"j_ 	c #F60403",
"k_ 	c #F50603",
"l_ 	c #F50802",
"m_ 	c #F30902",
"n_ 	c #F10700",
"o_ 	c #F10801",
"p_ 	c #F20902",
"q_ 	c #F00903",
"r_ 	c #EF0802",
"s_ 	c #E90A03",
"t_ 	c #EA0C07",
"u_ 	c #EE0F08",
"v_ 	c #F1120B",
"w_ 	c #F2110B",
"x_ 	c #F00F09",
"y_ 	c #ED0C06",
"z_ 	c #E50800",
"A_ 	c #E30A03",
"B_ 	c #DD0E08",
"C_ 	c #D90E08",
"D_ 	c #D40D08",
"E_ 	c #CE0D08",
"F_ 	c #BD1701",
"G_ 	c #BC1A01",
"H_ 	c #CB1A08",
"I_ 	c #CE1908",
"J_ 	c #D11A0A",
"K_ 	c #D21B09",
"L_ 	c #D11E0A",
"M_ 	c #C31902",
"N_ 	c #CA2A14",
"O_ 	c #941202",
"P_ 	c #95261B",
"Q_ 	c #83261F",
"R_ 	c #580D0A",
"S_ 	c #380D07",
"T_ 	c #300F08",
"U_ 	c #2D1008",
"V_ 	c #331C14",
"W_ 	c #37251B",
"X_ 	c #2A1911",
"Y_ 	c #1B0A02",
"Z_ 	c #1C0903",
"`_ 	c #160702",
" : 	c #150A06",
".: 	c #231512",
"+: 	c #231514",
"@: 	c #170D0B",
"#: 	c #150B09",
"$: 	c #0B0100",
"%: 	c #110604",
"&: 	c #1C110F",
"*: 	c #2A2418",
"=: 	c #2E2C1D",
"-: 	c #120E03",
";: 	c #0B0600",
">: 	c #201815",
",: 	c #281616",
"': 	c #371D1C",
"): 	c #46231F",
"!: 	c #481911",
"~: 	c #57190E",
"{: 	c #732518",
"]: 	c #992B1C",
"^: 	c #9E2618",
"/: 	c #A02515",
"(: 	c #9D240F",
"_: 	c #9C250D",
":: 	c #9B240C",
"<: 	c #9C2308",
"[: 	c #A02209",
"}: 	c #A42007",
"|: 	c #A61802",
"1: 	c #A61301",
"2: 	c #A61000",
"3: 	c #A70F01",
"4: 	c #A91002",
"5: 	c #AB1105",
"6: 	c #AB1D09",
"7: 	c #AF1C0A",
"8: 	c #AD1603",
"9: 	c #A61400",
"0: 	c #9E1800",
"a: 	c #9C1800",
"b: 	c #9D1B01",
"c: 	c #A01D01",
"d: 	c #AE1903",
"e: 	c #B61704",
"f: 	c #C01607",
"g: 	c #CB160B",
"h: 	c #D5160E",
"i: 	c #DF0805",
"j: 	c #E70602",
"k: 	c #EF0A05",
"l: 	c #F30A06",
"m: 	c #F90608",
"n: 	c #FE0501",
"o: 	c #FF0300",
"p: 	c #FF0100",
"q: 	c #CD0600",
"r: 	c #C00B00",
"s: 	c #BC1002",
"t: 	c #C01001",
"u: 	c #C50F01",
"v: 	c #C80E00",
"w: 	c #C41001",
"x: 	c #C40E00",
"y: 	c #D90A02",
"z: 	c #E30A05",
"A: 	c #B11806",
"B: 	c #B21705",
"C: 	c #B41502",
"D: 	c #BD1707",
"E: 	c #CC1C0F",
"F: 	c #CF170D",
"G: 	c #D4150B",
"H: 	c #D21108",
"I: 	c #D1190D",
"J: 	c #E02C1E",
"K: 	c #E83B2B",
"L: 	c #F03E30",
"M: 	c #DE1E13",
"N: 	c #DD140C",
"O: 	c #E51912",
"P: 	c #D60500",
"Q: 	c #D90501",
"R: 	c #E5100A",
"S: 	c #EE1913",
"T: 	c #EA140C",
"U: 	c #E80E05",
"V: 	c #ED0802",
"W: 	c #F10803",
"X: 	c #F90706",
"Y: 	c #FA0504",
"Z: 	c #F20703",
"`: 	c #EF0A04",
" < 	c #ED0E06",
".< 	c #E81207",
"+< 	c #E51306",
"@< 	c #DE1002",
"#< 	c #DA0F01",
"$< 	c #DD0F02",
"%< 	c #E21208",
"&< 	c #E6130A",
"*< 	c #DF0F05",
"=< 	c #D80E04",
"-< 	c #C71305",
";< 	c #C21205",
">< 	c #B81906",
",< 	c #B02308",
"'< 	c #B22207",
")< 	c #C01E09",
"!< 	c #CE1A09",
"~< 	c #D8180B",
"{< 	c #DE1A0C",
"]< 	c #DD1E0C",
"^< 	c #DB220E",
"/< 	c #CA1C04",
"(< 	c #C11F08",
"_< 	c #B11A07",
":< 	c #900B00",
"<< 	c #8C1A10",
"[< 	c #892C25",
"}< 	c #5C1511",
"|< 	c #3A0300",
"1< 	c #3C0F0A",
"2< 	c #300B03",
"3< 	c #2A0C02",
"4< 	c #351D13",
"5< 	c #3A281C",
"6< 	c #26180D",
"7< 	c #150900",
"8< 	c #180B02",
"9< 	c #170900",
"0< 	c #130400",
"a< 	c #160903",
"b< 	c #1D120C",
"c< 	c #261B17",
"d< 	c #291B18",
"e< 	c #271815",
"f< 	c #19100B",
"g< 	c #150C07",
"h< 	c #0E0701",
"i< 	c #0D0600",
"j< 	c #0F0601",
"k< 	c #140905",
"l< 	c #1C110D",
"m< 	c #2B1C19",
"n< 	c #281D19",
"o< 	c #231F14",
"p< 	c #28281C",
"q< 	c #110F03",
"r< 	c #060000",
"s< 	c #1D140F",
"t< 	c #241210",
"u< 	c #321A1A",
"v< 	c #3E1E1F",
"w< 	c #4A211F",
"x< 	c #521D19",
"y< 	c #621D16",
"z< 	c #7E2A1F",
"A< 	c #923120",
"B< 	c #992E1A",
"C< 	c #9D2D17",
"D< 	c #9D2B11",
"E< 	c #9C2A10",
"F< 	c #9B270E",
"G< 	c #99250C",
"H< 	c #9B250B",
"I< 	c #9D250C",
"J< 	c #9C2409",
"K< 	c #9E2009",
"L< 	c #A1200A",
"M< 	c #A31F0A",
"N< 	c #A61F09",
"O< 	c #A91E09",
"P< 	c #AB1A05",
"Q< 	c #A91000",
"R< 	c #AA0E00",
"S< 	c #B00E01",
"T< 	c #AF0D00",
"U< 	c #AB0E00",
"V< 	c #AC1605",
"W< 	c #AC1B08",
"X< 	c #AD1F0B",
"Y< 	c #A61B06",
"Z< 	c #A31D04",
"`< 	c #A21E05",
" [ 	c #A31900",
".[ 	c #B71401",
"+[ 	c #C31606",
"@[ 	c #CE160A",
"#[ 	c #D8160D",
"$[ 	c #E10A05",
"%[ 	c #E60803",
"&[ 	c #E70803",
"*[ 	c #EB0802",
"=[ 	c #EF0602",
"-[ 	c #F30600",
";[ 	c #F40600",
">[ 	c #F70600",
",[ 	c #F80500",
"'[ 	c #F90500",
")[ 	c #FD0400",
"![ 	c #F90200",
"~[ 	c #FE0200",
"{[ 	c #F60300",
"][ 	c #EB0505",
"^[ 	c #D60602",
"/[ 	c #C90A02",
"([ 	c #C40F00",
"_[ 	c #C60F00",
":[ 	c #C71100",
"<[ 	c #CA0F00",
"[[ 	c #CF0E00",
"}[ 	c #D60E00",
"|[ 	c #DC0E01",
"1[ 	c #E00C01",
"2[ 	c #EA0500",
"3[ 	c #F00501",
"4[ 	c #B31708",
"5[ 	c #B31806",
"6[ 	c #B51505",
"7[ 	c #CB190F",
"8[ 	c #D2160D",
"9[ 	c #D91610",
"0[ 	c #DC170F",
"a[ 	c #D7150C",
"b[ 	c #D5190E",
"c[ 	c #DA2417",
"d[ 	c #DA2D1C",
"e[ 	c #DF2E1E",
"f[ 	c #DB160E",
"g[ 	c #E0100C",
"h[ 	c #E3130F",
"i[ 	c #E61612",
"j[ 	c #DC0701",
"k[ 	c #E40E06",
"l[ 	c #EE150C",
"m[ 	c #ED1008",
"n[ 	c #EE0B04",
"o[ 	c #F40701",
"p[ 	c #F60702",
"q[ 	c #F70501",
"r[ 	c #F90705",
"s[ 	c #F80906",
"t[ 	c #F40B06",
"u[ 	c #EE0E06",
"v[ 	c #E41608",
"w[ 	c #DD1807",
"x[ 	c #D71805",
"y[ 	c #D41503",
"z[ 	c #D71303",
"A[ 	c #DD1508",
"B[ 	c #DE1609",
"C[ 	c #DB1208",
"D[ 	c #D81207",
"E[ 	c #D10F03",
"F[ 	c #CC0E02",
"G[ 	c #C91507",
"H[ 	c #BE1705",
"I[ 	c #B51603",
"J[ 	c #AE1901",
"K[ 	c #AB2508",
"L[ 	c #AE2407",
"M[ 	c #BF1D08",
"N[ 	c #CE1709",
"O[ 	c #DA1409",
"P[ 	c #E01409",
"Q[ 	c #DE1908",
"R[ 	c #DA1D09",
"S[ 	c #CF1C05",
"T[ 	c #C51F07",
"U[ 	c #960A00",
"V[ 	c #911B11",
"W[ 	c #8B2C26",
"X[ 	c #601613",
"Y[ 	c #3D0603",
"Z[ 	c #3A0D08",
"`[ 	c #310A03",
" } 	c #341C10",
".} 	c #3B291D",
"+} 	c #291B0E",
"@} 	c #160C00",
"#} 	c #190D01",
"$} 	c #170A01",
"%} 	c #140500",
"&} 	c #180902",
"*} 	c #1E130D",
"=} 	c #281B15",
"-} 	c #221411",
";} 	c #1E100D",
">} 	c #180F0A",
",} 	c #110A04",
"'} 	c #0F0802",
")} 	c #0B0400",
"!} 	c #0C0500",
"~} 	c #0E0500",
"{} 	c #130804",
"]} 	c #190E0A",
"^} 	c #211310",
"/} 	c #281916",
"(} 	c #271C18",
"_} 	c #242017",
":} 	c #24241A",
"<} 	c #1C180D",
"[} 	c #0E0700",
"}} 	c #130802",
"|} 	c #22150F",
"1} 	c #2A1816",
"2} 	c #281312",
"3} 	c #36191B",
"4} 	c #411D1D",
"5} 	c #4D1D1B",
"6} 	c #5F201B",
"7} 	c #7A2C20",
"8} 	c #8E3321",
"9} 	c #943018",
"0} 	c #992D13",
"a} 	c #9A2B10",
"b} 	c #9B290F",
"c} 	c #9D230B",
"d} 	c #9D2409",
"e} 	c #9B2207",
"f} 	c #A01F09",
"g} 	c #A11F09",
"h} 	c #A21E09",
"i} 	c #A51E0A",
"j} 	c #A61D0A",
"k} 	c #AA1D0B",
"l} 	c #B01908",
"m} 	c #B10F02",
"n} 	c #B31001",
"o} 	c #B61002",
"p} 	c #B10E00",
"q} 	c #AC1001",
"r} 	c #AB1A07",
"s} 	c #A91B07",
"t} 	c #A21A04",
"u} 	c #A31F06",
"v} 	c #A41E03",
"w} 	c #AC1C04",
"x} 	c #AC1A03",
"y} 	c #B01801",
"z} 	c #B61501",
"A} 	c #D10B02",
"B} 	c #DE0D06",
"C} 	c #E40903",
"D} 	c #E80703",
"E} 	c #FB0400",
"F} 	c #F80400",
"G} 	c #EA0607",
"H} 	c #DC0503",
"I} 	c #D60403",
"J} 	c #D10602",
"K} 	c #CD0C00",
"L} 	c #CE0D00",
"M} 	c #D20D00",
"N} 	c #D90C00",
"O} 	c #DF0B00",
"P} 	c #E40C00",
"Q} 	c #E80A00",
"R} 	c #EB0700",
"S} 	c #EF0500",
"T} 	c #F50300",
"U} 	c #B81B0A",
"V} 	c #BA1809",
"W} 	c #C21809",
"X} 	c #CB190D",
"Y} 	c #D51B0F",
"Z} 	c #DE1D14",
"`} 	c #E21D15",
" | 	c #DB1910",
".| 	c #D11509",
"+| 	c #C91506",
"@| 	c #C31605",
"#| 	c #C71304",
"$| 	c #D50E07",
"%| 	c #E1100C",
"&| 	c #E5140F",
"*| 	c #E1100B",
"=| 	c #DF0A04",
"-| 	c #E10801",
";| 	c #EA1007",
">| 	c #EC0D06",
",| 	c #ED0A03",
"'| 	c #F80602",
")| 	c #F80501",
"!| 	c #FA0806",
"~| 	c #FA0605",
"{| 	c #F50C07",
"]| 	c #F00D06",
"^| 	c #EA1006",
"/| 	c #E01707",
"(| 	c #DC1907",
"_| 	c #D61905",
":| 	c #D41704",
"<| 	c #D51604",
"[| 	c #D81708",
"}| 	c #D71607",
"|| 	c #D41304",
"1| 	c #D21004",
"2| 	c #D31306",
"3| 	c #CB1001",
"4| 	c #C40D00",
"5| 	c #C21505",
"6| 	c #C11706",
"7| 	c #BC1704",
"8| 	c #B31400",
"9| 	c #AD2004",
"0| 	c #B21E02",
"a| 	c #DC1005",
"b| 	c #DB1B06",
"c| 	c #D41E08",
"d| 	c #CA1E08",
"e| 	c #B81703",
"f| 	c #990A00",
"g| 	c #951B10",
"h| 	c #8F2C26",
"i| 	c #621712",
"j| 	c #420804",
"k| 	c #3A0B05",
"l| 	c #320B04",
"m| 	c #2B0D03",
"n| 	c #331B0F",
"o| 	c #2D1F12",
"p| 	c #1A1004",
"q| 	c #1A0E02",
"r| 	c #1C0B03",
"s| 	c #150600",
"t| 	c #190A03",
"u| 	c #170E09",
"v| 	c #140B06",
"w| 	c #100702",
"x| 	c #160B07",
"y| 	c #1D0F0C",
"z| 	c #29221C",
"A| 	c #231E18",
"B| 	c #241D15",
"C| 	c #170E07",
"D| 	c #0A0000",
"E| 	c #1D100A",
"F| 	c #291715",
"G| 	c #2E1616",
"H| 	c #3A1817",
"I| 	c #481B18",
"J| 	c #5C2018",
"K| 	c #762A1D",
"L| 	c #8B3220",
"M| 	c #97311A",
"N| 	c #9A2C13",
"O| 	c #9D260E",
"P| 	c #A02007",
"Q| 	c #A41D09",
"R| 	c #A51C09",
"S| 	c #A81D0A",
"T| 	c #A91C0A",
"U| 	c #B61608",
"V| 	c #BC1205",
"W| 	c #AF0F00",
"X| 	c #B01705",
"Y| 	c #AC1B06",
"Z| 	c #A91D04",
"`| 	c #A91F05",
" 1 	c #A81E04",
".1 	c #A81C03",
"+1 	c #A91C01",
"@1 	c #BA1B06",
"#1 	c #BC1A05",
"$1 	c #C21705",
"%1 	c #CB0F03",
"&1 	c #D00A00",
"*1 	c #E80904",
"=1 	c #ED0501",
"-1 	c #EE0500",
";1 	c #F70201",
">1 	c #F60201",
",1 	c #ED0407",
"'1 	c #E70205",
")1 	c #E10205",
"!1 	c #DC0203",
"~1 	c #D80001",
"{1 	c #D70100",
"]1 	c #D80300",
"^1 	c #DA0500",
"/1 	c #DC0700",
"(1 	c #DE0800",
"_1 	c #DF0900",
":1 	c #E30B00",
"<1 	c #E50B00",
"[1 	c #E90B00",
"}1 	c #EF0600",
"|1 	c #F20300",
"11 	c #B91909",
"21 	c #BA1A0A",
"31 	c #C8160A",
"41 	c #CF1509",
"51 	c #D7180E",
"61 	c #C80E01",
"71 	c #B80B00",
"81 	c #BF0B00",
"91 	c #E4100D",
"01 	c #E61510",
"a1 	c #E5110D",
"b1 	c #E30F0B",
"c1 	c #E30E08",
"d1 	c #E10B03",
"e1 	c #DC0300",
"f1 	c #E70A02",
"g1 	c #F10A04",
"h1 	c #F40A03",
"i1 	c #F70803",
"j1 	c #F00702",
"k1 	c #EC0D05",
"l1 	c #E70F04",
"m1 	c #E21003",
"n1 	c #DD1203",
"o1 	c #D91604",
"p1 	c #D61704",
"q1 	c #D21803",
"r1 	c #D01502",
"s1 	c #D11603",
"t1 	c #D51707",
"u1 	c #D31505",
"v1 	c #CC1100",
"w1 	c #CA1001",
"x1 	c #C91202",
"y1 	c #C81302",
"z1 	c #C41000",
"A1 	c #BF1000",
"B1 	c #BE1100",
"C1 	c #BC1503",
"D1 	c #B51400",
"E1 	c #B41500",
"F1 	c #B61800",
"G1 	c #C61201",
"H1 	c #D50F04",
"I1 	c #E20F06",
"J1 	c #E81208",
"K1 	c #E61908",
"L1 	c #E11C09",
"M1 	c #D91F08",
"N1 	c #CE1E07",
"O1 	c #9D0900",
"P1 	c #981A0E",
"Q1 	c #912A23",
"R1 	c #651611",
"S1 	c #450A04",
"T1 	c #2D0C03",
"U1 	c #33180D",
"V1 	c #322417",
"W1 	c #211509",
"X1 	c #1C1004",
"Y1 	c #1D0C04",
"Z1 	c #190801",
"`1 	c #1A0B04",
" 2 	c #20130D",
".2 	c #271A14",
"+2 	c #160D08",
"@2 	c #130A05",
"#2 	c #1A0C09",
"$2 	c #251613",
"%2 	c #2B221D",
"&2 	c #251E18",
"*2 	c #211813",
"=2 	c #180F08",
"-2 	c #120902",
";2 	c #1C110B",
">2 	c #2C211D",
",2 	c #332522",
"'2 	c #2A1615",
")2 	c #331513",
"!2 	c #441815",
"~2 	c #581F16",
"{2 	c #6E2417",
"]2 	c #882F1D",
"^2 	c #9A341D",
"/2 	c #9D2D15",
"(2 	c #9E240C",
"_2 	c #A21E07",
":2 	c #A71C09",
"<2 	c #A81B09",
"[2 	c #AB1A09",
"}2 	c #AF190A",
"|2 	c #B71709",
"12 	c #B91509",
"22 	c #BC1407",
"32 	c #BF1307",
"42 	c #B50F01",
"52 	c #B41404",
"62 	c #B41706",
"72 	c #B31804",
"82 	c #B01904",
"92 	c #B01B05",
"02 	c #AE1C05",
"a2 	c #AB1B03",
"b2 	c #AF1901",
"c2 	c #B41A02",
"d2 	c #B71803",
"e2 	c #BE1906",
"f2 	c #C31807",
"g2 	c #C81908",
"h2 	c #CD1709",
"i2 	c #D4160A",
"j2 	c #D91308",
"k2 	c #ED0805",
"l2 	c #F50301",
"m2 	c #F90101",
"n2 	c #FA0001",
"o2 	c #F80308",
"p2 	c #EE0107",
"q2 	c #E90004",
"r2 	c #E40004",
"s2 	c #E20002",
"t2 	c #E10003",
"u2 	c #E10001",
"v2 	c #E70101",
"w2 	c #E90303",
"x2 	c #ED0503",
"y2 	c #BD1805",
"z2 	c #C50E00",
"A2 	c #CF1105",
"B2 	c #CD0F03",
"C2 	c #C31403",
"D2 	c #D70C05",
"E2 	c #E7120E",
"F2 	c #E91511",
"G2 	c #E5100C",
"H2 	c #E50E09",
"I2 	c #E20902",
"J2 	c #E40500",
"K2 	c #E80701",
"L2 	c #F30A05",
"M2 	c #F40905",
"N2 	c #F70805",
"O2 	c #F60805",
"P2 	c #E90A02",
"Q2 	c #E50D02",
"R2 	c #D91101",
"S2 	c #D61301",
"T2 	c #D51603",
"U2 	c #D01702",
"V2 	c #CD1702",
"W2 	c #CE1705",
"X2 	c #CC1503",
"Y2 	c #C61100",
"Z2 	c #C30F00",
"`2 	c #C21300",
" 3 	c #C11501",
".3 	c #BD1200",
"+3 	c #BC1502",
"@3 	c #BB1401",
"#3 	c #B91400",
"$3 	c #B81300",
"%3 	c #B51300",
"&3 	c #B61400",
"*3 	c #B91901",
"=3 	c #C11700",
"-3 	c #D01202",
";3 	c #DD0E04",
">3 	c #EC1209",
",3 	c #EA1809",
"'3 	c #E51C08",
")3 	c #DB1D05",
"!3 	c #D01D06",
"~3 	c #C11805",
"{3 	c #A20A00",
"]3 	c #9A180B",
"^3 	c #90251D",
"/3 	c #64140B",
"(3 	c #480C04",
"_3 	c #380702",
":3 	c #340D06",
"<3 	c #2E1308",
"[3 	c #372519",
"}3 	c #35271A",
"|3 	c #261A0E",
"13 	c #1D1105",
"23 	c #1A0902",
"33 	c #1B0C05",
"43 	c #251812",
"53 	c #271916",
"63 	c #241613",
"73 	c #120B05",
"83 	c #160805",
"93 	c #2F201D",
"03 	c #2B201E",
"a3 	c #1D120E",
"b3 	c #221B15",
"c3 	c #362D28",
"d3 	c #2C1D18",
"e3 	c #2F1612",
"f3 	c #3F1813",
"g3 	c #521C12",
"h3 	c #651D0F",
"i3 	c #832C19",
"j3 	c #9C3820",
"k3 	c #A13119",
"l3 	c #A1230D",
"m3 	c #A0230D",
"n3 	c #A0240C",
"o3 	c #9F230B",
"p3 	c #9D2109",
"q3 	c #A41D07",
"r3 	c #A71C07",
"s3 	c #AC1909",
"t3 	c #AE1807",
"u3 	c #B01707",
"v3 	c #B51507",
"w3 	c #B71101",
"x3 	c #B51200",
"y3 	c #B01400",
"z3 	c #B11600",
"A3 	c #B11700",
"B3 	c #B91903",
"C3 	c #BC1A03",
"D3 	c #C21906",
"E3 	c #CF1103",
"F3 	c #D51105",
"G3 	c #EC110B",
"H3 	c #F30F0C",
"I3 	c #F30209",
"J3 	c #EF0006",
"K3 	c #EC0005",
"L3 	c #EB0004",
"M3 	c #EC0004",
"N3 	c #F20205",
"O3 	c #F50206",
"P3 	c #F50601",
"Q3 	c #C31C0A",
"R3 	c #C71C0B",
"S3 	c #C91808",
"T3 	c #CE1407",
"U3 	c #CD1105",
"V3 	c #C70D00",
"W3 	c #D51B0E",
"X3 	c #E8110E",
"Y3 	c #EA1310",
"Z3 	c #E30802",
"`3 	c #DE0000",
" 4 	c #E30200",
".4 	c #E80500",
"+4 	c #F50704",
"@4 	c #EC0C04",
"#4 	c #E70D03",
"$4 	c #E30F03",
"%4 	c #DF1103",
"&4 	c #DA1202",
"*4 	c #D71402",
"=4 	c #D41502",
"-4 	c #D31904",
";4 	c #D41B06",
">4 	c #D21C06",
",4 	c #D11B05",
"'4 	c #CF1A05",
")4 	c #CC1704",
"!4 	c #CD1A06",
"~4 	c #CB1804",
"{4 	c #C41300",
"]4 	c #C01400",
"^4 	c #C11602",
"/4 	c #BE1802",
"(4 	c #BB1600",
"_4 	c #BB1904",
":4 	c #B91702",
"<4 	c #B71200",
"[4 	c #BA1501",
"}4 	c #BF1A06",
"|4 	c #C31D07",
"14 	c #CE1B07",
"24 	c #D91507",
"34 	c #E31007",
"44 	c #ED1007",
"54 	c #E81406",
"64 	c #E21905",
"74 	c #DA1C04",
"84 	c #D31F08",
"94 	c #A90D00",
"04 	c #9A1609",
"a4 	c #8D2117",
"b4 	c #641207",
"c4 	c #4B0C03",
"d4 	c #370600",
"e4 	c #360D07",
"f4 	c #290E03",
"g4 	c #352116",
"h4 	c #39291C",
"i4 	c #2A1E12",
"j4 	c #1E1206",
"k4 	c #1F120C",
"l4 	c #231610",
"m4 	c #20120F",
"n4 	c #100501",
"o4 	c #120401",
"p4 	c #1E0F0C",
"q4 	c #281819",
"r4 	c #2F2121",
"s4 	c #251A16",
"t4 	c #3A332D",
"u4 	c #28231D",
"v4 	c #17120C",
"w4 	c #2C2721",
"x4 	c #2E231D",
"y4 	c #2C1712",
"z4 	c #3B1A11",
"A4 	c #4C1A0F",
"B4 	c #5A1707",
"C4 	c #7C2713",
"D4 	c #9B3920",
"E4 	c #A1240E",
"F4 	c #A4230E",
"G4 	c #9F220C",
"H4 	c #9D1F08",
"I4 	c #9F1F06",
"J4 	c #A81B07",
"K4 	c #AE1809",
"L4 	c #AF1807",
"M4 	c #B51306",
"N4 	c #B61304",
"O4 	c #BD1306",
"P4 	c #C31105",
"Q4 	c #C61408",
"R4 	c #BE1302",
"S4 	c #BB1603",
"T4 	c #B71701",
"U4 	c #B71500",
"V4 	c #BC1600",
"W4 	c #C21904",
"X4 	c #C71805",
"Y4 	c #D10C03",
"Z4 	c #D40B01",
"`4 	c #DF0A02",
" 5 	c #EE0A07",
".5 	c #FD0408",
"+5 	c #F90409",
"@5 	c #F30208",
"#5 	c #F10006",
"$5 	c #F20107",
"%5 	c #FB0508",
"&5 	c #BF1805",
"*5 	c #C51C09",
"=5 	c #CC210F",
"-5 	c #D02110",
";5 	c #CE1D0B",
">5 	c #D62110",
",5 	c #D41A0B",
"'5 	c #D11607",
")5 	c #CC1203",
"!5 	c #E2110A",
"~5 	c #E90E0A",
"{5 	c #E90B06",
"]5 	c #E60500",
"^5 	c #E40100",
"/5 	c #E90400",
"(5 	c #F00804",
"_5 	c #EC0B05",
":5 	c #E11105",
"<5 	c #DD1305",
"[5 	c #D81706",
"}5 	c #D21502",
"|5 	c #D01703",
"15 	c #CF1904",
"25 	c #D11C07",
"35 	c #D3200A",
"45 	c #D21F09",
"55 	c #D01D07",
"65 	c #CC1B07",
"75 	c #CA1B08",
"85 	c #C51905",
"95 	c #C21C06",
"05 	c #C11C06",
"a5 	c #BD1B04",
"b5 	c #BB1902",
"c5 	c #BC1701",
"d5 	c #C11803",
"e5 	c #CA1E0A",
"f5 	c #CF1F08",
"g5 	c #D51C08",
"h5 	c #DF1708",
"i5 	c #E61207",
"j5 	c #EB1107",
"k5 	c #E71506",
"l5 	c #E01904",
"m5 	c #D7210B",
"n5 	c #CD210D",
"o5 	c #AF1201",
"p5 	c #9C1708",
"q5 	c #8A1E11",
"r5 	c #621002",
"s5 	c #4E1005",
"t5 	c #380F09",
"u5 	c #2C0B02",
"v5 	c #250A00",
"w5 	c #311D12",
"x5 	c #3A2A1D",
"y5 	c #2C2014",
"z5 	c #1A0700",
"A5 	c #1E110B",
"B5 	c #21140E",
"C5 	c #231411",
"D5 	c #0C0300",
"E5 	c #0F0400",
"F5 	c #110300",
"G5 	c #1C0D0A",
"H5 	c #2A1719",
"I5 	c #301D1F",
"J5 	c #2F2822",
"K5 	c #22221A",
"L5 	c #28251E",
"M5 	c #2F2820",
"N5 	c #291811",
"O5 	c #371B10",
"P5 	c #491B0E",
"Q5 	c #531101",
"R5 	c #752210",
"S5 	c #97371F",
"T5 	c #9C2E15",
"U5 	c #A22811",
"V5 	c #A5240F",
"W5 	c #9E210B",
"X5 	c #991F07",
"Y5 	c #B21504",
"Z5 	c #BE1005",
"`5 	c #CD1B0D",
" 6 	c #CB1A0A",
".6 	c #C81707",
"+6 	c #C71807",
"@6 	c #C61908",
"#6 	c #C11A07",
"$6 	c #BF1903",
"%6 	c #BE1400",
"&6 	c #C01600",
"*6 	c #C21600",
"=6 	c #C91403",
"-6 	c #D30F03",
";6 	c #DD0D03",
">6 	c #E10C04",
",6 	c #E60C03",
"'6 	c #EA0903",
")6 	c #EF0703",
"!6 	c #FC0402",
"~6 	c #BF1402",
"{6 	c #CD1E0B",
"]6 	c #D01F0D",
"^6 	c #CF1B0A",
"/6 	c #D31809",
"(6 	c #D01506",
"_6 	c #D91509",
":6 	c #E6110B",
"<6 	c #EC0D08",
"[6 	c #EC0B07",
"}6 	c #EB0A04",
"|6 	c #ED0A04",
"16 	c #E50000",
"26 	c #EB0300",
"36 	c #F30502",
"46 	c #E70D04",
"56 	c #E31005",
"66 	c #DD1506",
"76 	c #D71806",
"86 	c #D31A06",
"96 	c #CA1701",
"06 	c #C91902",
"a6 	c #CE2008",
"b6 	c #D1230B",
"c6 	c #D2220B",
"d6 	c #D02009",
"e6 	c #CD1E09",
"f6 	c #CB1F0B",
"g6 	c #C71C08",
"h6 	c #C51C07",
"i6 	c #C51F09",
"j6 	c #C41F09",
"k6 	c #C11B05",
"l6 	c #C81906",
"m6 	c #D01D09",
"n6 	c #D11D06",
"o6 	c #D71A06",
"p6 	c #DF1507",
"q6 	c #EA1207",
"r6 	c #E91308",
"s6 	c #E51805",
"t6 	c #E01C06",
"u6 	c #D91D04",
"v6 	c #D8240B",
"w6 	c #D1250F",
"x6 	c #B31603",
"y6 	c #9D1807",
"z6 	c #891E0E",
"A6 	c #621100",
"B6 	c #501205",
"C6 	c #380700",
"D6 	c #2C0A01",
"E6 	c #220700",
"F6 	c #2E1A0F",
"G6 	c #2E2015",
"H6 	c #1F1106",
"I6 	c #1C0B04",
"J6 	c #1E0F0A",
"K6 	c #150E08",
"L6 	c #130502",
"M6 	c #1D0E0B",
"N6 	c #2E1A1C",
"O6 	c #2D181D",
"P6 	c #1A130D",
"Q6 	c #2C2922",
"R6 	c #36362E",
"S6 	c #2A2A22",
"T6 	c #2D2920",
"U6 	c #251810",
"V6 	c #361B12",
"W6 	c #451B0F",
"X6 	c #4D0F00",
"Y6 	c #6E210D",
"Z6 	c #91351E",
"`6 	c #942A12",
" 7 	c #A12A14",
".7 	c #A32610",
"+7 	c #9C220B",
"@7 	c #AF1606",
"#7 	c #C01003",
"$7 	c #CD1C0C",
"%7 	c #CD190A",
"&7 	c #C91A09",
"*7 	c #C81B0A",
"=7 	c #C11200",
"-7 	c #CA1100",
";7 	c #E20F08",
">7 	c #E71109",
",7 	c #EB120B",
"'7 	c #F0110A",
")7 	c #F10E08",
"!7 	c #F90400",
"~7 	c #FF0403",
"{7 	c #FF0301",
"]7 	c #FF0401",
"^7 	c #FB0603",
"/7 	c #C21100",
"(7 	c #C81501",
"_7 	c #CA1502",
":7 	c #CB1402",
"<7 	c #CD1402",
"[7 	c #CE1000",
"}7 	c #CD0F00",
"|7 	c #D21102",
"17 	c #E2160B",
"27 	c #EA110A",
"37 	c #EF0C06",
"47 	c #F30B07",
"57 	c #F10602",
"67 	c #F20905",
"77 	c #E51106",
"87 	c #E11608",
"97 	c #D71605",
"07 	c #D11804",
"a7 	c #CE1B05",
"b7 	c #C81C04",
"c7 	c #C61C03",
"d7 	c #C31B01",
"e7 	c #C51B02",
"f7 	c #C81E05",
"g7 	c #CB1F07",
"h7 	c #CA1B06",
"i7 	c #C91D09",
"j7 	c #C91E0A",
"k7 	c #C61D08",
"l7 	c #C51C05",
"m7 	c #C31D05",
"n7 	c #C21902",
"o7 	c #C41B04",
"p7 	c #C81C06",
"q7 	c #CC1905",
"r7 	c #CD1805",
"s7 	c #D41D0B",
"t7 	c #D81F0A",
"u7 	c #DC1D0A",
"v7 	c #E3190B",
"w7 	c #E9160B",
"x7 	c #EB170B",
"y7 	c #E9190C",
"z7 	c #E51E09",
"A7 	c #E0220A",
"B7 	c #DA2208",
"C7 	c #D7250B",
"D7 	c #CD210B",
"E7 	c #BA1D0A",
"F7 	c #A11C0B",
"G7 	c #871C0A",
"H7 	c #6B1A07",
"I7 	c #531506",
"J7 	c #3E0C03",
"K7 	c #340B05",
"L7 	c #2E0C03",
"M7 	c #260B00",
"N7 	c #342417",
"O7 	c #33251A",
"P7 	c #211308",
"Q7 	c #1E1007",
"R7 	c #1E0B05",
"S7 	c #1D0C05",
"T7 	c #1D0E09",
"U7 	c #1F100D",
"V7 	c #241512",
"W7 	c #160F09",
"X7 	c #1B0C09",
"Y7 	c #271515",
"Z7 	c #2B1719",
"`7 	c #2B161B",
" 8 	c #231F16",
".8 	c #313127",
"+8 	c #27271D",
"@8 	c #2E2B22",
"#8 	c #392F26",
"$8 	c #3B251A",
"%8 	c #3C1609",
"&8 	c #4E1607",
"*8 	c #651C09",
"=8 	c #7E2811",
"-8 	c #98341C",
";8 	c #9F2D15",
">8 	c #9E260E",
",8 	c #A32109",
"'8 	c #A51E08",
")8 	c #A61905",
"!8 	c #AE200C",
"~8 	c #AE1905",
"{8 	c #AE1704",
"]8 	c #AD1000",
"^8 	c #B81607",
"/8 	c #B81506",
"(8 	c #C71606",
"_8 	c #C51605",
":8 	c #BF1300",
"<8 	c #C81904",
"[8 	c #C51400",
"}8 	c #C61300",
"|8 	c #C81500",
"18 	c #E0140B",
"28 	c #F00D07",
"38 	c #F70907",
"48 	c #FA0000",
"58 	c #FB0000",
"68 	c #F20600",
"78 	c #F00600",
"88 	c #EE0600",
"98 	c #EF0700",
"08 	c #F20A00",
"a8 	c #F60C03",
"b8 	c #F80904",
"c8 	c #FE0607",
"d8 	c #FE0405",
"e8 	c #FF0604",
"f8 	c #FF0504",
"g8 	c #F50600",
"h8 	c #F10400",
"i8 	c #F30400",
"j8 	c #F50400",
"k8 	c #F40300",
"l8 	c #F60100",
"m8 	c #C71400",
"n8 	c #C91401",
"o8 	c #CA1400",
"p8 	c #CE1503",
"q8 	c #D01504",
"r8 	c #D21203",
"s8 	c #D61003",
"t8 	c #DD1307",
"u8 	c #E7140B",
"v8 	c #F20A06",
"w8 	c #F40B07",
"x8 	c #F60B07",
"y8 	c #EA0B04",
"z8 	c #E61006",
"A8 	c #E7170B",
"B8 	c #E11C0C",
"C8 	c #D91C09",
"D8 	c #D01B06",
"E8 	c #C11900",
"F8 	c #BF1900",
"G8 	c #C11B01",
"H8 	c #C51D03",
"I8 	c #C91D05",
"J8 	c #CC1E06",
"K8 	c #C41802",
"L8 	c #CB1A06",
"M8 	c #CE1906",
"N8 	c #CF1806",
"O8 	c #D31A08",
"P8 	c #D61D09",
"Q8 	c #DB210C",
"R8 	c #DE1F0C",
"S8 	c #E41A0C",
"T8 	c #E5170A",
"U8 	c #E21909",
"V8 	c #DE1E09",
"W8 	c #DB2108",
"X8 	c #D52005",
"Y8 	c #D22308",
"Z8 	c #CC200A",
"`8 	c #BC1D0A",
" 9 	c #891B0A",
".9 	c #6A1705",
"+9 	c #511203",
"@9 	c #270B00",
"#9 	c #271106",
"$9 	c #332316",
"%9 	c #34261B",
"&9 	c #24160B",
"*9 	c #200F07",
"=9 	c #1A0600",
"-9 	c #140D07",
";9 	c #110803",
">9 	c #120703",
",9 	c #261414",
"'9 	c #2A1618",
")9 	c #140B04",
"!9 	c #1F1B12",
"~9 	c #2E2E24",
"{9 	c #2C2C22",
"]9 	c #332A21",
"^9 	c #321E15",
"/9 	c #371509",
"(9 	c #4C180A",
"_9 	c #5F1C0B",
":9 	c #75240F",
"<9 	c #8F301A",
"[9 	c #9D3117",
"}9 	c #942106",
"|9 	c #9A1C05",
"19 	c #9B1B02",
"29 	c #A31C06",
"39 	c #A81D08",
"49 	c #AB1E0A",
"59 	c #AC1E0A",
"69 	c #AD1C09",
"79 	c #B01B07",
"89 	c #B61302",
"99 	c #BF1506",
"09 	c #C91A07",
"a9 	c #C41502",
"b9 	c #CB1500",
"c9 	c #CC1601",
"d9 	c #CC0C00",
"e9 	c #DE1209",
"f9 	c #FE0300",
"g9 	c #F60700",
"h9 	c #F30900",
"i9 	c #F00901",
"j9 	c #EF0B02",
"k9 	c #EF0C03",
"l9 	c #EB0B03",
"m9 	c #F40808",
"n9 	c #F6070A",
"o9 	c #EF0B0A",
"p9 	c #F00A0A",
"q9 	c #EF0909",
"r9 	c #F4080C",
"s9 	c #F30709",
"t9 	c #EE0202",
"u9 	c #F00202",
"v9 	c #F10301",
"w9 	c #F90703",
"x9 	c #F80700",
"y9 	c #F60800",
"z9 	c #F80A00",
"A9 	c #F90800",
"B9 	c #CE1802",
"C9 	c #CF1602",
"D9 	c #CE1500",
"E9 	c #CD1400",
"F9 	c #D61504",
"G9 	c #DA1203",
"H9 	c #DF1104",
"I9 	c #EB100A",
"J9 	c #F50A06",
"K9 	c #F70906",
"L9 	c #F80D09",
"M9 	c #F60F09",
"N9 	c #ED0E07",
"O9 	c #E51B0F",
"P9 	c #DE1D0E",
"Q9 	c #CA1905",
"R9 	c #C61C05",
"S9 	c #BD1700",
"T9 	c #BD1900",
"U9 	c #BF1B02",
"V9 	c #C21C04",
"W9 	c #C71B05",
"X9 	c #CB1C07",
"Y9 	c #CF2410",
"Z9 	c #CC210D",
"`9 	c #C81C08",
" 0 	c #CC1D0A",
".0 	c #D41B07",
"+0 	c #D91F0A",
"@0 	c #DB1C09",
"#0 	c #DE1607",
"$0 	c #DC1204",
"%0 	c #D90F01",
"&0 	c #D51101",
"*0 	c #D11702",
"=0 	c #D01A02",
"-0 	c #D11D04",
";0 	c #CF1F07",
">0 	c #BD1C0A",
",0 	c #A81C0B",
"'0 	c #8B1A0A",
")0 	c #6A1501",
"!0 	c #500E00",
"~0 	c #410C04",
"{0 	c #261005",
"]0 	c #322215",
"^0 	c #35271C",
"/0 	c #291B10",
"(0 	c #1C0801",
"_0 	c #1D0A04",
":0 	c #1C0D08",
"<0 	c #1F100B",
"[0 	c #291A17",
"}0 	c #2A1B18",
"|0 	c #201712",
"10 	c #130C06",
"20 	c #1A0B08",
"30 	c #21120F",
"40 	c #261913",
"50 	c #160D04",
"60 	c #1A1309",
"70 	c #2A281C",
"80 	c #343226",
"90 	c #2A271E",
"00 	c #2A2118",
"a0 	c #36160B",
"b0 	c #4A1A0C",
"c0 	c #581B09",
"d0 	c #69200D",
"e0 	c #842E17",
"f0 	c #973118",
"g0 	c #97280D",
"h0 	c #922308",
"i0 	c #9A1E06",
"j0 	c #9C1E07",
"k0 	c #9F1D07",
"l0 	c #9F1802",
"m0 	c #9E1701",
"n0 	c #A8200A",
"o0 	c #AA1904",
"p0 	c #AA1703",
"q0 	c #AD1804",
"r0 	c #B01302",
"s0 	c #B11200",
"t0 	c #B31200",
"u0 	c #BD1604",
"v0 	c #C01605",
"w0 	c #C61706",
"x0 	c #C31202",
"y0 	c #C61503",
"z0 	c #CC1706",
"A0 	c #D21907",
"B0 	c #D11605",
"C0 	c #D11303",
"D0 	c #CE0A00",
"E0 	c #DB0F06",
"F0 	c #E60702",
"G0 	c #FF0600",
"H0 	c #FF0400",
"I0 	c #FF0200",
"J0 	c #FC0100",
"K0 	c #F20B05",
"L0 	c #E91009",
"M0 	c #DF0B07",
"N0 	c #E60E0F",
"O0 	c #E61010",
"P0 	c #E51110",
"Q0 	c #E41211",
"R0 	c #E31311",
"S0 	c #E11411",
"T0 	c #DF120F",
"U0 	c #E0100E",
"V0 	c #E10F10",
"W0 	c #E21011",
"X0 	c #E30E10",
"Y0 	c #E00E0F",
"Z0 	c #E10F0E",
"`0 	c #E2100F",
" a 	c #E5110E",
".a 	c #E6120F",
"+a 	c #E50F0D",
"@a 	c #E40E0C",
"#a 	c #E60C0A",
"$a 	c #E80A09",
"%a 	c #E80A07",
"&a 	c #EC0809",
"*a 	c #EE0204",
"=a 	c #F10205",
"-a 	c #FA0902",
";a 	c #FB0802",
">a 	c #FB0700",
",a 	c #FA0600",
"'a 	c #D31A05",
")a 	c #D51B06",
"!a 	c #D51804",
"~a 	c #D31805",
"{a 	c #DB1707",
"]a 	c #E01507",
"^a 	c #EA0F09",
"/a 	c #F80A07",
"(a 	c #F20F09",
"_a 	c #ED140B",
":a 	c #E5150B",
"<a 	c #DE180B",
"[a 	c #D61607",
"}a 	c #C91200",
"|a 	c #BF1500",
"1a 	c #C31A03",
"2a 	c #C81E07",
"3a 	c #C01501",
"4a 	c #D11806",
"5a 	c #D21905",
"6a 	c #D01A05",
"7a 	c #D11B06",
"8a 	c #D71D08",
"9a 	c #D91A08",
"0a 	c #DA1505",
"aa 	c #D70F02",
"ba 	c #D10B00",
"ca 	c #CA1600",
"da 	c #CF1B04",
"ea 	c #CD1C08",
"fa 	c #C11B0B",
"ga 	c #AC1D0F",
"ha 	c #921A0C",
"ia 	c #6F1402",
"ja 	c #510C00",
"ka 	c #370C06",
"la 	c #300E05",
"ma 	c #280C01",
"na 	c #250F04",
"oa 	c #301E12",
"pa 	c #37261C",
"qa 	c #211008",
"ra 	c #1B0700",
"sa 	c #1B0C07",
"ta 	c #221914",
"ua 	c #261C13",
"va 	c #1B1107",
"wa 	c #150D02",
"xa 	c #231F13",
"ya 	c #373328",
"za 	c #251B12",
"Aa 	c #28150E",
"Ba 	c #36180E",
"Ca 	c #471D11",
"Da 	c #501809",
"Ea 	c #5F1E0C",
"Fa 	c #7E2D18",
"Ga 	c #912F14",
"Ha 	c #95270C",
"Ia 	c #95260B",
"Ja 	c #9F270E",
"Ka 	c #9F210A",
"La 	c #9D1B05",
"Ma 	c #9F1804",
"Na 	c #A91E0B",
"Oa 	c #AD200E",
"Pa 	c #A41703",
"Qa 	c #A9210B",
"Ra 	c #AB1806",
"Sa 	c #C01504",
"Ta 	c #BC0F00",
"Ua 	c #CA1504",
"Va 	c #D41002",
"Wa 	c #D20E00",
"Xa 	c #D30A00",
"Ya 	c #DC0902",
"Za 	c #DF0601",
"`a 	c #E10600",
" b 	c #EA0603",
".b 	c #F10905",
"+b 	c #E60B07",
"@b 	c #E4100C",
"#b 	c #DD100B",
"$b 	c #D60F0A",
"%b 	c #D3100C",
"&b 	c #D31310",
"*b 	c #D21511",
"=b 	c #D01412",
"-b 	c #CF1311",
";b 	c #D01413",
">b 	c #D01415",
",b 	c #CE1415",
"'b 	c #CC1615",
")b 	c #C91715",
"!b 	c #BD0E0B",
"~b 	c #BE0F0C",
"{b 	c #BF100D",
"]b 	c #C0110E",
"^b 	c #C3110F",
"/b 	c #C41210",
"(b 	c #C30F10",
"_b 	c #C21010",
":b 	c #C31111",
"<b 	c #C51311",
"[b 	c #C91514",
"}b 	c #CC1915",
"|b 	c #D01A17",
"1b 	c #CF1916",
"2b 	c #D11816",
"3b 	c #D11513",
"4b 	c #D31312",
"5b 	c #D41210",
"6b 	c #D51210",
"7b 	c #D61311",
"8b 	c #DB1111",
"9b 	c #E60F14",
"0b 	c #EA0D12",
"ab 	c #ED0E11",
"bb 	c #EE0E0F",
"cb 	c #ED0D0D",
"db 	c #EE0A09",
"eb 	c #F20500",
"fb 	c #F50200",
"gb 	c #D51B04",
"hb 	c #DB1D07",
"ib 	c #DC1C07",
"jb 	c #D91B05",
"kb 	c #D81906",
"lb 	c #D91806",
"mb 	c #DF1707",
"nb 	c #E41408",
"ob 	c #EB1108",
"pb 	c #F90A05",
"qb 	c #FA0B08",
"rb 	c #FB0907",
"sb 	c #EB170C",
"tb 	c #CF1101",
"ub 	c #C11000",
"vb 	c #CA2009",
"wb 	c #CA210A",
"xb 	c #C92009",
"yb 	c #C91F08",
"zb 	c #BF1F07",
"Ab 	c #CF1A07",
"Bb 	c #D51C0A",
"Cb 	c #D21704",
"Db 	c #D01C05",
"Eb 	c #CC1C04",
"Fb 	c #CD1A03",
"Gb 	c #D81D0A",
"Hb 	c #DC1B0A",
"Ib 	c #DC1609",
"Jb 	c #D10D01",
"Kb 	c #CD0D00",
"Lb 	c #CA1301",
"Mb 	c #CD1803",
"Nb 	c #D21C07",
"Ob 	c #C61A0C",
"Pb 	c #B41C11",
"Qb 	c #9A1A0F",
"Rb 	c #771304",
"Sb 	c #580C00",
"Tb 	c #430C05",
"Ub 	c #321007",
"Vb 	c #2A0E03",
"Wb 	c #240E03",
"Xb 	c #2D1B0F",
"Yb 	c #1E0B04",
"Zb 	c #231A15",
"`b 	c #140603",
" c 	c #1F1410",
".c 	c #1F1611",
"+c 	c #241A11",
"@c 	c #271D13",
"#c 	c #1F150B",
"$c 	c #140A00",
"%c 	c #1D150A",
"&c 	c #342B22",
"*c 	c #1F160F",
"=c 	c #2C1912",
"-c 	c #391C14",
";c 	c #441E13",
">c 	c #471608",
",c 	c #571C0C",
"'c 	c #7A2F1A",
")c 	c #8E2E15",
"!c 	c #94260B",
"~c 	c #A21B07",
"{c 	c #A61907",
"]c 	c #B72112",
"^c 	c #BD2517",
"/c 	c #BA2413",
"(c 	c #A71603",
"_c 	c #B01D09",
":c 	c #B61606",
"<c 	c #B81504",
"[c 	c #B71403",
"}c 	c #BC1505",
"|c 	c #C81809",
"1c 	c #CB1B0C",
"2c 	c #CA180A",
"3c 	c #CC1609",
"4c 	c #CF170B",
"5c 	c #D3190C",
"6c 	c #D4180C",
"7c 	c #D71106",
"8c 	c #DB0A05",
"9c 	c #DA0905",
"0c 	c #DC0804",
"ac 	c #DC0703",
"bc 	c #E00702",
"cc 	c #EE0604",
"dc 	c #F30805",
"ec 	c #EC0C0A",
"fc 	c #E50E0B",
"gc 	c #DC0F0C",
"hc 	c #D21614",
"ic 	c #C4110D",
"jc 	c #B80C0A",
"kc 	c #B20D0B",
"lc 	c #B31411",
"mc 	c #B51A16",
"nc 	c #B31917",
"oc 	c #AF1714",
"pc 	c #AD1514",
"qc 	c #A91312",
"rc 	c #A71110",
"sc 	c #A2110E",
"tc 	c #A00F0C",
"uc 	c #9D0F0B",
"vc 	c #9C0E0A",
"wc 	c #960B06",
"xc 	c #960D07",
"yc 	c #980D08",
"zc 	c #990E09",
"Ac 	c #990E0B",
"Bc 	c #960A09",
"Cc 	c #970B0A",
"Dc 	c #9B100D",
"Ec 	c #9F110D",
"Fc 	c #A2130F",
"Gc 	c #A00F0A",
"Hc 	c #A20E0A",
"Ic 	c #A60E09",
"Jc 	c #AA0F0B",
"Kc 	c #AF120D",
"Lc 	c #B31410",
"Mc 	c #B91714",
"Nc 	c #C01616",
"Oc 	c #D11A1E",
"Pc 	c #D6171C",
"Qc 	c #D8171A",
"Rc 	c #DA1618",
"Sc 	c #DC1414",
"Tc 	c #DE1211",
"Uc 	c #E00F0B",
"Vc 	c #D71B02",
"Wc 	c #DB1B04",
"Xc 	c #DE1B07",
"Yc 	c #DA1705",
"Zc 	c #DF1606",
"`c 	c #E71308",
" d 	c #EF0E08",
".d 	c #F40906",
"+d 	c #FC0A06",
"@d 	c #FD0B09",
"#d 	c #FB0706",
"$d 	c #FC0807",
"%d 	c #ED0600",
"&d 	c #E70801",
"*d 	c #DA1407",
"=d 	c #D71305",
"-d 	c #D31304",
";d 	c #C91602",
">d 	c #CF230D",
",d 	c #CC220B",
"'d 	c #C71D06",
")d 	c #C1230A",
"!d 	c #C62A11",
"~d 	c #CA2A12",
"{d 	c #C5200A",
"]d 	c #D61F0D",
"^d 	c #DA1F0E",
"/d 	c #D51805",
"(d 	c #CD1F06",
"_d 	c #C81D03",
":d 	c #C81A01",
"<d 	c #D00C00",
"[d 	c #CB0D00",
"}d 	c #D61B0A",
"|d 	c #D4190A",
"1d 	c #B81A11",
"2d 	c #A21911",
"3d 	c #7E1407",
"4d 	c #5D0D02",
"5d 	c #450C05",
"6d 	c #390E08",
"7d 	c #2E1006",
"8d 	c #2B190D",
"9d 	c #35241A",
"0d 	c #25140C",
"ad 	c #210D06",
"bd 	c #210A04",
"cd 	c #1F0C06",
"dd 	c #251C17",
"ed 	c #0E0300",
"fd 	c #150704",
"gd 	c #180A07",
"hd 	c #1C130E",
"id 	c #1E170F",
"jd 	c #21190E",
"kd 	c #261C12",
"ld 	c #180C00",
"md 	c #160C02",
"nd 	c #291F16",
"od 	c #1B100A",
"pd 	c #281914",
"qd 	c #321D18",
"rd 	c #3B2019",
"sd 	c #421D14",
"td 	c #421609",
"ud 	c #501B0B",
"vd 	c #6F2B16",
"wd 	c #8D2F15",
"xd 	c #971A04",
"yd 	c #991500",
"zd 	c #A11402",
"Ad 	c #B01A0B",
"Bd 	c #BD2114",
"Cd 	c #C52519",
"Dd 	c #BF2213",
"Ed 	c #B61A0B",
"Fd 	c #C21706",
"Gd 	c #C51506",
"Hd 	c #C10F01",
"Id 	c #BF0D00",
"Jd 	c #C81608",
"Kd 	c #CD1509",
"Ld 	c #D3170C",
"Md 	c #D6180C",
"Nd 	c #D7150B",
"Od 	c #D80C03",
"Pd 	c #D90801",
"Qd 	c #D90600",
"Rd 	c #DA0700",
"Sd 	c #DE0A06",
"Td 	c #D90804",
"Ud 	c #E40301",
"Vd 	c #EB0301",
"Wd 	c #EE0300",
"Xd 	c #F40200",
"Yd 	c #E90F0D",
"Zd 	c #D51311",
"`d 	c #C91310",
" e 	c #BD1411",
".e 	c #B0110D",
"+e 	c #A10C08",
"@e 	c #930501",
"#e 	c #8C0603",
"$e 	c #8C0C09",
"%e 	c #8D110F",
"&e 	c #89120E",
"*e 	c #86100E",
"=e 	c #870F0E",
"-e 	c #87110F",
";e 	c #85120F",
">e 	c #84130F",
",e 	c #841410",
"'e 	c #821510",
")e 	c #811610",
"!e 	c #7F1610",
"~e 	c #7E150F",
"{e 	c #7D140E",
"]e 	c #7B120C",
"^e 	c #7C110B",
"/e 	c #7B100A",
"(e 	c #79100C",
"_e 	c #720906",
":e 	c #710906",
"<e 	c #700805",
"[e 	c #6F0803",
"}e 	c #700703",
"|e 	c #710600",
"1e 	c #720500",
"2e 	c #750600",
"3e 	c #780500",
"4e 	c #7C0500",
"5e 	c #810601",
"6e 	c #850802",
"7e 	c #8A0904",
"8e 	c #8F0B07",
"9e 	c #940A08",
"0e 	c #A00A0B",
"ae 	c #A8090D",
"be 	c #AE0B0E",
"ce 	c #B50F0F",
"de 	c #BF1313",
"ee 	c #C81614",
"fe 	c #D11815",
"ge 	c #D91813",
"he 	c #DC120E",
"ie 	c #E60F0C",
"je 	c #EB0D0A",
"ke 	c #D81A02",
"le 	c #DB1802",
"me 	c #DD1903",
"ne 	c #DD1A06",
"oe 	c #D81803",
"pe 	c #DA1504",
"qe 	c #DE1304",
"re 	c #E80F06",
"se 	c #FD0B07",
"te 	c #FB0804",
"ue 	c #FD0807",
"ve 	c #DC1103",
"we 	c #D21404",
"xe 	c #CE1302",
"ye 	c #D1200C",
"ze 	c #D42510",
"Ae 	c #C51903",
"Be 	c #C91D07",
"Ce 	c #B81E04",
"De 	c #B92308",
"Ee 	c #BB1F06",
"Fe 	c #B91700",
"Ge 	c #BF1601",
"He 	c #D61906",
"Ie 	c #D41906",
"Je 	c #D21904",
"Ke 	c #CE2007",
"Le 	c #CA2006",
"Me 	c #C41F01",
"Ne 	c #C51A00",
"Oe 	c #C90E00",
"Pe 	c #D60D03",
"Qe 	c #D91E0D",
"Re 	c #DA1A0D",
"Se 	c #D6140A",
"Te 	c #CD120B",
"Ue 	c #BB1610",
"Ve 	c #A61711",
"We 	c #841409",
"Xe 	c #640D04",
"Ye 	c #460B05",
"Ze 	c #3A0F09",
"`e 	c #3A150D",
" f 	c #311309",
".f 	c #28160A",
"+f 	c #230F08",
"@f 	c #200C05",
"#f 	c #220B05",
"$f 	c #200D07",
"%f 	c #271E19",
"&f 	c #19120A",
"*f 	c #1D190E",
"=f 	c #1F170C",
"-f 	c #241A0E",
";f 	c #2A1E10",
">f 	c #1C0E03",
",f 	c #110400",
"'f 	c #1C0F07",
")f 	c #2E1C18",
"!f 	c #36211E",
"~f 	c #3A1E1A",
"{f 	c #3F1D14",
"]f 	c #42180C",
"^f 	c #48180A",
"/f 	c #61200C",
"(f 	c #892B12",
"_f 	c #94250A",
":f 	c #9D1C07",
"<f 	c #9F1401",
"[f 	c #B91B0F",
"}f 	c #CC251C",
"|f 	c #CC241B",
"1f 	c #C41C13",
"2f 	c #B71508",
"3f 	c #B81101",
"4f 	c #C21203",
"5f 	c #C20E00",
"6f 	c #C00A00",
"7f 	c #C61005",
"8f 	c #CC1206",
"9f 	c #D61109",
"0f 	c #D60D06",
"af 	c #D70A05",
"bf 	c #D70703",
"cf 	c #DD0804",
"df 	c #DC0100",
"ef 	c #DD0200",
"ff 	c #E00604",
"gf 	c #D80401",
"hf 	c #D70504",
"if 	c #DE0403",
"jf 	c #E00201",
"kf 	c #E10000",
"lf 	c #EA0001",
"mf 	c #EE0000",
"nf 	c #F30002",
"of 	c #F50101",
"pf 	c #F30100",
"qf 	c #F30401",
"rf 	c #D2110C",
"sf 	c #CC110C",
"tf 	c #C2100C",
"uf 	c #B5100A",
"vf 	c #A9100A",
"wf 	c #9F120B",
"xf 	c #8C0B05",
"yf 	c #830C06",
"zf 	c #790C07",
"Af 	c #710E08",
"Bf 	c #6D1009",
"Cf 	c #6B140D",
"Df 	c #691610",
"Ef 	c #6A1512",
"Ff 	c #6E1413",
"Gf 	c #701514",
"Hf 	c #711716",
"If 	c #721A18",
"Jf 	c #731E1B",
"Kf 	c #74211D",
"Lf 	c #74231F",
"Mf 	c #742520",
"Nf 	c #71241E",
"Of 	c #70231D",
"Pf 	c #6D221C",
"Qf 	c #6D201A",
"Rf 	c #6B1E18",
"Sf 	c #6A1D17",
"Tf 	c #681B15",
"Uf 	c #5F1512",
"Vf 	c #5E1411",
"Wf 	c #5C130D",
"Xf 	c #5A0F0A",
"Yf 	c #590C06",
"Zf 	c #590A05",
"`f 	c #5F0C06",
" g 	c #610C07",
".g 	c #640B05",
"+g 	c #680B06",
"@g 	c #6C0904",
"#g 	c #6E0804",
"$g 	c #720502",
"%g 	c #780202",
"&g 	c #7E0202",
"*g 	c #840403",
"=g 	c #8D0706",
"-g 	c #9A0C0A",
";g 	c #A6110D",
">g 	c #B3140E",
",g 	c #BE1510",
"'g 	c #C3100B",
")g 	c #CC0F0B",
"!g 	c #D60F0C",
"~g 	c #DF0F0D",
"{g 	c #E40E0E",
"]g 	c #E80C0E",
"^g 	c #EA090D",
"/g 	c #EC070A",
"(g 	c #D81801",
"_g 	c #DA1600",
":g 	c #DD1603",
"<g 	c #DE1704",
"[g 	c #DF1805",
"}g 	c #DE1505",
"|g 	c #E20E02",
"1g 	c #EB0C05",
"2g 	c #FF0C08",
"3g 	c #FD0805",
"4g 	c #FC0706",
"5g 	c #EC0902",
"6g 	c #EA0A02",
"7g 	c #E30D03",
"8g 	c #D50F02",
"9g 	c #D01705",
"0g 	c #C81100",
"ag 	c #D72612",
"bg 	c #CE1F0A",
"cg 	c #C41800",
"dg 	c #CD2109",
"eg 	c #CC2008",
"fg 	c #B91F03",
"gg 	c #B82106",
"hg 	c #B91B02",
"ig 	c #BB1500",
"jg 	c #D6210E",
"kg 	c #D91E0B",
"lg 	c #D11401",
"mg 	c #D41A05",
"ng 	c #D01A04",
"og 	c #CC2107",
"pg 	c #C92106",
"qg 	c #C41F03",
"rg 	c #C31900",
"sg 	c #C60D00",
"tg 	c #D30D04",
"ug 	c #D00E04",
"vg 	c #D31509",
"wg 	c #D81A0C",
"xg 	c #DE180D",
"yg 	c #DA1109",
"zg 	c #C0110C",
"Ag 	c #AC140F",
"Bg 	c #8B1008",
"Cg 	c #6B0D05",
"Dg 	c #4A0903",
"Eg 	c #3C0F09",
"Fg 	c #3B160D",
"Gg 	c #33150B",
"Hg 	c #27150B",
"Ig 	c #302217",
"Jg 	c #35241C",
"Kg 	c #29160F",
"Lg 	c #241009",
"Mg 	c #230C06",
"Ng 	c #210C07",
"Og 	c #1F0D09",
"Pg 	c #291E1A",
"Qg 	c #150A04",
"Rg 	c #1D170B",
"Sg 	c #1E1108",
"Tg 	c #0E0000",
"Ug 	c #23140F",
"Vg 	c #33201C",
"Wg 	c #381C18",
"Xg 	c #3E1D16",
"Yg 	c #401A11",
"Zg 	c #511606",
"`g 	c #7D2613",
" h 	c #902511",
".h 	c #9F2814",
"+h 	c #A92413",
"@h 	c #BF1C0D",
"#h 	c #CE261B",
"$h 	c #CE2319",
"%h 	c #BE1309",
"&h 	c #B20A00",
"*h 	c #B9190B",
"=h 	c #B31A0A",
"-h 	c #AB1804",
";h 	c #C10900",
">h 	c #BF0700",
",h 	c #C50D03",
"'h 	c #D50C05",
")h 	c #D40400",
"!h 	c #DE0905",
"~h 	c #DB0100",
"{h 	c #DE0402",
"]h 	c #D50400",
"^h 	c #DD0302",
"/h 	c #E80000",
"(h 	c #EC0002",
"_h 	c #F10102",
":h 	c #FF0306",
"<h 	c #E90708",
"[h 	c #EA0C0B",
"}h 	c #EA0E0E",
"|h 	c #E80E0D",
"1h 	c #DE1010",
"2h 	c #C60F0B",
"3h 	c #BA110C",
"4h 	c #B2100B",
"5h 	c #A90E09",
"6h 	c #9E0D08",
"7h 	c #930C06",
"8h 	c #860D05",
"9h 	c #7D0E07",
"0h 	c #720F09",
"ah 	c #701711",
"bh 	c #6E1E17",
"ch 	c #692019",
"dh 	c #612118",
"eh 	c #5D2119",
"fh 	c #60251F",
"gh 	c #652823",
"hh 	c #68251F",
"ih 	c #69241F",
"jh 	c #65241E",
"kh 	c #64251E",
"lh 	c #61251D",
"mh 	c #60251D",
"nh 	c #62271F",
"oh 	c #60271E",
"ph 	c #5F261D",
"qh 	c #5E251C",
"rh 	c #5D241B",
"sh 	c #5C231A",
"th 	c #59221B",
"uh 	c #58261F",
"vh 	c #582722",
"wh 	c #592821",
"xh 	c #57261F",
"yh 	c #55231A",
"zh 	c #531E16",
"Ah 	c #521B14",
"Bh 	c #4E150C",
"Ch 	c #52160E",
"Dh 	c #571610",
"Eh 	c #5C1712",
"Fh 	c #601711",
"Gh 	c #641612",
"Hh 	c #661511",
"Ih 	c #6D1815",
"Jh 	c #6F1411",
"Kh 	c #6F120D",
"Lh 	c #710E09",
"Mh 	c #770C06",
"Nh 	c #7E0B04",
"Oh 	c #870B03",
"Ph 	c #900903",
"Qh 	c #9E0E06",
"Rh 	c #AA0D08",
"Sh 	c #B70F0C",
"Th 	c #C1120F",
"Uh 	c #CD1412",
"Vh 	c #D31213",
"Wh 	c #D51113",
"Xh 	c #DB0F10",
"Yh 	c #E20C0A",
"Zh 	c #E01D09",
"`h 	c #E11806",
" i 	c #E31605",
".i 	c #EA160A",
"+i 	c #EC1409",
"@i 	c #EB0E05",
"#i 	c #EA0B03",
"$i 	c #FB0908",
"%i 	c #FB0605",
"&i 	c #EA0D04",
"*i 	c #E40E03",
"=i 	c #DB1103",
"-i 	c #CB1404",
";i 	c #CF1C06",
">i 	c #CA1F05",
",i 	c #C91F05",
"'i 	c #CB2107",
")i 	c #C82307",
"!i 	c #C42209",
"~i 	c #C32108",
"{i 	c #DB1E0A",
"]i 	c #DD2108",
"^i 	c #D82006",
"/i 	c #D31F06",
"(i 	c #C71D04",
"_i 	c #D60B05",
":i 	c #DB100A",
"<i 	c #DB150C",
"[i 	c #E0170D",
"}i 	c #E31309",
"|i 	c #D10600",
"1i 	c #CD1411",
"2i 	c #BB1813",
"3i 	c #950C04",
"4i 	c #4F0900",
"5i 	c #3B0B00",
"6i 	c #381207",
"7i 	c #251108",
"8i 	c #23140D",
"9i 	c #2E1F18",
"0i 	c #36251E",
"ai 	c #2B1710",
"bi 	c #230A05",
"ci 	c #200500",
"di 	c #260A06",
"ei 	c #270E0A",
"fi 	c #200B08",
"gi 	c #1E0C0A",
"hi 	c #20110E",
"ii 	c #21120D",
"ji 	c #22130E",
"ki 	c #291C16",
"li 	c #2A1D17",
"mi 	c #0D0200",
"ni 	c #170C06",
"oi 	c #100500",
"pi 	c #140903",
"qi 	c #180D07",
"ri 	c #1D160E",
"si 	c #1A130B",
"ti 	c #1C150B",
"ui 	c #251C13",
"vi 	c #281F18",
"wi 	c #211610",
"xi 	c #170A04",
"yi 	c #100100",
"zi 	c #23110D",
"Ai 	c #37221F",
"Bi 	c #331B17",
"Ci 	c #2F120E",
"Di 	c #3D1F17",
"Ei 	c #431E16",
"Fi 	c #3C160D",
"Gi 	c #4D1810",
"Hi 	c #6D231A",
"Ii 	c #8B2A21",
"Ji 	c #A02A20",
"Ki 	c #A81E13",
"Li 	c #B21909",
"Mi 	c #C21F0C",
"Ni 	c #C92410",
"Oi 	c #C7220F",
"Pi 	c #C01D0C",
"Qi 	c #AF0800",
"Ri 	c #B20E04",
"Si 	c #B8180C",
"Ti 	c #B41B0B",
"Ui 	c #A41400",
"Vi 	c #B61004",
"Wi 	c #BA1301",
"Xi 	c #B91200",
"Yi 	c #BB1100",
"Zi 	c #BE0C00",
"`i 	c #BF0900",
" j 	c #C10901",
".j 	c #C60903",
"+j 	c #BF0300",
"@j 	c #C80900",
"#j 	c #D11007",
"$j 	c #D00A01",
"%j 	c #D50B01",
"&j 	c #D70600",
"*j 	c #D60300",
"=j 	c #D70400",
"-j 	c #DC0201",
";j 	c #EC0608",
">j 	c #FE0106",
",j 	c #FF000A",
"'j 	c #FD0200",
")j 	c #FE0500",
"!j 	c #EB0D08",
"~j 	c #E9100B",
"{j 	c #E40D0A",
"]j 	c #DD0F13",
"^j 	c #D91217",
"/j 	c #D2131A",
"(j 	c #C91016",
"_j 	c #BE0910",
":j 	c #AE080C",
"<j 	c #9A0A0A",
"[j 	c #8C0A08",
"}j 	c #860C07",
"|j 	c #83100B",
"1j 	c #7E120F",
"2j 	c #75140E",
"3j 	c #701814",
"4j 	c #6C1F19",
"5j 	c #631E19",
"6j 	c #61221D",
"7j 	c #5D2621",
"8j 	c #5B2922",
"9j 	c #5A2B25",
"0j 	c #572A24",
"aj 	c #562923",
"bj 	c #572820",
"cj 	c #542219",
"dj 	c #59241C",
"ej 	c #5C271F",
"fj 	c #5C2A21",
"gj 	c #5A2A20",
"hj 	c #58281E",
"ij 	c #57281E",
"jj 	c #56271D",
"kj 	c #53291D",
"lj 	c #522E22",
"mj 	c #4F2F24",
"nj 	c #4C2E23",
"oj 	c #4B2D22",
"pj 	c #482A1F",
"qj 	c #47271C",
"rj 	c #45251A",
"sj 	c #442218",
"tj 	c #452017",
"uj 	c #441E15",
"vj 	c #51221C",
"wj 	c #55221E",
"xj 	c #56211D",
"yj 	c #59221F",
"zj 	c #5F2521",
"Aj 	c #5F241E",
"Bj 	c #5E221A",
"Cj 	c #5E1E15",
"Dj 	c #5E1A11",
"Ej 	c #60160D",
"Fj 	c #621207",
"Gj 	c #681006",
"Hj 	c #710F04",
"Ij 	c #7A0E04",
"Jj 	c #850E06",
"Kj 	c #92110B",
"Lj 	c #9F140F",
"Mj 	c #A91815",
"Nj 	c #B41C19",
"Oj 	c #BE1C1A",
"Pj 	c #C71513",
"Qj 	c #D21513",
"Rj 	c #D71314",
"Sj 	c #DE1213",
"Tj 	c #EA080A",
"Uj 	c #F10507",
"Vj 	c #F20000",
"Wj 	c #E21B08",
"Xj 	c #E51304",
"Yj 	c #E81305",
"Zj 	c #EF1209",
"`j 	c #EF0F07",
" k 	c #FC0C0B",
".k 	c #DD0F01",
"+k 	c #D81000",
"@k 	c #D31201",
"#k 	c #CB2006",
"$k 	c #CB2004",
"%k 	c #CB2205",
"&k 	c #CC2208",
"*k 	c #CA2208",
"=k 	c #DF1A07",
"-k 	c #DB1700",
";k 	c #DB1D03",
">k 	c #D71D04",
",k 	c #CE1E06",
"'k 	c #CA1E06",
")k 	c #C71803",
"!k 	c #C81403",
"~k 	c #CD1203",
"{k 	c #DE0D09",
"]k 	c #E01006",
"^k 	c #E30E06",
"/k 	c #DC0500",
"(k 	c #D1110E",
"_k 	c #BF1611",
":k 	c #9A0B03",
"<k 	c #740400",
"[k 	c #520800",
"}k 	c #3C0B00",
"|k 	c #391107",
"1k 	c #34160C",
"2k 	c #25110A",
"3k 	c #33241F",
"4k 	c #250905",
"5k 	c #210400",
"6k 	c #260905",
"7k 	c #260D08",
"8k 	c #220A08",
"9k 	c #1F0F0F",
"0k 	c #20110C",
"ak 	c #2B1C17",
"bk 	c #130600",
"ck 	c #120500",
"dk 	c #110600",
"ek 	c #190E08",
"fk 	c #160F07",
"gk 	c #1F1810",
"hk 	c #180D09",
"ik 	c #170805",
"jk 	c #301E1A",
"kk 	c #2C1714",
"lk 	c #2F1611",
"mk 	c #351814",
"nk 	c #35170F",
"ok 	c #391610",
"pk 	c #3D1810",
"qk 	c #45140F",
"rk 	c #621C1A",
"sk 	c #812623",
"tk 	c #9B2521",
"uk 	c #A41A10",
"vk 	c #C5230C",
"wk 	c #B61702",
"xk 	c #B7130A",
"yk 	c #B9190D",
"zk 	c #B81502",
"Ak 	c #B91401",
"Bk 	c #BA1300",
"Ck 	c #BC1100",
"Dk 	c #C70C05",
"Ek 	c #C90C06",
"Fk 	c #C50400",
"Gk 	c #CC0A01",
"Hk 	c #D00E05",
"Ik 	c #D00F06",
"Jk 	c #DA1107",
"Kk 	c #D70D03",
"Lk 	c #D90A00",
"Mk 	c #D70700",
"Nk 	c #DA0501",
"Ok 	c #DB0401",
"Pk 	c #DD0101",
"Qk 	c #E80809",
"Rk 	c #EB0609",
"Sk 	c #F0070A",
"Tk 	c #FF000B",
"Uk 	c #FE000A",
"Vk 	c #FC010A",
"Wk 	c #F8030A",
"Xk 	c #FB0300",
"Yk 	c #EA0D05",
"Zk 	c #D8110A",
"`k 	c #CB1210",
" l 	c #C41114",
".l 	c #BD1417",
"+l 	c #B5161B",
"@l 	c #AB161C",
"#l 	c #A21319",
"$l 	c #941317",
"%l 	c #871715",
"&l 	c #7C1914",
"*l 	c #791C15",
"=l 	c #78211A",
"-l 	c #6C231D",
";l 	c #652420",
">l 	c #622824",
",l 	c #5C2925",
"'l 	c #5B2B27",
")l 	c #572E28",
"!l 	c #562F28",
"~l 	c #55302A",
"{l 	c #532E28",
"]l 	c #522D25",
"^l 	c #522C23",
"/l 	c #522A20",
"(l 	c #532B1F",
"_l 	c #552D21",
":l 	c #542C20",
"<l 	c #522C1F",
"[l 	c #512B1E",
"}l 	c #502C1E",
"|l 	c #4F2B1D",
"1l 	c #4E2A1C",
"2l 	c #4D291B",
"3l 	c #4B291D",
"4l 	c #462C1D",
"5l 	c #442E20",
"6l 	c #432D20",
"7l 	c #422A1E",
"8l 	c #41261B",
"9l 	c #43251D",
"0l 	c #4A2721",
"al 	c #4C2721",
"bl 	c #4C231F",
"cl 	c #4D2420",
"dl 	c #522623",
"el 	c #542923",
"fl 	c #552A24",
"gl 	c #552A23",
"hl 	c #57251C",
"il 	c #592015",
"jl 	c #5C1E13",
"kl 	c #5E180E",
"ll 	c #63150B",
"ml 	c #6A1109",
"nl 	c #72110A",
"ol 	c #7D120C",
"pl 	c #84130D",
"ql 	c #8F100A",
"rl 	c #A1130F",
"sl 	c #A9110E",
"tl 	c #B0120F",
"ul 	c #B81212",
"vl 	c #C31313",
"wl 	c #CF1314",
"xl 	c #DA1316",
"yl 	c #E21114",
"zl 	c #E90E12",
"Al 	c #EF0D0F",
"Bl 	c #F2090C",
"Cl 	c #E21804",
"Dl 	c #E21301",
"El 	c #E51103",
"Fl 	c #E81003",
"Gl 	c #EE1005",
"Hl 	c #F90B08",
"Il 	c #FD0F0C",
"Jl 	c #F70C08",
"Kl 	c #F90A07",
"Ll 	c #F40D07",
"Ml 	c #E80B02",
"Nl 	c #E10B00",
"Ol 	c #DB0B00",
"Pl 	c #D70E00",
"Ql 	c #D40F00",
"Rl 	c #D01100",
"Sl 	c #CD1F07",
"Tl 	c #CC2105",
"Ul 	c #CC2103",
"Vl 	c #CF2204",
"Wl 	c #CF2106",
"Xl 	c #CF2109",
"Yl 	c #CF1E0A",
"Zl 	c #DE1906",
"`l 	c #E01705",
" m 	c #DE1501",
".m 	c #DC1500",
"+m 	c #DA1701",
"@m 	c #D61800",
"#m 	c #D21A02",
"$m 	c #CF0F02",
"%m 	c #DC0D05",
"&m 	c #DF0C03",
"*m 	c #D70602",
"=m 	c #D0100D",
"-m 	c #C21612",
";m 	c #530900",
">m 	c #26120B",
",m 	c #2B1E18",
"'m 	c #30211C",
")m 	c #2A160F",
"!m 	c #240B06",
"~m 	c #240703",
"{m 	c #1F0A07",
"]m 	c #1C0E0D",
"^m 	c #261712",
"/m 	c #2A1B16",
"(m 	c #1A0D07",
"_m 	c #140701",
":m 	c #160B05",
"<m 	c #1A0F09",
"[m 	c #171008",
"}m 	c #150E06",
"|m 	c #1B140C",
"1m 	c #1E130F",
"2m 	c #402E2A",
"3m 	c #281310",
"4m 	c #2C150F",
"5m 	c #391D19",
"6m 	c #2F1109",
"7m 	c #34110B",
"8m 	c #411C14",
"9m 	c #40110B",
"0m 	c #5B1714",
"am 	c #7B221E",
"bm 	c #94231D",
"cm 	c #A11B12",
"dm 	c #B51D0F",
"em 	c #C72614",
"fm 	c #C1220C",
"gm 	c #AE1100",
"hm 	c #B71309",
"im 	c #BC180F",
"jm 	c #BA180D",
"km 	c #B41907",
"lm 	c #BD1401",
"mm 	c #C51007",
"nm 	c #C71008",
"om 	c #CB1009",
"pm 	c #CB0802",
"qm 	c #D40F07",
"rm 	c #D41206",
"sm 	c #D81408",
"tm 	c #DD140A",
"um 	c #DA0E03",
"vm 	c #DD0A01",
"wm 	c #DD0800",
"xm 	c #DF0303",
"ym 	c #E20304",
"zm 	c #ED070A",
"Am 	c #F60609",
"Bm 	c #FF0006",
"Cm 	c #FC0500",
"Dm 	c #EE0D0B",
"Em 	c #DA110A",
"Fm 	c #CE1209",
"Gm 	c #C3120A",
"Hm 	c #BD160E",
"Im 	c #B3160F",
"Jm 	c #A91511",
"Km 	c #9E1713",
"Lm 	c #951917",
"Mm 	c #8E1C1B",
"Nm 	c #851D1A",
"Om 	c #7E1F19",
"Pm 	c #772017",
"Qm 	c #722219",
"Rm 	c #74271F",
"Sm 	c #762D26",
"Tm 	c #722F27",
"Um 	c #692D25",
"Vm 	c #622B26",
"Wm 	c #5E2D28",
"Xm 	c #5D302A",
"Ym 	c #5A312B",
"Zm 	c #58312A",
"`m 	c #56312B",
" n 	c #553028",
".n 	c #542F27",
"+n 	c #552E27",
"@n 	c #532E25",
"#n 	c #563226",
"$n 	c #543324",
"%n 	c #523122",
"&n 	c #513021",
"*n 	c #502F20",
"=n 	c #4F2E1F",
"-n 	c #4D2D1E",
";n 	c #4F2F20",
">n 	c #4E2E1F",
",n 	c #4A2D1D",
"'n 	c #492C1C",
")n 	c #482B1B",
"!n 	c #472A1A",
"~n 	c #45291B",
"{n 	c #422B1B",
"]n 	c #3F2C1D",
"^n 	c #402D1F",
"/n 	c #412E20",
"(n 	c #433022",
"_n 	c #452F22",
":n 	c #452820",
"<n 	c #482A22",
"[n 	c #4A2922",
"}n 	c #4B2620",
"|n 	c #4E2722",
"1n 	c #512824",
"2n 	c #522925",
"3n 	c #552C28",
"4n 	c #582C29",
"5n 	c #592C26",
"6n 	c #5B251B",
"7n 	c #5E2419",
"8n 	c #621F16",
"9n 	c #651C15",
"0n 	c #6B1B14",
"an 	c #721B14",
"bn 	c #761912",
"cn 	c #76150F",
"dn 	c #78110C",
"en 	c #7F140C",
"fn 	c #83120A",
"gn 	c #89120A",
"hn 	c #94130E",
"in 	c #A21410",
"jn 	c #B11614",
"kn 	c #C11718",
"ln 	c #CD1618",
"mn 	c #D81418",
"nn 	c #E31217",
"on 	c #E90E14",
"pn 	c #EA070E",
"qn 	c #EE050B",
"rn 	c #F3030C",
"sn 	c #F6020A",
"tn 	c #F40007",
"un 	c #E31402",
"vn 	c #E51201",
"wn 	c #E70F00",
"xn 	c #EB0F01",
"yn 	c #EC0E03",
"zn 	c #EE0B02",
"An 	c #EE0700",
"Bn 	c #FA0F0B",
"Cn 	c #F00B05",
"Dn 	c #EC0F06",
"En 	c #E00C00",
"Fn 	c #D90B00",
"Gn 	c #D50C00",
"Hn 	c #D10E00",
"In 	c #D11000",
"Jn 	c #D01300",
"Kn 	c #CC2306",
"Ln 	c #CD2206",
"Mn 	c #D02207",
"Nn 	c #D12205",
"On 	c #D32105",
"Pn 	c #D42007",
"Qn 	c #D41F0A",
"Rn 	c #D61D0B",
"Sn 	c #DD1808",
"Tn 	c #E01506",
"Un 	c #E21303",
"Vn 	c #E11200",
"Wn 	c #DD1300",
"Xn 	c #D81501",
"Yn 	c #D41701",
"Zn 	c #E00F0A",
"`n 	c #E20E0B",
" o 	c #E00C09",
".o 	c #DA0B01",
"+o 	c #DD0A00",
"@o 	c #D1100B",
"#o 	c #C41814",
"$o 	c #A6130B",
"%o 	c #770500",
"&o 	c #550900",
"*o 	c #3F0B00",
"=o 	c #3B1007",
"-o 	c #35170D",
";o 	c #27130C",
">o 	c #22150D",
",o 	c #281D17",
"'o 	c #2C1F19",
")o 	c #2A1710",
"!o 	c #240D07",
"~o 	c #220602",
"{o 	c #1E0906",
"]o 	c #1A0C0B",
"^o 	c #241915",
"/o 	c #2E1F1C",
"(o 	c #45332F",
"_o 	c #341F1C",
":o 	c #321B15",
"<o 	c #351915",
"[o 	c #31130B",
"}o 	c #37160F",
"|o 	c #40130D",
"1o 	c #581914",
"2o 	c #90231E",
"3o 	c #A7241C",
"4o 	c #B82619",
"5o 	c #C12614",
"6o 	c #B71F0A",
"7o 	c #AD1402",
"8o 	c #B9150B",
"9o 	c #BF180F",
"0o 	c #BB170B",
"ao 	c #AD1B02",
"bo 	c #B51D08",
"co 	c #B91A07",
"do 	c #B61A04",
"eo 	c #B81904",
"fo 	c #B81903",
"go 	c #BA1803",
"ho 	c #BD1603",
"io 	c #C61106",
"jo 	c #D80F08",
"ko 	c #D51309",
"lo 	c #D91104",
"mo 	c #DE0B02",
"no 	c #DE0702",
"oo 	c #DB0400",
"po 	c #EE090C",
"qo 	c #F1080B",
"ro 	c #F4050B",
"so 	c #EB0C0F",
"to 	c #D3110F",
"uo 	c #C6130E",
"vo 	c #B7140B",
"wo 	c #AC150A",
"xo 	c #A51B10",
"yo 	c #9B1D11",
"zo 	c #901E14",
"Ao 	c #861F16",
"Bo 	c #7C2219",
"Co 	c #75251C",
"Do 	c #6E281E",
"Eo 	c #6C2A1E",
"Fo 	c #67271B",
"Go 	c #66281D",
"Ho 	c #662C20",
"Io 	c #693327",
"Jo 	c #663429",
"Ko 	c #603127",
"Lo 	c #5A2F28",
"Mo 	c #59302A",
"No 	c #58332B",
"Oo 	c #55332A",
"Po 	c #54312B",
"Qo 	c #563129",
"Ro 	c #573029",
"So 	c #563128",
"To 	c #55382A",
"Uo 	c #523726",
"Vo 	c #4D3322",
"Wo 	c #4B3120",
"Xo 	c #492F1E",
"Yo 	c #482E1D",
"Zo 	c #472D1C",
"`o 	c #462F1D",
" p 	c #452E1C",
".p 	c #432E1B",
"+p 	c #422D1A",
"@p 	c #422D1C",
"#p 	c #402D1E",
"$p 	c #3D2C1C",
"%p 	c #3C2B1B",
"&p 	c #3C2A1C",
"*p 	c #3D2B1D",
"=p 	c #3E2C1E",
"-p 	c #422C1F",
";p 	c #432B21",
">p 	c #462B22",
",p 	c #482B23",
"'p 	c #492B23",
")p 	c #4B2A23",
"!p 	c #4D2A26",
"~p 	c #4D2724",
"{p 	c #4F2727",
"]p 	c #502826",
"^p 	c #4F2823",
"/p 	c #4F2622",
"(p 	c #4E251F",
"_p 	c #4F241D",
":p 	c #54251D",
"<p 	c #5B261E",
"[p 	c #632A23",
"}p 	c #692A23",
"|p 	c #6D2A22",
"1p 	c #6D2620",
"2p 	c #6E231D",
"3p 	c #6E2119",
"4p 	c #6C1C11",
"5p 	c #721B11",
"6p 	c #7B1A13",
"7p 	c #851A14",
"8p 	c #921815",
"9p 	c #9E1714",
"0p 	c #AB1214",
"ap 	c #B30D0F",
"bp 	c #C60F14",
"cp 	c #D51019",
"dp 	c #DF101A",
"ep 	c #E80F1A",
"fp 	c #EF0D1B",
"gp 	c #EE0815",
"hp 	c #EC0110",
"ip 	c #E51200",
"jp 	c #E81100",
"kp 	c #E91000",
"lp 	c #EC0F00",
"mp 	c #ED0D01",
"np 	c #F00C01",
"op 	c #F00700",
"pp 	c #F60D06",
"qp 	c #F60D08",
"rp 	c #CF1200",
"sp 	c #D01601",
"tp 	c #D11803",
"up 	c #CF1903",
"vp 	c #CA2205",
"wp 	c #C82305",
"xp 	c #C82303",
"yp 	c #CB2404",
"zp 	c #CE2305",
"Ap 	c #D42206",
"Bp 	c #D71F03",
"Cp 	c #E01809",
"Dp 	c #E31508",
"Ep 	c #E51105",
"Fp 	c #E40F01",
"Gp 	c #E21001",
"Hp 	c #E11403",
"Ip 	c #DC1502",
"Jp 	c #D01001",
"Kp 	c #DF1008",
"Lp 	c #E30D0B",
"Mp 	c #DB0B01",
"Np 	c #E10800",
"Op 	c #D10E0A",
"Pp 	c #C81B17",
"Qp 	c #AD1811",
"Rp 	c #7B0600",
"Sp 	c #560A00",
"Tp 	c #3C1108",
"Up 	c #28140D",
"Vp 	c #261B15",
"Wp 	c #291810",
"Xp 	c #1F0600",
"Yp 	c #210501",
"Zp 	c #1F0802",
"`p 	c #1D0A06",
" q 	c #190B08",
".q 	c #180B05",
"+q 	c #30221F",
"@q 	c #392A25",
"#q 	c #45322E",
"$q 	c #3A231D",
"%q 	c #2D110D",
"&q 	c #351810",
"*q 	c #3D1C15",
"=q 	c #3A180F",
"-q 	c #41160F",
";q 	c #551813",
">q 	c #691814",
",q 	c #89201C",
"'q 	c #A62B23",
")q 	c #B52B20",
"!q 	c #B32112",
"~q 	c #B31E0A",
"{q 	c #B8160B",
"]q 	c #BD160D",
"^q 	c #BD170B",
"/q 	c #B71707",
"(q 	c #B01B03",
"_q 	c #B11F06",
":q 	c #B61E09",
"<q 	c #B91C09",
"[q 	c #B81D07",
"}q 	c #B71D05",
"|q 	c #B71B04",
"1q 	c #C51005",
"2q 	c #C90E05",
"3q 	c #D71509",
"4q 	c #DA160A",
"5q 	c #DB1306",
"6q 	c #DE0903",
"7q 	c #DE0301",
"8q 	c #EF0D0E",
"9q 	c #FE0406",
"0q 	c #ED0B0C",
"aq 	c #E8110F",
"bq 	c #E60D15",
"cq 	c #E10E17",
"dq 	c #D60F14",
"eq 	c #C81211",
"fq 	c #B81510",
"gq 	c #AA170F",
"hq 	c #9C1A0D",
"iq 	c #911D10",
"jq 	c #8B2415",
"kq 	c #832718",
"lq 	c #7C2A1C",
"mq 	c #722D1E",
"nq 	c #692E20",
"oq 	c #613021",
"pq 	c #5C3121",
"qq 	c #593223",
"rq 	c #5A3020",
"sq 	c #582E20",
"tq 	c #573021",
"uq 	c #5A3427",
"vq 	c #58362A",
"wq 	c #543429",
"xq 	c #513329",
"yq 	c #52342C",
"zq 	c #50332B",
"Aq 	c #51332B",
"Bq 	c #53322B",
"Cq 	c #5A342B",
"Dq 	c #58362C",
"Eq 	c #523829",
"Fq 	c #4B3625",
"Gq 	c #453221",
"Hq 	c #422F1E",
"Iq 	c #412E1D",
"Jq 	c #402D1C",
"Kq 	c #3F2E1C",
"Lq 	c #3F301D",
"Mq 	c #403020",
"Nq 	c #402F1F",
"Oq 	c #3D2D1E",
"Pq 	c #3C2C1D",
"Qq 	c #3B2B1C",
"Rq 	c #3E2E21",
"Sq 	c #402E22",
"Tq 	c #412D22",
"Uq 	c #432D22",
"Vq 	c #432C24",
"Wq 	c #452C25",
"Xq 	c #482B25",
"Yq 	c #482625",
"Zq 	c #4A2324",
"`q 	c #452121",
" r 	c #43201E",
".r 	c #401E1C",
"+r 	c #3F1D1B",
"@r 	c #3F1E19",
"#r 	c #3F1E17",
"$r 	c #3A1912",
"%r 	c #462119",
"&r 	c #522B24",
"*r 	c #5C2D27",
"=r 	c #5A2922",
"-r 	c #5F2A22",
";r 	c #5A2A1E",
">r 	c #5B291E",
",r 	c #61281D",
"'r 	c #66261C",
")r 	c #751E17",
"!r 	c #7E1814",
"~r 	c #861212",
"{r 	c #8E090C",
"]r 	c #A10C12",
"^r 	c #B41019",
"/r 	c #C3111D",
"(r 	c #D21322",
"_r 	c #DB1524",
":r 	c #E11222",
"<r 	c #DE0E1E",
"[r 	c #EA1100",
"}r 	c #ED1101",
"|r 	c #EE0F00",
"1r 	c #EF0D00",
"2r 	c #F10D00",
"3r 	c #EF0800",
"4r 	c #F00800",
"5r 	c #F40B04",
"6r 	c #F30C06",
"7r 	c #E41004",
"8r 	c #DB1202",
"9r 	c #D61100",
"0r 	c #CE1100",
"ar 	c #CD1300",
"br 	c #CE1A01",
"cr 	c #CF1D03",
"dr 	c #CE2005",
"er 	c #CB2306",
"fr 	c #C72405",
"gr 	c #C72202",
"hr 	c #CA2303",
"ir 	c #D02305",
"jr 	c #D62106",
"kr 	c #D81E05",
"lr 	c #DA1C02",
"mr 	c #DD1A04",
"nr 	c #E11909",
"or 	c #E3180A",
"pr 	c #E71409",
"qr 	c #E71107",
"rr 	c #E80C00",
"sr 	c #E60E01",
"tr 	c #E61405",
"ur 	c #DC1404",
"vr 	c #D81404",
"wr 	c #D51403",
"xr 	c #D30F00",
"yr 	c #D51103",
"zr 	c #E30E0A",
"Ar 	c #E10D02",
"Br 	c #E10900",
"Cr 	c #D10B08",
"Dr 	c #CC1A16",
"Er 	c #B31C15",
"Fr 	c #7E0700",
"Gr 	c #580A00",
"Hr 	c #400A00",
"Ir 	c #38170E",
"Jr 	c #241913",
"Kr 	c #231812",
"Lr 	c #291B12",
"Mr 	c #210801",
"Nr 	c #1E0500",
"Or 	c #1E0B07",
"Pr 	c #241510",
"Qr 	c #181109",
"Rr 	c #201511",
"Sr 	c #483531",
"Tr 	c #402923",
"Ur 	c #361911",
"Vr 	c #3A1C14",
"Wr 	c #34130A",
"Xr 	c #4E150E",
"Yr 	c #61140E",
"Zr 	c #7D1C16",
"`r 	c #9D2821",
" s 	c #AB281E",
".s 	c #AA2013",
"+s 	c #A81F0C",
"@s 	c #AF220E",
"#s 	c #B62512",
"$s 	c #B41D0C",
"%s 	c #BE180A",
"&s 	c #B21E04",
"*s 	c #B51D06",
"=s 	c #BA1E08",
"-s 	c #B91D06",
";s 	c #BA1B05",
">s 	c #BD1B06",
",s 	c #BE1704",
"'s 	c #BF1201",
")s 	c #CC1005",
"!s 	c #DC1009",
"~s 	c #D60B04",
"{s 	c #DB170B",
"]s 	c #DB1508",
"^s 	c #DA1205",
"/s 	c #DB0F04",
"(s 	c #E20403",
"_s 	c #E80808",
":s 	c #EE0C0D",
"<s 	c #F40E10",
"[s 	c #F50B0C",
"}s 	c #F5090B",
"|s 	c #FD040A",
"1s 	c #FA030B",
"2s 	c #F5060C",
"3s 	c #DC1512",
"4s 	c #D71716",
"5s 	c #CC1318",
"6s 	c #C41319",
"7s 	c #B71415",
"8s 	c #A91513",
"9s 	c #991812",
"0s 	c #8D1D12",
"as 	c #832114",
"bs 	c #792616",
"cs 	c #742B1A",
"ds 	c #6F301F",
"es 	c #6C3224",
"fs 	c #663526",
"gs 	c #5E3426",
"hs 	c #563526",
"is 	c #523527",
"js 	c #513527",
"ks 	c #533626",
"ls 	c #513424",
"ms 	c #503426",
"ns 	c #51372A",
"os 	c #4F382A",
"ps 	c #4C3428",
"qs 	c #4B352A",
"rs 	c #4E382D",
"ss 	c #4C342A",
"ts 	c #4D352B",
"us 	c #51342C",
"vs 	c #52342A",
"ws 	c #55342B",
"xs 	c #56342A",
"ys 	c #53352A",
"zs 	c #483322",
"As 	c #41321F",
"Bs 	c #3D2E1B",
"Cs 	c #3A2D1A",
"Ds 	c #3C2F1C",
"Es 	c #3D301D",
"Fs 	c #3B2E1B",
"Gs 	c #392E1A",
"Hs 	c #3A2F1B",
"Is 	c #3B301C",
"Js 	c #39311C",
"Ks 	c #3A321D",
"Ls 	c #3C311F",
"Ms 	c #3D301F",
"Ns 	c #3E2E1E",
"Os 	c #3C2F1F",
"Ps 	c #3C3020",
"Qs 	c #3D3020",
"Rs 	c #3D3123",
"Ss 	c #403225",
"Ts 	c #413124",
"Us 	c #3E2C22",
"Vs 	c #3F2D23",
"Ws 	c #3F2822",
"Xs 	c #432523",
"Ys 	c #422321",
"Zs 	c #3E1F1D",
"`s 	c #391B19",
" t 	c #361A17",
".t 	c #341B17",
"+t 	c #341D17",
"@t 	c #321B13",
"#t 	c #452D23",
"$t 	c #4B3027",
"%t 	c #4D2F27",
"&t 	c #4D2C25",
"*t 	c #502E25",
"=t 	c #523027",
"-t 	c #502E24",
";t 	c #552F24",
">t 	c #5A2E25",
",t 	c #5D2B22",
"'t 	c #62261E",
")t 	c #661F19",
"!t 	c #6E1B17",
"~t 	c #741211",
"{t 	c #821113",
"]t 	c #8F1115",
"^t 	c #9B0E16",
"/t 	c #AB111B",
"(t 	c #BB1624",
"_t 	c #C51B28",
":t 	c #C81928",
"<t 	c #EC1100",
"[t 	c #EF1200",
"}t 	c #F11201",
"|t 	c #F21000",
"1t 	c #F40E01",
"2t 	c #F10B00",
"3t 	c #F10A00",
"4t 	c #F00900",
"5t 	c #F20B01",
"6t 	c #F50E06",
"7t 	c #F70E09",
"8t 	c #E80E04",
"9t 	c #E11305",
"0t 	c #DD1505",
"at 	c #D61503",
"bt 	c #D31602",
"ct 	c #CB1700",
"dt 	c #CD1902",
"et 	c #D21E07",
"ft 	c #D01C01",
"gt 	c #D01E02",
"ht 	c #CC2304",
"it 	c #C52201",
"jt 	c #C62200",
"kt 	c #CA2100",
"lt 	c #D02102",
"mt 	c #D52003",
"nt 	c #DB1F04",
"ot 	c #DE1C03",
"pt 	c #E01902",
"qt 	c #E11703",
"rt 	c #E81609",
"st 	c #EA140A",
"tt 	c #EE1109",
"ut 	c #EC0701",
"vt 	c #E41205",
"wt 	c #DC1303",
"xt 	c #DB1304",
"yt 	c #D91102",
"zt 	c #D70F00",
"At 	c #D50D00",
"Bt 	c #E20D07",
"Ct 	c #E50B09",
"Dt 	c #E00800",
"Et 	c #EB0E06",
"Ft 	c #CF0803",
"Gt 	c #B81D18",
"Ht 	c #810600",
"It 	c #5B0900",
"Jt 	c #420900",
"Kt 	c #3D1108",
"Lt 	c #29150E",
"Mt 	c #2A1C13",
"Nt 	c #27140D",
"Ot 	c #210A02",
"Pt 	c #1D0600",
"Qt 	c #1D0B07",
"Rt 	c #1B0E08",
"St 	c #251611",
"Tt 	c #3B2824",
"Ut 	c #432F28",
"Vt 	c #3A211C",
"Wt 	c #32170E",
"Xt 	c #33150D",
"Yt 	c #36150C",
"Zt 	c #3D150D",
"`t 	c #450E07",
" u 	c #59120C",
".u 	c #721712",
"+u 	c #881D17",
"@u 	c #9D241B",
"#u 	c #A92B1F",
"$u 	c #AB2C1B",
"%u 	c #AA2713",
"&u 	c #B02512",
"*u 	c #B11E0C",
"=u 	c #C01A0C",
"-u 	c #C11A0A",
";u 	c #B51B03",
">u 	c #B31D04",
",u 	c #B91A04",
"'u 	c #BE1F09",
")u 	c #BD1D07",
"!u 	c #BF1603",
"~u 	c #C00F00",
"{u 	c #C81103",
"]u 	c #D41409",
"^u 	c #D40902",
"/u 	c #DA1608",
"(u 	c #DB1709",
"_u 	c #DD0601",
":u 	c #ED090A",
"<u 	c #F10B0B",
"[u 	c #F50D0D",
"}u 	c #F70B0B",
"|u 	c #F80A0A",
"1u 	c #FA0807",
"2u 	c #F5050E",
"3u 	c #EF0A11",
"4u 	c #E60E13",
"5u 	c #DC1115",
"6u 	c #D11514",
"7u 	c #C51613",
"8u 	c #BB1916",
"9u 	c #A71717",
"0u 	c #9C1A1A",
"au 	c #921B17",
"bu 	c #861D17",
"cu 	c #7B2317",
"du 	c #732719",
"eu 	c #6B2C1B",
"fu 	c #65301E",
"gu 	c #623321",
"hu 	c #603525",
"iu 	c #603628",
"ju 	c #5C3629",
"ku 	c #563428",
"lu 	c #533328",
"mu 	c #503429",
"nu 	c #50352A",
"ou 	c #50392B",
"pu 	c #4D3729",
"qu 	c #4C3629",
"ru 	c #4D392E",
"su 	c #4C382D",
"tu 	c #48362C",
"uu 	c #46352B",
"vu 	c #48372D",
"wu 	c #49352C",
"xu 	c #49352A",
"yu 	c #4B3329",
"zu 	c #4C3126",
"Au 	c #4B2F24",
"Bu 	c #4A2C21",
"Cu 	c #472D20",
"Du 	c #372A19",
"Eu 	c #342716",
"Fu 	c #352A18",
"Gu 	c #392E1C",
"Hu 	c #3B301E",
"Iu 	c #372F1C",
"Ju 	c #38301D",
"Ku 	c #37301D",
"Lu 	c #382D1B",
"Mu 	c #3A2D1D",
"Nu 	c #3A2E1E",
"Ou 	c #3B2F1F",
"Pu 	c #393021",
"Qu 	c #3B2F21",
"Ru 	c #3D3125",
"Su 	c #392D21",
"Tu 	c #382C20",
"Uu 	c #3A2E22",
"Vu 	c #39281E",
"Wu 	c #3E2721",
"Xu 	c #3E2520",
"Yu 	c #3C231E",
"Zu 	c #39221C",
"`u 	c #35221B",
" v 	c #34231B",
".v 	c #36281D",
"+v 	c #37291E",
"@v 	c #3B2A20",
"#v 	c #433127",
"$v 	c #47332A",
"%v 	c #4F2E27",
"&v 	c #522D24",
"*v 	c #542C22",
"=v 	c #582921",
"-v 	c #5D261F",
";v 	c #61201A",
">v 	c #691E19",
",v 	c #711917",
"'v 	c #771313",
")v 	c #811316",
"!v 	c #8E171B",
"~v 	c #981B1F",
"{v 	c #9C1B20",
"]v 	c #EE1100",
"^v 	c #F41202",
"/v 	c #F41101",
"(v 	c #F40E00",
"_v 	c #F50F02",
":v 	c #F10900",
"<v 	c #F30B00",
"[v 	c #F30C02",
"}v 	c #F20E03",
"|v 	c #F81109",
"1v 	c #F80F08",
"2v 	c #F50E08",
"3v 	c #DC1706",
"4v 	c #CC1801",
"5v 	c #CC1902",
"6v 	c #D21E05",
"7v 	c #D11D02",
"8v 	c #D21E03",
"9v 	c #D22004",
"0v 	c #CD2405",
"av 	c #C62101",
"bv 	c #C72000",
"cv 	c #C92000",
"dv 	c #CD2000",
"ev 	c #D32002",
"fv 	c #DA1E03",
"gv 	c #DF1D04",
"hv 	c #E21A03",
"iv 	c #E31601",
"jv 	c #E61302",
"kv 	c #EC1208",
"lv 	c #F1100A",
"mv 	c #F30E09",
"nv 	c #EF0601",
"ov 	c #E01003",
"pv 	c #DB1002",
"qv 	c #D90E00",
"rv 	c #D70C00",
"sv 	c #E01004",
"tv 	c #DF0700",
"uv 	c #CF0501",
"vv 	c #CE1713",
"wv 	c #BB1C16",
"xv 	c #830400",
"yv 	c #5C0800",
"zv 	c #440A00",
"Av 	c #3F1008",
"Bv 	c #39170E",
"Cv 	c #2B140E",
"Dv 	c #211811",
"Ev 	c #200C03",
"Fv 	c #1E0C08",
"Gv 	c #1B0D0A",
"Hv 	c #1C0F09",
"Iv 	c #140D05",
"Jv 	c #2E1B17",
"Kv 	c #45312A",
"Lv 	c #4A312C",
"Mv 	c #30150C",
"Nv 	c #2C0F07",
"Ov 	c #391B11",
"Pv 	c #56160D",
"Qv 	c #6B1812",
"Rv 	c #781510",
"Sv 	c #8F221B",
"Tv 	c #AC372D",
"Uv 	c #AE382A",
"Vv 	c #A42917",
"Wv 	c #A6230F",
"Xv 	c #AE1F0E",
"Yv 	c #BC1C0C",
"Zv 	c #C41D0D",
"`v 	c #B61A03",
" w 	c #BE1C07",
".w 	c #C21D09",
"+w 	c #C31E0A",
"@w 	c #C11C08",
"#w 	c #C11604",
"$w 	c #C21302",
"%w 	c #DC160D",
"&w 	c #DA0904",
"*w 	c #D91306",
"=w 	c #DC1206",
"-w 	c #DC0C02",
";w 	c #E50304",
">w 	c #F40A09",
",w 	c #FA0C0C",
"'w 	c #FA0A0B",
")w 	c #EE040D",
"!w 	c #EA0911",
"~w 	c #E31017",
"{w 	c #DA151C",
"]w 	c #CC191C",
"^w 	c #BE1A19",
"/w 	c #AE1913",
"(w 	c #A01B16",
"_w 	c #8A1A16",
":w 	c #7C1F1A",
"<w 	c #75221A",
"[w 	c #6C261C",
"}w 	c #652B1D",
"|w 	c #5E3020",
"1w 	c #5A3523",
"2w 	c #573826",
"3w 	c #553828",
"4w 	c #55352A",
"5w 	c #4F3127",
"6w 	c #4E3026",
"7w 	c #4F322A",
"8w 	c #50352C",
"9w 	c #4F372B",
"0w 	c #4C362B",
"aw 	c #4B372C",
"bw 	c #4D3930",
"cw 	c #4B392F",
"dw 	c #44332B",
"ew 	c #45342C",
"fw 	c #463428",
"gw 	c #453126",
"hw 	c #40281C",
"iw 	c #3C2517",
"jw 	c #382214",
"kw 	c #372717",
"lw 	c #312614",
"mw 	c #2F2412",
"nw 	c #322715",
"ow 	c #372C1A",
"pw 	c #39311E",
"qw 	c #362F1C",
"rw 	c #352E1B",
"sw 	c #342B1A",
"tw 	c #372B1B",
"uw 	c #382C1C",
"vw 	c #362D1C",
"ww 	c #352C1B",
"xw 	c #342B1C",
"yw 	c #332A1B",
"zw 	c #372E1F",
"Aw 	c #382E22",
"Bw 	c #342C1F",
"Cw 	c #383023",
"Dw 	c #3A281E",
"Ew 	c #3B291F",
"Fw 	c #392B20",
"Gw 	c #362C20",
"Hw 	c #372D21",
"Iw 	c #30261A",
"Jw 	c #2D2113",
"Kw 	c #392B1E",
"Lw 	c #423127",
"Mw 	c #443427",
"Nw 	c #453128",
"Ow 	c #4D302A",
"Pw 	c #4F2E29",
"Qw 	c #4B2D25",
"Rw 	c #492C24",
"Sw 	c #482D22",
"Tw 	c #4C3024",
"Uw 	c #503025",
"Vw 	c #592A20",
"Ww 	c #5F1F16",
"Xw 	c #651A15",
"Yw 	c #721817",
"Zw 	c #ED0E00",
"`w 	c #F00E00",
" x 	c #F20F00",
".x 	c #F61001",
"+x 	c #F40C00",
"@x 	c #F40D03",
"#x 	c #F60F05",
"$x 	c #F80F0A",
"%x 	c #F5100A",
"&x 	c #F1120A",
"*x 	c #E61407",
"=x 	c #DF1405",
"-x 	c #D11200",
";x 	c #CF1500",
">x 	c #D21F08",
",x 	c #D21F01",
"'x 	c #D22002",
")x 	c #D12203",
"!x 	c #CD2302",
"~x 	c #CB2201",
"{x 	c #C91F00",
"]x 	c #D02104",
"^x 	c #D31F04",
"/x 	c #DA1E05",
"(x 	c #DE1B05",
"_x 	c #E11804",
":x 	c #E61403",
"<x 	c #E61101",
"[x 	c #EA0E02",
"}x 	c #E10B01",
"|x 	c #DF0C01",
"1x 	c #DD0D01",
"2x 	c #D90900",
"3x 	c #DB0D00",
"4x 	c #DC0C00",
"5x 	c #E00B05",
"6x 	c #DB0C02",
"7x 	c #D90C07",
"8x 	c #D31A17",
"9x 	c #BD1A15",
"0x 	c #900D05",
"ax 	c #5F0600",
"bx 	c #3F0D06",
"cx 	c #3C170F",
"dx 	c #22130C",
"ex 	c #291E18",
"fx 	c #26130C",
"gx 	c #1E0701",
"hx 	c #1C0A06",
"ix 	c #2A1814",
"jx 	c #39261F",
"kx 	c #4C352F",
"lx 	c #34170F",
"mx 	c #38130A",
"nx 	c #401107",
"ox 	c #51160E",
"px 	c #5F140E",
"qx 	c #761D19",
"rx 	c #7D1A15",
"sx 	c #8B231A",
"tx 	c #A73B2E",
"ux 	c #982715",
"vx 	c #A12412",
"wx 	c #B32815",
"xx 	c #C3190A",
"yx 	c #C81D0C",
"zx 	c #B41600",
"Ax 	c #C31401",
"Bx 	c #CE1002",
"Cx 	c #DC160B",
"Dx 	c #DF0C05",
"Ex 	c #DF0901",
"Fx 	c #F80C0C",
"Gx 	c #FC0E0C",
"Hx 	c #FB0B0A",
"Ix 	c #FE0606",
"Jx 	c #FE0604",
"Kx 	c #EC050B",
"Lx 	c #E90911",
"Mx 	c #E70E17",
"Nx 	c #DE1118",
"Ox 	c #D01319",
"Px 	c #BF1518",
"Qx 	c #9E1412",
"Rx 	c #90150E",
"Sx 	c #801711",
"Tx 	c #75221C",
"Ux 	c #6C2923",
"Vx 	c #672E25",
"Wx 	c #4E3425",
"Xx 	c #4A3726",
"Yx 	c #4A3929",
"Zx 	c #4B3A2A",
"`x 	c #4C392B",
" y 	c #51352A",
".y 	c #4E362C",
"+y 	c #4E352E",
"@y 	c #4C352D",
"#y 	c #49352E",
"$y 	c #47342D",
"%y 	c #46352D",
"&y 	c #433228",
"*y 	c #372517",
"=y 	c #332212",
"-y 	c #301F0D",
";y 	c #2D1C0C",
">y 	c #312413",
",y 	c #342717",
"'y 	c #382B1B",
")y 	c #392D1D",
"!y 	c #372E1D",
"~y 	c #332A19",
"{y 	c #302716",
"]y 	c #322918",
"^y 	c #362D1E",
"/y 	c #352C1D",
"(y 	c #2E2717",
"_y 	c #282111",
":y 	c #20180B",
"<y 	c #292114",
"[y 	c #393325",
"}y 	c #383226",
"|y 	c #342E22",
"1y 	c #302A1E",
"2y 	c #30281B",
"3y 	c #382C1E",
"4y 	c #332719",
"5y 	c #2F2315",
"6y 	c #2F2617",
"7y 	c #382F20",
"8y 	c #302718",
"9y 	c #312515",
"0y 	c #332518",
"ay 	c #38281B",
"by 	c #3A2A1B",
"cy 	c #402A1F",
"dy 	c #442721",
"ey 	c #442520",
"fy 	c #44271F",
"gy 	c #422F21",
"hy 	c #423022",
"iy 	c #413020",
"jy 	c #45301F",
"ky 	c #4C3221",
"ly 	c #523223",
"my 	c #542D1E",
"ny 	c #57271B",
"oy 	c #5A2418",
"py 	c #5C2016",
"qy 	c #5B1C13",
"ry 	c #F01301",
"sy 	c #F01100",
"ty 	c #F10F00",
"uy 	c #F31000",
"vy 	c #F61003",
"wy 	c #F60E02",
"xy 	c #F50D03",
"yy 	c #F60E04",
"zy 	c #FA1208",
"Ay 	c #FA1309",
"By 	c #F91009",
"Cy 	c #E61005",
"Dy 	c #E11104",
"Ey 	c #D31401",
"Fy 	c #D21501",
"Gy 	c #CF1601",
"Hy 	c #D42103",
"Iy 	c #D01E00",
"Jy 	c #CD1E00",
"Ky 	c #CC1D00",
"Ly 	c #CD1B00",
"My 	c #D31E03",
"Ny 	c #DE1A04",
"Oy 	c #E71504",
"Py 	c #E91102",
"Qy 	c #E70904",
"Ry 	c #DE0B00",
"Sy 	c #DC0900",
"Ty 	c #E10F00",
"Uy 	c #E30E00",
"Vy 	c #D61915",
"Wy 	c #C11A14",
"Xy 	c #950E08",
"Yy 	c #630600",
"Zy 	c #4D0A02",
"`y 	c #410C06",
" z 	c #3C150E",
".z 	c #341B16",
"+z 	c #24130C",
"@z 	c #220E05",
"#z 	c #1A0804",
"$z 	c #1A110A",
"%z 	c #24120E",
"&z 	c #301D16",
"*z 	c #452E28",
"=z 	c #3B2319",
"-z 	c #301409",
";z 	c #37150B",
">z 	c #3F1509",
",z 	c #4B150B",
"'z 	c #520F09",
")z 	c #661713",
"!z 	c #721915",
"~z 	c #84251F",
"{z 	c #9D3B30",
"]z 	c #92281A",
"^z 	c #901B09",
"/z 	c #B32C19",
"(z 	c #BE2110",
"_z 	c #C51603",
":z 	c #C81705",
"<z 	c #CB1102",
"[z 	c #D40E03",
"}z 	c #E01109",
"|z 	c #E10705",
"1z 	c #DD0E06",
"2z 	c #DE0E04",
"3z 	c #E00D02",
"4z 	c #E20C02",
"5z 	c #E30A01",
"6z 	c #F60806",
"7z 	c #F80807",
"8z 	c #FD0B0A",
"9z 	c #F50100",
"0z 	c #FA0606",
"az 	c #F20203",
"bz 	c #EF0508",
"cz 	c #EC0A0C",
"dz 	c #E80D11",
"ez 	c #E20F15",
"fz 	c #DC1117",
"gz 	c #D11219",
"hz 	c #C51218",
"iz 	c #B20F14",
"jz 	c #9E0E0E",
"kz 	c #8D100E",
"lz 	c #81140F",
"mz 	c #7B1A11",
"nz 	c #732018",
"oz 	c #692822",
"pz 	c #612F28",
"qz 	c #5D322B",
"rz 	c #57352B",
"sz 	c #473728",
"tz 	c #453929",
"uz 	c #443B2C",
"vz 	c #463A2C",
"wz 	c #49392C",
"xz 	c #4F342B",
"yz 	c #50322A",
"zz 	c #4F342D",
"Az 	c #4C332C",
"Bz 	c #4B342E",
"Cz 	c #48342D",
"Dz 	c #402D26",
"Ez 	c #362619",
"Fz 	c #312316",
"Gz 	c #322514",
"Hz 	c #352817",
"Iz 	c #372A17",
"Jz 	c #392C1B",
"Kz 	c #392C1C",
"Lz 	c #3B2E1E",
"Mz 	c #362A1A",
"Nz 	c #312817",
"Oz 	c #2A2313",
"Pz 	c #241C0F",
"Qz 	c #2B2316",
"Rz 	c #332D1F",
"Sz 	c #2F2B1F",
"Tz 	c #2C281C",
"Uz 	c #2B271B",
"Vz 	c #2D2719",
"Wz 	c #302919",
"Xz 	c #302917",
"Yz 	c #312A18",
"Zz 	c #332C1A",
"`z 	c #332C19",
" A 	c #312916",
".A 	c #322616",
"+A 	c #332615",
"@A 	c #352516",
"#A 	c #352515",
"$A 	c #382618",
"%A 	c #392818",
"&A 	c #3D271A",
"*A 	c #3D251B",
"=A 	c #3C261B",
"-A 	c #40311E",
";A 	c #43311D",
">A 	c #452B1A",
",A 	c #482718",
"'A 	c #4C2619",
")A 	c #512518",
"!A 	c #512218",
"~A 	c #EE1504",
"{A 	c #F11404",
"]A 	c #F11203",
"^A 	c #F41003",
"/A 	c #F91107",
"(A 	c #FC1209",
"_A 	c #FB1108",
":A 	c #FF150E",
"<A 	c #FD140D",
"[A 	c #FC120B",
"}A 	c #E31104",
"|A 	c #D51402",
"1A 	c #D41703",
"2A 	c #D71E09",
"3A 	c #DA220A",
"4A 	c #D92409",
"5A 	c #D62305",
"6A 	c #D42005",
"7A 	c #D01B00",
"8A 	c #D21A00",
"9A 	c #D51900",
"0A 	c #DA1A03",
"aA 	c #E71305",
"bA 	c #EA1004",
"cA 	c #EE0E04",
"dA 	c #ED0707",
"eA 	c #DE0E02",
"fA 	c #DF0D00",
"gA 	c #DE0C00",
"hA 	c #DB0E00",
"iA 	c #E00B03",
"jA 	c #E01101",
"kA 	c #DA1816",
"lA 	c #C71B17",
"mA 	c #9E130E",
"nA 	c #660500",
"oA 	c #4D0600",
"pA 	c #430905",
"qA 	c #40150F",
"rA 	c #361915",
"sA 	c #26130D",
"tA 	c #281109",
"uA 	c #190602",
"vA 	c #191009",
"wA 	c #160D06",
"xA 	c #26150D",
"yA 	c #37231C",
"zA 	c #473126",
"AA 	c #381D14",
"BA 	c #2F1308",
"CA 	c #3B1508",
"DA 	c #431307",
"EA 	c #4A0E06",
"FA 	c #6A1A19",
"GA 	c #792421",
"HA 	c #883026",
"IA 	c #7F1F11",
"JA 	c #871805",
"KA 	c #B3301C",
"LA 	c #C32814",
"MA 	c #C41907",
"NA 	c #C51402",
"OA 	c #CF1A09",
"PA 	c #CD0F01",
"QA 	c #E20D05",
"RA 	c #E00A02",
"SA 	c #D90D02",
"TA 	c #E40A01",
"UA 	c #EF0401",
"VA 	c #F00200",
"WA 	c #F10200",
"XA 	c #FC0A08",
"YA 	c #F40201",
"ZA 	c #F5040A",
"`A 	c #F00309",
" B 	c #EB060B",
".B 	c #E31517",
"+B 	c #DC181A",
"@B 	c #CE1618",
"#B 	c #C01315",
"$B 	c #AF0F11",
"%B 	c #A10F10",
"&B 	c #900E0E",
"*B 	c #810E0B",
"=B 	c #74130D",
"-B 	c #6E1912",
";B 	c #6B2219",
">B 	c #682920",
",B 	c #652B27",
"'B 	c #602F2B",
")B 	c #5B322C",
"!B 	c #54362E",
"~B 	c #4D372C",
"{B 	c #46382D",
"]B 	c #43392D",
"^B 	c #443A2E",
"/B 	c #45392D",
"(B 	c #49372B",
"_B 	c #483628",
":B 	c #493628",
"<B 	c #512E28",
"[B 	c #502F28",
"}B 	c #4F302B",
"|B 	c #4E312B",
"1B 	c #4C312A",
"2B 	c #48312B",
"3B 	c #38271D",
"4B 	c #342619",
"5B 	c #322618",
"6B 	c #3E3321",
"7B 	c #3F2F22",
"8B 	c #403023",
"9B 	c #3C2C1F",
"0B 	c #37291C",
"aB 	c #362A1C",
"bB 	c #372B1D",
"cB 	c #332C1C",
"dB 	c #322B1B",
"eB 	c #312A1A",
"fB 	c #312819",
"gB 	c #2F2519",
"hB 	c #2E2418",
"iB 	c #2C2216",
"jB 	c #31291E",
"kB 	c #30281D",
"lB 	c #2D271B",
"mB 	c #2C261A",
"nB 	c #2C291A",
"oB 	c #2E2916",
"pB 	c #312C18",
"qB 	c #342F1B",
"rB 	c #302916",
"sB 	c #312914",
"tB 	c #342917",
"uB 	c #332613",
"vB 	c #342414",
"wB 	c #352412",
"xB 	c #352213",
"yB 	c #352211",
"zB 	c #392413",
"AB 	c #372415",
"BB 	c #352315",
"CB 	c #322515",
"DB 	c #322D1A",
"EB 	c #332E1B",
"FB 	c #312F1A",
"GB 	c #322D19",
"HB 	c #342D1A",
"IB 	c #3D2C1A",
"JB 	c #3D2616",
"KB 	c #402315",
"LB 	c #482418",
"MB 	c #4C2418",
"NB 	c #4E231A",
"OB 	c #ED1604",
"PB 	c #F31103",
"QB 	c #F30F04",
"RB 	c #FB1309",
"SB 	c #FE140B",
"TB 	c #FD130C",
"UB 	c #FF130D",
"VB 	c #FE110B",
"WB 	c #FB0E08",
"XB 	c #E90F05",
"YB 	c #EA1409",
"ZB 	c #E71508",
"`B 	c #E21406",
" C 	c #DC1B09",
".C 	c #DC220B",
"+C 	c #D82308",
"@C 	c #D52106",
"#C 	c #D61C03",
"$C 	c #E01504",
"%C 	c #E91104",
"&C 	c #DA0F00",
"*C 	c #D80F00",
"=C 	c #E11401",
"-C 	c #E51000",
";C 	c #ED0F04",
">C 	c #E10D09",
",C 	c #DB1814",
"'C 	c #CB1C17",
")C 	c #690300",
"!C 	c #4D0200",
"~C 	c #460906",
"{C 	c #461612",
"]C 	c #391A17",
"^C 	c #2A1510",
"/C 	c #2C150D",
"(C 	c #170400",
"_C 	c #180906",
":C 	c #1C0C0C",
"<C 	c #1B120B",
"[C 	c #170C08",
"}C 	c #24130B",
"|C 	c #311308",
"1C 	c #361204",
"2C 	c #3F1306",
"3C 	c #581816",
"4C 	c #621C1C",
"5C 	c #6B201D",
"6C 	c #6D1E17",
"7C 	c #6A1103",
"8C 	c #912614",
"9C 	c #B63520",
"0C 	c #C12612",
"aC 	c #CB1802",
"bC 	c #CE1803",
"cC 	c #D41B09",
"dC 	c #D51A0B",
"eC 	c #D20E02",
"fC 	c #DD1309",
"gC 	c #E50F07",
"hC 	c #E20904",
"iC 	c #DC0D03",
"jC 	c #EE0602",
"kC 	c #E90C15",
"lC 	c #E51219",
"mC 	c #E0191E",
"nC 	c #D51E20",
"oC 	c #C41C1C",
"pC 	c #AE1414",
"qC 	c #9B0F0E",
"rC 	c #8B0B0A",
"sC 	c #82110D",
"tC 	c #791611",
"uC 	c #741D16",
"vC 	c #6C231C",
"wC 	c #67281F",
"xC 	c #612D22",
"yC 	c #5F2F25",
"zC 	c #5E2E2A",
"AC 	c #5D302D",
"BC 	c #58332D",
"CC 	c #52352F",
"DC 	c #4C382F",
"EC 	c #47392E",
"FC 	c #45382F",
"GC 	c #44372E",
"HC 	c #45372C",
"IC 	c #47362C",
"JC 	c #47372A",
"KC 	c #463627",
"LC 	c #443726",
"MC 	c #433826",
"NC 	c #473626",
"OC 	c #4F2E25",
"PC 	c #4C2F27",
"QC 	c #4A2F28",
"RC 	c #472E27",
"SC 	c #452E26",
"TC 	c #402C23",
"UC 	c #3E2D23",
"VC 	c #3D2F22",
"WC 	c #3C3322",
"XC 	c #3A321F",
"YC 	c #352F19",
"ZC 	c #332B18",
"`C 	c #372A1A",
" D 	c #3B2B1E",
".D 	c #36281B",
"+D 	c #32291A",
"@D 	c #302416",
"#D 	c #312519",
"$D 	c #33271B",
"%D 	c #32261A",
"&D 	c #34281C",
"*D 	c #33291F",
"=D 	c #322C20",
"-D 	c #322C1C",
";D 	c #352E1C",
">D 	c #342D1B",
",D 	c #312A17",
"'D 	c #2F2714",
")D 	c #302513",
"!D 	c #302010",
"~D 	c #30210E",
"{D 	c #31200E",
"]D 	c #321F0E",
"^D 	c #33200F",
"/D 	c #362110",
"(D 	c #342112",
"_D 	c #2F2313",
":D 	c #2C2513",
"<D 	c #2B2613",
"[D 	c #2B2815",
"}D 	c #2E2B18",
"|D 	c #2E2D19",
"1D 	c #2D2A17",
"2D 	c #3B2B1B",
"3D 	c #3B2517",
"4D 	c #3D2115",
"5D 	c #412116",
"6D 	c #E71403",
"7D 	c #EC1405",
"8D 	c #F01406",
"9D 	c #F11105",
"0D 	c #F20F06",
"aD 	c #F60F07",
"bD 	c #FA110A",
"cD 	c #FC0E0B",
"dD 	c #FB0D0A",
"eD 	c #FC0D0A",
"fD 	c #F10C06",
"gD 	c #EB1308",
"hD 	c #E51709",
"iD 	c #E21A0A",
"jD 	c #E11C0B",
"kD 	c #DD1F09",
"lD 	c #D21D02",
"mD 	c #D11F03",
"nD 	c #D91F06",
"oD 	c #DD1805",
"pD 	c #DE1302",
"qD 	c #DE1406",
"rD 	c #E41407",
"sD 	c #E31507",
"tD 	c #DA1100",
"uD 	c #DB1200",
"vD 	c #D81302",
"wD 	c #D71200",
"xD 	c #E21502",
"yD 	c #EF1106",
"zD 	c #DC1613",
"AD 	c #CE1C18",
"BD 	c #AE1A16",
"CD 	c #6C0300",
"DD 	c #4D0000",
"ED 	c #480806",
"FD 	c #4A1915",
"GD 	c #3D1B19",
"HD 	c #301814",
"ID 	c #25130F",
"JD 	c #170803",
"KD 	c #2D1912",
"LD 	c #301710",
"MD 	c #29100B",
"ND 	c #190401",
"OD 	c #1F140E",
"PD 	c #120701",
"QD 	c #20150F",
"RD 	c #271813",
"SD 	c #452F24",
"TD 	c #422A20",
"UD 	c #3B2015",
"VD 	c #301408",
"WD 	c #311200",
"XD 	c #3A1505",
"YD 	c #47160F",
"ZD 	c #4F1513",
"`D 	c #561819",
" E 	c #5C1B19",
".E 	c #5B140E",
"+E 	c #631105",
"@E 	c #A23B2A",
"#E 	c #B73923",
"$E 	c #B8200B",
"%E 	c #CD1A04",
"&E 	c #D81F0D",
"*E 	c #CF0D01",
"=E 	c #D20C01",
"-E 	c #DF1308",
";E 	c #E41005",
">E 	c #E80D07",
",E 	c #E00D04",
"'E 	c #E60901",
")E 	c #EE0501",
"!E 	c #EB0205",
"~E 	c #E8121C",
"{E 	c #E01721",
"]E 	c #D61B22",
"^E 	c #C91C20",
"/E 	c #B41C1B",
"(E 	c #89140D",
"_E 	c #7A130C",
":E 	c #70160E",
"<E 	c #6C1C13",
"[E 	c #69231B",
"}E 	c #672B21",
"|E 	c #623025",
"1E 	c #5D3327",
"2E 	c #583428",
"3E 	c #573229",
"4E 	c #58312C",
"5E 	c #58302E",
"6E 	c #54332E",
"7E 	c #50352E",
"8E 	c #4B372E",
"9E 	c #493830",
"0E 	c #46382F",
"aE 	c #47362E",
"bE 	c #47352B",
"cE 	c #473328",
"dE 	c #473426",
"eE 	c #453525",
"fE 	c #433623",
"gE 	c #413620",
"hE 	c #443520",
"iE 	c #4C3223",
"jE 	c #4E3025",
"kE 	c #492E23",
"lE 	c #423026",
"mE 	c #413026",
"nE 	c #3F3325",
"oE 	c #39301F",
"pE 	c #35291D",
"qE 	c #362A1E",
"rE 	c #342A1E",
"sE 	c #332B1E",
"tE 	c #302418",
"uE 	c #322419",
"vE 	c #32241B",
"wE 	c #34261D",
"xE 	c #35281F",
"yE 	c #372A21",
"zE 	c #362C22",
"AE 	c #352D22",
"BE 	c #33291D",
"CE 	c #2D2415",
"DE 	c #2C2012",
"EE 	c #2B1F0F",
"FE 	c #2A1E0E",
"GE 	c #291C0C",
"HE 	c #281B0B",
"IE 	c #2B1B0C",
"JE 	c #2B1B0B",
"KE 	c #2C1C0C",
"LE 	c #2F1E0E",
"ME 	c #301F0F",
"NE 	c #321F10",
"OE 	c #312111",
"PE 	c #2B2515",
"QE 	c #292615",
"RE 	c #2B2817",
"SE 	c #2D2A19",
"TE 	c #2E2B1A",
"UE 	c #2F2919",
"VE 	c #2F2818",
"WE 	c #372416",
"XE 	c #371F13",
"YE 	c #381C11",
"ZE 	c #37190F",
"`E 	c #35140B",
" F 	c #ED1508",
".F 	c #F11308",
"+F 	c #F9100B",
"@F 	c #FA0C09",
"#F 	c #E81408",
"$F 	c #CE1800",
"%F 	c #CE1C00",
"&F 	c #DA1D07",
"*F 	c #E20E00",
"=F 	c #E40A00",
"-F 	c #ED0709",
";F 	c #E6110D",
">F 	c #E11709",
",F 	c #E21708",
"'F 	c #DF1403",
")F 	c #DA1703",
"!F 	c #D91602",
"~F 	c #E11701",
"{F 	c #E61300",
"]F 	c #F01205",
"^F 	c #EE0F07",
"/F 	c #DB1411",
"(F 	c #D01D18",
"_F 	c #B31E1A",
":F 	c #730704",
"<F 	c #4E0000",
"[F 	c #4B0706",
"}F 	c #4E1816",
"|F 	c #3E1B19",
"1F 	c #361D19",
"2F 	c #2C1915",
"3F 	c #190703",
"4F 	c #2D1610",
"5F 	c #2E120E",
"6F 	c #1E0604",
"7F 	c #1B0706",
"8F 	c #1C0A0A",
"9F 	c #221711",
"0F 	c #2D1C14",
"aF 	c #24110A",
"bF 	c #342015",
"cF 	c #371B0F",
"dF 	c #331604",
"eF 	c #391505",
"fF 	c #41140E",
"gF 	c #3E0B0A",
"hF 	c #491112",
"iF 	c #541818",
"jF 	c #54130D",
"kF 	c #6B1D11",
"lF 	c #A5422F",
"mF 	c #B63923",
"nF 	c #D31E09",
"oF 	c #CC1702",
"pF 	c #C51901",
"qF 	c #CE1B04",
"rF 	c #CE0C00",
"sF 	c #E21309",
"tF 	c #E40E04",
"uF 	c #E50B02",
"vF 	c #F30000",
"wF 	c #FA0701",
"xF 	c #FB0A03",
"yF 	c #FC0B04",
"zF 	c #E90407",
"AF 	c #E90709",
"BF 	c #E40D12",
"CF 	c #DE1923",
"DF 	c #D01A26",
"EF 	c #BE191F",
"FF 	c #A91416",
"GF 	c #8F1210",
"HF 	c #7C130D",
"IF 	c #6F180E",
"JF 	c #671F13",
"KF 	c #66281B",
"LF 	c #5F2B1E",
"MF 	c #5C2E21",
"NF 	c #573124",
"OF 	c #543226",
"PF 	c #513328",
"QF 	c #4D3628",
"RF 	c #4F3429",
"SF 	c #51322D",
"TF 	c #4A3730",
"UF 	c #48372F",
"VF 	c #46332C",
"WF 	c #483129",
"XF 	c #493127",
"YF 	c #4B3025",
"ZF 	c #493224",
"`F 	c #45331F",
" G 	c #43341D",
".G 	c #44341D",
"+G 	c #483320",
"@G 	c #493222",
"#G 	c #483121",
"$G 	c #463022",
"%G 	c #452F21",
"&G 	c #3E2C20",
"*G 	c #412F23",
"=G 	c #382A1D",
"-G 	c #352B1F",
";G 	c #322A1D",
">G 	c #34281A",
",G 	c #312318",
"'G 	c #301F17",
")G 	c #33221A",
"!G 	c #36251D",
"~G 	c #372920",
"{G 	c #32251C",
"]G 	c #31241B",
"^G 	c #2D1F16",
"/G 	c #23150A",
"(G 	c #221409",
"_G 	c #29190C",
":G 	c #2A1A0D",
"<G 	c #2B1E0E",
"[G 	c #2D2010",
"}G 	c #2E2110",
"|G 	c #2B2414",
"1G 	c #2C2417",
"2G 	c #2E2619",
"3G 	c #2E2516",
"4G 	c #2C180F",
"5G 	c #260F07",
"6G 	c #DE1100",
"7G 	c #EB1608",
"8G 	c #F11509",
"9G 	c #F3130B",
"0G 	c #F40F09",
"aG 	c #FB0707",
"bG 	c #E81005",
"cG 	c #E71307",
"dG 	c #E01B0A",
"eG 	c #D11B03",
"fG 	c #D11F05",
"gG 	c #D41E06",
"hG 	c #E01906",
"iG 	c #E21205",
"jG 	c #E80800",
"kG 	c #E1190A",
"lG 	c #E21706",
"mG 	c #E2180A",
"nG 	c #DE1909",
"oG 	c #E11902",
"pG 	c #E71401",
"qG 	c #F11306",
"rG 	c #F01008",
"sG 	c #DB110F",
"tG 	c #D11B17",
"uG 	c #B61E1B",
"vG 	c #7E0E0C",
"wG 	c #530000",
"xG 	c #4B0505",
"yG 	c #4C1413",
"zG 	c #3C1615",
"AG 	c #3A1E1B",
"BG 	c #34211D",
"CG 	c #231009",
"DG 	c #31160F",
"EG 	c #301410",
"FG 	c #1B0909",
"GG 	c #1A0F0B",
"HG 	c #2C1B13",
"IG 	c #251106",
"JG 	c #382217",
"KG 	c #43291C",
"LG 	c #391E0B",
"MG 	c #381706",
"NG 	c #3C110A",
"OG 	c #360403",
"PG 	c #441012",
"QG 	c #521A1B",
"RG 	c #4E110C",
"SG 	c #6B2116",
"TG 	c #943322",
"UG 	c #B33922",
"VG 	c #BD250E",
"WG 	c #CE1A03",
"XG 	c #D51E0C",
"YG 	c #E40C01",
"ZG 	c #E80E02",
"`G 	c #DE0901",
" H 	c #E40B02",
".H 	c #F90600",
"+H 	c #FB0800",
"@H 	c #EB0B0C",
"#H 	c #E8090C",
"$H 	c #DD0C12",
"%H 	c #C8101A",
"&H 	c #B2101B",
"*H 	c #9F0E13",
"=H 	c #8C0E0F",
"-H 	c #7A130E",
";H 	c #6A1A0F",
">H 	c #612314",
",H 	c #582919",
"'H 	c #583321",
")H 	c #543523",
"!H 	c #4F3524",
"~H 	c #4B3527",
"{H 	c #493729",
"]H 	c #43352A",
"^H 	c #43372B",
"/H 	c #4B3029",
"(H 	c #4C2E26",
"_H 	c #4E2E23",
":H 	c #4E2E21",
"<H 	c #4C2F1D",
"[H 	c #4A2F1A",
"}H 	c #473119",
"|H 	c #463219",
"1H 	c #43331C",
"2H 	c #43321E",
"3H 	c #433220",
"4H 	c #423121",
"5H 	c #412F21",
"6H 	c #362E21",
"7H 	c #322C1E",
"8H 	c #302A1C",
"9H 	c #2D2A1B",
"0H 	c #2F291B",
"aH 	c #352319",
"bH 	c #332019",
"cH 	c #34211A",
"dH 	c #2E2017",
"eH 	c #2A1B14",
"fH 	c #261710",
"gH 	c #271410",
"hH 	c #27140E",
"iH 	c #25140D",
"jH 	c #28170F",
"kH 	c #2A1C11",
"lH 	c #2B1F11",
"mH 	c #2A2112",
"nH 	c #2B2213",
"oH 	c #2B2211",
"pH 	c #2A2311",
"qH 	c #2D2111",
"rH 	c #2E1D13",
"sH 	c #2F1E16",
"tH 	c #2B1D12",
"uH 	c #281C10",
"vH 	c #2B1E15",
"wH 	c #2A2016",
"xH 	c #251D12",
"yH 	c #221A0F",
"zH 	c #20180D",
"AH 	c #DD1000",
"BH 	c #E31404",
"CH 	c #EB1709",
"DH 	c #F1170D",
"EH 	c #F5150D",
"FH 	c #FE0A0C",
"GH 	c #E91C0B",
"HH 	c #DF1F0A",
"IH 	c #DD200A",
"JH 	c #DF1C0A",
"KH 	c #F30306",
"LH 	c #DF170A",
"MH 	c #E11607",
"NH 	c #DF1604",
"OH 	c #DF1C06",
"PH 	c #E41B0B",
"QH 	c #E31B0C",
"RH 	c #DF1B0B",
"SH 	c #DD1D08",
"TH 	c #DD1D06",
"UH 	c #E41601",
"VH 	c #EE1506",
"WH 	c #DB100C",
"XH 	c #D51816",
"YH 	c #8B1110",
"ZH 	c #5A0000",
"`H 	c #4D0300",
" I 	c #49120F",
".I 	c #391310",
"+I 	c #3B1F1C",
"@I 	c #3A2522",
"#I 	c #26110E",
"$I 	c #250D09",
"%I 	c #2A110C",
"&I 	c #30150E",
"*I 	c #311511",
"=I 	c #2B120E",
"-I 	c #260C0B",
";I 	c #200808",
">I 	c #1C0706",
",I 	c #1F0C08",
"'I 	c #200E0A",
")I 	c #210F0B",
"!I 	c #21120B",
"~I 	c #1D0900",
"{I 	c #311B10",
"]I 	c #4C3527",
"^I 	c #3C2211",
"/I 	c #361909",
"(I 	c #39140B",
"_I 	c #330704",
":I 	c #461616",
"<I 	c #541E1E",
"[I 	c #480D07",
"}I 	c #631A11",
"|I 	c #7F2213",
"1I 	c #AE3927",
"2I 	c #C02F1C",
"3I 	c #C31400",
"4I 	c #C71200",
"5I 	c #D51B0C",
"6I 	c #D01003",
"7I 	c #DE1408",
"8I 	c #E20800",
"9I 	c #E80901",
"0I 	c #E00700",
"aI 	c #F70000",
"bI 	c #FA0500",
"cI 	c #FB0C07",
"dI 	c #E60807",
"eI 	c #E6100E",
"fI 	c #E41414",
"gI 	c #DC1212",
"hI 	c #C90F12",
"iI 	c #A4070E",
"jI 	c #920911",
"kI 	c #830B0D",
"lI 	c #791110",
"mI 	c #6D1D16",
"nI 	c #642619",
"oI 	c #562B1A",
"pI 	c #4C2D19",
"qI 	c #48331E",
"rI 	c #473622",
"sI 	c #483926",
"tI 	c #493C2B",
"uI 	c #4C3C2C",
"vI 	c #4B3B2C",
"wI 	c #49392A",
"xI 	c #46382B",
"yI 	c #44382A",
"zI 	c #403728",
"AI 	c #3F3627",
"BI 	c #40362A",
"CI 	c #42382C",
"DI 	c #443027",
"EI 	c #4A2F26",
"FI 	c #4C2E24",
"GI 	c #4D2D20",
"HI 	c #4D2E1C",
"II 	c #4B2F1A",
"JI 	c #4A3019",
"KI 	c #412F19",
"LI 	c #40311C",
"MI 	c #41321D",
"NI 	c #433222",
"OI 	c #433123",
"PI 	c #423223",
"QI 	c #3F2F20",
"RI 	c #3C2E21",
"SI 	c #352919",
"TI 	c #352D20",
"UI 	c #342E20",
"VI 	c #2E281A",
"WI 	c #281912",
"XI 	c #2F1C18",
"YI 	c #2B1915",
"ZI 	c #2C1D16",
"`I 	c #30211A",
" J 	c #2C1E15",
".J 	c #2C1F16",
"+J 	c #2B2115",
"@J 	c #292313",
"#J 	c #2D1C12",
"$J 	c #2E1A13",
"%J 	c #2D1A13",
"&J 	c #261910",
"*J 	c #211A10",
"=J 	c #1D190D",
"-J 	c #201C11",
";J 	c #201E11",
">J 	c #1F1D11",
",J 	c #EF170C",
"'J 	c #EB0001",
")J 	c #FA0E0E",
"!J 	c #F90B0B",
"~J 	c #F00000",
"{J 	c #F10300",
"]J 	c #EF0400",
"^J 	c #ED0400",
"/J 	c #EA0600",
"(J 	c #EA0700",
"_J 	c #ED0D03",
":J 	c #F21407",
"<J 	c #F3190D",
"[J 	c #F11C0E",
"}J 	c #F01E0F",
"|J 	c #EB1D0F",
"1J 	c #D6150C",
"2J 	c #E51312",
"3J 	c #EB0F0F",
"4J 	c #EE080B",
"5J 	c #F40105",
"6J 	c #E8130D",
"7J 	c #E8150E",
"8J 	c #E2110C",
"9J 	c #E3120B",
"0J 	c #E4140A",
"aJ 	c #E51509",
"bJ 	c #E31807",
"cJ 	c #DF1B05",
"dJ 	c #D91505",
"eJ 	c #DA1606",
"fJ 	c #E11E08",
"gJ 	c #E31903",
"hJ 	c #EC1D0B",
"iJ 	c #EB190C",
"jJ 	c #DD0D0B",
"kJ 	c #DF1515",
"lJ 	c #CE1A1B",
"mJ 	c #9C110E",
"nJ 	c #690000",
"oJ 	c #4F0000",
"pJ 	c #470E05",
"qJ 	c #38160D",
"rJ 	c #371E19",
"sJ 	c #3D2521",
"tJ 	c #361C1B",
"uJ 	c #240604",
"vJ 	c #2B0C0A",
"wJ 	c #331612",
"xJ 	c #311514",
"yJ 	c #290B0D",
"zJ 	c #210406",
"AJ 	c #220807",
"BJ 	c #240C0A",
"CJ 	c #220D0A",
"DJ 	c #210C09",
"EJ 	c #26130F",
"FJ 	c #2F1D19",
"GJ 	c #2D1E1B",
"HJ 	c #2C1E1D",
"IJ 	c #150603",
"JJ 	c #110101",
"KJ 	c #1B100C",
"LJ 	c #1A1007",
"MJ 	c #26140A",
"NJ 	c #2A1409",
"OJ 	c #392117",
"PJ 	c #472F23",
"QJ 	c #43301F",
"RJ 	c #341F0C",
"SJ 	c #2E1204",
"TJ 	c #421711",
"UJ 	c #48130F",
"VJ 	c #541510",
"WJ 	c #641913",
"XJ 	c #751B12",
"YJ 	c #912217",
"ZJ 	c #B53325",
"`J 	c #C12E1E",
" K 	c #BF1C0B",
".K 	c #D7210C",
"+K 	c #CB1100",
"@K 	c #EF0E0A",
"#K 	c #E50A06",
"$K 	c #EA0F0B",
"%K 	c #DF120D",
"&K 	c #D51814",
"*K 	c #D3211D",
"=K 	c #BF1A14",
"-K 	c #9A0604",
";K 	c #820709",
">K 	c #780F13",
",K 	c #751717",
"'K 	c #6B1C17",
")K 	c #5F2017",
"!K 	c #562618",
"~K 	c #4F2E1D",
"{K 	c #4B3621",
"]K 	c #493A25",
"^K 	c #463B25",
"/K 	c #443C27",
"(K 	c #453A28",
"_K 	c #443727",
":K 	c #423626",
"<K 	c #403424",
"[K 	c #3F3327",
"}K 	c #423429",
"|K 	c #45342A",
"1K 	c #483225",
"2K 	c #493325",
"3K 	c #452E1E",
"4K 	c #422B19",
"5K 	c #46301B",
"6K 	c #48341C",
"7K 	c #412C19",
"8K 	c #4E3928",
"9K 	c #473221",
"0K 	c #433021",
"aK 	c #453223",
"bK 	c #3B291B",
"cK 	c #433326",
"dK 	c #3B2D20",
"eK 	c #3C3324",
"fK 	c #3D3425",
"gK 	c #352E1E",
"hK 	c #383121",
"iK 	c #312414",
"jK 	c #302215",
"kK 	c #2F2114",
"lK 	c #33251C",
"mK 	c #31231A",
"nK 	c #21140C",
"oK 	c #2F221C",
"pK 	c #32251F",
"qK 	c #31241C",
"rK 	c #2E2119",
"sK 	c #2C1F17",
"tK 	c #2A1D15",
"uK 	c #2A1D14",
"vK 	c #2C2218",
"wK 	c #2D2319",
"xK 	c #282013",
"yK 	c #271D11",
"zK 	c #281A0F",
"AK 	c #271B0F",
"BK 	c #21170B",
"CK 	c #21190C",
"DK 	c #201A0C",
"EK 	c #211B0F",
"FK 	c #211B0D",
"GK 	c #ED1309",
"HK 	c #F2060A",
"IK 	c #F00D04",
"JK 	c #F41206",
"KK 	c #F6160C",
"LK 	c #F31309",
"MK 	c #F0130A",
"NK 	c #E01107",
"OK 	c #D8190F",
"PK 	c #CE160C",
"QK 	c #C60F07",
"RK 	c #C60E06",
"SK 	c #CF0F0A",
"TK 	c #D9120F",
"UK 	c #E30F0E",
"VK 	c #EA0A0B",
"WK 	c #E81409",
"XK 	c #E6160C",
"YK 	c #E6170F",
"ZK 	c #E7160F",
"`K 	c #E8150C",
" L 	c #E11605",
".L 	c #DE1702",
"+L 	c #DB1806",
"@L 	c #DB1603",
"#L 	c #EA230C",
"$L 	c #E61C04",
"%L 	c #E81B06",
"&L 	c #E71808",
"*L 	c #E61113",
"=L 	c #D71619",
"-L 	c #A50D0C",
";L 	c #700000",
">L 	c #550100",
",L 	c #4A1005",
"'L 	c #36140A",
")L 	c #321912",
"!L 	c #3C231F",
"~L 	c #412323",
"{L 	c #2E0C0B",
"]L 	c #311410",
"^L 	c #351916",
"/L 	c #2B090A",
"(L 	c #250B0A",
"_L 	c #250D0B",
":L 	c #25100D",
"<L 	c #2A1713",
"[L 	c #2D1B17",
"}L 	c #1C0E0B",
"|L 	c #200E0E",
"1L 	c #170505",
"2L 	c #130101",
"3L 	c #1B0B0B",
"4L 	c #140605",
"5L 	c #110302",
"6L 	c #190C04",
"7L 	c #231208",
"8L 	c #27130A",
"9L 	c #281207",
"0L 	c #321A10",
"aL 	c #3B2518",
"bL 	c #321B0B",
"cL 	c #38180D",
"dL 	c #3C140C",
"eL 	c #420F0B",
"fL 	c #5F1610",
"gL 	c #6D1511",
"hL 	c #841F17",
"iL 	c #A63026",
"jL 	c #BB3325",
"kL 	c #C02717",
"lL 	c #C81F0C",
"mL 	c #D41608",
"nL 	c #CC1102",
"oL 	c #D21205",
"pL 	c #F80809",
"qL 	c #F50C08",
"rL 	c #E70707",
"sL 	c #EF090B",
"tL 	c #F80100",
"uL 	c #EF110C",
"vL 	c #E91915",
"wL 	c #D51812",
"xL 	c #BB1009",
"yL 	c #AA1008",
"zL 	c #9A1006",
"AL 	c #810800",
"BL 	c #741511",
"CL 	c #6E1E1D",
"DL 	c #6E2721",
"EL 	c #662A22",
"FL 	c #483723",
"GL 	c #423721",
"HL 	c #413B23",
"IL 	c #423C26",
"JL 	c #433B26",
"KL 	c #453827",
"LL 	c #4A3426",
"ML 	c #493627",
"NL 	c #483828",
"OL 	c #443927",
"PL 	c #433626",
"QL 	c #423427",
"RL 	c #443329",
"SL 	c #443226",
"TL 	c #3F2E1E",
"UL 	c #402E1A",
"VL 	c #493721",
"WL 	c #553E2C",
"XL 	c #4D3626",
"YL 	c #442D1D",
"ZL 	c #3C291A",
"`L 	c #3A2C1F",
" M 	c #3A3122",
".M 	c #292011",
"+M 	c #372718",
"@M 	c #271A11",
"#M 	c #23160E",
"$M 	c #2A1F19",
"%M 	c #2B201A",
"&M 	c #2A2017",
"*M 	c #2E241A",
"=M 	c #291F15",
"-M 	c #251B0F",
";M 	c #23190D",
">M 	c #221A0D",
",M 	c #F5100B",
"'M 	c #F00F0D",
")M 	c #F60C0B",
"!M 	c #F50A07",
"~M 	c #DE150B",
"{M 	c #D9180F",
"]M 	c #BD0200",
"^M 	c #BE0300",
"/M 	c #C80702",
"(M 	c #E10D0A",
"_M 	c #FB0601",
":M 	c #F50B02",
"<M 	c #EA160B",
"[M 	c #E8180C",
"}M 	c #E7180E",
"|M 	c #E8180E",
"1M 	c #E7190C",
"2M 	c #E4190A",
"3M 	c #E21907",
"4M 	c #E41702",
"5M 	c #E51604",
"6M 	c #E61906",
"7M 	c #E61B0C",
"8M 	c #E61D0D",
"9M 	c #DF1501",
"0M 	c #ED230D",
"aM 	c #E51700",
"bM 	c #E81703",
"cM 	c #ED190B",
"dM 	c #D71315",
"eM 	c #AD1210",
"fM 	c #7A0300",
"gM 	c #5C0300",
"hM 	c #4C1006",
"iM 	c #361109",
"jM 	c #2C100C",
"kM 	c #391D1A",
"lM 	c #482A2A",
"mM 	c #341211",
"nM 	c #2C0808",
"oM 	c #2A0B08",
"pM 	c #361913",
"qM 	c #3C211A",
"rM 	c #300E0D",
"sM 	c #2F0B0B",
"tM 	c #280A08",
"uM 	c #260A07",
"vM 	c #260D09",
"wM 	c #270F0B",
"xM 	c #25100B",
"yM 	c #25120C",
"zM 	c #261412",
"AM 	c #1A0A0A",
"BM 	c #130303",
"CM 	c #0F0100",
"DM 	c #180B03",
"EM 	c #170A02",
"FM 	c #180A01",
"GM 	c #200F05",
"HM 	c #2A1208",
"IM 	c #2E180B",
"JM 	c #392617",
"KM 	c #392214",
"LM 	c #39180F",
"MM 	c #39100A",
"NM 	c #3E0D08",
"OM 	c #490F0B",
"PM 	c #55120C",
"QM 	c #5F1009",
"RM 	c #761911",
"SM 	c #932419",
"TM 	c #AF3021",
"UM 	c #C23120",
"VM 	c #C32210",
"WM 	c #D51A09",
"XM 	c #D71909",
"YM 	c #D81205",
"ZM 	c #DE1003",
"`M 	c #F80A08",
" N 	c #F60B08",
".N 	c #F50D09",
"+N 	c #F10C09",
"@N 	c #ED0906",
"#N 	c #FF0808",
"$N 	c #F00100",
"%N 	c #DE0F09",
"&N 	c #D71611",
"*N 	c #C3150E",
"=N 	c #A40A02",
"-N 	c #910600",
";N 	c #850A02",
">N 	c #730B02",
",N 	c #63140F",
"'N 	c #632A21",
")N 	c #563023",
"!N 	c #4E3322",
"~N 	c #4D3825",
"{N 	c #4C3D2A",
"]N 	c #413622",
"^N 	c #423A25",
"/N 	c #453D28",
"(N 	c #483D29",
"_N 	c #4A3A2A",
":N 	c #4B3829",
"<N 	c #4C3628",
"[N 	c #463626",
"}N 	c #453828",
"|N 	c #463629",
"1N 	c #423024",
"2N 	c #483622",
"3N 	c #4B3923",
"4N 	c #4A3822",
"5N 	c #4E3926",
"6N 	c #3D2719",
"7N 	c #3F2D1F",
"8N 	c #403021",
"9N 	c #382819",
"0N 	c #3A2E20",
"aN 	c #3B2F23",
"bN 	c #2F2212",
"cN 	c #2E2216",
"dN 	c #281B12",
"eN 	c #24170E",
"fN 	c #20160D",
"gN 	c #2D221C",
"hN 	c #2C211B",
"iN 	c #271C16",
"jN 	c #281E15",
"kN 	c #2F251B",
"lN 	c #251B11",
"mN 	c #23190F",
"nN 	c #22180E",
"oN 	c #25190D",
"pN 	c #1E1609",
"qN 	c #1D1508",
"rN 	c #F10907",
"sN 	c #EF0B08",
"tN 	c #F2110D",
"uN 	c #F6110C",
"vN 	c #F60E0A",
"wN 	c #EF0100",
"xN 	c #DE140A",
"yN 	c #C80700",
"zN 	c #B90000",
"AN 	c #BE0000",
"BN 	c #C90400",
"CN 	c #D60904",
"DN 	c #EA0A08",
"EN 	c #EF0705",
"FN 	c #FA0900",
"GN 	c #EF1509",
"HN 	c #E8180B",
"IN 	c #E6180A",
"JN 	c #E01204",
"KN 	c #E51A09",
"LN 	c #E41D08",
"MN 	c #E21E06",
"NN 	c #E51D06",
"ON 	c #E91603",
"PN 	c #EB1402",
"QN 	c #E91605",
"RN 	c #EA180B",
"SN 	c #E91B0D",
"TN 	c #E61B0D",
"UN 	c #DF1200",
"VN 	c #E10E00",
"WN 	c #EB1604",
"XN 	c #F92011",
"YN 	c #F3190F",
"ZN 	c #EC0E09",
"`N 	c #D90E11",
" O 	c #BB1B1B",
".O 	c #870B09",
"+O 	c #620500",
"@O 	c #4F0F06",
"#O 	c #2A0D09",
"$O 	c #492B2B",
"%O 	c #3F1B1B",
"&O 	c #2D0A08",
"*O 	c #250601",
"=O 	c #331610",
"-O 	c #3C1F19",
";O 	c #361712",
">O 	c #320F0D",
",O 	c #36100F",
"'O 	c #2B0C09",
")O 	c #250804",
"!O 	c #2A110D",
"~O 	c #2B1A13",
"{O 	c #22110A",
"]O 	c #291713",
"^O 	c #2D1918",
"/O 	c #1C0A08",
"(O 	c #150505",
"_O 	c #1A0D05",
":O 	c #1C0B01",
"<O 	c #231107",
"[O 	c #270F05",
"}O 	c #321F11",
"|O 	c #382215",
"1O 	c #3E110C",
"2O 	c #45120E",
"3O 	c #4C0F0A",
"4O 	c #540E06",
"5O 	c #68160B",
"6O 	c #7A1509",
"7O 	c #942011",
"8O 	c #BA3222",
"9O 	c #C42D1C",
"0O 	c #D31C0A",
"aO 	c #DA1C0C",
"bO 	c #D71708",
"cO 	c #F10C07",
"dO 	c #E8130B",
"eO 	c #C90904",
"fO 	c #B70A03",
"gO 	c #A80E06",
"hO 	c #930D04",
"iO 	c #840D05",
"jO 	c #7A1209",
"kO 	c #68140A",
"lO 	c #591F14",
"mO 	c #53271E",
"nO 	c #552D23",
"oO 	c #553327",
"pO 	c #533729",
"qO 	c #503B2A",
"rO 	c #4E3D2B",
"sO 	c #4B3E2B",
"tO 	c #443925",
"uO 	c #4B402C",
"vO 	c #50412E",
"wO 	c #503D2E",
"xO 	c #503A2C",
"yO 	c #4E3729",
"zO 	c #413423",
"AO 	c #453528",
"BO 	c #433125",
"CO 	c #483524",
"DO 	c #4A3824",
"EO 	c #463420",
"FO 	c #3A2716",
"GO 	c #3E281A",
"HO 	c #422F20",
"IO 	c #473425",
"JO 	c #39291A",
"KO 	c #3F3124",
"LO 	c #372B1F",
"MO 	c #413529",
"NO 	c #413829",
"OO 	c #1A1102",
"PO 	c #1D1405",
"QO 	c #271E0F",
"RO 	c #2E2013",
"SO 	c #2C1E13",
"TO 	c #291D11",
"UO 	c #271A12",
"VO 	c #30251F",
"WO 	c #2B2118",
"XO 	c #2C2219",
"YO 	c #21170D",
"ZO 	c #20160C",
"`O 	c #1F170A",
" P 	c #1C1407",
".P 	c #EF0A07",
"+P 	c #EF150B",
"@P 	c #F5160F",
"#P 	c #F5120B",
"$P 	c #E90901",
"%P 	c #E90F06",
"&P 	c #C20000",
"*P 	c #C90200",
"=P 	c #D20701",
"-P 	c #DD0C07",
";P 	c #F70F03",
">P 	c #F41408",
",P 	c #F11809",
"'P 	c #EC180A",
")P 	c #E61707",
"!P 	c #E41706",
"~P 	c #DD0E00",
"{P 	c #DF1000",
"]P 	c #E41704",
"^P 	c #E51B05",
"/P 	c #E51E07",
"(P 	c #E31F05",
"_P 	c #E71D05",
":P 	c #EA0B00",
"<P 	c #E50C00",
"[P 	c #E30D02",
"}P 	c #DA0B00",
"|P 	c #E21100",
"1P 	c #E30F00",
"2P 	c #F51A07",
"3P 	c #FE2111",
"4P 	c #F5150B",
"5P 	c #DD0C0F",
"6P 	c #C51F1F",
"7P 	c #910F0F",
"8P 	c #660300",
"9P 	c #4E0902",
"0P 	c #2F100D",
"aP 	c #361816",
"bP 	c #4A2A2B",
"cP 	c #4D2929",
"dP 	c #371412",
"eP 	c #2B0A05",
"fP 	c #34160E",
"gP 	c #3E2018",
"hP 	c #3C1B16",
"iP 	c #3B1311",
"jP 	c #3E1614",
"kP 	c #300F0A",
"lP 	c #250802",
"mP 	c #240701",
"nP 	c #2B0F0B",
"oP 	c #2F160F",
"pP 	c #200D06",
"qP 	c #1E0D06",
"rP 	c #28150F",
"sP 	c #2F1A17",
"tP 	c #29140F",
"uP 	c #24110D",
"vP 	c #150802",
"wP 	c #1E1109",
"xP 	c #230F06",
"yP 	c #250E06",
"zP 	c #270E07",
"AP 	c #31190F",
"BP 	c #351A11",
"CP 	c #38150F",
"DP 	c #3D1611",
"EP 	c #431611",
"FP 	c #45130C",
"GP 	c #5B1209",
"HP 	c #600900",
"IP 	c #760E01",
"JP 	c #A72D1E",
"KP 	c #C53C2C",
"LP 	c #C42E1F",
"MP 	c #C52211",
"NP 	c #D21D08",
"OP 	c #D81F0B",
"PP 	c #DB1E0B",
"QP 	c #DA1908",
"RP 	c #DD1909",
"SP 	c #DD1A08",
"TP 	c #FF0806",
"UP 	c #E3140C",
"VP 	c #CF1810",
"WP 	c #B60D06",
"XP 	c #A30C05",
"YP 	c #940F08",
"ZP 	c #811008",
"`P 	c #75170D",
" Q 	c #622419",
".Q 	c #5E382B",
"+Q 	c #53392C",
"@Q 	c #513B2D",
"#Q 	c #524131",
"$Q 	c #524232",
"%Q 	c #4C3F2E",
"&Q 	c #483B2A",
"*Q 	c #483D2B",
"=Q 	c #504030",
"-Q 	c #523C2E",
";Q 	c #503627",
">Q 	c #473727",
",Q 	c #4B3827",
"'Q 	c #493625",
")Q 	c #412F1B",
"!Q 	c #3D2A1B",
"~Q 	c #463325",
"{Q 	c #3E2E1F",
"]Q 	c #3E3224",
"^Q 	c #392D1F",
"/Q 	c #32281C",
"(Q 	c #191001",
"_Q 	c #2C2314",
":Q 	c #403426",
"<Q 	c #201205",
"[Q 	c #24180C",
"}Q 	c #291C13",
"|Q 	c #271D14",
"1Q 	c #21170E",
"2Q 	c #22180C",
"3Q 	c #ED0C08",
"4Q 	c #EE1108",
"5Q 	c #F20401",
"6Q 	c #F50B0A",
"7Q 	c #E70400",
"8Q 	c #DA0A06",
"9Q 	c #D40702",
"0Q 	c #F70900",
"aQ 	c #F60C01",
"bQ 	c #F71306",
"cQ 	c #F61909",
"dQ 	c #F21A0B",
"eQ 	c #EC1908",
"fQ 	c #E41100",
"gQ 	c #E91802",
"hQ 	c #E91B04",
"iQ 	c #E61D03",
"jQ 	c #E51D03",
"kQ 	c #E81A02",
"lQ 	c #ED0B00",
"mQ 	c #E71806",
"nQ 	c #EC1803",
"oQ 	c #F91E0B",
"pQ 	c #FA1B0C",
"qQ 	c #EB0600",
"rQ 	c #E10D0C",
"sQ 	c #CC1E20",
"tQ 	c #9D1313",
"uQ 	c #6A0100",
"vQ 	c #4F0400",
"wQ 	c #44130E",
"xQ 	c #381614",
"yQ 	c #3A1B19",
"zQ 	c #49292A",
"AQ 	c #563232",
"BQ 	c #3F1C1A",
"CQ 	c #2F0E09",
"DQ 	c #391B13",
"EQ 	c #3C1913",
"FQ 	c #3E1511",
"GQ 	c #3F1614",
"HQ 	c #320F09",
"IQ 	c #280904",
"JQ 	c #2A0D07",
"KQ 	c #2D140D",
"LQ 	c #1F0B04",
"MQ 	c #28130E",
"NQ 	c #2E1914",
"OQ 	c #2F1A15",
"PQ 	c #22100C",
"QQ 	c #1F120A",
"RQ 	c #1F0D03",
"SQ 	c #210D04",
"TQ 	c #271008",
"UQ 	c #281006",
"VQ 	c #2D1209",
"WQ 	c #32150D",
"XQ 	c #381712",
"YQ 	c #3A1713",
"ZQ 	c #3E1712",
"`Q 	c #431812",
" R 	c #421009",
".R 	c #4D1107",
"+R 	c #510700",
"@R 	c #600600",
"#R 	c #8C2013",
"$R 	c #B53B2C",
"%R 	c #C43C2E",
"&R 	c #C63021",
"*R 	c #C8210E",
"=R 	c #D21F0B",
"-R 	c #D81B08",
";R 	c #D91807",
">R 	c #E01808",
",R 	c #E31A0A",
"'R 	c #E11808",
")R 	c #D3140C",
"!R 	c #C5120B",
"~R 	c #AD0A01",
"{R 	c #A00B04",
"]R 	c #94140B",
"^R 	c #86170E",
"/R 	c #70160D",
"(R 	c #6B2118",
"_R 	c #6E3228",
":R 	c #673B30",
"<R 	c #533C2E",
"[R 	c #4B3B2E",
"}R 	c #493B2E",
"|R 	c #4C3E31",
"1R 	c #504434",
"2R 	c #514535",
"3R 	c #4E4131",
"4R 	c #4D3D2D",
"5R 	c #4E3E2E",
"6R 	c #503F2F",
"7R 	c #4F392B",
"8R 	c #4C3525",
"9R 	c #4F3C2D",
"0R 	c #4A3A2B",
"aR 	c #423225",
"bR 	c #453424",
"cR 	c #463322",
"dR 	c #3F2C1B",
"eR 	c #453325",
"fR 	c #473527",
"gR 	c #413122",
"hR 	c #443629",
"iR 	c #291F13",
"jR 	c #190F03",
"kR 	c #0F0600",
"lR 	c #201708",
"mR 	c #3E3526",
"nR 	c #2E2214",
"oR 	c #231709",
"pR 	c #231508",
"qR 	c #2F221A",
"rR 	c #2F241E",
"sR 	c #1E140B",
"tR 	c #1C1209",
"uR 	c #1F150C",
"vR 	c #241A10",
"wR 	c #281E14",
"xR 	c #20160A",
"yR 	c #E31009",
"zR 	c #E40B06",
"AR 	c #E70906",
"BR 	c #E41203",
"CR 	c #E90D01",
"DR 	c #E80806",
"ER 	c #E70D0C",
"FR 	c #E50B0A",
"GR 	c #E20806",
"HR 	c #F51104",
"IR 	c #F71809",
"JR 	c #F81C0C",
"KR 	c #F31E0C",
"LR 	c #EE1B08",
"MR 	c #E81502",
"NR 	c #E61100",
"OR 	c #E91200",
"PR 	c #EC1300",
"QR 	c #EF1603",
"RR 	c #F21A05",
"SR 	c #F21B06",
"TR 	c #EF1D04",
"UR 	c #ED1D03",
"VR 	c #EE1A04",
"WR 	c #F31403",
"XR 	c #ED170C",
"YR 	c #E6180B",
"ZR 	c #DA180C",
"`R 	c #D9190A",
" S 	c #E71E0C",
".S 	c #F01F0B",
"+S 	c #F9200D",
"@S 	c #EF0B00",
"#S 	c #F30C04",
"$S 	c #DF0907",
"%S 	c #D21B1F",
"&S 	c #AD181A",
"*S 	c #770504",
"=S 	c #520100",
"-S 	c #47120E",
";S 	c #3E1815",
">S 	c #462425",
",S 	c #5C3838",
"'S 	c #482523",
")S 	c #33120D",
"!S 	c #2D0F07",
"~S 	c #3F1310",
"{S 	c #340F07",
"]S 	c #2E0D06",
"^S 	c #280A02",
"/S 	c #290E05",
"(S 	c #2B1309",
"_S 	c #240D05",
":S 	c #260F09",
"<S 	c #2F1812",
"[S 	c #351E18",
"}S 	c #3A221E",
"|S 	c #2B1814",
"1S 	c #190A05",
"2S 	c #180904",
"3S 	c #2C130C",
"4S 	c #260D06",
"5S 	c #2B1009",
"6S 	c #381B17",
"7S 	c #361714",
"8S 	c #32100E",
"9S 	c #351311",
"0S 	c #411C16",
"aS 	c #421007",
"bS 	c #4A0E03",
"cS 	c #570B00",
"dS 	c #6A0E01",
"eS 	c #8D2316",
"fS 	c #AC362A",
"gS 	c #C0382A",
"hS 	c #CA2B18",
"iS 	c #D22310",
"jS 	c #D31E0D",
"kS 	c #E31809",
"lS 	c #E70F02",
"mS 	c #EB0F03",
"nS 	c #E0150E",
"oS 	c #D2130B",
"pS 	c #BD0F06",
"qS 	c #AD0C04",
"rS 	c #910100",
"sS 	c #8A0903",
"tS 	c #83160F",
"uS 	c #771D15",
"vS 	c #6A211A",
"wS 	c #6B3229",
"xS 	c #6B4037",
"yS 	c #5F4136",
"zS 	c #493D31",
"AS 	c #4F4337",
"BS 	c #524638",
"CS 	c #534538",
"DS 	c #524235",
"ES 	c #503E30",
"FS 	c #513E30",
"GS 	c #503D2F",
"HS 	c #4E3727",
"IS 	c #503929",
"JS 	c #4E3B2C",
"KS 	c #443224",
"LS 	c #493828",
"MS 	c #483526",
"NS 	c #423628",
"OS 	c #2A2014",
"PS 	c #1F1509",
"QS 	c #181003",
"RS 	c #281E12",
"SS 	c #3F3529",
"TS 	c #392F23",
"US 	c #31271B",
"VS 	c #3A3024",
"WS 	c #3C3226",
"XS 	c #1B0F03",
"YS 	c #1C0E01",
"ZS 	c #2D2115",
"`S 	c #2F2219",
" T 	c #2F251C",
".T 	c #2E241B",
"+T 	c #2A211C",
"@T 	c #29201B",
"#T 	c #281F1A",
"$T 	c #241B16",
"%T 	c #150C05",
"&T 	c #1C130C",
"*T 	c #21180F",
"=T 	c #221910",
"-T 	c #241C11",
";T 	c #271F14",
">T 	c #25180F",
",T 	c #23160D",
"'T 	c #1E160B",
")T 	c #EA0100",
"!T 	c #D20902",
"~T 	c #E0150F",
"{T 	c #DE110C",
"]T 	c #E41002",
"^T 	c #DE0F00",
"/T 	c #E10C00",
"(T 	c #E60D00",
"_T 	c #F50C05",
":T 	c #E30303",
"<T 	c #EE0A0B",
"[T 	c #EF0A0D",
"}T 	c #ED080B",
"|T 	c #F50700",
"1T 	c #FB0F02",
"2T 	c #F41506",
"3T 	c #F71B0B",
"4T 	c #F7200E",
"5T 	c #F5200E",
"6T 	c #EF1C09",
"7T 	c #EA1601",
"8T 	c #F21302",
"9T 	c #F81705",
"0T 	c #FB1A08",
"aT 	c #FA1D0A",
"bT 	c #F91E0A",
"cT 	c #F61E07",
"dT 	c #F51D08",
"eT 	c #F41808",
"fT 	c #F41C0F",
"gT 	c #EF2114",
"hT 	c #E72317",
"iT 	c #DA2315",
"jT 	c #D52113",
"kT 	c #D62213",
"lT 	c #D92212",
"mT 	c #DE1D0B",
"nT 	c #EB200F",
"oT 	c #F72210",
"pT 	c #F81B0B",
"qT 	c #FD160C",
"rT 	c #F8140B",
"sT 	c #DA1C1E",
"tT 	c #BC1D21",
"uT 	c #860C0B",
"vT 	c #4A0F0B",
"wT 	c #3D1412",
"xT 	c #391213",
"yT 	c #411D1F",
"zT 	c #653E3F",
"AT 	c #512E2C",
"BT 	c #3B1A15",
"CT 	c #3F1A12",
"DT 	c #451813",
"ET 	c #2D0C05",
"FT 	c #240600",
"GT 	c #240700",
"HT 	c #2A0F06",
"IT 	c #220B03",
"JT 	c #28110B",
"KT 	c #3D2620",
"LT 	c #311E18",
"MT 	c #150601",
"NT 	c #3C1F1B",
"OT 	c #341513",
"PT 	c #290A08",
"QT 	c #2E0F0C",
"RT 	c #3E1F1A",
"ST 	c #3B1812",
"TT 	c #49170C",
"UT 	c #521409",
"VT 	c #4E0200",
"WT 	c #630900",
"XT 	c #8E291D",
"YT 	c #B2382B",
"ZT 	c #CA3425",
"`T 	c #D12A18",
" U 	c #D12211",
".U 	c #DB1A0B",
"+U 	c #E7170A",
"@U 	c #E91507",
"#U 	c #EA1507",
"$U 	c #E80F00",
"%U 	c #EB0D00",
"&U 	c #F10D04",
"*U 	c #F30A03",
"=U 	c #EF0000",
"-U 	c #EF110E",
";U 	c #E81913",
">U 	c #D81911",
",U 	c #C3120C",
"'U 	c #AB0A02",
")U 	c #970700",
"!U 	c #8B0C05",
"~U 	c #7F1009",
"{U 	c #751813",
"]U 	c #6A1F19",
"^U 	c #662D26",
"/U 	c #604238",
"(U 	c #483B32",
"_U 	c #55473C",
":U 	c #5A4C41",
"<U 	c #59483E",
"[U 	c #544238",
"}U 	c #523E33",
"|U 	c #533D32",
"1U 	c #543E31",
"2U 	c #543C30",
"3U 	c #4E382A",
"4U 	c #4D3827",
"5U 	c #513C2B",
"6U 	c #543F2E",
"7U 	c #463324",
"8U 	c #402E20",
"9U 	c #443323",
"0U 	c #463525",
"aU 	c #443122",
"bU 	c #3A2C21",
"cU 	c #433528",
"dU 	c #4A3C31",
"eU 	c #413527",
"fU 	c #170F02",
"gU 	c #100800",
"hU 	c #191104",
"iU 	c #3D3327",
"jU 	c #1E1408",
"kU 	c #1D1307",
"lU 	c #2B1D10",
"mU 	c #2B1F13",
"nU 	c #33261D",
"oU 	c #352820",
"pU 	c #0D0400",
"qU 	c #231A11",
"rU 	c #22150C",
"sU 	c #21140B",
"tU 	c #1E140A",
"uU 	c #1D1309",
"vU 	c #1C1409",
"wU 	c #E5140D",
"xU 	c #D00B03",
"yU 	c #D51910",
"zU 	c #CA0F08",
"AU 	c #D81511",
"BU 	c #D80D09",
"CU 	c #E2110D",
"DU 	c #EC130E",
"EU 	c #F3140C",
"FU 	c #E90909",
"GU 	c #F00408",
"HU 	c #F1040A",
"IU 	c #F91002",
"JU 	c #F01404",
"KU 	c #F01907",
"LU 	c #EF1A08",
"MU 	c #ED1A05",
"NU 	c #EB1400",
"OU 	c #ED1000",
"PU 	c #FC1607",
"QU 	c #FF180A",
"RU 	c #FE1507",
"SU 	c #FA1405",
"TU 	c #FA1707",
"UU 	c #F51909",
"VU 	c #F92517",
"WU 	c #F12719",
"XU 	c #E7291B",
"YU 	c #D92719",
"ZU 	c #C62012",
"`U 	c #E01F0E",
" V 	c #EF2010",
".V 	c #F2190A",
"+V 	c #F8180C",
"@V 	c #FF1D12",
"#V 	c #FD1A11",
"$V 	c #E82124",
"%V 	c #CD2326",
"&V 	c #940E0F",
"*V 	c #610000",
"=V 	c #4C0B07",
"-V 	c #41110F",
";V 	c #381011",
">V 	c #3E171A",
",V 	c #532C2D",
"'V 	c #5D3A38",
")V 	c #4B2A25",
"!V 	c #42120E",
"~V 	c #290800",
"{V 	c #260A00",
"]V 	c #291107",
"^V 	c #230C04",
"/V 	c #220902",
"(V 	c #240B04",
"_V 	c #2A110A",
":V 	c #301913",
"<V 	c #311C17",
"[V 	c #170801",
"}V 	c #160300",
"|V 	c #130000",
"1V 	c #29120C",
"2V 	c #2C130E",
"3V 	c #2C0F0B",
"4V 	c #341614",
"5V 	c #4C2E2C",
"6V 	c #482A28",
"7V 	c #311311",
"8V 	c #280B07",
"9V 	c #3A1D17",
"0V 	c #350D03",
"aV 	c #410F04",
"bV 	c #470900",
"cV 	c #4D0500",
"dV 	c #69170B",
"eV 	c #942C1F",
"fV 	c #C84030",
"gV 	c #C82B1A",
"hV 	c #D42012",
"iV 	c #E02015",
"jV 	c #E51B11",
"kV 	c #E9150A",
"lV 	c #EF1307",
"mV 	c #EF0F05",
"nV 	c #EE0C00",
"oV 	c #F0100E",
"pV 	c #EC1814",
"qV 	c #C00D08",
"rV 	c #A90800",
"sV 	c #9C0C04",
"tV 	c #93140D",
"uV 	c #881814",
"vV 	c #7F201C",
"wV 	c #682924",
"xV 	c #5E3229",
"yV 	c #5B3A31",
"zV 	c #523C31",
"AV 	c #49372D",
"BV 	c #513D36",
"CV 	c #58443D",
"DV 	c #5E473F",
"EV 	c #5A433B",
"FV 	c #563D36",
"GV 	c #543B34",
"HV 	c #553A31",
"IV 	c #543930",
"JV 	c #54392E",
"KV 	c #563B30",
"LV 	c #523B2D",
"MV 	c #523F2E",
"NV 	c #463523",
"OV 	c #3C291B",
"PV 	c #412E1F",
"QV 	c #453224",
"RV 	c #3D3027",
"SV 	c #180E02",
"TV 	c #251D10",
"UV 	c #2D2317",
"VV 	c #261C10",
"WV 	c #2D2017",
"XV 	c #251C15",
"YV 	c #231917",
"ZV 	c #1D1311",
"`V 	c #261D14",
" W 	c #1C1208",
".W 	c #1B1308",
"+W 	c #1A1207",
"@W 	c #BE0700",
"#W 	c #C01209",
"$W 	c #B60902",
"%W 	c #B70902",
"&W 	c #C9130F",
"*W 	c #CE0E0B",
"=W 	c #DF1511",
"-W 	c #EF100B",
";W 	c #F2150C",
">W 	c #F21F0E",
",W 	c #EE200B",
"'W 	c #F01D0C",
")W 	c #F11C0C",
"!W 	c #F61A0E",
"~W 	c #F8180E",
"{W 	c #F8150E",
"]W 	c #F9110D",
"^W 	c #F9100C",
"/W 	c #EA0B0C",
"(W 	c #EC0400",
"_W 	c #F50109",
":W 	c #F7020A",
"<W 	c #F50208",
"[W 	c #F40103",
"}W 	c #F70A02",
"|W 	c #F60D00",
"1W 	c #EE1705",
"2W 	c #ED1806",
"3W 	c #EE1907",
"4W 	c #EE1B06",
"5W 	c #EF1B06",
"6W 	c #F21906",
"7W 	c #F51605",
"8W 	c #FB1204",
"9W 	c #FE1207",
"0W 	c #FB0F04",
"aW 	c #F90F04",
"bW 	c #FB1307",
"cW 	c #FA1609",
"dW 	c #F1170B",
"eW 	c #F02819",
"fW 	c #E62C1D",
"gW 	c #D92E1D",
"hW 	c #C32617",
"iW 	c #9B0F00",
"jW 	c #A11403",
"kW 	c #C92212",
"lW 	c #DC2515",
"mW 	c #EB2313",
"nW 	c #EF1A0C",
"oW 	c #F2160A",
"pW 	c #FA170E",
"qW 	c #F71914",
"rW 	c #ED1F21",
"sW 	c #DA2327",
"tW 	c #A11111",
"uW 	c #6B0000",
"vW 	c #500603",
"wW 	c #43100D",
"xW 	c #3E1213",
"yW 	c #411A1D",
"zW 	c #4D2627",
"AW 	c #5F3C3A",
"BW 	c #593833",
"CW 	c #3B1D15",
"DW 	c #2E0D04",
"EW 	c #350E07",
"FW 	c #3F0F0B",
"GW 	c #40100C",
"HW 	c #331108",
"IW 	c #2A0900",
"JW 	c #250700",
"KW 	c #250900",
"LW 	c #280D02",
"MW 	c #230A03",
"NW 	c #250C05",
"OW 	c #27100A",
"PW 	c #35221E",
"QW 	c #1B0E06",
"RW 	c #210E07",
"SW 	c #250C07",
"TW 	c #2A0C0A",
"UW 	c #301210",
"VW 	c #351715",
"WW 	c #331714",
"XW 	c #341814",
"YW 	c #2E1109",
"ZW 	c #311007",
"`W 	c #3C140A",
" X 	c #431106",
".X 	c #450B00",
"+X 	c #510F03",
"@X 	c #6C1609",
"#X 	c #A72F21",
"$X 	c #BE2F21",
"%X 	c #CC3024",
"&X 	c #D3281E",
"*X 	c #D81D14",
"=X 	c #DD160F",
"-X 	c #E7140D",
";X 	c #EF120A",
">X 	c #F11109",
",X 	c #F30F06",
"'X 	c #F40C02",
")X 	c #F80B03",
"!X 	c #FA0804",
"~X 	c #FA0703",
"{X 	c #ED120E",
"]X 	c #E81713",
"^X 	c #DE1913",
"/X 	c #CA1410",
"(X 	c #B00D06",
"_X 	c #9A0A02",
":X 	c #8E0F08",
"<X 	c #861710",
"[X 	c #7C1D17",
"}X 	c #6A2923",
"|X 	c #602E27",
"1X 	c #5D372E",
"2X 	c #5A3F34",
"3X 	c #534135",
"4X 	c #4D3B31",
"5X 	c #5A413A",
"6X 	c #61443E",
"7X 	c #62453F",
"8X 	c #5D3E39",
"9X 	c #593B33",
"0X 	c #583B33",
"aX 	c #563A2F",
"bX 	c #55392E",
"cX 	c #543D2F",
"dX 	c #4C3928",
"eX 	c #493826",
"fX 	c #433421",
"gX 	c #463426",
"hX 	c #34271E",
"iX 	c #271F12",
"jX 	c #2F271A",
"kX 	c #3A3225",
"lX 	c #1B1105",
"mX 	c #2E2118",
"nX 	c #322721",
"oX 	c #2B221B",
"pX 	c #1D140D",
"qX 	c #231A13",
"rX 	c #D8160C",
"sX 	c #CF1D11",
"tX 	c #AB0500",
"uX 	c #A80C00",
"vX 	c #A10700",
"wX 	c #A80903",
"xX 	c #BB140E",
"yX 	c #C10F0B",
"zX 	c #E61C18",
"AX 	c #EF160F",
"BX 	c #F31A11",
"CX 	c #F62415",
"DX 	c #F22311",
"EX 	c #EF200E",
"FX 	c #F01E0D",
"GX 	c #F01C0E",
"HX 	c #F01B0D",
"IX 	c #F1190E",
"JX 	c #F0160D",
"KX 	c #F2150D",
"LX 	c #E80D09",
"MX 	c #EC110F",
"NX 	c #EA100E",
"OX 	c #EA0C09",
"PX 	c #F60309",
"QX 	c #F8010A",
"RX 	c #F9040C",
"SX 	c #F70209",
"TX 	c #F41005",
"UX 	c #F51C0D",
"VX 	c #F01B0B",
"WX 	c #EF1C0B",
"XX 	c #F01B09",
"YX 	c #F31C0A",
"ZX 	c #FB1508",
"`X 	c #FC1207",
" Y 	c #FA0D05",
".Y 	c #F61209",
"+Y 	c #F4140C",
"@Y 	c #E8150A",
"#Y 	c #E22819",
"$Y 	c #CD2717",
"%Y 	c #B82211",
"&Y 	c #A21A0A",
"*Y 	c #8C1100",
"=Y 	c #820D00",
"-Y 	c #8A1100",
";Y 	c #9B1605",
">Y 	c #BD2615",
",Y 	c #D32817",
"'Y 	c #E72718",
")Y 	c #EF1F13",
"!Y 	c #F20F08",
"~Y 	c #F41510",
"{Y 	c #F0181B",
"]Y 	c #E32225",
"^Y 	c #B11717",
"/Y 	c #780200",
"(Y 	c #530400",
"_Y 	c #480E0C",
":Y 	c #421416",
"<Y 	c #421A1B",
"[Y 	c #40191A",
"}Y 	c #583533",
"|Y 	c #644540",
"1Y 	c #4E2F2A",
"2Y 	c #2E0903",
"3Y 	c #3B0E0B",
"4Y 	c #3A0D0A",
"5Y 	c #341209",
"6Y 	c #2C0B04",
"7Y 	c #260800",
"8Y 	c #250800",
"9Y 	c #260B02",
"0Y 	c #2D1813",
"aY 	c #36231D",
"bY 	c #37261F",
"cY 	c #2A1912",
"dY 	c #1C0D06",
"eY 	c #1B0A03",
"fY 	c #23100A",
"gY 	c #2C1913",
"hY 	c #1B0601",
"iY 	c #270E09",
"jY 	c #280C08",
"kY 	c #381917",
"lY 	c #391A18",
"mY 	c #3E201E",
"nY 	c #361A16",
"oY 	c #321710",
"pY 	c #31140C",
"qY 	c #3F190E",
"rY 	c #41150A",
"sY 	c #421005",
"tY 	c #4E0A00",
"uY 	c #7C160A",
"vY 	c #A62A1E",
"wY 	c #C43A30",
"xY 	c #C92F27",
"yY 	c #CA1B16",
"zY 	c #D3130E",
"AY 	c #E1110D",
"BY 	c #F50B04",
"CY 	c #F80B05",
"DY 	c #FA0B06",
"EY 	c #FB0905",
"FY 	c #E41712",
"GY 	c #C91611",
"HY 	c #B4110A",
"IY 	c #9D0F05",
"JY 	c #8C1006",
"KY 	c #82170F",
"LY 	c #7A1D16",
"MY 	c #71221D",
"NY 	c #6B2822",
"OY 	c #642D28",
"PY 	c #5F322C",
"QY 	c #5C3B32",
"RY 	c #5B4337",
"SY 	c #574539",
"TY 	c #544035",
"UY 	c #63453D",
"VY 	c #68433D",
"WY 	c #643F39",
"XY 	c #5C3933",
"YY 	c #5A382F",
"ZY 	c #5A3930",
"`Y 	c #593B31",
" Z 	c #563A2E",
".Z 	c #55392D",
"+Z 	c #553B2E",
"@Z 	c #553E30",
"#Z 	c #392A17",
"$Z 	c #3B2A1A",
"%Z 	c #4E382B",
"&Z 	c #473423",
"*Z 	c #443123",
"=Z 	c #3C2B21",
"-Z 	c #31221B",
";Z 	c #372A22",
">Z 	c #33261E",
",Z 	c #24170F",
"'Z 	c #2B2117",
")Z 	c #32281E",
"!Z 	c #372D23",
"~Z 	c #31271D",
"{Z 	c #352B21",
"]Z 	c #30261C",
"^Z 	c #332A23",
"/Z 	c #2F261F",
"(Z 	c #1F1812",
"_Z 	c #19110E",
":Z 	c #130B08",
"<Z 	c #201710",
"[Z 	c #231910",
"}Z 	c #20170E",
"|Z 	c #1E150C",
"1Z 	c #1C130A",
"2Z 	c #D92115",
"3Z 	c #CB2517",
"4Z 	c #9F0700",
"5Z 	c #990B00",
"6Z 	c #920800",
"7Z 	c #A1120A",
"8Z 	c #B11A13",
"9Z 	c #B6130E",
"0Z 	c #C91B14",
"aZ 	c #DC1F19",
"bZ 	c #DE1710",
"cZ 	c #EB1C14",
"dZ 	c #F22216",
"eZ 	c #F02514",
"fZ 	c #EE2410",
"gZ 	c #EB210D",
"hZ 	c #E91E0D",
"iZ 	c #E81D0E",
"jZ 	c #E71C0D",
"kZ 	c #E3140A",
"lZ 	c #EA1912",
"mZ 	c #EC1B14",
"nZ 	c #E91813",
"oZ 	c #F3160E",
"pZ 	c #F8130E",
"qZ 	c #F70F0D",
"rZ 	c #F8090C",
"sZ 	c #F7060C",
"tZ 	c #FA050D",
"uZ 	c #FA060E",
"vZ 	c #F5060B",
"wZ 	c #ED0304",
"xZ 	c #E80300",
"yZ 	c #F01408",
"zZ 	c #F92114",
"AZ 	c #F82011",
"BZ 	c #F52010",
"CZ 	c #F31E0E",
"DZ 	c #F21D0D",
"EZ 	c #F31B0C",
"FZ 	c #F61A0A",
"GZ 	c #FE1A0F",
"HZ 	c #F40D05",
"IZ 	c #F1130E",
"JZ 	c #CD2314",
"KZ 	c #910E00",
"LZ 	c #820F00",
"MZ 	c #7B1403",
"NZ 	c #791505",
"OZ 	c #781100",
"PZ 	c #7F0A00",
"QZ 	c #9D1102",
"RZ 	c #DE2217",
"SZ 	c #EE2219",
"TZ 	c #F20E0B",
"UZ 	c #E91C21",
"VZ 	c #C11D1C",
"WZ 	c #860907",
"XZ 	c #5A0200",
"YZ 	c #490C09",
"ZZ 	c #441213",
"`Z 	c #3D1315",
" ` 	c #350D0E",
".` 	c #462222",
"+` 	c #624340",
"@` 	c #60433D",
"#` 	c #300B05",
"$` 	c #3A150F",
"%` 	c #34130C",
"&` 	c #270A02",
"*` 	c #230B01",
"=` 	c #261209",
"-` 	c #241007",
";` 	c #250E08",
">` 	c #230E09",
",` 	c #291610",
"'` 	c #2F1E17",
")` 	c #25160F",
"!` 	c #1D1008",
"~` 	c #160700",
"{` 	c #1F0E07",
"]` 	c #2A1711",
"^` 	c #2A0E0A",
"/` 	c #2D0E0B",
"(` 	c #33110F",
"_` 	c #371313",
":` 	c #3F1D1C",
"<` 	c #3B1E1A",
"[` 	c #321409",
"}` 	c #3B190F",
"|` 	c #3D190D",
"1` 	c #441003",
"2` 	c #5D0B00",
"3` 	c #831B10",
"4` 	c #A42D25",
"5` 	c #B62B26",
"6` 	c #C11F1C",
"7` 	c #CD1714",
"8` 	c #F70A04",
"9` 	c #E40F07",
"0` 	c #D1160F",
"a` 	c #C2150E",
"b` 	c #B01209",
"c` 	c #9F1107",
"d` 	c #8F150A",
"e` 	c #7A2218",
"f` 	c #72281F",
"g` 	c #6A2B22",
"h` 	c #632E26",
"i` 	c #5F332A",
"j` 	c #5D382F",
"k` 	c #5D3F34",
"l` 	c #5D4539",
"m` 	c #584638",
"n` 	c #584235",
"o` 	c #624036",
"p` 	c #643E35",
"q` 	c #603A31",
"r` 	c #5A352C",
"s` 	c #583A2F",
"t` 	c #573B2F",
"u` 	c #4C392A",
"v` 	c #362515",
"w` 	c #372614",
"x` 	c #513B2E",
"y` 	c #523C2F",
"z` 	c #443120",
"A` 	c #412F25",
"B` 	c #3E2D25",
"C` 	c #3E2F28",
"D` 	c #3C2F29",
"E` 	c #362920",
"F` 	c #382E24",
"G` 	c #342A20",
"H` 	c #32281F",
"I` 	c #261D16",
"J` 	c #120A07",
"K` 	c #1E150E",
"L` 	c #22180F",
"M` 	c #1D140B",
"N` 	c #D42417",
"O` 	c #C3271A",
"P` 	c #930700",
"Q` 	c #8A0A00",
"R` 	c #830700",
"S` 	c #94150C",
"T` 	c #A41E15",
"U` 	c #AC1911",
"V` 	c #C1231A",
"W` 	c #D5291F",
"X` 	c #D61E14",
"Y` 	c #E12116",
"Z` 	c #E62214",
"`` 	c #EB2615",
"  .	c #E92411",
". .	c #E6230F",
"+ .	c #E3230E",
"@ .	c #E2240E",
"# .	c #E22511",
"$ .	c #E02611",
"% .	c #DF2510",
"& .	c #DA1F0C",
"* .	c #DC1E0E",
"= .	c #DF1F10",
"- .	c #E42314",
"; .	c #E52113",
"> .	c #E11B10",
", .	c #E2190F",
"' .	c #E5190E",
") .	c #F32114",
"! .	c #F51D12",
"~ .	c #F4170F",
"{ .	c #F30B0B",
"] .	c #F3070B",
"^ .	c #F7060D",
"/ .	c #FB0711",
"( .	c #F00008",
"_ .	c #F80811",
": .	c #F70E12",
"< .	c #ED1B0E",
"[ .	c #F81C10",
"} .	c #F61C10",
"| .	c #F21A0D",
"1 .	c #F0180B",
"2 .	c #EF1607",
"3 .	c #F6180D",
"4 .	c #EF1008",
"5 .	c #E90C04",
"6 .	c #E7130F",
"7 .	c #CD180F",
"8 .	c #B01709",
"9 .	c #941100",
"0 .	c #7D0D00",
"a .	c #731200",
"b .	c #6E1B09",
"c .	c #6D1C0B",
"d .	c #6B1403",
"e .	c #700800",
"f .	c #820000",
"g .	c #A70A01",
"h .	c #D11911",
"i .	c #EA1D18",
"j .	c #FB1311",
"k .	c #EA1519",
"l .	c #CD211F",
"m .	c #97130F",
"n .	c #490804",
"o .	c #420F0E",
"p .	c #380B0E",
"q .	c #340C0D",
"r .	c #361212",
"s .	c #533632",
"t .	c #684B47",
"u .	c #371410",
"v .	c #370B0A",
"w .	c #380A0A",
"x .	c #37120C",
"y .	c #33120B",
"z .	c #30120A",
"A .	c #250A03",
"B .	c #260E0A",
"C .	c #33221B",
"D .	c #24110B",
"E .	c #251309",
"F .	c #31120F",
"G .	c #33100E",
"H .	c #3A1213",
"I .	c #381112",
"J .	c #3C1A19",
"K .	c #371A16",
"L .	c #2E150E",
"M .	c #2E160A",
"N .	c #341A0D",
"O .	c #3B150A",
"P .	c #4C1005",
"Q .	c #5E0E05",
"R .	c #78150F",
"S .	c #98211B",
"T .	c #B52421",
"U .	c #C61E1D",
"V .	c #D51717",
"W .	c #E21414",
"X .	c #DF150B",
"Y .	c #D61A0F",
"Z .	c #AD150A",
"` .	c #9D1308",
" ..	c #901609",
"...	c #831D0F",
"+..	c #792618",
"@..	c #6F2B1E",
"#..	c #672F22",
"$..	c #66362A",
"%..	c #5E362C",
"&..	c #5C372E",
"*..	c #5D3D32",
"=..	c #5D4336",
"-..	c #5B4436",
";..	c #574435",
">..	c #584133",
",..	c #5C3A2E",
"'..	c #603A2F",
")..	c #5E3A2E",
"!..	c #59372B",
"~..	c #573A2C",
"{..	c #583E2F",
"]..	c #543D2D",
"^..	c #4F3A29",
"/..	c #3B2819",
"(..	c #3A2416",
"_..	c #402A1C",
":..	c #523A2E",
"<..	c #51392D",
"[..	c #4A3522",
"}..	c #453329",
"|..	c #46352E",
"1..	c #3F302B",
"2..	c #34251E",
"3..	c #392C23",
"4..	c #3D2F26",
"5..	c #3A2D24",
"6..	c #3B3127",
"7..	c #30261D",
"8..	c #2E251C",
"9..	c #2C231A",
"0..	c #201911",
"a..	c #221B13",
"b..	c #241B14",
"c..	c #261911",
"d..	c #C91F12",
"e..	c #B42012",
"f..	c #870500",
"g..	c #7E0A00",
"h..	c #750500",
"i..	c #800E03",
"j..	c #931A11",
"k..	c #9E1A0E",
"l..	c #BA271D",
"m..	c #CE3024",
"n..	c #CF2516",
"o..	c #D42313",
"p..	c #D9200E",
"q..	c #E0230F",
"r..	c #E0220C",
"s..	c #DE210B",
"t..	c #DB230B",
"u..	c #DA260F",
"v..	c #D82810",
"w..	c #D6280F",
"x..	c #D4290F",
"y..	c #D62A12",
"z..	c #D62810",
"A..	c #DA2512",
"B..	c #DA210F",
"C..	c #DB1D0D",
"D..	c #DF1F12",
"E..	c #E82416",
"F..	c #EA2111",
"G..	c #EF060A",
"H..	c #F60913",
"I..	c #E80005",
"J..	c #F30912",
"K..	c #F41216",
"L..	c #EE160B",
"M..	c #F2130B",
"N..	c #F0160A",
"O..	c #EE1609",
"P..	c #EC1407",
"Q..	c #EB1306",
"R..	c #DD1812",
"S..	c #D61913",
"T..	c #CB160F",
"U..	c #BE170E",
"V..	c #9A0E00",
"W..	c #891402",
"X..	c #7E1B08",
"Y..	c #72200B",
"Z..	c #631F0C",
"`..	c #5D1A0A",
" +.	c #631709",
".+.	c #721408",
"++.	c #8D120A",
"@+.	c #B01711",
"#+.	c #D41C1A",
"$+.	c #E51717",
"%+.	c #E80C0C",
"&+.	c #FA0E10",
"*+.	c #EF0002",
"=+.	c #EB0F11",
"-+.	c #D62221",
";+.	c #A71D1A",
">+.	c #6C0B05",
",+.	c #4C0604",
"'+.	c #410B0B",
")+.	c #35080B",
"!+.	c #3B1314",
"~+.	c #330F11",
"{+.	c #442624",
"]+.	c #604440",
"^+.	c #5C3F39",
"/+.	c #44211F",
"(+.	c #370B0C",
"_+.	c #330708",
":+.	c #320C09",
"<+.	c #31140E",
"[+.	c #2E110B",
"}+.	c #1F0B02",
"|+.	c #240F0A",
"1+.	c #220D08",
"2+.	c #240C08",
"3+.	c #33201A",
"4+.	c #160901",
"5+.	c #20110A",
"6+.	c #200F08",
"7+.	c #27160F",
"8+.	c #221107",
"9+.	c #2D160E",
"0+.	c #350F0E",
"a+.	c #380E0F",
"b+.	c #390F11",
"c+.	c #33090B",
"d+.	c #3B1717",
"e+.	c #2D1910",
"f+.	c #29170B",
"g+.	c #2E1709",
"h+.	c #43190D",
"i+.	c #460A00",
"j+.	c #560700",
"k+.	c #7C1510",
"l+.	c #A2201E",
"m+.	c #BB201E",
"n+.	c #D01C1D",
"o+.	c #E11B1A",
"p+.	c #E81413",
"q+.	c #EE100F",
"r+.	c #F10D0A",
"s+.	c #AF170A",
"t+.	c #9E180C",
"u+.	c #91190B",
"v+.	c #841D0E",
"w+.	c #782515",
"x+.	c #6F2C1C",
"y+.	c #653020",
"z+.	c #5C3222",
"A+.	c #623E30",
"B+.	c #593C2E",
"C+.	c #583C30",
"D+.	c #5A4033",
"E+.	c #5B4434",
"F+.	c #584332",
"G+.	c #55402D",
"H+.	c #583829",
"I+.	c #5C3B2C",
"J+.	c #5C3D2B",
"K+.	c #593C2C",
"L+.	c #56412E",
"M+.	c #51402C",
"N+.	c #4D3E2B",
"O+.	c #4D402D",
"P+.	c #493C29",
"Q+.	c #392315",
"R+.	c #422B1D",
"S+.	c #4E3427",
"T+.	c #543A2D",
"U+.	c #4B3623",
"V+.	c #473529",
"W+.	c #47362F",
"X+.	c #2F201B",
"Y+.	c #342721",
"Z+.	c #3A2B24",
"`+.	c #3C2D26",
" @.	c #3B2D24",
".@.	c #382A21",
"+@.	c #342A21",
"@@.	c #19120C",
"#@.	c #211A12",
"$@.	c #281B13",
"%@.	c #BF190D",
"&@.	c #A91B0D",
"*@.	c #7C0E00",
"=@.	c #6D0700",
"-@.	c #6F0700",
";@.	c #811207",
">@.	c #8B1305",
",@.	c #A72115",
"'@.	c #BF2D1E",
")@.	c #C22514",
"!@.	c #CC2714",
"~@.	c #D42512",
"{@.	c #D9230E",
"]@.	c #D8220C",
"^@.	c #D5250D",
"/@.	c #D3280E",
"(@.	c #CF2A0E",
"_@.	c #CB2A0E",
":@.	c #C92A0D",
"<@.	c #CD2F12",
"[@.	c #CB2C0F",
"}@.	c #CD290E",
"|@.	c #D32B11",
"1@.	c #D72813",
"2@.	c #D82511",
"3@.	c #DB2210",
"4@.	c #E02310",
"5@.	c #E52412",
"6@.	c #E62110",
"7@.	c #ED080D",
"8@.	c #ED060E",
"9@.	c #F00D14",
"0@.	c #DB0706",
"a@.	c #DA1C0E",
"b@.	c #E01C0E",
"c@.	c #F2120A",
"d@.	c #E51207",
"e@.	c #DF1006",
"f@.	c #DB1A13",
"g@.	c #D41D15",
"h@.	c #C51811",
"i@.	c #B61209",
"j@.	c #A81106",
"k@.	c #8E0F00",
"l@.	c #841605",
"m@.	c #791E0C",
"n@.	c #6D220F",
"o@.	c #5C1F0D",
"p@.	c #561B0B",
"q@.	c #611D10",
"r@.	c #771F15",
"s@.	c #A62F29",
"t@.	c #C72F2C",
"u@.	c #DF2928",
"v@.	c #E6181A",
"w@.	c #DC2422",
"x@.	c #B42622",
"y@.	c #750F0B",
"z@.	c #4E0703",
"A@.	c #430B0C",
"B@.	c #390B0E",
"C@.	c #401819",
"D@.	c #381416",
"E@.	c #381A18",
"F@.	c #4D312E",
"G@.	c #5E413D",
"H@.	c #512F2D",
"I@.	c #2C0905",
"J@.	c #2F100B",
"K@.	c #220904",
"L@.	c #220E07",
"M@.	c #25120B",
"N@.	c #2B1811",
"O@.	c #1E0F08",
"P@.	c #1F1009",
"Q@.	c #1C0905",
"R@.	c #1B0D00",
"S@.	c #381914",
"T@.	c #350D0D",
"U@.	c #390D0E",
"V@.	c #3F1113",
"W@.	c #380C0D",
"X@.	c #3D1617",
"Y@.	c #391716",
"Z@.	c #351C17",
"`@.	c #2F2116",
" #.	c #261609",
".#.	c #33190C",
"+#.	c #3A0F06",
"@#.	c #630A06",
"##.	c #A71515",
"$#.	c #C71B1B",
"%#.	c #DD1C1D",
"&#.	c #E51815",
"*#.	c #EC1210",
"=#.	c #F20D0A",
"-#.	c #F70E0A",
";#.	c #CD1106",
">#.	c #A51C0C",
",#.	c #941F0E",
"'#.	c #87200F",
")#.	c #7A2312",
"!#.	c #6E2A17",
"~#.	c #5B3522",
"{#.	c #563725",
"]#.	c #5C4233",
"^#.	c #563F31",
"/#.	c #543E30",
"(#.	c #584234",
"_#.	c #594433",
":#.	c #533E29",
"<#.	c #533D28",
"[#.	c #533825",
"}#.	c #5A3D2B",
"|#.	c #5A412B",
"1#.	c #553F2A",
"2#.	c #4E3E27",
"3#.	c #4E3F2A",
"4#.	c #4C412B",
"5#.	c #49412A",
"6#.	c #473F28",
"7#.	c #453A24",
"8#.	c #382B18",
"9#.	c #2F1E0C",
"0#.	c #372113",
"a#.	c #4D3326",
"b#.	c #513A2C",
"c#.	c #4F3828",
"d#.	c #4C3523",
"e#.	c #493421",
"f#.	c #483429",
"g#.	c #4A382C",
"h#.	c #3E2B24",
"i#.	c #35241D",
"j#.	c #382922",
"k#.	c #362720",
"l#.	c #37261E",
"m#.	c #302219",
"n#.	c #17100A",
"o#.	c #0E0604",
"p#.	c #140C09",
"q#.	c #160E0B",
"r#.	c #170F0C",
"s#.	c #291C14",
"t#.	c #1B1209",
"u#.	c #170E05",
"v#.	c #180F06",
"w#.	c #191007",
"x#.	c #A51B0E",
"y#.	c #7F0900",
"z#.	c #791506",
"A#.	c #690D00",
"B#.	c #620900",
"C#.	c #6E1004",
"D#.	c #730B00",
"E#.	c #8D190C",
"F#.	c #A62619",
"G#.	c #AF2616",
"H#.	c #BE2F1E",
"I#.	c #CB331E",
"J#.	c #D12C18",
"K#.	c #D42915",
"L#.	c #D12B13",
"M#.	c #CF2D16",
"N#.	c #CE3017",
"O#.	c #CB3117",
"P#.	c #C63015",
"Q#.	c #C32F15",
"R#.	c #C02C10",
"S#.	c #BF290E",
"T#.	c #C62C12",
"U#.	c #D2321A",
"V#.	c #DA341E",
"W#.	c #D82C18",
"X#.	c #D4200F",
"Y#.	c #E92A17",
"Z#.	c #EC2716",
"`#.	c #EC2214",
" $.	c #ED1A11",
".$.	c #EC110D",
"+$.	c #FA151C",
"@$.	c #F11217",
"#$.	c #DE0609",
"$$.	c #C80000",
"%$.	c #D82416",
"&$.	c #E12519",
"*$.	c #F32015",
"=$.	c #F81911",
"-$.	c #F3160D",
";$.	c #ED130A",
">$.	c #E41B11",
",$.	c #DD1B12",
"'$.	c #D82018",
")$.	c #D4261D",
"!$.	c #C8251C",
"~$.	c #B31B10",
"{$.	c #9E1004",
"]$.	c #900E00",
"^$.	c #881407",
"/$.	c #781405",
"($.	c #691606",
"_$.	c #601B0B",
":$.	c #59200D",
"<$.	c #5A2211",
"[$.	c #652315",
"}$.	c #AC3730",
"|$.	c #CD3834",
"1$.	c #E32F30",
"2$.	c #E71B1E",
"3$.	c #EA0E10",
"4$.	c #F20C0E",
"5$.	c #F10104",
"6$.	c #FF080C",
"7$.	c #F40B0E",
"8$.	c #E52323",
"9$.	c #C22924",
"0$.	c #7F120D",
"a$.	c #550601",
"b$.	c #480C0B",
"c$.	c #3F0E11",
"d$.	c #411719",
"e$.	c #3F181B",
"f$.	c #351314",
"g$.	c #3F1F20",
"h$.	c #5B3D3B",
"i$.	c #5C3A38",
"j$.	c #421C19",
"k$.	c #310B08",
"l$.	c #290803",
"m$.	c #2D100C",
"n$.	c #341711",
"o$.	c #210803",
"p$.	c #180000",
"q$.	c #1F0A05",
"r$.	c #230E0B",
"s$.	c #2F2118",
"t$.	c #2B1C15",
"u$.	c #140800",
"v$.	c #150700",
"w$.	c #2A160D",
"x$.	c #371A14",
"y$.	c #300D0B",
"z$.	c #401617",
"A$.	c #3A1212",
"B$.	c #381414",
"C$.	c #30110F",
"D$.	c #2D140F",
"E$.	c #241204",
"F$.	c #34160B",
"G$.	c #421309",
"H$.	c #4C0700",
"I$.	c #630400",
"J$.	c #890F0E",
"K$.	c #AE1C1C",
"L$.	c #C62020",
"M$.	c #D61E1C",
"N$.	c #DF1717",
"O$.	c #E31110",
"P$.	c #EE0D09",
"Q$.	c #EE0F0A",
"R$.	c #E6120E",
"S$.	c #D9140C",
"T$.	c #AA1205",
"U$.	c #981E0F",
"V$.	c #872411",
"W$.	c #7B2411",
"X$.	c #702714",
"Y$.	c #652E19",
"Z$.	c #5E3521",
"`$.	c #573B26",
" %.	c #543D2B",
".%.	c #574433",
"+%.	c #523F30",
"@%.	c #513E2D",
"#%.	c #574231",
"$%.	c #5A4331",
"%%.	c #583E2D",
"&%.	c #553C28",
"*%.	c #553C26",
"=%.	c #523925",
"-%.	c #573E2A",
";%.	c #56412C",
">%.	c #4F3D27",
",%.	c #483B28",
"'%.	c #473F2A",
")%.	c #48402D",
"!%.	c #443C29",
"~%.	c #2A1909",
"{%.	c #372114",
"]%.	c #53382D",
"^%.	c #5D4135",
"/%.	c #54382C",
"(%.	c #583E31",
"_%.	c #574032",
":%.	c #523B2B",
"<%.	c #4A3524",
"[%.	c #463120",
"}%.	c #4B3A28",
"|%.	c #0F0000",
"1%.	c #352623",
"2%.	c #352621",
"3%.	c #2D1E17",
"4%.	c #2B1A12",
"5%.	c #281A11",
"6%.	c #190F0D",
"7%.	c #110706",
"8%.	c #0D0503",
"9%.	c #0C0402",
"0%.	c #150D0A",
"a%.	c #2B1E16",
"b%.	c #120900",
"c%.	c #110800",
"d%.	c #BD2011",
"e%.	c #9E1A0B",
"f%.	c #7E1001",
"g%.	c #6A0E00",
"h%.	c #641508",
"i%.	c #661A0D",
"j%.	c #66180E",
"k%.	c #6C180E",
"l%.	c #811A11",
"m%.	c #8C2014",
"n%.	c #9D2C1E",
"o%.	c #B03525",
"p%.	c #BE3723",
"q%.	c #C63824",
"r%.	c #BC2E18",
"s%.	c #B52713",
"t%.	c #BA2D1B",
"u%.	c #C03321",
"v%.	c #C93C2A",
"w%.	c #BA2D19",
"x%.	c #B82A14",
"y%.	c #BA2511",
"z%.	c #BC210D",
"A%.	c #CB200E",
"B%.	c #D22111",
"C%.	c #DB2011",
"D%.	c #F32F1F",
"E%.	c #F22718",
"F%.	c #F01D12",
"G%.	c #F0170E",
"H%.	c #F1100C",
"I%.	c #F20C0C",
"J%.	c #F3090C",
"K%.	c #F3080D",
"L%.	c #FB141A",
"M%.	c #EA0B10",
"N%.	c #CF0000",
"O%.	c #C50000",
"P%.	c #D22119",
"Q%.	c #D1291E",
"R%.	c #DD3022",
"S%.	c #EE2A1E",
"T%.	c #EC1C10",
"U%.	c #E11107",
"V%.	c #E11811",
"W%.	c #E4231C",
"X%.	c #DD251D",
"Y%.	c #CC1E17",
"Z%.	c #BD1A11",
"`%.	c #B21B12",
" &.	c #A41C10",
".&.	c #951709",
"+&.	c #861301",
"@&.	c #7C1003",
"#&.	c #7A150B",
"$&.	c #731910",
"%&.	c #691D10",
"&&.	c #601E0E",
"*&.	c #5A210D",
"=&.	c #65210E",
"-&.	c #761D0D",
";&.	c #941E14",
">&.	c #A31009",
",&.	c #B90A07",
"'&.	c #D51112",
")&.	c #EB1716",
"!&.	c #EE1311",
"~&.	c #ED0D0B",
"{&.	c #FF0B13",
"]&.	c #F7080E",
"^&.	c #DF1113",
"/&.	c #C81F1C",
"(&.	c #991D15",
"_&.	c #680B04",
":&.	c #4C0702",
"<&.	c #481212",
"[&.	c #38070B",
"}&.	c #41131D",
"|&.	c #3C111A",
"1&.	c #370E16",
"2&.	c #4A2827",
"3&.	c #5E3F3A",
"4&.	c #4A2F24",
"5&.	c #270F03",
"6&.	c #240902",
"7&.	c #250705",
"8&.	c #2B0E0A",
"9&.	c #2F110F",
"0&.	c #220402",
"a&.	c #270907",
"b&.	c #260806",
"c&.	c #250906",
"d&.	c #290D0A",
"e&.	c #2F1310",
"f&.	c #2D1410",
"g&.	c #2A120E",
"h&.	c #281710",
"i&.	c #2C1B14",
"j&.	c #30130F",
"k&.	c #321511",
"l&.	c #2A130D",
"m&.	c #26180F",
"n&.	c #271B0B",
"o&.	c #271606",
"p&.	c #301305",
"q&.	c #3E1209",
"r&.	c #570602",
"s&.	c #730B0A",
"t&.	c #921616",
"u&.	c #BE2C2D",
"v&.	c #CB2527",
"w&.	c #D11919",
"x&.	c #D50B0B",
"y&.	c #FE0C0A",
"z&.	c #FF0707",
"A&.	c #CD1A13",
"B&.	c #A60F06",
"C&.	c #99170A",
"D&.	c #821C0D",
"E&.	c #752411",
"F&.	c #6D2914",
"G&.	c #682F1B",
"H&.	c #613721",
"I&.	c #5B3D25",
"J&.	c #554129",
"K&.	c #51412A",
"L&.	c #54432F",
"M&.	c #51402E",
"N&.	c #543F2C",
"O&.	c #5A402F",
"P&.	c #5A3D2D",
"Q&.	c #573627",
"R&.	c #553423",
"S&.	c #5B4130",
"T&.	c #523D2C",
"U&.	c #544130",
"V&.	c #483C30",
"W&.	c #42362A",
"X&.	c #28170D",
"Y&.	c #4E3A2F",
"Z&.	c #594338",
"`&.	c #533B2F",
" *.	c #453422",
".*.	c #392919",
"+*.	c #544435",
"@*.	c #4B392B",
"#*.	c #1D0B00",
"$*.	c #130200",
"%*.	c #110200",
"&*.	c #32251D",
"**.	c #30231B",
"=*.	c #271910",
"-*.	c #321F19",
";*.	c #2D1A14",
">*.	c #150909",
",*.	c #140808",
"'*.	c #130709",
")*.	c #120809",
"!*.	c #110708",
"~*.	c #100806",
"{*.	c #0F0A07",
"]*.	c #110C09",
"^*.	c #120D0A",
"/*.	c #150D0B",
"(*.	c #180E0C",
"_*.	c #1A100E",
":*.	c #2D2018",
"<*.	c #150C03",
"[*.	c #130A01",
"}*.	c #100700",
"|*.	c #B81B0C",
"1*.	c #971505",
"2*.	c #7B0F02",
"3*.	c #6A1204",
"4*.	c #63190E",
"5*.	c #611D12",
"6*.	c #5F1B12",
"7*.	c #631A13",
"8*.	c #671811",
"9*.	c #6C150C",
"0*.	c #71140C",
"a*.	c #882013",
"b*.	c #9E2F1B",
"c*.	c #A7331C",
"d*.	c #A32C16",
"e*.	c #A02714",
"f*.	c #AB301E",
"g*.	c #B53A2A",
"h*.	c #B83D2D",
"i*.	c #BC4131",
"j*.	c #BB3E2C",
"k*.	c #B63724",
"l*.	c #B82D1A",
"m*.	c #C12E1C",
"n*.	c #D03523",
"o*.	c #DE3B2A",
"p*.	c #EA3D2D",
"q*.	c #E52A1B",
"r*.	c #E82215",
"s*.	c #E71D11",
"t*.	c #E6150E",
"u*.	c #EC0C0D",
"v*.	c #ED0C10",
"w*.	c #E51014",
"x*.	c #D80D10",
"y*.	c #CF1111",
"z*.	c #D1221D",
"A*.	c #CE2923",
"B*.	c #C92C23",
"C*.	c #D23226",
"D*.	c #E03023",
"E*.	c #E12A1C",
"F*.	c #DF281A",
"G*.	c #E0281C",
"H*.	c #DE281D",
"I*.	c #D72219",
"J*.	c #CF211A",
"K*.	c #CB221B",
"L*.	c #B31E17",
"M*.	c #A2180E",
"N*.	c #921408",
"O*.	c #861507",
"P*.	c #801608",
"Q*.	c #791807",
"R*.	c #76190A",
"S*.	c #701B16",
"T*.	c #651B10",
"U*.	c #5E1C0E",
"V*.	c #5A200C",
"W*.	c #5D1F0A",
"X*.	c #681B09",
"Y*.	c #741404",
"Z*.	c #7E0200",
"`*.	c #960000",
" =.	c #B20300",
".=.	c #CE0B09",
"+=.	c #E00E0D",
"@=.	c #E70D0B",
"#=.	c #E60B05",
"$=.	c #FF0810",
"%=.	c #F80710",
"&=.	c #E40E10",
"*=.	c #CD1918",
"==.	c #A91E17",
"-=.	c #760E05",
";=.	c #520500",
">=.	c #4A0E0D",
",=.	c #3E0B10",
"'=.	c #380913",
")=.	c #3C0E19",
"!=.	c #3A1119",
"~=.	c #543731",
"{=.	c #2D1A0B",
"]=.	c #240805",
"^=.	c #2B0D0B",
"/=.	c #321412",
"(=.	c #260705",
"_=.	c #230402",
":=.	c #2A0807",
"<=.	c #240503",
"[=.	c #250604",
"}=.	c #2D110E",
"|=.	c #26150E",
"1=.	c #23120B",
"2=.	c #24150E",
"3=.	c #2E1711",
"4=.	c #221109",
"5=.	c #231A09",
"6=.	c #211604",
"7=.	c #35190D",
"8=.	c #3F170D",
"9=.	c #480F08",
"0=.	c #580D08",
"a=.	c #6F100E",
"b=.	c #8A1414",
"c=.	c #A81C1D",
"d=.	c #C62324",
"e=.	c #D51F1E",
"f=.	c #FC0808",
"g=.	c #C31A13",
"h=.	c #A9120B",
"i=.	c #960D05",
"j=.	c #881309",
"k=.	c #77200F",
"l=.	c #6B2714",
"m=.	c #672D19",
"n=.	c #63351E",
"o=.	c #5E3C23",
"p=.	c #594129",
"q=.	c #524229",
"r=.	c #4F4029",
"s=.	c #544530",
"t=.	c #52402C",
"u=.	c #593E2D",
"v=.	c #5A3A2B",
"w=.	c #573325",
"x=.	c #573222",
"y=.	c #553425",
"z=.	c #533928",
"A=.	c #544132",
"B=.	c #4D3C32",
"C=.	c #483A31",
"D=.	c #473930",
"E=.	c #291A13",
"F=.	c #3B2821",
"G=.	c #554136",
"H=.	c #574134",
"I=.	c #513A2A",
"J=.	c #4A3728",
"K=.	c #483B2B",
"L=.	c #483829",
"M=.	c #2D1D0E",
"N=.	c #200E00",
"O=.	c #1D0C02",
"P=.	c #362923",
"Q=.	c #382B25",
"R=.	c #372A24",
"S=.	c #34271F",
"T=.	c #341C18",
"U=.	c #2E1612",
"V=.	c #2A1512",
"W=.	c #2B1613",
"X=.	c #22100E",
"Y=.	c #1D0D0D",
"Z=.	c #1A0C0C",
"`=.	c #180A0A",
" -.	c #15090B",
".-.	c #140A0B",
"+-.	c #120A08",
"@-.	c #100B08",
"#-.	c #140C0A",
"$-.	c #20130B",
"%-.	c #930F02",
"&-.	c #7C1004",
"*-.	c #70180C",
"=-.	c #681E15",
"--.	c #631E17",
";-.	c #681D18",
">-.	c #681811",
",-.	c #69120B",
"'-.	c #6B1109",
")-.	c #721609",
"!-.	c #781C07",
"~-.	c #81230A",
"{-.	c #811E07",
"]-.	c #821D09",
"^-.	c #912C18",
"/-.	c #9D3826",
"(-.	c #9C3725",
"_-.	c #9A3523",
":-.	c #983321",
"<-.	c #99321F",
"[-.	c #9F3420",
"}-.	c #AB3B27",
"|-.	c #B9402D",
"1-.	c #C64532",
"2-.	c #CD4633",
"3-.	c #D74132",
"4-.	c #CE2717",
"5-.	c #D52315",
"6-.	c #D62013",
"7-.	c #D3120B",
"8-.	c #D50F0C",
"9-.	c #D8110E",
"0-.	c #DA1212",
"a-.	c #DB1718",
"b-.	c #DF2121",
"c-.	c #D82423",
"d-.	c #D02724",
"e-.	c #CB2E27",
"f-.	c #C22D26",
"g-.	c #B92C22",
"h-.	c #BE3026",
"i-.	c #D13B2D",
"j-.	c #C93124",
"k-.	c #BE281A",
"l-.	c #B72317",
"m-.	c #B12214",
"n-.	c #A91D10",
"o-.	c #9F190D",
"p-.	c #99190C",
"q-.	c #961C0F",
"r-.	c #921E11",
"s-.	c #881A0D",
"t-.	c #7B1306",
"u-.	c #781609",
"v-.	c #7E1E12",
"w-.	c #7D2114",
"x-.	c #781E13",
"y-.	c #70170F",
"z-.	c #6B160F",
"A-.	c #62180D",
"B-.	c #601A0E",
"C-.	c #611E0D",
"D-.	c #651C0B",
"E-.	c #750900",
"F-.	c #900A01",
"G-.	c #AF100A",
"H-.	c #CE1614",
"I-.	c #E21816",
"J-.	c #EA1412",
"K-.	c #EE130F",
"L-.	c #F40C08",
"M-.	c #FB050A",
"N-.	c #FD0911",
"O-.	c #E60C0D",
"P-.	c #D01715",
"Q-.	c #B7221C",
"R-.	c #86130C",
"S-.	c #590200",
"T-.	c #4D0906",
"U-.	c #481114",
"V-.	c #310208",
"W-.	c #380F17",
"X-.	c #3A161A",
"Y-.	c #2E0F0D",
"Z-.	c #432821",
"`-.	c #382516",
" ;.	c #280907",
".;.	c #220301",
"+;.	c #2A0E0B",
"@;.	c #2E1511",
"#;.	c #2B130F",
"$;.	c #2B1812",
"%;.	c #140700",
"&;.	c #220F08",
"*;.	c #231A0B",
"=;.	c #1E1504",
"-;.	c #231304",
";;.	c #30180C",
">;.	c #39190E",
",;.	c #401109",
"';.	c #4A0B04",
");.	c #580703",
"!;.	c #660200",
"~;.	c #890F0C",
"{;.	c #AD1F1D",
"];.	c #C62421",
"^;.	c #D4211D",
"/;.	c #DB1A15",
"(;.	c #E70705",
"_;.	c #DB0E0B",
":;.	c #BD1814",
"<;.	c #A4110A",
"[;.	c #732211",
"};.	c #682917",
"|;.	c #65311B",
"1;.	c #633923",
"2;.	c #604029",
"3;.	c #5B432B",
"4;.	c #534129",
"5;.	c #4F3F28",
"6;.	c #553B2A",
"7;.	c #553A29",
"8;.	c #533221",
"9;.	c #523120",
"0;.	c #503323",
"a;.	c #4D3624",
"b;.	c #4D3A29",
"c;.	c #534232",
"d;.	c #3F3128",
"e;.	c #42342B",
"f;.	c #5A483E",
"g;.	c #4F392C",
"h;.	c #5C4639",
"i;.	c #463929",
"j;.	c #2B1B0E",
"k;.	c #231306",
"l;.	c #201003",
"m;.	c #261408",
"n;.	c #2B1A10",
"o;.	c #372823",
"p;.	c #382924",
"q;.	c #362722",
"r;.	c #35261F",
"s;.	c #32231C",
"t;.	c #301B16",
"u;.	c #311915",
"v;.	c #2E1916",
"w;.	c #2B1716",
"x;.	c #1E0E0E",
"y;.	c #1B0D0D",
"z;.	c #170B0D",
"A;.	c #170D0E",
"B;.	c #960D03",
"C;.	c #831308",
"D;.	c #6A2017",
"E;.	c #601D15",
"F;.	c #5F1E18",
"G;.	c #63221C",
"H;.	c #6A2520",
"I;.	c #6C211B",
"J;.	c #6A1B14",
"K;.	c #6C1911",
"L;.	c #6E1C10",
"M;.	c #601200",
"N;.	c #681A03",
"O;.	c #661600",
"P;.	c #651300",
"Q;.	c #701E09",
"R;.	c #772412",
"S;.	c #72210E",
"T;.	c #6E1D0A",
"U;.	c #721F0D",
"V;.	c #7A2511",
"W;.	c #852C1A",
"X;.	c #9D3625",
"Y;.	c #A33423",
"Z;.	c #A92E1E",
"`;.	c #C03121",
" >.	c #CC3021",
".>.	c #CD3021",
"+>.	c #C9271C",
"@>.	c #C61F17",
"#>.	c #C71E17",
"$>.	c #CC201C",
"%>.	c #CE2220",
"&>.	c #CA221F",
"*>.	c #CD2B28",
"=>.	c #C32824",
"->.	c #B5211D",
";>.	c #AC231B",
">>.	c #A22219",
",>.	c #9B1F15",
"'>.	c #9F251A",
")>.	c #A92D23",
"!>.	c #9C2217",
"~>.	c #8B1509",
"{>.	c #811002",
"]>.	c #7E1003",
"^>.	c #781102",
"/>.	c #711000",
"(>.	c #6C0F00",
"_>.	c #630A00",
":>.	c #691103",
"<>.	c #691306",
"[>.	c #681205",
"}>.	c #6B120A",
"|>.	c #660F08",
"1>.	c #65120A",
"2>.	c #65180E",
"3>.	c #671D10",
"4>.	c #6C2012",
"5>.	c #711E10",
"6>.	c #850C01",
"7>.	c #A9160F",
"8>.	c #DF1D1D",
"9>.	c #E71715",
"0>.	c #FF0C10",
"a>.	c #C6241F",
"b>.	c #650200",
"c>.	c #500200",
"d>.	c #4D1312",
"e>.	c #380A0D",
"f>.	c #360F14",
"g>.	c #341417",
"h>.	c #2B0F0C",
"i>.	c #331A13",
"j>.	c #432D1F",
"k>.	c #331A15",
"l>.	c #2C100D",
"m>.	c #2C0E0C",
"n>.	c #270806",
"o>.	c #311814",
"p>.	c #2F1713",
"q>.	c #220F09",
"r>.	c #2E1B15",
"s>.	c #160800",
"t>.	c #2C1811",
"u>.	c #1F0E04",
"v>.	c #22190A",
"w>.	c #1E1506",
"x>.	c #211404",
"y>.	c #281608",
"z>.	c #31160B",
"A>.	c #361108",
"B>.	c #3D0C05",
"C>.	c #490A03",
"D>.	c #5E0E07",
"E>.	c #6E0B06",
"F>.	c #830E07",
"G>.	c #9D1610",
"H>.	c #B9201A",
"I>.	c #CB241C",
"J>.	c #E41412",
"K>.	c #C8120F",
"L>.	c #9C110C",
"M>.	c #8C1109",
"N>.	c #7D180C",
"O>.	c #6F2617",
"P>.	c #672E1B",
"Q>.	c #653720",
"R>.	c #653F28",
"S>.	c #63442F",
"T>.	c #5D442E",
"U>.	c #54422C",
"V>.	c #503E28",
"W>.	c #513F2B",
"X>.	c #523B29",
"Y>.	c #523827",
"Z>.	c #513625",
"`>.	c #513422",
" ,.	c #4F3220",
".,.	c #4E3423",
"+,.	c #4E3C2E",
"@,.	c #4B392D",
"#,.	c #4A3C33",
"$,.	c #21130A",
"%,.	c #5A463B",
"&,.	c #513D32",
"*,.	c #594336",
"=,.	c #503A2D",
"-,.	c #4A3729",
";,.	c #45372A",
">,.	c #241609",
",,.	c #201207",
"',.	c #25140A",
"),.	c #392821",
"!,.	c #342520",
"~,.	c #2E1D15",
"{,.	c #312018",
"],.	c #2D1511",
"^,.	c #23110F",
"/,.	c #180C0E",
"(,.	c #190D0F",
"_,.	c #170D0C",
":,.	c #BE160D",
"<,.	c #9E1108",
"[,.	c #87150B",
"},.	c #751810",
"|,.	c #661911",
"1,.	c #5D1A12",
"2,.	c #5B1C15",
"3,.	c #60211C",
"4,.	c #66251F",
"5,.	c #69241D",
"6,.	c #662018",
"7,.	c #671D14",
"8,.	c #671F11",
"9,.	c #5E1B08",
"0,.	c #63210B",
"a,.	c #601C07",
"b,.	c #5F1806",
"c,.	c #621B09",
"d,.	c #61190A",
"e,.	c #5C1707",
"f,.	c #601D0D",
"g,.	c #5D1B0B",
"h,.	c #5B1304",
"i,.	c #621407",
"j,.	c #6C190B",
"k,.	c #771D12",
"l,.	c #841E10",
"m,.	c #982214",
"n,.	c #A52617",
"o,.	c #A82618",
"p,.	c #A31D11",
"q,.	c #9F190E",
"r,.	c #A31A10",
"s,.	c #A71E16",
"t,.	c #A81F19",
"u,.	c #A41D17",
"v,.	c #A6221D",
"w,.	c #971A14",
"x,.	c #88110B",
"y,.	c #85140C",
"z,.	c #82160C",
"A,.	c #7D150A",
"B,.	c #7D180E",
"C,.	c #76130D",
"D,.	c #6F100A",
"E,.	c #670E06",
"F,.	c #651308",
"G,.	c #641F10",
"H,.	c #5E1C0C",
"I,.	c #561809",
"J,.	c #602213",
"K,.	c #672819",
"L,.	c #6B291B",
"M,.	c #722A1E",
"N,.	c #81322B",
"O,.	c #8E3934",
"P,.	c #882F2B",
"Q,.	c #68130C",
"R,.	c #6A170F",
"S,.	c #6B1B10",
"T,.	c #711B0E",
"U,.	c #7A1A0E",
"V,.	c #8D1B11",
"W,.	c #A01913",
"X,.	c #BD1B18",
"Y,.	c #D21A18",
"Z,.	c #E01616",
"`,.	c #E40D0B",
" '.	c #F3150A",
".'.	c #F41007",
"+'.	c #FD0D0E",
"@'.	c #DD120E",
"#'.	c #AE1B14",
"$'.	c #7C0700",
"%'.	c #580000",
"&'.	c #4A0907",
"*'.	c #441414",
"='.	c #310F0E",
"-'.	c #290F0E",
";'.	c #301A0D",
">'.	c #473124",
",'.	c #3F2621",
"''.	c #301713",
")'.	c #2E100E",
"!'.	c #2A0B09",
"~'.	c #190C03",
"{'.	c #160500",
"]'.	c #221608",
"^'.	c #27190C",
"/'.	c #2A180C",
"('.	c #3B0F06",
"_'.	c #531810",
":'.	c #570E05",
"<'.	c #730800",
"['.	c #A51F16",
"}'.	c #B7271E",
"|'.	c #C72822",
"1'.	c #D8221E",
"2'.	c #E01A19",
"3'.	c #E11313",
"4'.	c #EC0A0B",
"5'.	c #EF090C",
"6'.	c #DF070A",
"7'.	c #CB0709",
"8'.	c #B80A09",
"9'.	c #A30E0A",
"0'.	c #91100A",
"a'.	c #84150C",
"b'.	c #6D2E1D",
"c'.	c #653624",
"d'.	c #653C28",
"e'.	c #66432F",
"f'.	c #614730",
"g'.	c #5C462F",
"h'.	c #513C29",
"i'.	c #4F3826",
"j'.	c #513726",
"k'.	c #503524",
"l'.	c #4C3621",
"m'.	c #4D3C2C",
"n'.	c #443425",
"o'.	c #453526",
"p'.	c #3B2D22",
"q'.	c #65574E",
"r'.	c #140600",
"s'.	c #4F3D33",
"t'.	c #4F392E",
"u'.	c #4D3B2F",
"v'.	c #4C3C2F",
"w'.	c #47392C",
"x'.	c #2D1F14",
"y'.	c #3A2720",
"z'.	c #3B2A23",
"A'.	c #3B2925",
"B'.	c #392723",
"C'.	c #382622",
"D'.	c #3A2922",
"E'.	c #34231C",
"F'.	c #27120D",
"G'.	c #291612",
"H'.	c #190B0B",
"I'.	c #190A0D",
"J'.	c #180C0C",
"K'.	c #190E0C",
"L'.	c #CA1C13",
"M'.	c #AB1810",
"N'.	c #8E150C",
"O'.	c #76140B",
"P'.	c #651F17",
"Q'.	c #601F19",
"R'.	c #61221B",
"S'.	c #65261F",
"T'.	c #65251C",
"U'.	c #601C11",
"V'.	c #601E10",
"W'.	c #632412",
"X'.	c #652614",
"Y'.	c #662513",
"Z'.	c #6B2818",
"`'.	c #6D2A1A",
" ).	c #5B190B",
".).	c #632317",
"+).	c #602215",
"@).	c #5D2116",
"#).	c #5A1E13",
"$).	c #58180E",
"%).	c #571308",
"&).	c #5A1108",
"*).	c #62130C",
"=).	c #6F0D00",
"-).	c #7B1103",
";).	c #7D1305",
">).	c #790D00",
",).	c #780C00",
"').	c #7D1105",
")).	c #80140A",
"!).	c #7E1309",
"~).	c #7B130A",
"{).	c #801912",
"]).	c #7A150D",
"^).	c #711009",
"/).	c #761D15",
"().	c #70190F",
"_).	c #6D1811",
":).	c #681914",
"<).	c #631815",
"[).	c #581711",
"}).	c #5B2018",
"|).	c #5E2A1D",
"1).	c #5E2E20",
"2).	c #5C2C1E",
"3).	c #572719",
"4).	c #5A2619",
"5).	c #5B2116",
"6).	c #621F17",
"7).	c #6E231E",
"8).	c #7A2723",
"9).	c #751B1A",
"0).	c #670D0C",
"a).	c #711E16",
"b).	c #702017",
"c).	c #6F1D12",
"d).	c #6D160C",
"e).	c #6F1107",
"f).	c #7F1309",
"g).	c #9A1B15",
"h).	c #B4201C",
"i).	c #D02422",
"j).	c #DC1B1C",
"k).	c #E31313",
"l).	c #E60C0B",
"m).	c #ED0F0A",
"n).	c #F4150D",
"o).	c #F7190C",
"p).	c #F9170B",
"q).	c #C01D18",
"r).	c #96110C",
"s).	c #670000",
"t).	c #4A0000",
"u).	c #481512",
"v).	c #2F0D0B",
"w).	c #321F18",
"x).	c #28160C",
"y).	c #261003",
"z).	c #412823",
"A).	c #341815",
"B).	c #2C0D0B",
"C).	c #230B07",
"D).	c #35221C",
"E).	c #301D17",
"F).	c #23170B",
"G).	c #27160C",
"H).	c #271308",
"I).	c #3C160B",
"J).	c #441207",
"K).	c #500D04",
"L).	c #590900",
"M).	c #650700",
"N).	c #750D02",
"O).	c #8E1C12",
"P).	c #A92920",
"Q).	c #C12822",
"R).	c #DC1617",
"S).	c #E51012",
"T).	c #EB0A0E",
"U).	c #ED060C",
"V).	c #EB040A",
"W).	c #D7090D",
"X).	c #BF0709",
"Y).	c #A80604",
"Z).	c #910A06",
"`).	c #831009",
" !.	c #702417",
".!.	c #6C3727",
"+!.	c #633D2A",
"@!.	c #63402C",
"#!.	c #60442F",
"$!.	c #5E452F",
"%!.	c #59432E",
"&!.	c #533E2B",
"*!.	c #503927",
"=!.	c #4F3423",
"-!.	c #4A3321",
";!.	c #4C3724",
">!.	c #493824",
",!.	c #463724",
"'!.	c #4D3F34",
")!.	c #6F6158",
"!!.	c #3F2E24",
"~!.	c #503E34",
"{!.	c #4F3D31",
"]!.	c #4D372A",
"^!.	c #4A392F",
"/!.	c #403227",
"(!.	c #1A0C01",
"_!.	c #392620",
":!.	c #372521",
"<!.	c #362420",
"[!.	c #35231F",
"}!.	c #1B0907",
"|!.	c #160A0A",
"1!.	c #130A03",
"2!.	c #D51D15",
"3!.	c #B81E14",
"4!.	c #99190E",
"5!.	c #7E160B",
"6!.	c #6E170D",
"7!.	c #6E241B",
"8!.	c #66231A",
"9!.	c #632319",
"0!.	c #65271C",
"a!.	c #622216",
"b!.	c #612115",
"c!.	c #642214",
"d!.	c #692415",
"e!.	c #71291B",
"f!.	c #843A2D",
"g!.	c #8B3E34",
"h!.	c #752820",
"i!.	c #651C13",
"j!.	c #6E2820",
"k!.	c #601D14",
"l!.	c #64241B",
"m!.	c #6A2A21",
"n!.	c #692920",
"o!.	c #65201B",
"p!.	c #641A17",
"q!.	c #691B19",
"r!.	c #6E1D19",
"s!.	c #6D190F",
"t!.	c #741E11",
"u!.	c #6D190E",
"v!.	c #731F14",
"w!.	c #6E1C11",
"x!.	c #66160B",
"y!.	c #6D1F15",
"z!.	c #671A12",
"A!.	c #6C2219",
"B!.	c #712620",
"C!.	c #67201A",
"D!.	c #6C2626",
"E!.	c #662425",
"F!.	c #5D201F",
"G!.	c #571B1A",
"H!.	c #561F1C",
"I!.	c #5D2B24",
"J!.	c #62312A",
"K!.	c #63322B",
"L!.	c #653028",
"M!.	c #682922",
"N!.	c #6C2722",
"O!.	c #722422",
"P!.	c #74201E",
"Q!.	c #721818",
"R!.	c #6C1412",
"S!.	c #792920",
"T!.	c #78281D",
"U!.	c #772519",
"V!.	c #781E15",
"W!.	c #7E1911",
"X!.	c #8F1A13",
"Y!.	c #A91F1C",
"Z!.	c #C02221",
"`!.	c #D31F20",
" ~.	c #DB1417",
".~.	c #DF0D0E",
"+~.	c #EA1102",
"@~.	c #EF1104",
"#~.	c #F20D07",
"$~.	c #D01D19",
"%~.	c #7A0400",
"&~.	c #550200",
"*~.	c #4A100C",
"=~.	c #2C1A10",
"-~.	c #3C2118",
";~.	c #381D16",
">~.	c #290C08",
",~.	c #2E110D",
"'~.	c #2C0D0A",
")~.	c #260704",
"!~.	c #270A06",
"~~.	c #220501",
"{~.	c #200400",
"]~.	c #2F1C15",
"^~.	c #1D1007",
"/~.	c #2B120D",
"(~.	c #26150B",
"_~.	c #4A1106",
":~.	c #4D0900",
"<~.	c #540600",
"[~.	c #651106",
"}~.	c #7F1A10",
"|~.	c #971D12",
"1~.	c #A71A11",
"2~.	c #B71A15",
"3~.	c #C91919",
"4~.	c #DA1819",
"5~.	c #E41318",
"6~.	c #E20911",
"7~.	c #D9080E",
"8~.	c #CA090E",
"9~.	c #B20809",
"0~.	c #9B0A07",
"a~.	c #87100A",
"b~.	c #7D1A14",
"c~.	c #76261B",
"d~.	c #6E3023",
"e~.	c #693E2D",
"f~.	c #60412D",
"g~.	c #5D422D",
"h~.	c #5B422E",
"i~.	c #58422D",
"j~.	c #4D3123",
"k~.	c #493423",
"l~.	c #453825",
"m~.	c #413624",
"n~.	c #6D6155",
"o~.	c #504237",
"p~.	c #524034",
"q~.	c #48342B",
"r~.	c #4A362D",
"s~.	c #413028",
"t~.	c #24160D",
"u~.	c #150800",
"v~.	c #3C2A26",
"w~.	c #36231F",
"x~.	c #372420",
"y~.	c #321F1B",
"z~.	c #34211B",
"A~.	c #190909",
"B~.	c #1B0C0F",
"C~.	c #1A0B0E",
"D~.	c #190C06",
"E~.	c #1D0E07",
"F~.	c #22140B",
"G~.	c #DB1C12",
"H~.	c #C42217",
"I~.	c #A51D11",
"J~.	c #8B1B0F",
"K~.	c #7B1F12",
"L~.	c #702114",
"M~.	c #651F13",
"N~.	c #622012",
"O~.	c #652617",
"P~.	c #642617",
"Q~.	c #652816",
"R~.	c #6B2919",
"S~.	c #702B1B",
"T~.	c #6D2415",
"U~.	c #792D1F",
"V~.	c #99493E",
"W~.	c #A5524A",
"X~.	c #88352F",
"Y~.	c #70211A",
"Z~.	c #752A24",
"`~.	c #631D15",
" {.	c #68231C",
".{.	c #6C2921",
"+{.	c #6A2721",
"@{.	c #67201C",
"#{.	c #6B2120",
"${.	c #792B2B",
"%{.	c #843634",
"&{.	c #6F251C",
"*{.	c #6D271B",
"={.	c #642015",
"-{.	c #68261A",
";{.	c #5D1D13",
">{.	c #602016",
",{.	c #6B2B21",
"'{.	c #68281E",
"){.	c #622219",
"!{.	c #63231A",
"~{.	c #5A1D1C",
"{{.	c #5F2325",
"]{.	c #622729",
"^{.	c #622827",
"/{.	c #622A29",
"({.	c #662F2C",
"_{.	c #652E2B",
":{.	c #612A25",
"<{.	c #6A2F2B",
"[{.	c #6C2F2A",
"}{.	c #74302D",
"|{.	c #79322E",
"1{.	c #772C27",
"2{.	c #72231F",
"3{.	c #701C1A",
"4{.	c #711E1A",
"5{.	c #7F3127",
"6{.	c #803226",
"7{.	c #863227",
"8{.	c #8E3129",
"9{.	c #983027",
"0{.	c #A72D28",
"a{.	c #B82A28",
"b{.	c #C62626",
"c{.	c #D01C1F",
"d{.	c #E21212",
"e{.	c #ED1715",
"f{.	c #EF1911",
"g{.	c #EB150A",
"h{.	c #EA1706",
"i{.	c #E70300",
"j{.	c #DE1C1A",
"k{.	c #CA2521",
"l{.	c #8B0703",
"m{.	c #660701",
"n{.	c #4B0A04",
"o{.	c #381209",
"p{.	c #2E160C",
"q{.	c #30130B",
"r{.	c #2D120B",
"s{.	c #290A07",
"t{.	c #20130A",
"u{.	c #311813",
"v{.	c #2D190E",
"w{.	c #33170B",
"x{.	c #460D02",
"y{.	c #4B0D02",
"z{.	c #5A0D03",
"A{.	c #6D0D01",
"B{.	c #810F04",
"C{.	c #9A150E",
"D{.	c #B51D1A",
"E{.	c #CD1F20",
"F{.	c #D91C20",
"G{.	c #DD161D",
"H{.	c #D91219",
"I{.	c #C6070E",
"J{.	c #B90B0D",
"K{.	c #A30D0C",
"L{.	c #91120C",
"M{.	c #811C14",
"N{.	c #7B2820",
"O{.	c #753529",
"P{.	c #6F3E2F",
"Q{.	c #664232",
"R{.	c #5D4430",
"S{.	c #55402B",
"T{.	c #503B28",
"U{.	c #4B3424",
"V{.	c #403926",
"W{.	c #3B3422",
"X{.	c #180E04",
"Y{.	c #4C4034",
"Z{.	c #85796D",
"`{.	c #190B00",
" ].	c #523F31",
".].	c #553F32",
"+].	c #543E33",
"@].	c #503931",
"#].	c #43322A",
"$].	c #100200",
"%].	c #3A2824",
"&].	c #3C2925",
"*].	c #3A2723",
"=].	c #170501",
"-].	c #1D0F0F",
";].	c #1D0E11",
">].	c #170909",
",].	c #C51D10",
"'].	c #AB1D0F",
")].	c #8C1706",
"!].	c #7C1809",
"~].	c #751F10",
"{].	c #681C0E",
"]].	c #621D0D",
"^].	c #652211",
"/].	c #682715",
"(].	c #662715",
"_].	c #662813",
":].	c #682713",
"<].	c #732A19",
"[].	c #752818",
"}].	c #762718",
"|].	c #903C31",
"1].	c #AD564C",
"2].	c #A04940",
"3].	c #822E24",
"4].	c #7A2A21",
"5].	c #702319",
"6].	c #742B22",
"7].	c #742E26",
"8].	c #6C251F",
"9].	c #69221C",
"0].	c #752A27",
"a].	c #873937",
"b].	c #8F4441",
"c].	c #742F28",
"d].	c #713128",
"e].	c #6D2E25",
"f].	c #65261D",
"g].	c #5D2117",
"h].	c #5F261B",
"i].	c #612B1F",
"j].	c #602A1E",
"k].	c #642B22",
"l].	c #6B3028",
"m].	c #632820",
"n].	c #5D201B",
"o].	c #632621",
"p].	c #662C2A",
"q].	c #5E2625",
"r].	c #5F2524",
"s].	c #692D2D",
"t].	c #773A39",
"u].	c #7B3B39",
"v].	c #702F2D",
"w].	c #64201D",
"x].	c #6E2A27",
"y].	c #722D28",
"z].	c #742D27",
"A].	c #722B25",
"B].	c #732D25",
"C].	c #732A23",
"D].	c #6E251C",
"E].	c #70261B",
"F].	c #6F2115",
"G].	c #762217",
"H].	c #862921",
"I].	c #982D25",
"J].	c #A12722",
"K].	c #A91D1C",
"L].	c #B51718",
"M].	c #C81A1C",
"N].	c #D31718",
"O].	c #E01A1B",
"P].	c #E81D19",
"Q].	c #E81909",
"R].	c #F6130C",
"S].	c #CA1814",
"T].	c #A81712",
"U].	c #730802",
"V].	c #520701",
"W].	c #390A02",
"X].	c #2B140C",
"Y].	c #2B0D05",
"Z].	c #2F120C",
"`].	c #30110E",
" ^.	c #310F0D",
".^.	c #2E0C0A",
"+^.	c #331411",
"@^.	c #270B07",
"#^.	c #29110D",
"$^.	c #210E08",
"%^.	c #150B02",
"&^.	c #261E13",
"*^.	c #27190E",
"=^.	c #361A0F",
"-^.	c #3A180E",
";^.	c #3E130A",
">^.	c #3C0D05",
",^.	c #3F0600",
"'^.	c #480000",
")^.	c #5D0500",
"!^.	c #740900",
"~^.	c #8D0C07",
"{^.	c #B11918",
"]^.	c #CF2629",
"^^.	c #D22225",
"/^.	c #C51518",
"(^.	c #B40E10",
"_^.	c #A50F0E",
":^.	c #90110B",
"<^.	c #811910",
"[^.	c #7F2D22",
"}^.	c #7F3F33",
"|^.	c #724132",
"1^.	c #5F3A2A",
"2^.	c #5E4330",
"3^.	c #5A4532",
"4^.	c #54422E",
"5^.	c #4F3D29",
"6^.	c #4E3C28",
"7^.	c #452B1C",
"8^.	c #462A1C",
"9^.	c #52362A",
"0^.	c #4A4130",
"a^.	c #312E1B",
"b^.	c #221C10",
"c^.	c #271E15",
"d^.	c #584E44",
"e^.	c #5E544A",
"f^.	c #5C5044",
"g^.	c #2C1E11",
"h^.	c #574636",
"i^.	c #523E35",
"j^.	c #4F3B34",
"k^.	c #503D36",
"l^.	c #4F3C35",
"m^.	c #3B2A22",
"n^.	c #392C26",
"o^.	c #3B2C27",
"p^.	c #3D2B27",
"q^.	c #1A0B06",
"r^.	c #A71506",
"s^.	c #890E00",
"t^.	c #751C0A",
"u^.	c #71200F",
"v^.	c #6D2411",
"w^.	c #67250F",
"x^.	c #64230D",
"y^.	c #692812",
"z^.	c #72301A",
"A^.	c #742D19",
"B^.	c #762B18",
"C^.	c #722312",
"D^.	c #833123",
"E^.	c #A24C3F",
"F^.	c #A14B3E",
"G^.	c #8A3329",
"H^.	c #7E2C20",
"I^.	c #772B1E",
"J^.	c #792F24",
"K^.	c #763024",
"L^.	c #722E23",
"M^.	c #7A312B",
"N^.	c #803530",
"O^.	c #813734",
"P^.	c #6F2E28",
"Q^.	c #6D3129",
"R^.	c #6B2F27",
"S^.	c #662B23",
"T^.	c #5E281E",
"U^.	c #5E2A1F",
"V^.	c #5B271C",
"W^.	c #592319",
"X^.	c #6E332D",
"Y^.	c #672C24",
"Z^.	c #622520",
"`^.	c #672821",
" /.	c #662924",
"./.	c #662F2A",
"+/.	c #622D29",
"@/.	c #652B29",
"#/.	c #6B302C",
"$/.	c #753631",
"%/.	c #7C3835",
"&/.	c #7B3631",
"*/.	c #702A22",
"=/.	c #6C281D",
"-/.	c #69291D",
";/.	c #6B2D20",
">/.	c #692E1E",
",/.	c #692A1B",
"'/.	c #662112",
")/.	c #681C0F",
"!/.	c #7A1D15",
"~/.	c #841B15",
"{/.	c #8C1612",
"]/.	c #97110E",
"^/.	c #A41010",
"//.	c #C31F20",
"(/.	c #C9191B",
"_/.	c #D11917",
":/.	c #C50300",
"</.	c #C60500",
"[/.	c #D40C00",
"}/.	c #EB1209",
"|/.	c #F3100A",
"1/.	c #D31813",
"2/.	c #B81B16",
"3/.	c #800601",
"4/.	c #5D0400",
"5/.	c #400500",
"6/.	c #360E06",
"7/.	c #2E1008",
"8/.	c #2E0F0A",
"9/.	c #300E0C",
"0/.	c #2C0A08",
"a/.	c #2B0907",
"b/.	c #2F130F",
"c/.	c #290D09",
"d/.	c #2D0F0D",
"e/.	c #170D04",
"f/.	c #3A1D15",
"g/.	c #350A01",
"h/.	c #3A0500",
"i/.	c #4B0700",
"j/.	c #5F0700",
"k/.	c #760902",
"l/.	c #991513",
"m/.	c #B62123",
"n/.	c #BC2222",
"o/.	c #B31919",
"p/.	c #A41413",
"q/.	c #93140E",
"r/.	c #821A11",
"s/.	c #7D3B2D",
"t/.	c #734233",
"u/.	c #654030",
"v/.	c #583B2B",
"w/.	c #57422F",
"x/.	c #4E3D29",
"y/.	c #4D3C28",
"z/.	c #473020",
"A/.	c #523628",
"B/.	c #4B2F23",
"C/.	c #5C4235",
"D/.	c #4B3528",
"E/.	c #342D1D",
"F/.	c #201E0F",
"G/.	c #141507",
"H/.	c #0C0800",
"I/.	c #4A433B",
"J/.	c #6C635A",
"K/.	c #534032",
"L/.	c #513E2F",
"M/.	c #4F3B32",
"N/.	c #4C3831",
"O/.	c #49362F",
"P/.	c #422F28",
"Q/.	c #392C24",
"R/.	c #3B2E28",
"S/.	c #C71B0D",
"T/.	c #8E2311",
"U/.	c #822513",
"V/.	c #732612",
"W/.	c #6C250F",
"X/.	c #69250E",
"Y/.	c #6B2911",
"Z/.	c #713118",
"`/.	c #6E2E15",
" (.	c #712F17",
".(.	c #6D2610",
"+(.	c #742916",
"@(.	c #8F402F",
"#(.	c #9C4B3A",
"$(.	c #8C3B2A",
"%(.	c #792A19",
"&(.	c #79301F",
"*(.	c #773222",
"=(.	c #763523",
"-(.	c #773525",
";(.	c #7A382A",
">(.	c #7C3A2E",
",(.	c #783429",
"'(.	c #722D26",
")(.	c #6E2F2A",
"!(.	c #6E2F28",
"~(.	c #6A2E26",
"{(.	c #672B23",
"](.	c #60261B",
"^(.	c #73342D",
"/(.	c #682721",
"((.	c #632D23",
"_(.	c #612F24",
":(.	c #652F25",
"<(.	c #682E23",
"[(.	c #6B2C23",
"}(.	c #733028",
"|(.	c #7D3930",
"1(.	c #853F37",
"2(.	c #7B352D",
"3(.	c #6F2F23",
"4(.	c #662B1B",
"5(.	c #642C1B",
"6(.	c #663320",
"7(.	c #663620",
"8(.	c #68341F",
"9(.	c #74281B",
"0(.	c #78261B",
"a(.	c #7D231A",
"b(.	c #811E18",
"c(.	c #861914",
"d(.	c #9F1916",
"e(.	c #AA1916",
"f(.	c #B01511",
"g(.	c #C71C15",
"h(.	c #C91810",
"i(.	c #D21408",
"j(.	c #E41A10",
"k(.	c #950E0A",
"l(.	c #4C0300",
"m(.	c #3E0903",
"n(.	c #3D140E",
"o(.	c #311009",
"p(.	c #2E0D08",
"q(.	c #310E0A",
"r(.	c #300D09",
"s(.	c #2A0703",
"t(.	c #300A07",
"u(.	c #33100C",
"v(.	c #35120E",
"w(.	c #3A1914",
"x(.	c #341510",
"y(.	c #290E07",
"z(.	c #1C0500",
"A(.	c #29150C",
"B(.	c #200E04",
"C(.	c #180400",
"D(.	c #200903",
"E(.	c #280F0A",
"F(.	c #382119",
"G(.	c #392019",
"H(.	c #340A00",
"I(.	c #3E0900",
"J(.	c #4F0700",
"K(.	c #670A03",
"L(.	c #881713",
"M(.	c #A12120",
"N(.	c #A6201D",
"O(.	c #9E1A16",
"P(.	c #901913",
"Q(.	c #831B12",
"R(.	c #7C291B",
"S(.	c #803E2E",
"T(.	c #7A4938",
"U(.	c #694432",
"V(.	c #553B2C",
"W(.	c #5E4433",
"X(.	c #57402E",
"Y(.	c #503E2A",
"Z(.	c #4C3B27",
"`(.	c #503629",
" _.	c #3C2215",
"._.	c #624A3E",
"+_.	c #533F34",
"@_.	c #131105",
"#_.	c #0C0C02",
"$_.	c #0C0C04",
"%_.	c #3C3932",
"&_.	c #5E5953",
"*_.	c #635C54",
"=_.	c #080000",
"-_.	c #291D0F",
";_.	c #533C2C",
">_.	c #402E24",
",_.	c #3B3128",
"'_.	c #3A3027",
")_.	c #3B2E26",
"!_.	c #3A2D25",
"~_.	c #3A2B26",
"{_.	c #2F2019",
"]_.	c #CA1F15",
"^_.	c #B82418",
"/_.	c #A92B1C",
"(_.	c #A63B2B",
"__.	c #933422",
":_.	c #7F2A16",
"<_.	c #6F210D",
"[_.	c #6E230E",
"}_.	c #722A14",
"|_.	c #722B15",
"1_.	c #67270E",
"2_.	c #662A10",
"3_.	c #6F3319",
"4_.	c #702E16",
"5_.	c #6E2711",
"6_.	c #813420",
"7_.	c #934531",
"8_.	c #8B3D29",
"9_.	c #752814",
"0_.	c #7A321C",
"a_.	c #76321D",
"b_.	c #74331F",
"c_.	c #773624",
"d_.	c #793A29",
"e_.	c #7C3A2C",
"f_.	c #763426",
"g_.	c #712D24",
"h_.	c #76332D",
"i_.	c #742F2A",
"j_.	c #73302A",
"k_.	c #76332B",
"l_.	c #6F2C24",
"m_.	c #6E2B23",
"n_.	c #6F2C23",
"o_.	c #6A261D",
"p_.	c #78342B",
"q_.	c #722E25",
"r_.	c #6D271F",
"s_.	c #6F2921",
"t_.	c #6E2B22",
"u_.	c #642A1E",
"v_.	c #653022",
"w_.	c #693122",
"x_.	c #682E20",
"y_.	c #682A1D",
"z_.	c #6B2B1F",
"A_.	c #763428",
"B_.	c #803C31",
"C_.	c #803E32",
"D_.	c #7C3C30",
"E_.	c #713626",
"F_.	c #69301F",
"G_.	c #642F1D",
"H_.	c #653521",
"I_.	c #663821",
"J_.	c #693520",
"K_.	c #742419",
"L_.	c #782118",
"M_.	c #7F1914",
"N_.	c #8E1814",
"O_.	c #8D100A",
"P_.	c #960F09",
"Q_.	c #A4150D",
"R_.	c #B71E18",
"S_.	c #C4231B",
"T_.	c #C82119",
"U_.	c #CD2218",
"V_.	c #DA180F",
"W_.	c #F0130B",
"X_.	c #D21F1B",
"Y_.	c #B11D1B",
"Z_.	c #88100F",
"`_.	c #5E0501",
" :.	c #480401",
".:.	c #410E0A",
"+:.	c #3F1612",
"@:.	c #37140E",
"#:.	c #2F0E07",
"$:.	c #2E0B07",
"%:.	c #340E0B",
"&:.	c #350F0C",
"*:.	c #320A08",
"=:.	c #2E0805",
"-:.	c #36100D",
";:.	c #3B1814",
">:.	c #371611",
",:.	c #32130E",
"':.	c #2B0E08",
"):.	c #200901",
"!:.	c #221006",
"~:.	c #250C08",
"{:.	c #29100C",
"]:.	c #321A16",
"^:.	c #38211B",
"/:.	c #371E17",
"(:.	c #2B120B",
"_:.	c #2A0D05",
"::.	c #321004",
"<:.	c #3A0C00",
"[:.	c #671710",
"}:.	c #88221E",
"|:.	c #962622",
"1:.	c #911E19",
"2:.	c #7F1D12",
"3:.	c #7D2A1C",
"4:.	c #7D3C2A",
"5:.	c #7C4936",
"6:.	c #704A37",
"7:.	c #624331",
"8:.	c #573B2D",
"9:.	c #634739",
"0:.	c #533C2A",
"a:.	c #4A3925",
"b:.	c #4F3C2B",
"c:.	c #452E20",
"d:.	c #321A0E",
"e:.	c #5A4439",
"f:.	c #4D3A33",
"g:.	c #0B0801",
"h:.	c #15160E",
"i:.	c #30312B",
"j:.	c #575651",
"k:.	c #514E49",
"l:.	c #3A352F",
"m:.	c #150E04",
"n:.	c #190F05",
"o:.	c #504031",
"p:.	c #4F3E2E",
"q:.	c #553E2E",
"r:.	c #382B23",
"s:.	c #32231E",
"t:.	c #31221D",
"u:.	c #D91916",
"v:.	c #B5251C",
"w:.	c #A3271B",
"x:.	c #A03628",
"y:.	c #913423",
"z:.	c #7F291A",
"A:.	c #6F200F",
"B:.	c #712815",
"C:.	c #722B17",
"D:.	c #6B2913",
"E:.	c #672610",
"F:.	c #652D14",
"G:.	c #6E361D",
"H:.	c #72341D",
"I:.	c #722712",
"J:.	c #843723",
"K:.	c #893B25",
"L:.	c #792C18",
"M:.	c #7B331D",
"N:.	c #78311D",
"O:.	c #74311E",
"P:.	c #753221",
"Q:.	c #753323",
"R:.	c #763225",
"S:.	c #773127",
"T:.	c #823933",
"U:.	c #7D322D",
"V:.	c #7E332E",
"W:.	c #7E332D",
"X:.	c #7E312B",
"Y:.	c #7D302A",
"Z:.	c #7F322C",
"`:.	c #81342C",
" <.	c #782B23",
".<.	c #7B2E24",
"+<.	c #81342A",
"@<.	c #762C21",
"#<.	c #7A3025",
"$<.	c #7A3226",
"%<.	c #6F2D1D",
"&<.	c #723322",
"*<.	c #703321",
"=<.	c #6D2F20",
"-<.	c #6C2E1F",
";<.	c #6E3021",
"><.	c #703223",
",<.	c #7B4030",
"'<.	c #793E2E",
")<.	c #723928",
"!<.	c #6B3221",
"~<.	c #682F1E",
"{<.	c #6A3022",
"]<.	c #693120",
"^<.	c #6A2C1D",
"/<.	c #70281C",
"(<.	c #72241A",
"_<.	c #702218",
":<.	c #712118",
"<<.	c #77221B",
"[<.	c #7B221A",
"}<.	c #791F17",
"|<.	c #7A1912",
"1<.	c #801910",
"2<.	c #8D140B",
"3<.	c #9A170F",
"4<.	c #A91A12",
"5<.	c #B41B15",
"6<.	c #C01E19",
"7<.	c #CC1F19",
"8<.	c #EE1810",
"9<.	c #DE110E",
"0<.	c #C72425",
"a<.	c #9E1819",
"b<.	c #700606",
"c<.	c #510000",
"d<.	c #440706",
"e<.	c #38130D",
"f<.	c #310E08",
"g<.	c #38100E",
"h<.	c #39100E",
"i<.	c #350D0B",
"j<.	c #370E0C",
"k<.	c #360E0C",
"l<.	c #340C0A",
"m<.	c #38120F",
"n<.	c #381511",
"o<.	c #35140F",
"p<.	c #200700",
"q<.	c #2A130B",
"r<.	c #2A180E",
"s<.	c #2E1510",
"t<.	c #3A1F18",
"u<.	c #331811",
"v<.	c #361B14",
"w<.	c #391E17",
"x<.	c #280F08",
"y<.	c #280D04",
"z<.	c #2F0F04",
"A<.	c #4C1109",
"B<.	c #892E29",
"C<.	c #8B2823",
"D<.	c #701208",
"E<.	c #762416",
"F<.	c #7E3B2A",
"G<.	c #7E4B36",
"H<.	c #6E4833",
"I<.	c #61402D",
"J<.	c #5D4030",
"K<.	c #5A3E32",
"L<.	c #614436",
"M<.	c #5C3F2F",
"N<.	c #4F3A25",
"O<.	c #4F3E2C",
"P<.	c #564533",
"Q<.	c #3A2718",
"R<.	c #301C11",
"S<.	c #412D24",
"T<.	c #32211A",
"U<.	c #1C1411",
"V<.	c #0F0B08",
"W<.	c #2E2F2A",
"X<.	c #4D4E49",
"Y<.	c #4A4B46",
"Z<.	c #43423D",
"`<.	c #26231C",
" [.	c #1E170D",
".[.	c #312517",
"+[.	c #574738",
"@[.	c #4E3D2D",
"#[.	c #513A28",
"$[.	c #443025",
"%[.	c #342216",
"&[.	c #211006",
"*[.	c #1B0D02",
"=[.	c #33241D",
"-[.	c #140A01",
";[.	c #150B0A",
">[.	c #100503",
",[.	c #0E0301",
"'[.	c #D61C1D",
")[.	c #C3211E",
"![.	c #A81B14",
"~[.	c #8F271C",
"{[.	c #85291C",
"][.	c #752619",
"^[.	c #722618",
"/[.	c #6B2412",
"([.	c #682411",
"_[.	c #6B2815",
":[.	c #6F311C",
"<[.	c #6D331D",
"[[.	c #6E341E",
"}[.	c #6E2713",
"|[.	c #6B1E0C",
"1[.	c #7B2A17",
"2[.	c #8A3823",
"3[.	c #853421",
"4[.	c #833521",
"5[.	c #7E311F",
"6[.	c #772F20",
"7[.	c #762E1F",
"8[.	c #762E20",
"9[.	c #8B3E38",
"0[.	c #853631",
"a[.	c #81322D",
"b[.	c #84332F",
"c[.	c #85322C",
"d[.	c #832E29",
"e[.	c #86312C",
"f[.	c #8C3730",
"g[.	c #8E3730",
"h[.	c #812D23",
"i[.	c #832F25",
"j[.	c #88362A",
"k[.	c #823326",
"l[.	c #803124",
"m[.	c #85372A",
"n[.	c #87392C",
"o[.	c #792B1E",
"p[.	c #782F20",
"q[.	c #763121",
"r[.	c #733220",
"s[.	c #6D301E",
"t[.	c #662B19",
"u[.	c #622715",
"v[.	c #783F2E",
"w[.	c #753A2A",
"x[.	c #723226",
"y[.	c #723024",
"z[.	c #743027",
"A[.	c #752C25",
"B[.	c #71271E",
"C[.	c #772A22",
"D[.	c #77291F",
"E[.	c #76281E",
"F[.	c #76291F",
"G[.	c #7D3026",
"H[.	c #792B21",
"I[.	c #732318",
"J[.	c #7B271C",
"K[.	c #7C2015",
"L[.	c #810F05",
"M[.	c #8E0D07",
"N[.	c #9E100C",
"O[.	c #B01813",
"P[.	c #C01B17",
"Q[.	c #D51C19",
"R[.	c #DA1411",
"S[.	c #E41811",
"T[.	c #ED1A13",
"U[.	c #E8120A",
"V[.	c #D21211",
"W[.	c #CC2223",
"X[.	c #AB191C",
"Y[.	c #80090D",
"Z[.	c #5D0000",
"`[.	c #480202",
" }.	c #3F0C09",
".}.	c #39120D",
"+}.	c #35120C",
"@}.	c #3D1110",
"#}.	c #3E1211",
"$}.	c #3C1311",
"%}.	c #380F0D",
"&}.	c #330A08",
"*}.	c #32110C",
"=}.	c #280B05",
"-}.	c #2B190F",
";}.	c #2F1B14",
">}.	c #2E1B14",
",}.	c #341713",
"'}.	c #391813",
")}.	c #3A1B16",
"!}.	c #351812",
"~}.	c #2E130C",
"{}.	c #250D03",
"]}.	c #330801",
"^}.	c #702923",
"/}.	c #822D28",
"(}.	c #7A1F1A",
"_}.	c #6E160C",
":}.	c #691709",
"<}.	c #783522",
"[}.	c #7F4833",
"}}.	c #774F36",
"|}.	c #553826",
"1}.	c #5A3E30",
"2}.	c #5C3E33",
"3}.	c #56362B",
"4}.	c #5B3A2B",
"5}.	c #593C2A",
"6}.	c #503A25",
"7}.	c #544532",
"8}.	c #584838",
"9}.	c #2E1C0E",
"0}.	c #1D1513",
"a}.	c #252120",
"b}.	c #4C4B49",
"c}.	c #464845",
"d}.	c #282A27",
"e}.	c #42433E",
"f}.	c #312E27",
"g}.	c #524233",
"h}.	c #4E3725",
"i}.	c #352518",
"j}.	c #31271E",
"k}.	c #130900",
"l}.	c #120403",
"m}.	c #130504",
"n}.	c #CA151A",
"o}.	c #AF1314",
"p}.	c #920B08",
"q}.	c #87120B",
"r}.	c #8F2A22",
"s}.	c #832920",
"t}.	c #7C2A1F",
"u}.	c #782A1E",
"v}.	c #72281B",
"w}.	c #692414",
"x}.	c #642110",
"y}.	c #6E2F1D",
"z}.	c #703320",
"A}.	c #6A2B19",
"B}.	c #742F1F",
"C}.	c #7C2F1F",
"D}.	c #752212",
"E}.	c #7D2416",
"F}.	c #8C3021",
"G}.	c #8B3222",
"H}.	c #883120",
"I}.	c #832D1E",
"J}.	c #7F2D1F",
"K}.	c #823024",
"L}.	c #813126",
"M}.	c #85322A",
"N}.	c #8A3731",
"O}.	c #903D37",
"P}.	c #87342E",
"Q}.	c #89342F",
"R}.	c #89302A",
"S}.	c #862B26",
"T}.	c #8D302B",
"U}.	c #963932",
"V}.	c #93362F",
"W}.	c #882B23",
"X}.	c #872F25",
"Y}.	c #8C3629",
"Z}.	c #863325",
"`}.	c #843123",
" |.	c #873625",
".|.	c #893626",
"+|.	c #842B1D",
"@|.	c #85291E",
"#|.	c #802A1D",
"$|.	c #7C2D20",
"%|.	c #71301E",
"&|.	c #682D1B",
"*|.	c #622916",
"=|.	c #743B2A",
"-|.	c #763B2D",
";|.	c #78362A",
">|.	c #782F28",
",|.	c #7C2D28",
"'|.	c #842C2B",
")|.	c #842829",
"!|.	c #802425",
"~|.	c #76231D",
"{|.	c #75261F",
"]|.	c #712B21",
"^|.	c #732F24",
"/|.	c #702E22",
"(|.	c #6A281A",
"_|.	c #712B1F",
":|.	c #73271A",
"<|.	c #761E12",
"[|.	c #851009",
"}|.	c #94100C",
"||.	c #A51612",
"1|.	c #B61714",
"2|.	c #CE1815",
"3|.	c #D71412",
"4|.	c #E31710",
"5|.	c #E5120B",
"6|.	c #E31611",
"7|.	c #D51313",
"8|.	c #CB1B1E",
"9|.	c #B3181E",
"0|.	c #8F0D15",
"a|.	c #690206",
"b|.	c #4E0002",
"c|.	c #410706",
"d|.	c #380F0B",
"e|.	c #36110B",
"f|.	c #3D0F0F",
"g|.	c #3E1010",
"h|.	c #3F1312",
"i|.	c #411514",
"j|.	c #340B09",
"k|.	c #320907",
"l|.	c #39110F",
"m|.	c #34130E",
"n|.	c #1F0800",
"o|.	c #311811",
"p|.	c #36130D",
"q|.	c #3C1711",
"r|.	c #240C02",
"s|.	c #270600",
"t|.	c #360903",
"u|.	c #551A14",
"v|.	c #702925",
"w|.	c #6C1A0E",
"x|.	c #844A36",
"y|.	c #7B4D36",
"z|.	c #68462D",
"A|.	c #553923",
"B|.	c #523724",
"C|.	c #5A3D2F",
"D|.	c #5C3A30",
"E|.	c #4F291C",
"F|.	c #5D3828",
"G|.	c #5F402E",
"H|.	c #543B27",
"I|.	c #4C3A24",
"J|.	c #503F2B",
"K|.	c #524330",
"L|.	c #271708",
"M|.	c #241309",
"N|.	c #190D0D",
"O|.	c #1B1213",
"P|.	c #3C3638",
"Q|.	c #4D4B4C",
"R|.	c #303231",
"S|.	c #222421",
"T|.	c #3A3B36",
"U|.	c #2D2C27",
"V|.	c #18140B",
"W|.	c #493D2F",
"X|.	c #4C3C2D",
"Y|.	c #4D3C2A",
"Z|.	c #4F3A27",
"`|.	c #493220",
" 1.	c #47301E",
".1.	c #3E3023",
"+1.	c #1B0E05",
"@1.	c #352C25",
"#1.	c #2F261D",
"$1.	c #2C2419",
"%1.	c #2A2217",
"&1.	c #282015",
"*1.	c #311D16",
"=1.	c #130E0B",
"-1.	c #160E0C",
";1.	c #170F0D",
">1.	c #1B110F",
",1.	c #100201",
"'1.	c #0F0402",
")1.	c #B51112",
"!1.	c #920605",
"~1.	c #790000",
"{1.	c #93322C",
"]1.	c #8D322D",
"^1.	c #802B26",
"/1.	c #6C2718",
"(1.	c #672515",
"_1.	c #652011",
":1.	c #772B1D",
"<1.	c #8B392D",
"[1.	c #852D21",
"}1.	c #832519",
"|1.	c #8B2B1D",
"11.	c #8A2A1C",
"21.	c #892C1D",
"31.	c #84281B",
"41.	c #832A1C",
"51.	c #8A3224",
"61.	c #8F392C",
"71.	c #8F382E",
"81.	c #913A31",
"91.	c #903B34",
"01.	c #8B362F",
"a1.	c #89342D",
"b1.	c #8C352E",
"c1.	c #842924",
"d1.	c #8C2F2A",
"e1.	c #973A35",
"f1.	c #92352E",
"g1.	c #872A23",
"h1.	c #862E24",
"i1.	c #8C342A",
"j1.	c #863023",
"k1.	c #812B1E",
"l1.	c #812E1E",
"m1.	c #922D23",
"n1.	c #922A21",
"o1.	c #8C2A1F",
"p1.	c #882C21",
"q1.	c #812F21",
"r1.	c #7D3123",
"s1.	c #733121",
"t1.	c #713221",
"u1.	c #733123",
"v1.	c #752D21",
"w1.	c #7B2621",
"x1.	c #832825",
"y1.	c #862627",
"z1.	c #822422",
"A1.	c #7A251E",
"B1.	c #7B2D23",
"C1.	c #7D2F25",
"D1.	c #782B21",
"E1.	c #752B20",
"F1.	c #752F23",
"G1.	c #743224",
"H1.	c #723022",
"I1.	c #78291C",
"J1.	c #7C2217",
"K1.	c #87140F",
"L1.	c #91110E",
"M1.	c #9C0D09",
"N1.	c #B91410",
"O1.	c #CE1711",
"P1.	c #CF140B",
"Q1.	c #E1201B",
"R1.	c #D61A19",
"S1.	c #C9161A",
"T1.	c #B9181E",
"U1.	c #9B1219",
"V1.	c #76050B",
"W1.	c #530001",
"X1.	c #400302",
"Y1.	c #300D07",
"Z1.	c #3A110D",
"`1.	c #3B0F0C",
" 2.	c #421210",
".2.	c #441714",
"+2.	c #401310",
"@2.	c #380C09",
"#2.	c #310804",
"$2.	c #3A1210",
"%2.	c #3C1915",
"&2.	c #2C0F09",
"*2.	c #270C05",
"=2.	c #210600",
"-2.	c #35271E",
";2.	c #391C16",
">2.	c #3C1B14",
",2.	c #3A1711",
"'2.	c #381710",
")2.	c #2B1007",
"!2.	c #2E0700",
"~2.	c #400D09",
"{2.	c #5B201C",
"]2.	c #6F2C26",
"^2.	c #671E18",
"/2.	c #5A1007",
"(2.	c #6A2418",
"_2.	c #864839",
":2.	c #8D5A45",
"<2.	c #754C36",
"[2.	c #5A3C24",
"}2.	c #503520",
"|2.	c #553A27",
"12.	c #59372D",
"22.	c #542F26",
"32.	c #4A2419",
"42.	c #5D392B",
"52.	c #624535",
"62.	c #573D2C",
"72.	c #503F2D",
"82.	c #4B3E2D",
"92.	c #403323",
"02.	c #302523",
"a2.	c #190F0E",
"b2.	c #140B0E",
"c2.	c #3F393D",
"d2.	c #353336",
"e2.	c #242625",
"f2.	c #363835",
"g2.	c #282924",
"h2.	c #1B1813",
"i2.	c #29251C",
"j2.	c #4B3B2B",
"k2.	c #4C3726",
"l2.	c #46311E",
"m2.	c #47321F",
"n2.	c #342923",
"o2.	c #292017",
"p2.	c #37221D",
"q2.	c #331F18",
"r2.	c #170B0B",
"s2.	c #0B0000",
"t2.	c #950A05",
"u2.	c #770600",
"v2.	c #690700",
"w2.	c #71120E",
"x2.	c #842624",
"y2.	c #973939",
"z2.	c #95393A",
"A2.	c #7C2724",
"B2.	c #681B13",
"C2.	c #6A2516",
"D2.	c #692816",
"E2.	c #61230E",
"F2.	c #692814",
"G2.	c #682011",
"H2.	c #762A1C",
"I2.	c #782419",
"J2.	c #791F14",
"K2.	c #85271D",
"L2.	c #933327",
"M2.	c #9A382B",
"N2.	c #943225",
"O2.	c #8C2C1C",
"P2.	c #852817",
"Q2.	c #862B19",
"R2.	c #8C3321",
"S2.	c #913A27",
"T2.	c #903B27",
"U2.	c #8D3726",
"V2.	c #8E3A2F",
"W2.	c #89352B",
"X2.	c #88342A",
"Y2.	c #8B372D",
"Z2.	c #88352D",
"`2.	c #822D26",
" 3.	c #8D3833",
".3.	c #85302B",
"+3.	c #7E2922",
"@3.	c #7F2A23",
"#3.	c #873027",
"$3.	c #883128",
"%3.	c #822B21",
"&3.	c #802218",
"*3.	c #962922",
"=3.	c #9F2C25",
"-3.	c #9D2E25",
";3.	c #932B22",
">3.	c #8F2D22",
",3.	c #903429",
"'3.	c #883225",
")3.	c #7D2B1D",
"!3.	c #7C3020",
"~3.	c #7B2F1F",
"{3.	c #76281B",
"]3.	c #77281B",
"^3.	c #79271B",
"/3.	c #7D2E1F",
"(3.	c #803122",
"_3.	c #7B281A",
":3.	c #7E2B1D",
"<3.	c #843224",
"[3.	c #7F3023",
"}3.	c #75271A",
"|3.	c #75291B",
"13.	c #7D251B",
"23.	c #801F18",
"33.	c #801914",
"43.	c #86110A",
"53.	c #9A0F08",
"63.	c #AA160C",
"73.	c #B61F14",
"83.	c #B91F13",
"93.	c #BD190F",
"03.	c #CB2019",
"a3.	c #D52726",
"b3.	c #C31618",
"c3.	c #B51217",
"d3.	c #82090E",
"e3.	c #5F0505",
"f3.	c #430400",
"g3.	c #300A01",
"h3.	c #3E0E0A",
"i3.	c #41100C",
"j3.	c #43120E",
"k3.	c #441410",
"l3.	c #230801",
"m3.	c #200800",
"n3.	c #220A00",
"o3.	c #29170D",
"p3.	c #33160E",
"q3.	c #2E130A",
"r3.	c #2C1108",
"s3.	c #240C00",
"t3.	c #1D0700",
"u3.	c #1F0900",
"v3.	c #4B0F0E",
"w3.	c #531814",
"x3.	c #6B302A",
"y3.	c #4F140C",
"z3.	c #8D5C4E",
"A3.	c #966859",
"B3.	c #88624F",
"C3.	c #62412E",
"D3.	c #50311F",
"E3.	c #503321",
"F3.	c #523525",
"G3.	c #59392E",
"H3.	c #46261B",
"I3.	c #422419",
"J3.	c #715549",
"K3.	c #64493E",
"L3.	c #3E281B",
"M3.	c #564237",
"N3.	c #554339",
"O3.	c #231814",
"P3.	c #382E2C",
"Q3.	c #403635",
"R3.	c #292021",
"S3.	c #1C1618",
"T3.	c #241F23",
"U3.	c #242223",
"V3.	c #242623",
"W3.	c #30322D",
"X3.	c #32312C",
"Y3.	c #1A150F",
"Z3.	c #292218",
"`3.	c #3C3024",
" 4.	c #564130",
".4.	c #49331E",
"+4.	c #4A341F",
"@4.	c #3E2C18",
"#4.	c #3C3427",
"$4.	c #110700",
"%4.	c #362921",
"&4.	c #402F28",
"*4.	c #3F2E27",
"=4.	c #281511",
"-4.	c #130100",
";4.	c #100B05",
">4.	c #120D07",
",4.	c #130E08",
"'4.	c #1B1310",
")4.	c #18100D",
"!4.	c #0E0403",
"~4.	c #0C0201",
"{4.	c #0D0302",
"]4.	c #890A01",
"^4.	c #6E0C00",
"/4.	c #650E04",
"(4.	c #6B130F",
"_4.	c #791F1E",
":4.	c #AC4E4F",
"<4.	c #A14344",
"[4.	c #802B28",
"}4.	c #6E1F18",
"|4.	c #6F2A1B",
"14.	c #6C2B17",
"24.	c #682711",
"34.	c #712F19",
"44.	c #6D2413",
"54.	c #7F2D21",
"64.	c #7F281E",
"74.	c #7F251A",
"84.	c #86281E",
"94.	c #903024",
"04.	c #973528",
"a4.	c #902F1F",
"b4.	c #8D2C1C",
"c4.	c #8B2C1A",
"d4.	c #8C2F1D",
"e4.	c #903520",
"f4.	c #903822",
"g4.	c #8B371F",
"h4.	c #88331E",
"i4.	c #8D3A2A",
"j4.	c #8A382C",
"k4.	c #87372C",
"l4.	c #84362C",
"m4.	c #80312A",
"n4.	c #843530",
"o4.	c #82332E",
"p4.	c #7F302B",
"q4.	c #7D2E29",
"r4.	c #7E2E27",
"s4.	c #812E28",
"t4.	c #812E26",
"u4.	c #82251E",
"v4.	c #A02D28",
"w4.	c #942921",
"x4.	c #902920",
"y4.	c #8C3023",
"z4.	c #842C1E",
"A4.	c #7F2C1C",
"B4.	c #7D2E1D",
"C4.	c #7B2E1C",
"D4.	c #792C1A",
"E4.	c #772C19",
"F4.	c #782D1A",
"G4.	c #7B2E1A",
"H4.	c #7F311D",
"I4.	c #7E2618",
"J4.	c #8A3123",
"K4.	c #883024",
"L4.	c #7F291C",
"M4.	c #752617",
"N4.	c #782A1D",
"O4.	c #7A2A1F",
"P4.	c #7B271D",
"Q4.	c #792018",
"R4.	c #751B13",
"S4.	c #7B140D",
"T4.	c #A11F12",
"U4.	c #A21E11",
"V4.	c #A2180B",
"W4.	c #A6160B",
"X4.	c #B31911",
"Y4.	c #BE1C19",
"Z4.	c #B91315",
"`4.	c #B21116",
" 5.	c #A51218",
".5.	c #8F1114",
"+5.	c #6A0B09",
"@5.	c #470200",
"#5.	c #310600",
"$5.	c #2E0E03",
"%5.	c #340F06",
"&5.	c #3A0D07",
"*5.	c #3D0E08",
"=5.	c #400F0A",
"-5.	c #43100C",
";5.	c #43140E",
">5.	c #42150F",
",5.	c #3E150F",
"'5.	c #371911",
")5.	c #290C06",
"!5.	c #270A04",
"~5.	c #230D02",
"{5.	c #1B0200",
"]5.	c #2F170D",
"^5.	c #2C140A",
"/5.	c #230D00",
"(5.	c #400B07",
"_5.	c #551515",
":5.	c #5E231F",
"<5.	c #48160D",
"[5.	c #6B3F34",
"}5.	c #A88172",
"|5.	c #947060",
"15.	c #674836",
"25.	c #573A28",
"35.	c #513426",
"45.	c #5B3D32",
"55.	c #5A3C31",
"65.	c #45271D",
"75.	c #4D3529",
"85.	c #7A6459",
"95.	c #6C564B",
"05.	c #5F4C45",
"a5.	c #493831",
"b5.	c #0D0000",
"c5.	c #4C4442",
"d5.	c #5A5152",
"e5.	c #2B2525",
"f5.	c #282224",
"g5.	c #353132",
"h5.	c #161415",
"i5.	c #252724",
"j5.	c #383A35",
"k5.	c #32322A",
"l5.	c #463A2E",
"m5.	c #45301B",
"n5.	c #44331F",
"o5.	c #443321",
"p5.	c #1B1509",
"q5.	c #191106",
"r5.	c #372D24",
"s5.	c #1D130A",
"t5.	c #1A0D04",
"u5.	c #301F18",
"v5.	c #44332C",
"w5.	c #4C3B34",
"x5.	c #34221E",
"y5.	c #210E0A",
"z5.	c #1B0804",
"A5.	c #180604",
"B5.	c #0F0C05",
"C5.	c #100D06",
"D5.	c #700E01",
"E5.	c #661207",
"F5.	c #66110C",
"G5.	c #6F1715",
"H5.	c #993D3E",
"I5.	c #9D4343",
"J5.	c #8A3733",
"K5.	c #6D2B15",
"L5.	c #74301B",
"M5.	c #722616",
"N5.	c #832D20",
"O5.	c #822A1C",
"P5.	c #923023",
"Q5.	c #8F2E1E",
"R5.	c #913020",
"S5.	c #953826",
"T5.	c #963B26",
"U5.	c #933B25",
"V5.	c #8D3921",
"W5.	c #883620",
"X5.	c #893827",
"Y5.	c #8A3B2E",
"Z5.	c #883A2E",
"`5.	c #83372A",
" 6.	c #7E3429",
".6.	c #7F352C",
"+6.	c #7E352C",
"@6.	c #7D342D",
"#6.	c #7E352F",
"$6.	c #7C332D",
"%6.	c #782F29",
"&6.	c #722922",
"*6.	c #70251F",
"=6.	c #732920",
"-6.	c #7D3028",
";6.	c #8A352E",
">6.	c #8E2C23",
",6.	c #982F29",
"'6.	c #983128",
")6.	c #892B1F",
"!6.	c #893022",
"~6.	c #883223",
"{6.	c #833020",
"]6.	c #7C2D1C",
"^6.	c #7A2D1B",
"/6.	c #792E1B",
"(6.	c #792E19",
"_6.	c #7F2E1B",
":6.	c #7E2B19",
"<6.	c #7D2615",
"[6.	c #81281A",
"}6.	c #882F21",
"|6.	c #81291D",
"16.	c #7B291B",
"26.	c #7B2C1F",
"36.	c #7D2E21",
"46.	c #7D2B1F",
"56.	c #7C251B",
"66.	c #7B2118",
"76.	c #7C1F17",
"86.	c #841D16",
"96.	c #971B0F",
"06.	c #991E0F",
"a6.	c #9A1C0D",
"b6.	c #9B190B",
"c6.	c #9E160A",
"d6.	c #AE130F",
"e6.	c #A70707",
"f6.	c #A5090C",
"g6.	c #A10E14",
"h6.	c #961519",
"i6.	c #760F10",
"j6.	c #520400",
"k6.	c #3B0400",
"l6.	c #370C03",
"m6.	c #370C05",
"n6.	c #3C0D07",
"o6.	c #3F120C",
"p6.	c #3D160F",
"q6.	c #36150E",
"r6.	c #32110A",
"s6.	c #2B0E06",
"t6.	c #220C01",
"u6.	c #35140D",
"v6.	c #491311",
"w6.	c #4F1112",
"x6.	c #551B19",
"y6.	c #521D17",
"z6.	c #5E2E24",
"A6.	c #966C60",
"B6.	c #B28C7F",
"C6.	c #8A695A",
"D6.	c #4F3222",
"E6.	c #533827",
"F6.	c #4B2F21",
"G6.	c #44281D",
"H6.	c #756158",
"I6.	c #69554C",
"J6.	c #57443D",
"K6.	c #312725",
"L6.	c #716967",
"M6.	c #6D6767",
"N6.	c #34302F",
"O6.	c #262221",
"P6.	c #2D2C2A",
"Q6.	c #181816",
"R6.	c #1F241E",
"S6.	c #252A24",
"T6.	c #35362E",
"U6.	c #232017",
"V6.	c #2C251B",
"W6.	c #483E32",
"X6.	c #605245",
"Y6.	c #483727",
"Z6.	c #44321E",
"`6.	c #3C2E23",
" 7.	c #3B3125",
".7.	c #120C00",
"+7.	c #191307",
"@7.	c #2D241B",
"#7.	c #332920",
"$7.	c #3B2C25",
"%7.	c #3F3029",
"&7.	c #160400",
"*7.	c #130401",
"=7.	c #120000",
"-7.	c #140502",
";7.	c #110C06",
">7.	c #1A120F",
",7.	c #080300",
"'7.	c #0B0301",
")7.	c #7F0400",
"!7.	c #6F0F03",
"~7.	c #651307",
"{7.	c #61110A",
"]7.	c #66130F",
"^7.	c #78201E",
"/7.	c #A04846",
"(7.	c #A75750",
"_7.	c #853B30",
":7.	c #682314",
"<7.	c #692613",
"[7.	c #732F1A",
"}7.	c #782F1C",
"|7.	c #702414",
"17.	c #712213",
"27.	c #782618",
"37.	c #812518",
"47.	c #842718",
"57.	c #8C2C1E",
"67.	c #913121",
"77.	c #973C29",
"87.	c #963E28",
"97.	c #933D26",
"07.	c #8F3B23",
"a7.	c #8B3923",
"b7.	c #843524",
"c7.	c #883C2C",
"d7.	c #873B2D",
"e7.	c #7E3427",
"f7.	c #7C362C",
"g7.	c #7B372E",
"h7.	c #743129",
"i7.	c #74342B",
"j7.	c #73332A",
"k7.	c #6F2F26",
"l7.	c #702D24",
"m7.	c #77342B",
"n7.	c #83392E",
"o7.	c #842C22",
"p7.	c #8F3127",
"q7.	c #92362B",
"r7.	c #8B3126",
"s7.	c #852F20",
"t7.	c #833221",
"u7.	c #813221",
"v7.	c #7C2F1D",
"w7.	c #782D18",
"x7.	c #7A2D19",
"y7.	c #7E301C",
"z7.	c #81301D",
"A7.	c #7F2C1A",
"B7.	c #7F2817",
"C7.	c #83271A",
"D7.	c #882C1F",
"E7.	c #82291B",
"F7.	c #822C1D",
"G7.	c #802D1F",
"H7.	c #7F2C1E",
"I7.	c #7D261C",
"J7.	c #792117",
"K7.	c #84231C",
"L7.	c #8F271E",
"M7.	c #8B190F",
"N7.	c #8D170B",
"O7.	c #8B1507",
"P7.	c #891305",
"Q7.	c #8B1102",
"R7.	c #8E0E01",
"S7.	c #940A00",
"T7.	c #990501",
"U7.	c #A00807",
"V7.	c #9F0609",
"W7.	c #9D0C11",
"X7.	c #98171B",
"Y7.	c #821616",
"Z7.	c #610907",
"`7.	c #490400",
" 8.	c #400904",
".8.	c #3B0A03",
"+8.	c #380B05",
"@8.	c #3B0A05",
"#8.	c #3C0B06",
"$8.	c #3D0C07",
"%8.	c #3E0F09",
"&8.	c #3B100A",
"*8.	c #39120B",
"=8.	c #39140C",
"-8.	c #39140E",
";8.	c #301712",
">8.	c #3A2921",
",8.	c #35211A",
"'8.	c #2B150A",
")8.	c #44130F",
"!8.	c #4F1514",
"~8.	c #48110E",
"{8.	c #471410",
"]8.	c #7D5148",
"^8.	c #B68E82",
"/8.	c #987768",
"(8.	c #634334",
"_8.	c #563B2A",
":8.	c #4D3324",
"<8.	c #452A21",
"[8.	c #3A261D",
"}8.	c #826F68",
"|8.	c #746258",
"18.	c #2F2621",
"28.	c #67605A",
"38.	c #736E6A",
"48.	c #54504D",
"58.	c #3D3936",
"68.	c #242321",
"78.	c #191814",
"88.	c #272823",
"98.	c #272E27",
"08.	c #0E150E",
"a8.	c #343A30",
"b8.	c #3D3D33",
"c8.	c #29251A",
"d8.	c #3C3429",
"e8.	c #665A4C",
"f8.	c #3E3025",
"g8.	c #292317",
"h8.	c #30271E",
"i8.	c #0C0000",
"j8.	c #140F09",
"k8.	c #0D0A03",
"l8.	c #0F0A04",
"m8.	c #221A17",
"n8.	c #0A0502",
"o8.	c #090401",
"p8.	c #7C0600",
"q8.	c #611205",
"r8.	c #5E1006",
"s8.	c #63120E",
"t8.	c #630E0B",
"u8.	c #893632",
"v8.	c #A75851",
"w8.	c #9B5146",
"x8.	c #773223",
"y8.	c #652010",
"z8.	c #69200F",
"A8.	c #6D2111",
"B8.	c #702313",
"C8.	c #702112",
"D8.	c #772615",
"E8.	c #812B1C",
"F8.	c #7E2517",
"G8.	c #8A2D1E",
"H8.	c #8B2E1D",
"I8.	c #8E3120",
"J8.	c #913422",
"K8.	c #923724",
"L8.	c #8E3620",
"M8.	c #8B351E",
"N8.	c #89351D",
"O8.	c #87351F",
"P8.	c #813422",
"Q8.	c #833A29",
"R8.	c #81392A",
"S8.	c #783324",
"T8.	c #743023",
"U8.	c #773529",
"V8.	c #76362C",
"W8.	c #703128",
"X8.	c #662C21",
"Y8.	c #70372E",
"Z8.	c #743B32",
"`8.	c #71382D",
" 9.	c #6E352A",
".9.	c #713125",
"+9.	c #7A2E21",
"@9.	c #853327",
"#9.	c #88392C",
"$9.	c #87382B",
"%9.	c #823525",
"&9.	c #803323",
"*9.	c #7E3222",
"=9.	c #7D3121",
"-9.	c #7F3421",
";9.	c #772C17",
">9.	c #772A16",
",9.	c #762A13",
"'9.	c #782A14",
")9.	c #7C2E1A",
"!9.	c #7E2D1A",
"~9.	c #802A19",
"{9.	c #852819",
"]9.	c #882B1C",
"^9.	c #862A1D",
"/9.	c #802719",
"(9.	c #81291B",
"_9.	c #7F271B",
":9.	c #7F2117",
"<9.	c #87251C",
"[9.	c #8D1E13",
"}9.	c #8B190E",
"|9.	c #87170B",
"19.	c #861608",
"29.	c #881707",
"39.	c #8D1507",
"49.	c #901005",
"59.	c #920B05",
"69.	c #A11110",
"79.	c #9C0C0C",
"89.	c #990D10",
"99.	c #961318",
"09.	c #891619",
"a9.	c #710F0E",
"b9.	c #580402",
"c9.	c #460100",
"d9.	c #3F0803",
"e9.	c #3B0C06",
"f9.	c #390E07",
"g9.	c #3F1610",
"h9.	c #3D120B",
"i9.	c #1F0700",
"j9.	c #1E0800",
"k9.	c #321914",
"l9.	c #311E17",
"m9.	c #361F19",
"n9.	c #3F2723",
"o9.	c #351D19",
"p9.	c #331C16",
"q9.	c #2E170F",
"r9.	c #2F1810",
"s9.	c #330301",
"t9.	c #4C1916",
"u9.	c #4E1F19",
"v9.	c #946C64",
"w9.	c #B38F83",
"x9.	c #745447",
"y9.	c #432719",
"z9.	c #5E4737",
"A9.	c #594335",
"B9.	c #553D31",
"C9.	c #483024",
"D9.	c #38251E",
"E9.	c #7A6962",
"F9.	c #6F5E56",
"G9.	c #372E27",
"H9.	c #79726C",
"I9.	c #77726C",
"J9.	c #4D4842",
"K9.	c #2D2A25",
"L9.	c #363530",
"M9.	c #1E1F19",
"N9.	c #292B26",
"O9.	c #2F3931",
"P9.	c #131D15",
"Q9.	c #2F372C",
"R9.	c #404338",
"S9.	c #343428",
"T9.	c #4D4435",
"U9.	c #584B3B",
"V9.	c #3C2918",
"W9.	c #402F1D",
"X9.	c #363024",
"Y9.	c #393327",
"Z9.	c #372E25",
"`9.	c #2E1D16",
" 0.	c #362B25",
".0.	c #2D221E",
"+0.	c #2A1F1B",
"@0.	c #120D09",
"#0.	c #100D08",
"$0.	c #0F0C07",
"%0.	c #0D0A05",
"&0.	c #100B07",
"*0.	c #130B09",
"=0.	c #18100E",
"-0.	c #28201E",
";0.	c #0F0705",
">0.	c #110907",
",0.	c #070300",
"'0.	c #090502",
")0.	c #060200",
"!0.	c #080401",
"~0.	c #070200",
"{0.	c #780600",
"]0.	c #680F01",
"^0.	c #601205",
"/0.	c #5D1006",
"(0.	c #620F09",
"_0.	c #65120E",
":0.	c #9B5347",
"<0.	c #8C4436",
"[0.	c #6E2617",
"}0.	c #691C0C",
"|0.	c #732415",
"10.	c #7A2717",
"20.	c #7E2819",
"30.	c #832A1A",
"40.	c #903523",
"50.	c #903522",
"60.	c #8D3521",
"70.	c #89331C",
"80.	c #87311A",
"90.	c #86321A",
"00.	c #84321C",
"a0.	c #803321",
"b0.	c #803726",
"c0.	c #7E3627",
"d0.	c #723228",
"e0.	c #713328",
"f0.	c #6D3328",
"g0.	c #6E352C",
"h0.	c #6B352B",
"i0.	c #69352A",
"j0.	c #6B372C",
"k0.	c #6B392E",
"l0.	c #6C3A2F",
"m0.	c #71392C",
"n0.	c #753124",
"o0.	c #7C3425",
"p0.	c #823A2B",
"q0.	c #7F3826",
"r0.	c #7D3423",
"s0.	c #7B3221",
"t0.	c #823724",
"u0.	c #7B301D",
"v0.	c #782B17",
"w0.	c #7D2F1B",
"x0.	c #782A16",
"y0.	c #782712",
"z0.	c #792813",
"A0.	c #722410",
"B0.	c #792312",
"C0.	c #7C2313",
"D0.	c #802314",
"E0.	c #842416",
"F0.	c #852517",
"G0.	c #832617",
"H0.	c #872E20",
"I0.	c #8A2E21",
"J0.	c #88261D",
"K0.	c #8A231C",
"L0.	c #8C2119",
"M0.	c #8D1E15",
"N0.	c #8B1B10",
"O0.	c #87180D",
"P0.	c #84180C",
"Q0.	c #87190C",
"R0.	c #8A180D",
"S0.	c #90110A",
"T0.	c #910B08",
"U0.	c #920808",
"V0.	c #8E0608",
"W0.	c #8D0B0D",
"X0.	c #8B1416",
"Y0.	c #6C0D0B",
"Z0.	c #540300",
"`0.	c #460702",
" a.	c #3F0A04",
".a.	c #3C0A03",
"+a.	c #390A04",
"@a.	c #360B04",
"#a.	c #350D05",
"$a.	c #3B120C",
"%a.	c #40150E",
"&a.	c #340C04",
"*a.	c #250A01",
"=a.	c #38201C",
"-a.	c #361E1A",
";a.	c #2E1A11",
">a.	c #311A12",
",a.	c #301911",
"'a.	c #340704",
")a.	c #491716",
"!a.	c #50201C",
"~a.	c #754A44",
"{a.	c #9E7970",
"]a.	c #7D5D52",
"^a.	c #4E3224",
"/a.	c #53392A",
"(a.	c #4F3C2E",
"_a.	c #5E4B3D",
":a.	c #412B20",
"<a.	c #3D2920",
"[a.	c #52413A",
"}a.	c #70615C",
"|a.	c #574841",
"1a.	c #544B44",
"2a.	c #857E76",
"3a.	c #67625C",
"4a.	c #443F39",
"5a.	c #2F2C25",
"6a.	c #2B2B23",
"7a.	c #272820",
"8a.	c #2C2D27",
"9a.	c #2F3028",
"0a.	c #21261F",
"aa.	c #1A261C",
"ba.	c #202C22",
"ca.	c #273126",
"da.	c #515348",
"ea.	c #2F2B20",
"fa.	c #4E4234",
"ga.	c #625243",
"ha.	c #3E2D1D",
"ia.	c #3E2B1A",
"ja.	c #342C21",
"ka.	c #332D21",
"la.	c #312019",
"ma.	c #2D1C15",
"na.	c #2C231C",
"oa.	c #2B241E",
"pa.	c #2A231D",
"qa.	c #25201A",
"ra.	c #201B15",
"sa.	c #1C1711",
"ta.	c #1C150F",
"ua.	c #0E0905",
"va.	c #0B0803",
"wa.	c #0C0904",
"xa.	c #2F2725",
"ya.	c #241C1A",
"za.	c #1B1311",
"Aa.	c #040300",
"Ba.	c #050400",
"Ca.	c #050100",
"Da.	c #621608",
"Ea.	c #5E1205",
"Fa.	c #5A0A03",
"Ga.	c #671D12",
"Ha.	c #884034",
"Ia.	c #8B4335",
"Ja.	c #772416",
"Ka.	c #7D2A1A",
"La.	c #7E2B1B",
"Ma.	c #792314",
"Na.	c #7A2214",
"Oa.	c #822B1A",
"Pa.	c #8A3121",
"Qa.	c #8F3624",
"Ra.	c #8E3523",
"Sa.	c #8D3422",
"Ta.	c #8B3421",
"Ua.	c #8B3420",
"Va.	c #89341F",
"Wa.	c #86341F",
"Xa.	c #833423",
"Ya.	c #7F3325",
"Za.	c #7C3426",
"`a.	c #773125",
" b.	c #722F26",
".b.	c #6F3126",
"+b.	c #6F352A",
"@b.	c #753C33",
"#b.	c #6E3730",
"$b.	c #663129",
"%b.	c #5F2D24",
"&b.	c #64342A",
"*b.	c #6C3C32",
"=b.	c #744033",
"-b.	c #753728",
";b.	c #793626",
">b.	c #7A3727",
",b.	c #7B3828",
"'b.	c #7C3727",
")b.	c #7C3322",
"!b.	c #863927",
"~b.	c #7E2F1E",
"{b.	c #7C2B18",
"]b.	c #83301E",
"^b.	c #7D2A18",
"/b.	c #7A2813",
"(b.	c #7D2B16",
"_b.	c #732511",
":b.	c #742612",
"<b.	c #7E2515",
"[b.	c #822214",
"}b.	c #811F12",
"|b.	c #872719",
"1b.	c #872518",
"2b.	c #861B13",
"3b.	c #871811",
"4b.	c #810E09",
"5b.	c #7F0C05",
"6b.	c #7A0B02",
"7b.	c #770B01",
"8b.	c #770D00",
"9b.	c #790D01",
"0b.	c #7D0B01",
"ab.	c #800901",
"bb.	c #860905",
"cb.	c #8E0C0A",
"db.	c #910C0D",
"eb.	c #8D0D0E",
"fb.	c #8F1716",
"gb.	c #932120",
"hb.	c #831A17",
"ib.	c #660B08",
"jb.	c #440903",
"kb.	c #3F0A02",
"lb.	c #360B02",
"mb.	c #330D02",
"nb.	c #320D04",
"ob.	c #310C04",
"pb.	c #3A120A",
"qb.	c #3C1007",
"rb.	c #390D04",
"sb.	c #1E0A01",
"tb.	c #311A14",
"ub.	c #341512",
"vb.	c #301615",
"wb.	c #3C2420",
"xb.	c #2B0C07",
"yb.	c #401715",
"zb.	c #411313",
"Ab.	c #542825",
"Bb.	c #8B645F",
"Cb.	c #836158",
"Db.	c #4A2C22",
"Eb.	c #4C3225",
"Fb.	c #5E483A",
"Gb.	c #4A382A",
"Hb.	c #503E32",
"Ib.	c #675853",
"Jb.	c #746663",
"Kb.	c #473A34",
"Lb.	c #3F3430",
"Mb.	c #756C67",
"Nb.	c #766D68",
"Ob.	c #352E28",
"Pb.	c #211E15",
"Qb.	c #333329",
"Rb.	c #1E2015",
"Sb.	c #1C1D15",
"Tb.	c #272A1F",
"Ub.	c #21271D",
"Vb.	c #142016",
"Wb.	c #1E2B21",
"Xb.	c #253125",
"Yb.	c #2E362B",
"Zb.	c #56594E",
"`b.	c #4A483C",
" c.	c #584A3D",
".c.	c #564637",
"+c.	c #4C3A2C",
"@c.	c #3D2C22",
"#c.	c #3D3329",
"$c.	c #372F24",
"%c.	c #2D261C",
"&c.	c #322B21",
"*c.	c #332822",
"=c.	c #392E28",
"-c.	c #3A2D27",
";c.	c #2C1A16",
">c.	c #301D19",
",c.	c #261410",
"'c.	c #211A14",
")c.	c #1D1A13",
"!c.	c #1C1912",
"~c.	c #1D1512",
"{c.	c #1F1714",
"]c.	c #0D0804",
"^c.	c #090803",
"/c.	c #070601",
"(c.	c #080702",
"_c.	c #070000",
":c.	c #2C2422",
"<c.	c #3B3331",
"[c.	c #231B19",
"}c.	c #38302E",
"|c.	c #1E1614",
"1c.	c #060501",
"2c.	c #030400",
"3c.	c #040500",
"4c.	c #030200",
"5c.	c #700500",
"6c.	c #6A1405",
"7c.	c #65190B",
"8c.	c #611307",
"9c.	c #621209",
"0c.	c #6B1810",
"ac.	c #5A0A01",
"bc.	c #5B0E04",
"cc.	c #621A0E",
"dc.	c #722619",
"ec.	c #79251A",
"fc.	c #6A1309",
"gc.	c #792316",
"hc.	c #6D1708",
"ic.	c #741E0F",
"jc.	c #852F1E",
"kc.	c #842E1D",
"lc.	c #842F1B",
"mc.	c #86311D",
"nc.	c #893420",
"oc.	c #8B3622",
"pc.	c #8A3520",
"qc.	c #823022",
"rc.	c #813528",
"sc.	c #7B3327",
"tc.	c #6F2F25",
"uc.	c #74352C",
"vc.	c #692E26",
"wc.	c #6C332C",
"xc.	c #6D362F",
"yc.	c #6C372F",
"zc.	c #67352C",
"Ac.	c #66342B",
"Bc.	c #6A3428",
"Cc.	c #793B2C",
"Dc.	c #793727",
"Ec.	c #773424",
"Fc.	c #793425",
"Gc.	c #7D3425",
"Hc.	c #813424",
"Ic.	c #823324",
"Jc.	c #8B3A29",
"Kc.	c #822F1F",
"Lc.	c #873120",
"Mc.	c #832C1B",
"Nc.	c #802D1B",
"Oc.	c #80321E",
"Pc.	c #81331F",
"Qc.	c #853220",
"Rc.	c #893020",
"Sc.	c #882317",
"Tc.	c #841F13",
"Uc.	c #842215",
"Vc.	c #7F1D10",
"Wc.	c #79170A",
"Xc.	c #771206",
"Yc.	c #771105",
"Zc.	c #7A0F05",
"`c.	c #7E0D07",
" d.	c #86100C",
".d.	c #840E0C",
"+d.	c #7F0E08",
"@d.	c #7A0F07",
"#d.	c #7B1008",
"$d.	c #810E07",
"%d.	c #931914",
"&d.	c #A0231F",
"*d.	c #A32320",
"=d.	c #9B1B1A",
"-d.	c #9B1F1D",
";d.	c #A22825",
">d.	c #941E1A",
",d.	c #750E09",
"'d.	c #490802",
")d.	c #430800",
"!d.	c #3C0A01",
"~d.	c #360C00",
"{d.	c #320E02",
"]d.	c #2D0B02",
"^d.	c #330D04",
"/d.	c #390E05",
"(d.	c #270C03",
"_d.	c #2F1514",
":d.	c #36211C",
"<d.	c #3D1513",
"[d.	c #4E2221",
"}d.	c #623A38",
"|d.	c #795650",
"1d.	c #4F3129",
"2d.	c #40251A",
"3d.	c #665042",
"4d.	c #3C2C1C",
"5d.	c #493C2C",
"6d.	c #48382B",
"7d.	c #524137",
"8d.	c #4E3D33",
"9d.	c #57463E",
"0d.	c #70635D",
"ad.	c #4D3F3C",
"bd.	c #574E49",
"cd.	c #5D544F",
"dd.	c #514A44",
"ed.	c #28251C",
"fd.	c #353229",
"gd.	c #222218",
"hd.	c #1D1F14",
"id.	c #14160B",
"jd.	c #14170C",
"kd.	c #242A1E",
"ld.	c #2F3B2F",
"md.	c #19261C",
"nd.	c #273327",
"od.	c #2B3328",
"pd.	c #626258",
"qd.	c #706C61",
"rd.	c #3B3328",
"sd.	c #4E4033",
"td.	c #534336",
"ud.	c #41332A",
"vd.	c #403229",
"wd.	c #392F25",
"xd.	c #332C22",
"yd.	c #393228",
"zd.	c #3A3128",
"Ad.	c #3C312B",
"Bd.	c #3D302A",
"Cd.	c #271511",
"Dd.	c #311E1A",
"Ed.	c #281612",
"Fd.	c #211C16",
"Gd.	c #221F18",
"Hd.	c #201D16",
"Id.	c #1C1C14",
"Jd.	c #1D1C17",
"Kd.	c #1E1B16",
"Ld.	c #201B17",
"Md.	c #241C19",
"Nd.	c #140F0B",
"Od.	c #0A0904",
"Pd.	c #060500",
"Qd.	c #0A0702",
"Rd.	c #0B0602",
"Sd.	c #322A28",
"Td.	c #372F2D",
"Ud.	c #1F1715",
"Vd.	c #271F1D",
"Wd.	c #2B2321",
"Xd.	c #060100",
"Yd.	c #050601",
"Zd.	c #020300",
"`d.	c #760F06",
" e.	c #5B0500",
".e.	c #651808",
"+e.	c #651609",
"@e.	c #610F04",
"#e.	c #69150B",
"$e.	c #67140C",
"%e.	c #661C11",
"&e.	c #64160C",
"*e.	c #6B140B",
"=e.	c #71170E",
"-e.	c #782014",
";e.	c #7B2518",
">e.	c #7C2919",
",e.	c #863323",
"'e.	c #893624",
")e.	c #8A3725",
"!e.	c #873422",
"~e.	c #86301F",
"{e.	c #862E20",
"]e.	c #842E21",
"^e.	c #822E23",
"/e.	c #823025",
"(e.	c #782D27",
"_e.	c #67241C",
":e.	c #6B2C25",
"<e.	c #682C24",
"[e.	c #682D25",
"}e.	c #6A2F27",
"|e.	c #6C332A",
"1e.	c #6B3125",
"2e.	c #753021",
"3e.	c #70281A",
"4e.	c #73291C",
"5e.	c #7E3224",
"6e.	c #86372A",
"7e.	c #873328",
"8e.	c #832C22",
"9e.	c #872F23",
"0e.	c #7D2318",
"ae.	c #7A2113",
"be.	c #7C2514",
"ce.	c #7C2615",
"de.	c #752816",
"ee.	c #772414",
"fe.	c #802014",
"ge.	c #821D13",
"he.	c #831C13",
"ie.	c #821B12",
"je.	c #730C03",
"ke.	c #761107",
"le.	c #791408",
"me.	c #781206",
"ne.	c #760E03",
"oe.	c #7B0A02",
"pe.	c #800A06",
"qe.	c #820807",
"re.	c #860A0C",
"se.	c #871411",
"te.	c #82120E",
"ue.	c #7D100B",
"ve.	c #8B1A14",
"we.	c #97211D",
"xe.	c #9B211C",
"ye.	c #9C1F1B",
"ze.	c #981913",
"Ae.	c #92130D",
"Be.	c #8F1C17",
"Ce.	c #70130E",
"De.	c #4C0000",
"Ee.	c #420000",
"Fe.	c #430A01",
"Ge.	c #340800",
"He.	c #2D0900",
"Ie.	c #2F1106",
"Je.	c #2D1105",
"Ke.	c #301208",
"Le.	c #310F06",
"Me.	c #3A1208",
"Ne.	c #391105",
"Oe.	c #371106",
"Pe.	c #351613",
"Qe.	c #2E1415",
"Re.	c #29110F",
"Se.	c #2D1815",
"Te.	c #311F1B",
"Ue.	c #1A0701",
"Ve.	c #160100",
"We.	c #200702",
"Xe.	c #4C2625",
"Ye.	c #5F3737",
"Ze.	c #704D4B",
"`e.	c #52312C",
" f.	c #3C1F17",
".f.	c #594137",
"+f.	c #5B483A",
"@f.	c #4B3E2E",
"#f.	c #615346",
"$f.	c #64564B",
"%f.	c #3F2E26",
"&f.	c #54433B",
"*f.	c #695851",
"=f.	c #645653",
"-f.	c #4B403E",
";f.	c #413735",
">f.	c #4D4640",
",f.	c #3E3731",
"'f.	c #27221C",
")f.	c #1E1B12",
"!f.	c #2B281F",
"~f.	c #232319",
"{f.	c #1A1A10",
"]f.	c #242619",
"^f.	c #292B1E",
"/f.	c #232719",
"(f.	c #22281C",
"_f.	c #2A362A",
":f.	c #283629",
"<f.	c #1F2B1F",
"[f.	c #192116",
"}f.	c #252B21",
"|f.	c #46483D",
"1f.	c #615E55",
"2f.	c #6B645A",
"3f.	c #3D2B1F",
"4f.	c #453327",
"5f.	c #3A2C23",
"6f.	c #392B22",
"7f.	c #3B3229",
"8f.	c #30291F",
"9f.	c #433A33",
"0f.	c #473C36",
"af.	c #32201C",
"bf.	c #1D1610",
"cf.	c #1B1A15",
"df.	c #191A14",
"ef.	c #171812",
"ff.	c #161711",
"gf.	c #161510",
"hf.	c #1A1512",
"if.	c #1A1210",
"jf.	c #16110E",
"kf.	c #140F0C",
"lf.	c #110D0A",
"mf.	c #0D0906",
"nf.	c #070602",
"of.	c #0A0905",
"pf.	c #010000",
"qf.	c #030000",
"rf.	c #100C09",
"sf.	c #332B29",
"tf.	c #312927",
"uf.	c #000100",
"vf.	c #060803",
"wf.	c #030500",
"xf.	c #600A00",
"yf.	c #681608",
"zf.	c #681107",
"Af.	c #640C02",
"Bf.	c #600800",
"Cf.	c #630C03",
"Df.	c #65170B",
"Ef.	c #691C12",
"Ff.	c #6B1E14",
"Gf.	c #8F3630",
"Hf.	c #A54841",
"If.	c #8F352C",
"Jf.	c #8B3327",
"Kf.	c #7D271A",
"Lf.	c #772114",
"Mf.	c #7A2B1A",
"Nf.	c #782716",
"Of.	c #802D1D",
"Pf.	c #873424",
"Qf.	c #8C3627",
"Rf.	c #8E3628",
"Sf.	c #7F251C",
"Tf.	c #80271F",
"Uf.	c #822B24",
"Vf.	c #833028",
"Wf.	c #7B302A",
"Xf.	c #78332C",
"Yf.	c #75322C",
"Zf.	c #723229",
"`f.	c #703027",
" g.	c #6E2F26",
".g.	c #6A2C21",
"+g.	c #6E281C",
"@g.	c #7B3124",
"#g.	c #84382B",
"$g.	c #843429",
"%g.	c #7C2A1E",
"&g.	c #782117",
"*g.	c #7B2319",
"=g.	c #83261E",
"-g.	c #7F2318",
";g.	c #81251A",
">g.	c #8A2E23",
",g.	c #7C2416",
"'g.	c #6F1709",
")g.	c #681505",
"!g.	c #621704",
"~g.	c #621606",
"{g.	c #661504",
"]g.	c #6B1307",
"^g.	c #741408",
"/g.	c #79140A",
"(g.	c #7D150C",
"_g.	c #861E15",
":g.	c #811B0F",
"<g.	c #821A0F",
"[g.	c #780900",
"}g.	c #750200",
"|g.	c #790200",
"1g.	c #7F0303",
"2g.	c #7F0104",
"3g.	c #7E0305",
"4g.	c #7E0808",
"5g.	c #7D0909",
"6g.	c #7C0A09",
"7g.	c #7F0F0B",
"8g.	c #851410",
"9g.	c #7E0804",
"0g.	c #870D08",
"ag.	c #8E110B",
"bg.	c #900C07",
"cg.	c #8C0500",
"dg.	c #8E0300",
"eg.	c #960B04",
"fg.	c #971610",
"gg.	c #871B18",
"hg.	c #640906",
"ig.	c #440400",
"jg.	c #350F02",
"kg.	c #2C1004",
"lg.	c #300F06",
"mg.	c #340E05",
"ng.	c #381006",
"og.	c #371104",
"pg.	c #351105",
"qg.	c #351008",
"rg.	c #33100A",
"sg.	c #1C0800",
"tg.	c #331918",
"ug.	c #311718",
"vg.	c #2A1210",
"wg.	c #25120E",
"xg.	c #593535",
"yg.	c #623B3C",
"zg.	c #5E3C3A",
"Ag.	c #472825",
"Bg.	c #493029",
"Cg.	c #5C463B",
"Dg.	c #4E3C30",
"Eg.	c #4F4333",
"Fg.	c #514537",
"Gg.	c #615549",
"Hg.	c #493A33",
"Ig.	c #6C5D56",
"Jg.	c #594A45",
"Kg.	c #382A27",
"Lg.	c #564B49",
"Mg.	c #544A48",
"Ng.	c #362C2A",
"Og.	c #322B25",
"Pg.	c #2D2822",
"Qg.	c #0D0A01",
"Rg.	c #1F1C13",
"Sg.	c #29291F",
"Tg.	c #303225",
"Ug.	c #2F3124",
"Vg.	c #222618",
"Wg.	c #13190D",
"Xg.	c #222C21",
"Yg.	c #1D291D",
"Zg.	c #252F24",
"`g.	c #373F34",
" h.	c #40433A",
".h.	c #282119",
"+h.	c #3C2A1E",
"@h.	c #393027",
"#h.	c #3B342A",
"$h.	c #3B322B",
"%h.	c #302720",
"&h.	c #33211D",
"*h.	c #16130C",
"=h.	c #13120D",
"-h.	c #14130E",
";h.	c #151610",
">h.	c #14150F",
",h.	c #11120C",
"'h.	c #0F0E09",
")h.	c #0C0704",
"!h.	c #0C0805",
"~h.	c #090804",
"{h.	c #080703",
"]h.	c #0E0A07",
"^h.	c #403836",
"/h.	c #251D1B",
"(h.	c #000200",
"_h.	c #000300",
":h.	c #74130A",
"<h.	c #640E01",
"[h.	c #6E180B",
"}h.	c #74180D",
"|h.	c #76150E",
"1h.	c #700F08",
"2h.	c #6B0E07",
"3h.	c #590B00",
"4h.	c #560800",
"5h.	c #5D0A02",
"6h.	c #6F1610",
"7h.	c #80231E",
"8h.	c #852B23",
"9h.	c #852D23",
"0h.	c #7E271D",
"ah.	c #873529",
"bh.	c #853629",
"ch.	c #7E3121",
"dh.	c #76271A",
"eh.	c #742214",
"fh.	c #782517",
"gh.	c #762315",
"hh.	c #751F12",
"ih.	c #741C10",
"jh.	c #761810",
"kh.	c #741710",
"lh.	c #721913",
"mh.	c #701D17",
"nh.	c #6D1C18",
"oh.	c #6B201A",
"ph.	c #69201A",
"qh.	c #681F18",
"rh.	c #672119",
"sh.	c #651F15",
"th.	c #661E12",
"uh.	c #6C2013",
"vh.	c #7A2B1E",
"wh.	c #842D23",
"xh.	c #892B23",
"yh.	c #9B3A33",
"zh.	c #95342D",
"Ah.	c #8C2E26",
"Bh.	c #852820",
"Ch.	c #82281F",
"Dh.	c #6E1B0D",
"Eh.	c #661406",
"Fh.	c #631606",
"Gh.	c #651C0D",
"Hh.	c #691A0B",
"Ih.	c #76180E",
"Jh.	c #821913",
"Kh.	c #861B15",
"Lh.	c #7F140E",
"Mh.	c #7A0F09",
"Nh.	c #770F06",
"Oh.	c #7D120A",
"Ph.	c #7E0F08",
"Qh.	c #760500",
"Rh.	c #750000",
"Sh.	c #770000",
"Th.	c #7C0000",
"Uh.	c #780000",
"Vh.	c #740000",
"Wh.	c #760000",
"Xh.	c #7A0305",
"Yh.	c #7A0607",
"Zh.	c #820C0A",
"`h.	c #7B0400",
" i.	c #850804",
".i.	c #8F0B06",
"+i.	c #910802",
"@i.	c #930300",
"#i.	c #9C0500",
"$i.	c #AB1107",
"%i.	c #B21F18",
"&i.	c #A42723",
"*i.	c #871918",
"=i.	c #600300",
"-i.	c #460C01",
";i.	c #401407",
">i.	c #2D0D02",
",i.	c #361007",
"'i.	c #1E0700",
")i.	c #190500",
"!i.	c #301617",
"~i.	c #2C1414",
"{i.	c #261110",
"]i.	c #1A0200",
"^i.	c #402220",
"/i.	c #5F3D3C",
"(i.	c #603C3E",
"_i.	c #4F302E",
":i.	c #412420",
"<i.	c #533C36",
"[i.	c #58443B",
"}i.	c #4F4136",
"|i.	c #4B3F31",
"1i.	c #4A4034",
"2i.	c #5B5145",
"3i.	c #5D5047",
"4i.	c #4D4037",
"5i.	c #61524B",
"6i.	c #70615A",
"7i.	c #53443F",
"8i.	c #554744",
"9i.	c #584D49",
"0i.	c #4F4641",
"ai.	c #433A35",
"bi.	c #3B342E",
"ci.	c #2E2721",
"di.	c #201913",
"ei.	c #19160D",
"fi.	c #1D1A11",
"gi.	c #1D1D13",
"hi.	c #37392E",
"ii.	c #303328",
"ji.	c #1C2218",
"ki.	c #1C2419",
"li.	c #292F25",
"mi.	c #3A3D34",
"ni.	c #373830",
"oi.	c #202018",
"pi.	c #3A291F",
"qi.	c #42332C",
"ri.	c #362D24",
"si.	c #31281F",
"ti.	c #362F27",
"ui.	c #3F3830",
"vi.	c #322922",
"wi.	c #1B140E",
"xi.	c #1B1612",
"yi.	c #17120E",
"zi.	c #13100B",
"Ai.	c #15120D",
"Bi.	c #171611",
"Ci.	c #181712",
"Di.	c #14130F",
"Ei.	c #0D0805",
"Fi.	c #0B0A06",
"Gi.	c #080904",
"Hi.	c #060702",
"Ii.	c #0D0C08",
"Ji.	c #0B0704",
"Ki.	c #2A2122",
"Li.	c #170E0F",
"Mi.	c #0B0203",
"Ni.	c #0E0506",
"Oi.	c #090001",
"Pi.	c #12090A",
"Qi.	c #0A0102",
"Ri.	c #010600",
"Si.	c #000500",
"Ti.	c #670F03",
"Ui.	c #6F150A",
"Vi.	c #7A180F",
"Wi.	c #811A13",
"Xi.	c #780F0B",
"Yi.	c #6C0903",
"Zi.	c #5E0600",
"`i.	c #590700",
" j.	c #5A0C02",
".j.	c #5F0C04",
"+j.	c #610804",
"@j.	c #620402",
"#j.	c #5D0200",
"$j.	c #650B03",
"%j.	c #660D05",
"&j.	c #6A130A",
"*j.	c #701E13",
"=j.	c #6E1E13",
"-j.	c #6A1C10",
";j.	c #6E2014",
">j.	c #7B2D21",
",j.	c #792B1F",
"'j.	c #823227",
")j.	c #8C3A2F",
"!j.	c #8F3B31",
"~j.	c #8F382F",
"{j.	c #8F362E",
"]j.	c #8B2D25",
"^j.	c #882A22",
"/j.	c #7E241C",
"(j.	c #7B221C",
"_j.	c #79211D",
":j.	c #6C1D18",
"<j.	c #6B1C15",
"[j.	c #6A1D15",
"}j.	c #6B1E16",
"|j.	c #6E2117",
"1j.	c #722217",
"2j.	c #6B190D",
"3j.	c #7B1E16",
"4j.	c #80221A",
"5j.	c #892821",
"6j.	c #94312B",
"7j.	c #9B3832",
"8j.	c #82241C",
"9j.	c #791F16",
"0j.	c #711A10",
"aj.	c #68160A",
"bj.	c #621408",
"cj.	c #601609",
"dj.	c #621A0C",
"ej.	c #5F1A0B",
"fj.	c #61190B",
"gj.	c #631508",
"hj.	c #681108",
"ij.	c #700A05",
"jj.	c #730A06",
"kj.	c #6E0300",
"lj.	c #710400",
"mj.	c #730400",
"nj.	c #770400",
"oj.	c #7B0302",
"pj.	c #7A0001",
"qj.	c #730000",
"rj.	c #780002",
"sj.	c #7B0406",
"tj.	c #7E0607",
"uj.	c #8B0E0C",
"vj.	c #8E0A08",
"wj.	c #910601",
"xj.	c #980300",
"yj.	c #A40700",
"zj.	c #B50E06",
"Aj.	c #C61B11",
"Bj.	c #CA251F",
"Cj.	c #BF2B2B",
"Dj.	c #A92727",
"Ej.	c #7C0C0A",
"Fj.	c #570000",
"Gj.	c #500C01",
"Hj.	c #481407",
"Ij.	c #370D01",
"Jj.	c #310C03",
"Kj.	c #330E06",
"Lj.	c #330C05",
"Mj.	c #350A04",
"Nj.	c #330E05",
"Oj.	c #320D07",
"Pj.	c #2F0C06",
"Qj.	c #2A0F08",
"Rj.	c #1B0400",
"Sj.	c #28100C",
"Tj.	c #270D0C",
"Uj.	c #2F1214",
"Vj.	c #2F1717",
"Wj.	c #2B1615",
"Xj.	c #190000",
"Yj.	c #4F3131",
"Zj.	c #5D3B3C",
"`j.	c #573536",
" k.	c #4E2F2D",
".k.	c #442825",
"+k.	c #4D3630",
"@k.	c #513E37",
"#k.	c #4B3A30",
"$k.	c #5A4E42",
"%k.	c #41372B",
"&k.	c #4F453B",
"*k.	c #564C42",
"=k.	c #564C43",
"-k.	c #695C54",
";k.	c #665953",
">k.	c #4B3C37",
",k.	c #514642",
"'k.	c #5B504C",
")k.	c #554C47",
"!k.	c #453C37",
"~k.	c #39322C",
"{k.	c #332C26",
"]k.	c #343027",
"^k.	c #0D0900",
"/k.	c #221F16",
"(k.	c #202016",
"_k.	c #28281E",
":k.	c #323228",
"<k.	c #26281D",
"[k.	c #25281F",
"}k.	c #292C23",
"|k.	c #26271F",
"1k.	c #171810",
"2k.	c #0D0D05",
"3k.	c #120F08",
"4k.	c #3D342F",
"5k.	c #3A2F29",
"6k.	c #362C23",
"7k.	c #382B22",
"8k.	c #38271F",
"9k.	c #423129",
"0k.	c #3D342B",
"ak.	c #2D261E",
"bk.	c #272018",
"ck.	c #3E332F",
"dk.	c #3C2E2B",
"ek.	c #291A15",
"fk.	c #191410",
"gk.	c #18130F",
"hk.	c #17140F",
"ik.	c #191611",
"jk.	c #1A1712",
"kk.	c #171310",
"lk.	c #15110E",
"mk.	c #17120F",
"nk.	c #120E0B",
"ok.	c #0F0E0A",
"pk.	c #0C0B07",
"qk.	c #070803",
"rk.	c #15100D",
"sk.	c #1B1613",
"tk.	c #201816",
"uk.	c #130A0B",
"vk.	c #140B0C",
"wk.	c #0D0405",
"xk.	c #0C0304",
"yk.	c #020400",
"zk.	c #020701",
"Ak.	c #6E110A",
"Bk.	c #750C06",
"Ck.	c #7C0C08",
"Dk.	c #790905",
"Ek.	c #650800",
"Fk.	c #620E04",
"Gk.	c #65150C",
"Hk.	c #69160E",
"Ik.	c #680F0B",
"Jk.	c #630503",
"Kk.	c #5F0200",
"Lk.	c #630803",
"Mk.	c #5A0300",
"Nk.	c #580500",
"Ok.	c #540400",
"Pk.	c #530600",
"Qk.	c #580E03",
"Rk.	c #570A00",
"Sk.	c #742119",
"Tk.	c #78231C",
"Uk.	c #781F19",
"Vk.	c #80231C",
"Wk.	c #7F201A",
"Xk.	c #7B1E17",
"Yk.	c #761C14",
"Zk.	c #741B15",
"`k.	c #731B17",
" l.	c #731E19",
".l.	c #74211B",
"+l.	c #73201A",
"@l.	c #6F1F16",
"#l.	c #6F1C14",
"$l.	c #6D1B0D",
"%l.	c #6F190C",
"&l.	c #681002",
"*l.	c #6B0F02",
"=l.	c #701206",
"-l.	c #7C1B12",
";l.	c #86241B",
">l.	c #89241C",
",l.	c #811B16",
"'l.	c #641409",
")l.	c #5E1407",
"!l.	c #5A1609",
"~l.	c #561708",
"{l.	c #551607",
"]l.	c #541003",
"^l.	c #5B0600",
"/l.	c #630000",
"(l.	c #6E0200",
"_l.	c #790D0A",
":l.	c #811512",
"<l.	c #7F120F",
"[l.	c #730300",
"}l.	c #710000",
"|l.	c #7E0806",
"1l.	c #840C0B",
"2l.	c #7F0706",
"3l.	c #730100",
"4l.	c #770304",
"5l.	c #7B0708",
"6l.	c #7D060A",
"7l.	c #7B0305",
"8l.	c #850506",
"9l.	c #8E090A",
"0l.	c #8F0100",
"al.	c #910000",
"bl.	c #A10000",
"cl.	c #B80B05",
"dl.	c #CB140C",
"el.	c #D6170D",
"fl.	c #D21712",
"gl.	c #CF2526",
"hl.	c #C32A2D",
"il.	c #9B1617",
"jl.	c #6F0300",
"kl.	c #5C0901",
"ll.	c #4C0C03",
"ml.	c #3A0800",
"nl.	c #370A04",
"ol.	c #370A05",
"pl.	c #370A07",
"ql.	c #380806",
"rl.	c #370705",
"sl.	c #330E08",
"tl.	c #190200",
"ul.	c #260C0D",
"vl.	c #2D1014",
"wl.	c #2C1316",
"xl.	c #261012",
"yl.	c #220E0F",
"zl.	c #210F0F",
"Al.	c #1A0000",
"Bl.	c #2E1413",
"Cl.	c #583A3A",
"Dl.	c #5E3E3F",
"El.	c #4E2B2F",
"Fl.	c #4F2F30",
"Gl.	c #482C2B",
"Hl.	c #422A26",
"Il.	c #513E38",
"Jl.	c #54463D",
"Kl.	c #51443B",
"Ll.	c #3E342A",
"Ml.	c #524A3F",
"Nl.	c #5C5248",
"Ol.	c #594F46",
"Pl.	c #63564E",
"Ql.	c #50433D",
"Rl.	c #3B2C29",
"Sl.	c #4E433D",
"Tl.	c #5C514B",
"Ul.	c #514640",
"Vl.	c #292019",
"Wl.	c #3F3832",
"Xl.	c #59524C",
"Yl.	c #0C0701",
"Zl.	c #1E1B14",
"`l.	c #232019",
" m.	c #15150D",
".m.	c #17170F",
"+m.	c #070400",
"@m.	c #050200",
"#m.	c #15100C",
"$m.	c #2A2521",
"%m.	c #38302D",
"&m.	c #3C3230",
"*m.	c #3A2F2B",
"=m.	c #3C2F27",
"-m.	c #42312A",
";m.	c #42382F",
">m.	c #453C35",
",m.	c #423932",
"'m.	c #483D39",
")m.	c #392B28",
"!m.	c #16110D",
"~m.	c #100F0B",
"{m.	c #0B0C07",
"]m.	c #100708",
"^m.	c #0F0607",
"/m.	c #050000",
"(m.	c #040000",
"_m.	c #040601",
":m.	c #741A12",
"<m.	c #84271F",
"[m.	c #7B1812",
"}m.	c #7F0907",
"|m.	c #81110D",
"1m.	c #671007",
"2m.	c #5B0802",
"3m.	c #5F0504",
"4m.	c #620404",
"5m.	c #690B09",
"6m.	c #711311",
"7m.	c #6D120D",
"8m.	c #670F0B",
"9m.	c #590A03",
"0m.	c #540700",
"am.	c #570D04",
"bm.	c #550B02",
"cm.	c #5F100B",
"dm.	c #63130C",
"em.	c #610C09",
"fm.	c #5C0702",
"gm.	c #650A05",
"hm.	c #660902",
"im.	c #630901",
"jm.	c #5B0400",
"km.	c #5B0601",
"lm.	c #5D0803",
"mm.	c #641109",
"nm.	c #630F05",
"om.	c #610D03",
"pm.	c #600C01",
"qm.	c #630D00",
"rm.	c #640E00",
"sm.	c #650F00",
"tm.	c #660D00",
"um.	c #6F1203",
"vm.	c #701002",
"wm.	c #731104",
"xm.	c #7E170E",
"ym.	c #7C150E",
"zm.	c #740F07",
"Am.	c #6D0E08",
"Bm.	c #6E150D",
"Cm.	c #6A180D",
"Dm.	c #5F150A",
"Em.	c #591709",
"Fm.	c #571C0E",
"Gm.	c #561E0F",
"Hm.	c #531B0C",
"Im.	c #4C1103",
"Jm.	c #5A1005",
"Km.	c #600D05",
"Lm.	c #660B06",
"Mm.	c #700C0A",
"Nm.	c #7A110E",
"Om.	c #811513",
"Pm.	c #891D1A",
"Qm.	c #8E221F",
"Rm.	c #871A17",
"Sm.	c #790907",
"Tm.	c #770602",
"Um.	c #850F0D",
"Vm.	c #8C1413",
"Wm.	c #710401",
"Xm.	c #770908",
"Ym.	c #7E0C0C",
"Zm.	c #7E0308",
"`m.	c #800205",
" n.	c #880306",
".n.	c #8D0104",
"+n.	c #940000",
"@n.	c #A00100",
"#n.	c #B70A06",
"$n.	c #E11A13",
"%n.	c #E4130C",
"&n.	c #D91A1F",
"*n.	c #D0252B",
"=n.	c #B52022",
"-n.	c #8C1010",
";n.	c #680903",
">n.	c #500500",
",n.	c #410600",
"'n.	c #3D0A06",
")n.	c #3C0906",
"!n.	c #3B0807",
"~n.	c #3D0609",
"{n.	c #3B0407",
"]n.	c #380504",
"^n.	c #360604",
"/n.	c #38110C",
"(n.	c #350E09",
"_n.	c #2A1011",
":n.	c #260D10",
"<n.	c #1C0608",
"[n.	c #170304",
"}n.	c #170707",
"|n.	c #200D09",
"1n.	c #1B0100",
"2n.	c #593B3B",
"3n.	c #644447",
"4n.	c #47272A",
"5n.	c #472B2A",
"6n.	c #56433D",
"7n.	c #53453C",
"8n.	c #534B40",
"9n.	c #685E55",
"0n.	c #5E544B",
"an.	c #453832",
"bn.	c #40322F",
"cn.	c #443532",
"dn.	c #362724",
"en.	c #433832",
"fn.	c #483D37",
"gn.	c #473E37",
"hn.	c #6E6761",
"in.	c #A29B95",
"jn.	c #766F69",
"kn.	c #131009",
"ln.	c #17140D",
"mn.	c #2E2B24",
"nn.	c #0E0A01",
"on.	c #090600",
"pn.	c #1B1610",
"qn.	c #28231F",
"rn.	c #2C2421",
"sn.	c #312926",
"tn.	c #3D3532",
"un.	c #332927",
"vn.	c #392F2D",
"wn.	c #3E332D",
"xn.	c #3E312B",
"yn.	c #36281F",
"zn.	c #3E2D26",
"An.	c #392A23",
"Bn.	c #453B32",
"Cn.	c #41372E",
"Dn.	c #110A02",
"En.	c #332A25",
"Fn.	c #3B302C",
"Gn.	c #2E231F",
"Hn.	c #3D322E",
"In.	c #352C27",
"Jn.	c #14100D",
"Kn.	c #130F0C",
"Ln.	c #11100C",
"Mn.	c #090A05",
"Nn.	c #110809",
"On.	c #0A0C07",
"Pn.	c #10120D",
"Qn.	c #71170F",
"Rn.	c #8C2F27",
"Sn.	c #88211C",
"Tn.	c #8D1A17",
"Un.	c #891613",
"Vn.	c #6E140C",
"Wn.	c #631008",
"Xn.	c #65120C",
"Yn.	c #741616",
"Zn.	c #610303",
"`n.	c #670909",
" o.	c #660E0C",
".o.	c #6A1713",
"+o.	c #580D07",
"@o.	c #560D06",
"#o.	c #500700",
"$o.	c #550A04",
"%o.	c #5C0E0A",
"&o.	c #5F0E0A",
"*o.	c #5F0908",
"=o.	c #5E0906",
"-o.	c #620A08",
";o.	c #6B120C",
">o.	c #6C130B",
",o.	c #640D06",
"'o.	c #5F0A03",
")o.	c #5E0902",
"!o.	c #5E0B03",
"~o.	c #5E0A00",
"{o.	c #5D0900",
"]o.	c #620C00",
"^o.	c #671000",
"/o.	c #6D1404",
"(o.	c #711806",
"_o.	c #741907",
":o.	c #791909",
"<o.	c #771508",
"[o.	c #751004",
"}o.	c #750E05",
"|o.	c #79120B",
"1o.	c #7D2019",
"2o.	c #7B241B",
"3o.	c #6D2016",
"4o.	c #5C180D",
"5o.	c #54190B",
"6o.	c #572315",
"7o.	c #572818",
"8o.	c #552415",
"9o.	c #480E02",
"0o.	c #521004",
"ao.	c #591007",
"bo.	c #6A0F0C",
"co.	c #761212",
"do.	c #821818",
"eo.	c #8B1F1F",
"fo.	c #902221",
"go.	c #851716",
"ho.	c #7B0D0C",
"io.	c #7B0B0A",
"jo.	c #810F0E",
"ko.	c #891313",
"lo.	c #8C1415",
"mo.	c #891515",
"no.	c #710B06",
"oo.	c #6C0B04",
"po.	c #700A06",
"qo.	c #790D0B",
"ro.	c #800C0F",
"so.	c #83080D",
"to.	c #860509",
"uo.	c #8C0408",
"vo.	c #930205",
"wo.	c #A4080B",
"xo.	c #BA1010",
"yo.	c #CF1715",
"zo.	c #E01914",
"Ao.	c #EA1511",
"Bo.	c #F0110C",
"Co.	c #E1121A",
"Do.	c #D61B24",
"Eo.	c #C9262B",
"Fo.	c #A71F1F",
"Go.	c #770B08",
"Ho.	c #560300",
"Io.	c #4A0701",
"Jo.	c #430804",
"Ko.	c #410608",
"Lo.	c #400509",
"Mo.	c #3E0307",
"No.	c #3A0205",
"Oo.	c #380406",
"Po.	c #370E0A",
"Qo.	c #37100B",
"Ro.	c #360F0A",
"So.	c #340F09",
"To.	c #2F120A",
"Uo.	c #2F140D",
"Vo.	c #260C0F",
"Wo.	c #290C11",
"Xo.	c #230A0D",
"Yo.	c #1A0406",
"Zo.	c #160606",
"`o.	c #140907",
" p.	c #1D0908",
".p.	c #1C0201",
"+p.	c #543636",
"@p.	c #5D3D40",
"#p.	c #49292E",
"$p.	c #47292B",
"%p.	c #432928",
"&p.	c #4B332F",
"*p.	c #53403A",
"=p.	c #44362D",
"-p.	c #3C2F26",
";p.	c #41392E",
">p.	c #5D554A",
",p.	c #5C5249",
"'p.	c #51473E",
")p.	c #463734",
"!p.	c #100300",
"~p.	c #3E3129",
"{p.	c #483E35",
"]p.	c #352B22",
"^p.	c #786D67",
"/p.	c #938A83",
"(p.	c #928982",
"_p.	c #4A433D",
":p.	c #271F1C",
"<p.	c #1C1713",
"[p.	c #1D1814",
"}p.	c #0A0300",
"|p.	c #312A24",
"1p.	c #362E2B",
"2p.	c #3B3130",
"3p.	c #3A302E",
"4p.	c #3C2B23",
"5p.	c #3D2E27",
"6p.	c #45362F",
"7p.	c #3E342B",
"8p.	c #1C150D",
"9p.	c #413833",
"0p.	c #3F3631",
"ap.	c #342B26",
"bp.	c #1E1913",
"cp.	c #1D1812",
"dp.	c #1C1211",
"ep.	c #1A100F",
"fp.	c #180E0D",
"gp.	c #1D1312",
"hp.	c #1D1415",
"ip.	c #1A1414",
"jp.	c #171312",
"kp.	c #151110",
"lp.	c #11100E",
"mp.	c #0E0D0B",
"np.	c #090907",
"op.	c #060604",
"pp.	c #030301",
"qp.	c #040402",
"rp.	c #070604",
"sp.	c #080705",
"tp.	c #090504",
"up.	c #060201",
"vp.	c #090303",
"wp.	c #0D0707",
"xp.	c #090000",
"yp.	c #11130E",
"zp.	c #171914",
"Ap.	c #690E09",
"Bp.	c #8C2923",
"Cp.	c #8D201D",
"Dp.	c #9E211F",
"Ep.	c #AB2526",
"Fp.	c #981314",
"Gp.	c #901412",
"Hp.	c #70120A",
"Ip.	c #6A150E",
"Jp.	c #6E1B15",
"Kp.	c #6C130F",
"Lp.	c #6E1010",
"Mp.	c #6A0C0C",
"Np.	c #5E0302",
"Op.	c #5C0402",
"Pp.	c #691411",
"Qp.	c #6C1B17",
"Rp.	c #691C16",
"Sp.	c #691E18",
"Tp.	c #570C06",
"Up.	c #590E09",
"Vp.	c #5E0F0B",
"Wp.	c #5D0C09",
"Xp.	c #5B0705",
"Yp.	c #5C0605",
"Zp.	c #5F0703",
"`p.	c #620B04",
" q.	c #620D06",
".q.	c #610C05",
"+q.	c #5D0A04",
"@q.	c #580801",
"#q.	c #580800",
"$q.	c #5B0700",
"%q.	c #5E0700",
"&q.	c #610B00",
"*q.	c #681100",
"=q.	c #6E1706",
"-q.	c #721B08",
";q.	c #771C0A",
">q.	c #7A1909",
",q.	c #791307",
"'q.	c #761004",
")q.	c #791209",
"!q.	c #7C1A11",
"~q.	c #75140B",
"{q.	c #6C0F07",
"]q.	c #640B03",
"^q.	c #68150D",
"/q.	c #631910",
"(q.	c #5B180F",
"_q.	c #581E12",
":q.	c #5A291B",
"<q.	c #542918",
"[q.	c #4D1F0F",
"}q.	c #4F1509",
"|q.	c #58150C",
"1q.	c #5F160D",
"2q.	c #65150E",
"3q.	c #6D1410",
"4q.	c #781615",
"5q.	c #851D1C",
"6q.	c #8F2323",
"7q.	c #952726",
"8q.	c #7C0E0D",
"9q.	c #710100",
"0q.	c #8A1616",
"aq.	c #881212",
"bq.	c #870F10",
"cq.	c #78110A",
"dq.	c #6E0C03",
"eq.	c #6F0600",
"fq.	c #7A0A08",
"gq.	c #860E0F",
"hq.	c #90080A",
"iq.	c #950407",
"jq.	c #9C0305",
"kq.	c #B20E0D",
"lq.	c #CA1816",
"mq.	c #D81614",
"nq.	c #F91111",
"oq.	c #DE101C",
"pq.	c #DB232B",
"qq.	c #C22327",
"rq.	c #660000",
"sq.	c #550400",
"tq.	c #420806",
"uq.	c #3F0907",
"vq.	c #3C0908",
"wq.	c #3A0706",
"xq.	c #360405",
"yq.	c #370506",
"zq.	c #390907",
"Aq.	c #370B08",
"Bq.	c #3B1610",
"Cq.	c #3D1A16",
"Dq.	c #401F1A",
"Eq.	c #32150F",
"Fq.	c #1C0203",
"Gq.	c #21070A",
"Hq.	c #200A0C",
"Iq.	c #1F0B0C",
"Jq.	c #1E0C0C",
"Kq.	c #180808",
"Lq.	c #1A0605",
"Mq.	c #2D1513",
"Nq.	c #4B3130",
"Oq.	c #4B2F2E",
"Pq.	c #4A2D2F",
"Qq.	c #462C2B",
"Rq.	c #442C2A",
"Sq.	c #4F3C36",
"Tq.	c #463C32",
"Uq.	c #4A4237",
"Vq.	c #6C6459",
"Wq.	c #4D403A",
"Xq.	c #332421",
"Yq.	c #5D5048",
"Zq.	c #6B6158",
"`q.	c #61574E",
" r.	c #544943",
".r.	c #3C332E",
"+r.	c #322A27",
"@r.	c #2E2623",
"#r.	c #312821",
"$r.	c #312823",
"%r.	c #392E2A",
"&r.	c #39302B",
"*r.	c #372C26",
"=r.	c #3B2E25",
"-r.	c #3D2F24",
";r.	c #382A1F",
">r.	c #4D443D",
",r.	c #413831",
"'r.	c #2D241F",
")r.	c #362B27",
"!r.	c #3C312D",
"~r.	c #332824",
"{r.	c #302722",
"]r.	c #231C16",
"^r.	c #1F1A14",
"/r.	c #1B1811",
"(r.	c #1A1511",
"_r.	c #19110F",
":r.	c #140E0E",
"<r.	c #120E0D",
"[r.	c #0F0E0C",
"}r.	c #0D0C0A",
"|r.	c #0A0907",
"1r.	c #0B0706",
"2r.	c #0F0B0A",
"3r.	c #0C0608",
"4r.	c #080202",
"5r.	c #070101",
"6r.	c #0B0505",
"7r.	c #0F0909",
"8r.	c #0D0E09",
"9r.	c #13140F",
"0r.	c #161712",
"ar.	c #171813",
"br.	c #761713",
"cr.	c #921719",
"dr.	c #AE2225",
"er.	c #BA232A",
"fr.	c #A40F13",
"gr.	c #950A0D",
"hr.	c #820B07",
"ir.	c #5C0A00",
"jr.	c #580300",
"kr.	c #600703",
"lr.	c #690E0B",
"mr.	c #822925",
"nr.	c #8B322E",
"or.	c #721A16",
"pr.	c #630E09",
"qr.	c #66130D",
"rr.	c #64140D",
"sr.	c #61100C",
"tr.	c #5E0F0A",
"ur.	c #5C0B07",
"vr.	c #590804",
"wr.	c #7A2624",
"xr.	c #7E2827",
"yr.	c #721C1B",
"zr.	c #6A1614",
"Ar.	c #631410",
"Br.	c #5A0D07",
"Cr.	c #5C0F09",
"Dr.	c #60130B",
"Er.	c #5E0F08",
"Fr.	c #601007",
"Gr.	c #660F05",
"Hr.	c #6D170A",
"Ir.	c #671406",
"Jr.	c #6D1F0B",
"Kr.	c #751F0E",
"Lr.	c #7F1A0E",
"Mr.	c #770C04",
"Nr.	c #6E0700",
"Or.	c #710F06",
"Pr.	c #72160B",
"Qr.	c #6F150C",
"Rr.	c #701C12",
"Sr.	c #6A3025",
"Tr.	c #562217",
"Ur.	c #49190B",
"Vr.	c #512012",
"Wr.	c #51150A",
"Xr.	c #5C180F",
"Yr.	c #641B12",
"Zr.	c #71221B",
"`r.	c #7C2420",
" s.	c #761816",
".s.	c #7B1513",
"+s.	c #8B2121",
"@s.	c #7C0C0B",
"#s.	c #800E0D",
"$s.	c #820E0E",
"%s.	c #830D0B",
"&s.	c #810B09",
"*s.	c #7D0705",
"=s.	c #770401",
"-s.	c #7A0B04",
";s.	c #720300",
">s.	c #7F0A03",
",s.	c #8A0F08",
"'s.	c #860000",
")s.	c #8D0000",
"!s.	c #9C0703",
"~s.	c #9D0200",
"{s.	c #B5120D",
"]s.	c #C81B15",
"^s.	c #D61D18",
"/s.	c #DB140F",
"(s.	c #EF050E",
"_s.	c #E70712",
":s.	c #E0111B",
"<s.	c #D51A21",
"[s.	c #B21317",
"}s.	c #600000",
"|s.	c #510600",
"1s.	c #3E0A00",
"2s.	c #35150A",
"3s.	c #300703",
"4s.	c #3C0A09",
"5s.	c #410E0D",
"6s.	c #431110",
"7s.	c #461312",
"8s.	c #451211",
"9s.	c #410D0F",
"0s.	c #3E0C0D",
"as.	c #3D0D0D",
"bs.	c #3C0E0E",
"cs.	c #3E1415",
"ds.	c #361311",
"es.	c #26110C",
"fs.	c #1F0707",
"gs.	c #220A0A",
"hs.	c #240E10",
"is.	c #1F0C0E",
"js.	c #1C090B",
"ks.	c #160404",
"ls.	c #170503",
"ms.	c #110000",
"ns.	c #412E27",
"os.	c #443029",
"ps.	c #433029",
"qs.	c #392820",
"rs.	c #3E3027",
"ss.	c #4A4036",
"ts.	c #3A3227",
"us.	c #40372E",
"vs.	c #4E453C",
"ws.	c #463C33",
"xs.	c #3C3229",
"ys.	c #1B0905",
"zs.	c #50433B",
"As.	c #594C43",
"Bs.	c #70665D",
"Cs.	c #504740",
"Ds.	c #59514E",
"Es.	c #302825",
"Fs.	c #1E1413",
"Gs.	c #281E1D",
"Hs.	c #271D1B",
"Is.	c #1E1412",
"Js.	c #3E3128",
"Ks.	c #40332B",
"Ls.	c #3F322C",
"Ms.	c #5D524E",
"Ns.	c #443935",
"Os.	c #352A26",
"Ps.	c #382D29",
"Qs.	c #342925",
"Rs.	c #27201A",
"Ss.	c #24211A",
"Ts.	c #191813",
"Us.	c #171612",
"Vs.	c #181713",
"Ws.	c #1A1914",
"Xs.	c #1A1915",
"Ys.	c #161511",
"Zs.	c #13120E",
"`s.	c #14110C",
" t.	c #120F0A",
".t.	c #16130E",
"+t.	c #16120F",
"@t.	c #080403",
"#t.	c #060203",
"$t.	c #050001",
"%t.	c #060002",
"&t.	c #0A0406",
"*t.	c #0E080A",
"=t.	c #11080D",
"-t.	c #0D0407",
";t.	c #070103",
">t.	c #0A0404",
",t.	c #070302",
"'t.	c #0A0605",
")t.	c #100C0B",
"!t.	c #050402",
"~t.	c #1A1917",
"{t.	c #1F1E1C",
"]t.	c #151412",
"^t.	c #73100B",
"/t.	c #780806",
"(t.	c #8E0C0E",
"_t.	c #AD181E",
":t.	c #BB1B23",
"<t.	c #BB1E25",
"[t.	c #A51316",
"}t.	c #890D0B",
"|t.	c #7C1109",
"1t.	c #73190E",
"2t.	c #6F1B10",
"3t.	c #6B190E",
"4t.	c #69140D",
"5t.	c #6F1713",
"6t.	c #7A211D",
"7t.	c #802723",
"8t.	c #6E1614",
"9t.	c #741F1C",
"0t.	c #6C1714",
"at.	c #5B0804",
"bt.	c #7D2A26",
"ct.	c #772420",
"dt.	c #6B1A16",
"et.	c #7C2826",
"ft.	c #893334",
"gt.	c #782326",
"ht.	c #5E150F",
"it.	c #5D140E",
"jt.	c #711D13",
"kt.	c #761F16",
"lt.	c #712414",
"mt.	c #78130B",
"nt.	c #711F14",
"ot.	c #74241B",
"pt.	c #85362F",
"qt.	c #792C26",
"rt.	c #6D2821",
"st.	c #562016",
"tt.	c #451308",
"ut.	c #4B170C",
"vt.	c #4C0E03",
"wt.	c #601A12",
"xt.	c #6C1D16",
"yt.	c #76100E",
"zt.	c #811515",
"At.	c #7A0A09",
"Bt.	c #7E0A0B",
"Ct.	c #810B0B",
"Dt.	c #830B0C",
"Et.	c #820A09",
"Ft.	c #7B0501",
"Gt.	c #8F0A03",
"Ht.	c #9D0500",
"It.	c #B2130D",
"Jt.	c #B8110B",
"Kt.	c #CA1D16",
"Lt.	c #DB241E",
"Mt.	c #E5241D",
"Nt.	c #E61008",
"Ot.	c #F9080F",
"Pt.	c #F10712",
"Qt.	c #EA0D16",
"Rt.	c #E1151E",
"St.	c #C5141A",
"Tt.	c #9E090B",
"Ut.	c #760300",
"Vt.	c #5C0700",
"Wt.	c #420A00",
"Xt.	c #371202",
"Yt.	c #321608",
"Zt.	c #2F180A",
"`t.	c #3A0404",
" u.	c #441110",
".u.	c #430D0D",
"+u.	c #4F171A",
"@u.	c #4D1518",
"#u.	c #420B0E",
"$u.	c #350304",
"%u.	c #3E1012",
"&u.	c #370F0F",
"*u.	c #1B1108",
"=u.	c #140B02",
"-u.	c #1E0602",
";u.	c #1E0606",
">u.	c #220C0E",
",u.	c #1E0A0C",
"'u.	c #1C080A",
")u.	c #190506",
"!u.	c #150102",
"~u.	c #160402",
"{u.	c #150301",
"]u.	c #3D352A",
"^u.	c #362E23",
"/u.	c #281F16",
"(u.	c #352C23",
"_u.	c #594841",
":u.	c #766760",
"<u.	c #241A18",
"[u.	c #564E4C",
"}u.	c #605856",
"|u.	c #160C0B",
"1u.	c #2D2220",
"2u.	c #312620",
"3u.	c #3D322C",
"4u.	c #322723",
"5u.	c #302521",
"6u.	c #382F2A",
"7u.	c #28211B",
"8u.	c #211E17",
"9u.	c #1B1B13",
"0u.	c #1D1D15",
"au.	c #181810",
"bu.	c #191911",
"cu.	c #1A1710",
"du.	c #18150E",
"eu.	c #1F1A16",
"fu.	c #151611",
"gu.	c #11120D",
"hu.	c #0F100B",
"iu.	c #0E0D08",
"ju.	c #100F0A",
"ku.	c #12110C",
"lu.	c #0C0606",
"mu.	c #080002",
"nu.	c #0B0205",
"ou.	c #0F060B",
"pu.	c #10070C",
"qu.	c #0C0308",
"ru.	c #080004",
"su.	c #141311",
"tu.	c #0C0B09",
"uu.	c #131210",
"vu.	c #100F0D",
"wu.	c #750E07",
"xu.	c #8D0907",
"yu.	c #AD161B",
"zu.	c #BC1C24",
"Au.	c #B91C23",
"Bu.	c #A10F12",
"Cu.	c #850806",
"Du.	c #73150B",
"Eu.	c #711810",
"Fu.	c #751C18",
"Gu.	c #741918",
"Hu.	c #771C1B",
"Iu.	c #721716",
"Ju.	c #680D0C",
"Ku.	c #6C1211",
"Lu.	c #781E1D",
"Mu.	c #7A201F",
"Nu.	c #691110",
"Ou.	c #6C1413",
"Pu.	c #761E1D",
"Qu.	c #7B2322",
"Ru.	c #771F1E",
"Su.	c #782221",
"Tu.	c #852F2E",
"Uu.	c #8C3838",
"Vu.	c #6D1B1D",
"Wu.	c #5A0C0A",
"Xu.	c #5A0F0C",
"Yu.	c #5A130F",
"Zu.	c #5E1711",
"`u.	c #621B15",
" v.	c #711E18",
".v.	c #711C17",
"+v.	c #701910",
"@v.	c #6B170D",
"#v.	c #721B12",
"$v.	c #730D08",
"%v.	c #821C18",
"&v.	c #7B261F",
"*v.	c #7E2B23",
"=v.	c #72221B",
"-v.	c #752C26",
";v.	c #551A12",
">v.	c #4A160B",
",v.	c #4C160C",
"'v.	c #480500",
")v.	c #621912",
"!v.	c #650C08",
"~v.	c #680907",
"{v.	c #6B0302",
"]v.	c #700203",
"^v.	c #7D090A",
"/v.	c #80080A",
"(v.	c #84090B",
"_v.	c #860A0A",
":v.	c #850909",
"<v.	c #830707",
"[v.	c #800603",
"}v.	c #7F0800",
"|v.	c #820900",
"1v.	c #8C0C03",
"2v.	c #930A04",
"3v.	c #9E0905",
"4v.	c #B91B18",
"5v.	c #D52D2A",
"6v.	c #DC2D28",
"7v.	c #D7221B",
"8v.	c #E32620",
"9v.	c #EA231C",
"0v.	c #FC0B11",
"av.	c #F50913",
"bv.	c #EC0B13",
"cv.	c #D2191E",
"dv.	c #B7191A",
"ev.	c #8E0E0D",
"fv.	c #6A0702",
"gv.	c #4D0700",
"hv.	c #3D0C00",
"iv.	c #330F01",
"jv.	c #301207",
"kv.	c #331209",
"lv.	c #310502",
"mv.	c #2F0000",
"nv.	c #3F0C0B",
"ov.	c #4A1716",
"pv.	c #511B1B",
"qv.	c #50191C",
"rv.	c #491517",
"sv.	c #430F11",
"tv.	c #3F0D0E",
"uv.	c #37090B",
"vv.	c #310909",
"wv.	c #1A0502",
"xv.	c #1B0605",
"yv.	c #1D0807",
"zv.	c #1E0A0B",
"Av.	c #1D090B",
"Bv.	c #1B0709",
"Cv.	c #4D4337",
"Dv.	c #3E3428",
"Ev.	c #383025",
"Fv.	c #231B10",
"Gv.	c #514039",
"Hv.	c #8F7E77",
"Iv.	c #93847D",
"Jv.	c #75665F",
"Kv.	c #493C34",
"Lv.	c #302826",
"Mv.	c #817977",
"Nv.	c #68605E",
"Ov.	c #342A28",
"Pv.	c #393029",
"Qv.	c #362D26",
"Rv.	c #372E29",
"Sv.	c #473E39",
"Tv.	c #443B36",
"Uv.	c #403732",
"Vv.	c #362F29",
"Wv.	c #231E1A",
"Xv.	c #221F1A",
"Yv.	c #211E19",
"Zv.	c #1A1B15",
"`v.	c #1B1C16",
" w.	c #1A1D16",
".w.	c #1C1914",
"+w.	c #191A15",
"@w.	c #12130E",
"#w.	c #0E0F0A",
"$w.	c #0D0E08",
"%w.	c #0C0D07",
"&w.	c #090A04",
"*w.	c #0E0F09",
"=w.	c #13140E",
"-w.	c #15140F",
";w.	c #0E0808",
">w.	c #080204",
",w.	c #0D0409",
"'w.	c #0E050A",
")w.	c #0B0207",
"!w.	c #0D0908",
"~w.	c #040301",
"{w.	c #060503",
"]w.	c #171614",
"^w.	c #1C1B19",
"/w.	c #161513",
"(w.	c #090806",
"_w.	c #7F120B",
":w.	c #800903",
"<w.	c #940E0B",
"[w.	c #B61D20",
"}w.	c #C6252B",
"|w.	c #B91A1F",
"1w.	c #A61417",
"2w.	c #931310",
"3w.	c #881912",
"4w.	c #811F14",
"5w.	c #7B1F14",
"6w.	c #7A1C14",
"7w.	c #791A14",
"8w.	c #791B19",
"9w.	c #822424",
"0w.	c #7D2221",
"aw.	c #6F1111",
"bw.	c #6C1110",
"cw.	c #812323",
"dw.	c #862B2A",
"ew.	c #7A1E1F",
"fw.	c #65090A",
"gw.	c #6A0E0F",
"hw.	c #791D1E",
"iw.	c #7F2324",
"jw.	c #771B1C",
"kw.	c #7B1F22",
"lw.	c #832929",
"mw.	c #7F2628",
"nw.	c #752121",
"ow.	c #5A0A0B",
"pw.	c #4E0300",
"qw.	c #510704",
"rw.	c #4D0803",
"sw.	c #510C07",
"tw.	c #5E1912",
"uw.	c #6A211B",
"vw.	c #70221E",
"ww.	c #691612",
"xw.	c #67120F",
"yw.	c #6B1611",
"zw.	c #6A1510",
"Aw.	c #68100C",
"Bw.	c #730F0D",
"Cw.	c #831B1A",
"Dw.	c #801E1D",
"Ew.	c #711613",
"Fw.	c #741C18",
"Gw.	c #822F29",
"Hw.	c #7F2E2A",
"Iw.	c #6D1E19",
"Jw.	c #61120D",
"Kw.	c #6E201C",
"Lw.	c #742924",
"Mw.	c #712A24",
"Nw.	c #692620",
"Ow.	c #53170F",
"Pw.	c #471107",
"Qw.	c #50170E",
"Rw.	c #541007",
"Sw.	c #6F201B",
"Tw.	c #6B1613",
"Uw.	c #6D120F",
"Vw.	c #6F0D0C",
"Ww.	c #6F0505",
"Xw.	c #740305",
"Yw.	c #810A0C",
"Zw.	c #800508",
"`w.	c #800406",
" x.	c #840609",
".x.	c #860809",
"+x.	c #870708",
"@x.	c #860607",
"#x.	c #840705",
"$x.	c #820700",
"%x.	c #870B01",
"&x.	c #980702",
"*x.	c #AF110E",
"=x.	c #D02827",
"-x.	c #E63432",
";x.	c #E82F2C",
">x.	c #D81813",
",x.	c #E11A15",
"'x.	c #E71812",
")x.	c #F9090C",
"!x.	c #F5080E",
"~x.	c #E30C13",
"{x.	c #DA171D",
"]x.	c #CA1D21",
"^x.	c #A51515",
"/x.	c #610802",
"(x.	c #4C0900",
"_x.	c #3B0900",
":x.	c #340C02",
"<x.	c #330C07",
"[x.	c #330A06",
"}x.	c #2D0000",
"|x.	c #461413",
"1x.	c #4D1B1A",
"2x.	c #4E1C1D",
"3x.	c #4D1B1C",
"4x.	c #4E1E1E",
"5x.	c #2D0505",
"6x.	c #280503",
"7x.	c #170600",
"8x.	c #1B0603",
"9x.	c #1D090A",
"0x.	c #1B080A",
"ax.	c #4E4035",
"bx.	c #3E362B",
"cx.	c #181005",
"dx.	c #675851",
"ex.	c #4A3B36",
"fx.	c #4E4644",
"gx.	c #7B716F",
"hx.	c #635957",
"ix.	c #221713",
"jx.	c #372821",
"kx.	c #342B24",
"lx.	c #2D241D",
"mx.	c #423934",
"nx.	c #48413B",
"ox.	c #47403A",
"px.	c #37322C",
"qx.	c #241F1B",
"rx.	c #23201B",
"sx.	c #1C1F18",
"tx.	c #1E211A",
"ux.	c #20231C",
"vx.	c #171A13",
"wx.	c #0F120B",
"xx.	c #10110B",
"yx.	c #1F1C17",
"zx.	c #1D1A15",
"Ax.	c #181510",
"Bx.	c #141510",
"Cx.	c #080903",
"Dx.	c #0A0106",
"Ex.	c #130F0E",
"Fx.	c #14100F",
"Gx.	c #181715",
"Hx.	c #12110F",
"Ix.	c #88160C",
"Jx.	c #8B0F07",
"Kx.	c #9E1411",
"Lx.	c #BC2325",
"Mx.	c #CB2A2F",
"Nx.	c #BA1B1F",
"Ox.	c #B01B1D",
"Px.	c #A11F1D",
"Qx.	c #94211C",
"Rx.	c #7B1910",
"Sx.	c #7B160E",
"Tx.	c #842221",
"Ux.	c #842425",
"Vx.	c #7E2020",
"Wx.	c #7A1A1B",
"Xx.	c #7D1F20",
"Yx.	c #822224",
"Zx.	c #7A1C1D",
"`x.	c #711314",
" y.	c #741617",
".y.	c #6C0D11",
"+y.	c #701115",
"@y.	c #77181C",
"#y.	c #842529",
"$y.	c #9D3E44",
"%y.	c #943539",
"&y.	c #650B0D",
"*y.	c #5A0606",
"=y.	c #540604",
"-y.	c #5C120F",
";y.	c #5E1713",
">y.	c #4E0B05",
",y.	c #470600",
"'y.	c #591812",
")y.	c #6E2924",
"!y.	c #6E2421",
"~y.	c #70211D",
"{y.	c #641310",
"]y.	c #620E0C",
"^y.	c #6D1917",
"/y.	c #6C1B18",
"(y.	c #65110F",
"_y.	c #731315",
":y.	c #852225",
"<y.	c #892D2E",
"[y.	c #7F2726",
"}y.	c #731F1D",
"|y.	c #6E1F1B",
"1y.	c #6F201C",
"2y.	c #6C1E1A",
"3y.	c #792B27",
"4y.	c #661816",
"5y.	c #621714",
"6y.	c #782E2B",
"7y.	c #7A3530",
"8y.	c #571811",
"9y.	c #4D1109",
"0y.	c #5F120C",
"ay.	c #600F0B",
"by.	c #640F0C",
"cy.	c #701210",
"dy.	c #700C0C",
"ey.	c #770608",
"fy.	c #820B0D",
"gy.	c #800307",
"hy.	c #870409",
"iy.	c #8A070C",
"jy.	c #88050A",
"ky.	c #860406",
"ly.	c #870505",
"my.	c #890A03",
"ny.	c #8F0C04",
"oy.	c #930600",
"py.	c #9D0400",
"qy.	c #B91412",
"ry.	c #D52323",
"sy.	c #DC1E1E",
"ty.	c #D81211",
"uy.	c #E30F0C",
"vy.	c #F7080D",
"wy.	c #F2090D",
"xy.	c #E90A0F",
"yy.	c #E01117",
"zy.	c #D71A20",
"Ay.	c #BB161A",
"By.	c #9A1010",
"Cy.	c #4C0901",
"Dy.	c #430E06",
"Ey.	c #320502",
"Fy.	c #2F0200",
"Gy.	c #50201E",
"Hy.	c #5C2C2A",
"Iy.	c #592929",
"Jy.	c #502222",
"Ky.	c #471E1C",
"Ly.	c #270402",
"My.	c #1A0806",
"Ny.	c #120300",
"Oy.	c #3F322A",
"Py.	c #3D2E29",
"Qy.	c #584F4A",
"Ry.	c #352A24",
"Sy.	c #423B35",
"Ty.	c #453E38",
"Uy.	c #463F39",
"Vy.	c #3C352F",
"Wy.	c #403B35",
"Xy.	c #4B4640",
"Yy.	c #45403A",
"Zy.	c #25221B",
"`y.	c #27241F",
" z.	c #262521",
".z.	c #252420",
"+z.	c #22231E",
"@z.	c #1F201B",
"#z.	c #1C1E19",
"$z.	c #1A1F19",
"%z.	c #1B201A",
"&z.	c #151A14",
"*z.	c #161813",
"=z.	c #1C1D18",
"-z.	c #21221D",
";z.	c #21201C",
">z.	c #1C1B17",
",z.	c #12130D",
"'z.	c #0A0B05",
")z.	c #151410",
"!z.	c #0E0A09",
"~z.	c #090003",
"{z.	c #1B1716",
"]z.	c #191514",
"^z.	c #0B0A08",
"/z.	c #020100",
"(z.	c #191816",
"_z.	c #8E1409",
":z.	c #8D0D04",
"<z.	c #9D120D",
"[z.	c #B91F1F",
"}z.	c #C42426",
"|z.	c #BE2021",
"1z.	c #B62222",
"2z.	c #A82420",
"3z.	c #97221B",
"4z.	c #84180E",
"5z.	c #841714",
"6z.	c #862220",
"7z.	c #771516",
"8z.	c #711112",
"9z.	c #862425",
"0z.	c #903031",
"az.	c #7B1B1D",
"bz.	c #6C0C0E",
"cz.	c #761618",
"dz.	c #78181C",
"ez.	c #6F0F13",
"fz.	c #6C0C10",
"gz.	c #701014",
"hz.	c #85242B",
"iz.	c #A24148",
"jz.	c #923138",
"kz.	c #5A0003",
"lz.	c #5D0708",
"mz.	c #550504",
"nz.	c #5B100D",
"oz.	c #631C18",
"pz.	c #5D1C16",
"qz.	c #5A1B14",
"rz.	c #591A13",
"sz.	c #57140E",
"tz.	c #601915",
"uz.	c #661C19",
"vz.	c #540606",
"wz.	c #621414",
"xz.	c #621616",
"yz.	c #580E0D",
"zz.	c #5F1111",
"Az.	c #6B1216",
"Bz.	c #72161B",
"Cz.	c #731D20",
"Dz.	c #711F21",
"Ez.	c #6D1F1F",
"Fz.	c #661A1A",
"Gz.	c #611515",
"Hz.	c #5D120F",
"Iz.	c #681D1A",
"Jz.	c #6C211E",
"Kz.	c #671C19",
"Lz.	c #621815",
"Mz.	c #601B16",
"Nz.	c #50140C",
"Oz.	c #530E07",
"Pz.	c #580B05",
"Qz.	c #5C0704",
"Rz.	c #7A090B",
"Sz.	c #840D0F",
"Tz.	c #7F0407",
"Uz.	c #7E0003",
"Vz.	c #850305",
"Wz.	c #860404",
"Xz.	c #880701",
"Yz.	c #A40501",
"Zz.	c #C61817",
"`z.	c #DC2021",
" A.	c #DD1313",
".A.	c #D80607",
"+A.	c #E60F0D",
"@A.	c #EC0E0D",
"#A.	c #FB080A",
"$A.	c #F70B0F",
"%A.	c #F00A0D",
"&A.	c #E80D13",
"*A.	c #E11419",
"=A.	c #CE171B",
"-A.	c #B7161B",
";A.	c #8B0506",
">A.	c #710302",
",A.	c #5E0604",
"'A.	c #510E08",
")A.	c #39130A",
"!A.	c #391811",
"~A.	c #2E0200",
"{A.	c #340805",
"]A.	c #421613",
"^A.	c #4F2320",
"/A.	c #552928",
"(A.	c #562E2C",
"_A.	c #431D1A",
":A.	c #2E0B09",
"<A.	c #240502",
"[A.	c #402F25",
"}A.	c #44372F",
"|A.	c #483932",
"1A.	c #342522",
"2A.	c #2E201F",
"3A.	c #2C231E",
"4A.	c #3F362F",
"5A.	c #3F3222",
"6A.	c #362919",
"7A.	c #261D18",
"8A.	c #443D37",
"9A.	c #514C46",
"0A.	c #342F29",
"aA.	c #2D2A23",
"bA.	c #2A2720",
"cA.	c #26261E",
"dA.	c #23221D",
"eA.	c #252621",
"fA.	c #242520",
"gA.	c #1F211C",
"hA.	c #1B1D18",
"iA.	c #141913",
"jA.	c #171C16",
"kA.	c #222721",
"lA.	c #2D322C",
"mA.	c #272924",
"nA.	c #1D1E19",
"oA.	c #0F100A",
"pA.	c #181913",
"qA.	c #0C0807",
"rA.	c #221E1D",
"sA.	c #1D1918",
"tA.	c #181413",
"uA.	c #901003",
"vA.	c #8D0900",
"wA.	c #9A0D06",
"xA.	c #B01614",
"yA.	c #B8181A",
"zA.	c #C32526",
"AA.	c #BB2727",
"BA.	c #AE2A26",
"CA.	c #A22823",
"DA.	c #932019",
"EA.	c #8D1A15",
"FA.	c #931C18",
"GA.	c #992323",
"HA.	c #861E1D",
"IA.	c #700E0D",
"JA.	c #852123",
"KA.	c #953334",
"LA.	c #832122",
"MA.	c #741114",
"NA.	c #801D20",
"OA.	c #751217",
"PA.	c #78151A",
"QA.	c #7A171C",
"RA.	c #761318",
"SA.	c #77161D",
"TA.	c #832229",
"UA.	c #7E1D24",
"VA.	c #66070D",
"WA.	c #6B1113",
"XA.	c #590F0C",
"YA.	c #5F1C16",
"ZA.	c #5C1D18",
"`A.	c #4C0805",
" B.	c #5B1513",
".B.	c #4F0907",
"+B.	c #460000",
"@B.	c #500A0A",
"#B.	c #4E0A09",
"$B.	c #470604",
"%B.	c #561010",
"&B.	c #5F0E14",
"*B.	c #5D080F",
"=B.	c #57070A",
"-B.	c #590D0F",
";B.	c #61191A",
">B.	c #651F1F",
",B.	c #5C1616",
"'B.	c #500907",
")B.	c #4F0504",
"!B.	c #6D2322",
"~B.	c #540D0B",
"{B.	c #4B0601",
"]B.	c #52110B",
"^B.	c #652921",
"/B.	c #702520",
"(B.	c #701615",
"_B.	c #79191A",
":B.	c #7D1617",
"<B.	c #811417",
"[B.	c #820F12",
"}B.	c #7C0509",
"|B.	c #7C0104",
"1B.	c #84070B",
"2B.	c #890B0E",
"3B.	c #820105",
"4B.	c #840202",
"5B.	c #860200",
"6B.	c #900700",
"7B.	c #980000",
"8B.	c #AC0705",
"9B.	c #D21C1B",
"0B.	c #E51E21",
"aB.	c #E71214",
"bB.	c #EF1013",
"cB.	c #F30F10",
"dB.	c #F90801",
"eB.	c #F6070C",
"fB.	c #EF080E",
"gB.	c #E90C13",
"hB.	c #DE1319",
"iB.	c #D0191E",
"jB.	c #AD0E12",
"kB.	c #8C0509",
"lB.	c #6D0101",
"mB.	c #4C1008",
"nB.	c #350C06",
"oB.	c #320905",
"pB.	c #441B17",
"qB.	c #4C2422",
"rB.	c #48221F",
"sB.	c #250603",
"tB.	c #150400",
"uB.	c #3E3226",
"vB.	c #3F372A",
"wB.	c #443C31",
"xB.	c #3A3026",
"yB.	c #41342B",
"zB.	c #45372E",
"AB.	c #3C2B24",
"BB.	c #231313",
"CB.	c #2A1C1B",
"DB.	c #1F1513",
"EB.	c #241706",
"FB.	c #352818",
"GB.	c #2F2317",
"HB.	c #3A312C",
"IB.	c #38312B",
"JB.	c #3C3731",
"KB.	c #252219",
"LB.	c #18150C",
"MB.	c #1C1910",
"NB.	c #2A2A20",
"OB.	c #303026",
"PB.	c #33352A",
"QB.	c #32332B",
"RB.	c #23241E",
"SB.	c #20221D",
"TB.	c #1D1F1A",
"UB.	c #191E18",
"VB.	c #1B221B",
"WB.	c #1E251E",
"XB.	c #242B24",
"YB.	c #292E28",
"ZB.	c #2B302A",
"`B.	c #1C1D17",
" C.	c #1B1C17",
".C.	c #12140F",
"+C.	c #1B1A18",
"@C.	c #21201E",
"#C.	c #950F03",
"$C.	c #8F0700",
"%C.	c #980901",
"&C.	c #AB120D",
"*C.	c #B11312",
"=C.	c #B21715",
"-C.	c #AD1917",
";C.	c #A5201B",
">C.	c #9F241D",
",C.	c #99221A",
"'C.	c #971D18",
")C.	c #9C1A18",
"!C.	c #9E2021",
"~C.	c #8C1E1D",
"{C.	c #8B2523",
"]C.	c #811B19",
"^C.	c #80191A",
"/C.	c #922B2C",
"(C.	c #912A2D",
"_C.	c #801C1E",
":C.	c #7E191D",
"<C.	c #7E1B1E",
"[C.	c #811E21",
"}C.	c #821F22",
"|C.	c #7B181D",
"1C.	c #711115",
"2C.	c #6E0D14",
"3C.	c #6D0D11",
"4C.	c #6A0C0D",
"5C.	c #660C0C",
"6C.	c #560806",
"7C.	c #55140E",
"8C.	c #5E1F18",
"9C.	c #5A1915",
"0C.	c #52110F",
"aC.	c #440301",
"bC.	c #490909",
"cC.	c #450807",
"dC.	c #410705",
"eC.	c #591919",
"fC.	c #560B10",
"gC.	c #5F1016",
"hC.	c #5C1115",
"iC.	c #540E10",
"jC.	c #541011",
"kC.	c #581617",
"lC.	c #581715",
"mC.	c #530F0E",
"nC.	c #621B19",
"oC.	c #5C1211",
"pC.	c #5B1110",
"qC.	c #641D1B",
"rC.	c #611C17",
"sC.	c #4D0C06",
"tC.	c #551911",
"uC.	c #793D35",
"vC.	c #702D25",
"wC.	c #7D3630",
"xC.	c #63100C",
"yC.	c #741513",
"zC.	c #740D0E",
"AC.	c #7E1212",
"BC.	c #81090B",
"CC.	c #870C0E",
"DC.	c #830709",
"EC.	c #7E0204",
"FC.	c #800301",
"GC.	c #870300",
"HC.	c #920700",
"IC.	c #9A0100",
"JC.	c #AF0603",
"KC.	c #E11518",
"LC.	c #E70C10",
"MC.	c #F91316",
"NC.	c #F70909",
"OC.	c #F0070D",
"PC.	c #E0151B",
"QC.	c #D41F26",
"RC.	c #AA0E12",
"SC.	c #7F0000",
"TC.	c #680200",
"UC.	c #570C07",
"VC.	c #48110A",
"WC.	c #3E160C",
"XC.	c #3E1910",
"YC.	c #3D120C",
"ZC.	c #320903",
"`C.	c #340B07",
" D.	c #3A130E",
".D.	c #441E1B",
"+D.	c #482521",
"@D.	c #230703",
"#D.	c #403428",
"$D.	c #443C2F",
"%D.	c #473F32",
"&D.	c #443A30",
"*D.	c #4B3E35",
"=D.	c #4C3F36",
"-D.	c #4D3F36",
";D.	c #362827",
">D.	c #312322",
",D.	c #1F1412",
"'D.	c #382F28",
")D.	c #3B2E1D",
"!D.	c #332616",
"~D.	c #2E2111",
"{D.	c #26261C",
"]D.	c #36382D",
"^D.	c #393B30",
"/D.	c #2D2E26",
"(D.	c #2B2C26",
"_D.	c #262722",
":D.	c #191B16",
"<D.	c #1A1C17",
"[D.	c #212620",
"}D.	c #2D342D",
"|D.	c #363D36",
"1D.	c #0D120C",
"2D.	c #0B0D08",
"3D.	c #1A1B16",
"4D.	c #10110C",
"5D.	c #141611",
"6D.	c #11110F",
"7D.	c #131311",
"8D.	c #090305",
"9D.	c #9D1306",
"0D.	c #970A00",
"aD.	c #A40C07",
"bD.	c #9E0402",
"cD.	c #A20A07",
"dD.	c #951009",
"eD.	c #961A12",
"fD.	c #9E221A",
"gD.	c #A5241F",
"hD.	c #A11919",
"iD.	c #942826",
"jD.	c #982C2A",
"kD.	c #861A18",
"lD.	c #801714",
"mD.	c #821A19",
"nD.	c #6B0405",
"oD.	c #741010",
"pD.	c #730F11",
"qD.	c #822021",
"rD.	c #76171B",
"sD.	c #721317",
"tD.	c #76161A",
"uD.	c #852024",
"vD.	c #741213",
"wD.	c #731817",
"xD.	c #5E0A08",
"yD.	c #520702",
"zD.	c #4B0C05",
"AD.	c #53140F",
"BD.	c #4B0E09",
"CD.	c #4C0F0C",
"DD.	c #4E110E",
"ED.	c #480D09",
"FD.	c #480E0A",
"GD.	c #4C1713",
"HD.	c #521816",
"ID.	c #530E11",
"JD.	c #5A1216",
"KD.	c #5D161A",
"LD.	c #591719",
"MD.	c #521514",
"ND.	c #551513",
"OD.	c #571614",
"PD.	c #67211F",
"QD.	c #6A201D",
"RD.	c #77302C",
"SD.	c #76312A",
"TD.	c #602118",
"UD.	c #692A21",
"VD.	c #712C25",
"WD.	c #5C0905",
"XD.	c #6A110D",
"YD.	c #6E100E",
"ZD.	c #700807",
"`D.	c #730705",
" E.	c #7B0909",
".E.	c #780405",
"+E.	c #780404",
"@E.	c #810000",
"#E.	c #910400",
"$E.	c #A30804",
"%E.	c #BB0F0D",
"&E.	c #D71617",
"*E.	c #EC1B1E",
"=E.	c #F21316",
"-E.	c #FC0905",
";E.	c #F7040A",
">E.	c #E60B13",
",E.	c #DE151D",
"'E.	c #CB1A20",
")E.	c #A91418",
"!E.	c #7F0406",
"~E.	c #600200",
"{E.	c #530C06",
"]E.	c #49140C",
"^E.	c #3F130A",
"/E.	c #431610",
"(E.	c #3D100B",
"_E.	c #3C110B",
":E.	c #2B0200",
"<E.	c #280100",
"[E.	c #2D0802",
"}E.	c #411E1A",
"|E.	c #401D19",
"1E.	c #402F27",
"2E.	c #413328",
"3E.	c #413326",
"4E.	c #42392A",
"5E.	c #433A2B",
"6E.	c #463E31",
"7E.	c #4B4336",
"8E.	c #4C4437",
"9E.	c #473D33",
"0E.	c #463930",
"aE.	c #322020",
"bE.	c #382828",
"cE.	c #180A09",
"dE.	c #0C0100",
"eE.	c #443933",
"fE.	c #3D332A",
"gE.	c #352815",
"hE.	c #3A2B18",
"iE.	c #30231A",
"jE.	c #281D1B",
"kE.	c #2B1F1F",
"lE.	c #251B19",
"mE.	c #433B38",
"nE.	c #3E3633",
"oE.	c #4B4340",
"pE.	c #504B45",
"qE.	c #39362D",
"rE.	c #403D34",
"sE.	c #423F36",
"tE.	c #3B382F",
"uE.	c #323226",
"vE.	c #303024",
"wE.	c #2F2F25",
"xE.	c #2B2A25",
"yE.	c #33322E",
"zE.	c #31302C",
"AE.	c #262823",
"BE.	c #10150F",
"CE.	c #121711",
"DE.	c #1B1A16",
"EE.	c #1C1815",
"FE.	c #19160F",
"GE.	c #1F1E1A",
"HE.	c #1E1D19",
"IE.	c #1D1D1B",
"JE.	c #1E1E1C",
"KE.	c #171715",
"LE.	c #0E0E0C",
"ME.	c #141412",
"NE.	c #151515",
"OE.	c #151513",
"PE.	c #252422",
"QE.	c #A91B0F",
"RE.	c #9B1305",
"SE.	c #9B1106",
"TE.	c #A00D06",
"UE.	c #990400",
"VE.	c #980400",
"WE.	c #930400",
"XE.	c #8D0A02",
"YE.	c #8F1007",
"ZE.	c #98180F",
"`E.	c #A21B17",
" F.	c #AB1715",
".F.	c #A71516",
"+F.	c #9E1E1D",
"@F.	c #AC3634",
"#F.	c #AD3A37",
"$F.	c #9A2724",
"%F.	c #952322",
"&F.	c #A43432",
"*F.	c #A33534",
"=F.	c #902724",
"-F.	c #7F1716",
";F.	c #801A18",
">F.	c #842020",
",F.	c #7B191A",
"'F.	c #802021",
")F.	c #8C2E2E",
"!F.	c #7B1D1E",
"~F.	c #700D10",
"{F.	c #7C1216",
"]F.	c #7A1012",
"^F.	c #801C1C",
"/F.	c #6A0F0E",
"(F.	c #631813",
"_F.	c #652019",
":F.	c #4B0802",
"<F.	c #4E0D09",
"[F.	c #62231E",
"}F.	c #61241F",
"|F.	c #4F140E",
"1F.	c #460B07",
"2F.	c #510D0E",
"3F.	c #591114",
"4F.	c #5C1819",
"5F.	c #5C1A1B",
"6F.	c #591917",
"7F.	c #571715",
"8F.	c #561712",
"9F.	c #591512",
"0F.	c #5E1715",
"aF.	c #782D28",
"bF.	c #7F3832",
"cF.	c #79342D",
"dF.	c #69291F",
"eF.	c #612219",
"fF.	c #632018",
"gF.	c #5F160F",
"hF.	c #62150F",
"iF.	c #67140E",
"jF.	c #650D09",
"kF.	c #680D08",
"lF.	c #670804",
"mF.	c #690601",
"nF.	c #6E0603",
"oF.	c #6F0603",
"pF.	c #700201",
"qF.	c #790603",
"rF.	c #820300",
"sF.	c #8A0000",
"tF.	c #A00501",
"uF.	c #BE1210",
"vF.	c #D81A1A",
"wF.	c #E71619",
"xF.	c #F70D10",
"yF.	c #E60F16",
"zF.	c #DC191F",
"AF.	c #C31A1F",
"BF.	c #9B0F10",
"CF.	c #750503",
"DF.	c #5E0602",
"EF.	c #510C05",
"FF.	c #491009",
"GF.	c #45100C",
"HF.	c #310802",
"IF.	c #300904",
"JF.	c #310C06",
"KF.	c #391612",
"LF.	c #44211D",
"MF.	c #43201C",
"NF.	c #2D0C07",
"OF.	c #3F2C25",
"PF.	c #301E1C",
"QF.	c #392727",
"RF.	c #3E2E2E",
"SF.	c #3C3228",
"TF.	c #3F3323",
"UF.	c #382B1A",
"VF.	c #3E2F1A",
"WF.	c #3C2D1A",
"XF.	c #3C2E25",
"YF.	c #31241E",
"ZF.	c #312624",
"`F.	c #382D2B",
" G.	c #2E2222",
".G.	c #2D2121",
"+G.	c #2E2422",
"@G.	c #463E3B",
"#G.	c #49443E",
"$G.	c #46413B",
"%G.	c #3C382F",
"&G.	c #38352C",
"*G.	c #3B392D",
"=G.	c #403E32",
"-G.	c #3E3C30",
";G.	c #2C2924",
">G.	c #302B28",
",G.	c #2B2823",
"'G.	c #201F1B",
")G.	c #191C15",
"!G.	c #1B1E17",
"~G.	c #1A1613",
"{G.	c #18130D",
"]G.	c #241D17",
"^G.	c #1D1916",
"/G.	c #201C19",
"(G.	c #231F1C",
"_G.	c #23221E",
":G.	c #272624",
"<G.	c #1B1B1B",
"[G.	c #0F0F0F",
"}G.	c #080806",
"|G.	c #0D0D0B",
"1G.	c #282725",
"2G.	c #9F1709",
"3G.	c #9A1206",
"4G.	c #9B0C04",
"5G.	c #960500",
"6G.	c #970802",
"7G.	c #940904",
"8G.	c #93130A",
"9G.	c #9D1811",
"0G.	c #AA1B17",
"aG.	c #B61B19",
"bG.	c #B81C1D",
"cG.	c #B52928",
"dG.	c #B02F2A",
"eG.	c #AB2B28",
"fG.	c #9F221E",
"gG.	c #971B19",
"hG.	c #961C19",
"iG.	c #97211F",
"jG.	c #962521",
"kG.	c #861916",
"lG.	c #831714",
"mG.	c #7C1411",
"nG.	c #750F0D",
"oG.	c #872522",
"pG.	c #8F302E",
"qG.	c #7A1C1A",
"rG.	c #7B1717",
"sG.	c #8A191B",
"tG.	c #911E21",
"uG.	c #922828",
"vG.	c #78201C",
"wG.	c #7D2D26",
"xG.	c #7A3027",
"yG.	c #570E07",
"zG.	c #540B04",
"AG.	c #6E251F",
"BG.	c #8C4541",
"CG.	c #99544F",
"DG.	c #77342E",
"EG.	c #53120C",
"FG.	c #5D1113",
"GG.	c #5B1314",
"HG.	c #5A1414",
"IG.	c #581411",
"JG.	c #591610",
"KG.	c #5D1612",
"LG.	c #6A1F1C",
"MG.	c #651713",
"NG.	c #62130F",
"OG.	c #7B2E28",
"PG.	c #7F342E",
"QG.	c #6F291F",
"RG.	c #5C1910",
"SG.	c #62231A",
"TG.	c #541810",
"UG.	c #57180F",
"VG.	c #5D1811",
"WG.	c #5B120C",
"XG.	c #5D100A",
"YG.	c #5B0A06",
"ZG.	c #620905",
"`G.	c #650300",
" H.	c #6B0501",
".H.	c #740702",
"+H.	c #7E0300",
"@H.	c #850000",
"#H.	c #C11717",
"$H.	c #DB1F1E",
"%H.	c #E21416",
"&H.	c #E90D0D",
"*H.	c #F61010",
"=H.	c #EC0A0E",
"-H.	c #E8151B",
";H.	c #D81F24",
">H.	c #BA1A1C",
",H.	c #900B0C",
"'H.	c #6D0100",
")H.	c #590100",
"!H.	c #510802",
"~H.	c #480B08",
"{H.	c #481210",
"]H.	c #42110D",
"^H.	c #290600",
"/H.	c #250200",
"(H.	c #290A05",
"_H.	c #2D100A",
":H.	c #30130D",
"<H.	c #1C0A00",
"[H.	c #1B0900",
"}H.	c #1B0A00",
"|H.	c #180602",
"1H.	c #3F2D21",
"2H.	c #443D2D",
"3H.	c #484131",
"4H.	c #4E4639",
"5H.	c #4B3A32",
"6H.	c #3D2B29",
"7H.	c #41322F",
"8H.	c #42331E",
"9H.	c #322725",
"0H.	c #362B29",
"aH.	c #2E2423",
"bH.	c #433B39",
"cH.	c #453D3A",
"dH.	c #403931",
"eH.	c #3B342C",
"fH.	c #353126",
"gH.	c #39352A",
"hH.	c #423E33",
"iH.	c #474338",
"jH.	c #403C30",
"kH.	c #373026",
"lH.	c #261E1B",
"mH.	c #221D17",
"nH.	c #1F1C15",
"oH.	c #1E1613",
"pH.	c #0E0906",
"qH.	c #191313",
"rH.	c #1A1615",
"sH.	c #110F10",
"tH.	c #090708",
"uH.	c #0C0C0C",
"vH.	c #040404",
"wH.	c #020202",
"xH.	c #111111",
"yH.	c #212121",
"zH.	c #232323",
"AH.	c #0A0603",
"BH.	c #0B0B09",
"CH.	c #242422",
"DH.	c #252523",
"EH.	c #10100E",
"FH.	c #020200",
"GH.	c #070705",
"HH.	c #000000",
"IH.	c #A5170D",
"JH.	c #9A1408",
"KH.	c #941004",
"LH.	c #991008",
"MH.	c #9A0F0A",
"NH.	c #99120C",
"OH.	c #991910",
"PH.	c #9F1C14",
"QH.	c #A92018",
"RH.	c #C42021",
"SH.	c #C62223",
"TH.	c #C9312E",
"UH.	c #B1201D",
"VH.	c #B02522",
"WH.	c #AB211E",
"XH.	c #98120F",
"YH.	c #951610",
"ZH.	c #A32823",
"`H.	c #99231F",
" I.	c #7A0D08",
".I.	c #7A110D",
"+I.	c #8B2521",
"@I.	c #7F1C17",
"#I.	c #6F0E08",
"$I.	c #8F2724",
"%I.	c #A12A2C",
"&I.	c #A1292B",
"*I.	c #9A2A29",
"=I.	c #7E1613",
"-I.	c #82231D",
";I.	c #852C26",
">I.	c #66130B",
",I.	c #590600",
"'I.	c #6F1A15",
")I.	c #862E2C",
"!I.	c #A74F4D",
"~I.	c #BC6764",
"{I.	c #9A4743",
"]I.	c #6D1A16",
"^I.	c #6B1A17",
"/I.	c #641312",
"(I.	c #550A07",
"_I.	c #530A04",
":I.	c #560D07",
"<I.	c #5D120C",
"[I.	c #651812",
"}I.	c #792824",
"|I.	c #711C19",
"1I.	c #761E1A",
"2I.	c #842F2A",
"3I.	c #7A2C22",
"4I.	c #5B160F",
"5I.	c #510A04",
"6I.	c #610E08",
"7I.	c #600B06",
"8I.	c #610601",
"9I.	c #670600",
"0I.	c #690802",
"aI.	c #BC1715",
"bI.	c #E50E0C",
"cI.	c #EF0E0C",
"dI.	c #F30B09",
"eI.	c #EC0D12",
"fI.	c #E1191C",
"gI.	c #CD1D20",
"hI.	c #AA1416",
"iI.	c #680000",
"jI.	c #4F0806",
"kI.	c #4E1110",
"lI.	c #450D0C",
"mI.	c #400D0A",
"nI.	c #2A0701",
"oI.	c #2C0903",
"pI.	c #2E0B05",
"qI.	c #2D0A06",
"rI.	c #2F0906",
"sI.	c #320F0B",
"tI.	c #2C0B06",
"uI.	c #280702",
"vI.	c #2A0904",
"wI.	c #2C0D08",
"xI.	c #1A0800",
"yI.	c #1A0900",
"zI.	c #1E0A09",
"AI.	c #140000",
"BI.	c #200B06",
"CI.	c #3B271E",
"DI.	c #462F27",
"EI.	c #372318",
"FI.	c #423B2B",
"GI.	c #50483B",
"HI.	c #4C3B33",
"II.	c #3C2F1E",
"JI.	c #43341F",
"KI.	c #483B35",
"LI.	c #3E302D",
"MI.	c #342927",
"NI.	c #2D2321",
"OI.	c #352D2B",
"PI.	c #3F3735",
"QI.	c #473F3D",
"RI.	c #48403D",
"SI.	c #443C39",
"TI.	c #433C36",
"UI.	c #463F37",
"VI.	c #322A1F",
"WI.	c #261F19",
"XI.	c #241F19",
"YI.	c #26211B",
"ZI.	c #0A0607",
"`I.	c #0A0809",
" J.	c #1C1C1C",
".J.	c #2A2A2A",
"+J.	c #2D2D2D",
"@J.	c #222222",
"#J.	c #0A0A08",
"$J.	c #20201E",
"%J.	c #050503",
"&J.	c #A3160C",
"*J.	c #971508",
"=J.	c #961108",
"-J.	c #97140C",
";J.	c #9A1C10",
">J.	c #A42117",
",J.	c #AE241A",
"'J.	c #B9211C",
")J.	c #C61E1E",
"!J.	c #CA1C1D",
"~J.	c #C72220",
"{J.	c #BA1816",
"]J.	c #B81916",
"^J.	c #C32524",
"/J.	c #C42C29",
"(J.	c #BB2725",
"_J.	c #B62824",
":J.	c #B7322D",
"<J.	c #AF302A",
"[J.	c #8A150E",
"}J.	c #922721",
"|J.	c #6D0800",
"1J.	c #8D221C",
"2J.	c #991F1E",
"3J.	c #94181A",
"4J.	c #901A1A",
"5J.	c #811411",
"6J.	c #8B241F",
"7J.	c #7E1D17",
"8J.	c #761711",
"9J.	c #6A0B05",
"0J.	c #680701",
"aJ.	c #811B17",
"bJ.	c #8A211E",
"cJ.	c #AA3E3E",
"dJ.	c #962A2A",
"eJ.	c #730707",
"fJ.	c #791A18",
"gJ.	c #6A100F",
"hJ.	c #5D0D06",
"iJ.	c #771C19",
"jJ.	c #751614",
"kJ.	c #811F1C",
"lJ.	c #993734",
"mJ.	c #A2433F",
"nJ.	c #963934",
"oJ.	c #872E26",
"pJ.	c #7F2F28",
"qJ.	c #6C2720",
"rJ.	c #5C1B15",
"sJ.	c #65221C",
"tJ.	c #57100A",
"uJ.	c #631610",
"vJ.	c #600D07",
"wJ.	c #630A04",
"xJ.	c #640A02",
"yJ.	c #6E0702",
"zJ.	c #880400",
"AJ.	c #960502",
"BJ.	c #A80906",
"CJ.	c #C00E0C",
"DJ.	c #E21210",
"EJ.	c #E20D11",
"FJ.	c #D9181D",
"GJ.	c #C41B1E",
"HJ.	c #A51012",
"IJ.	c #820203",
"JJ.	c #560406",
"KJ.	c #520E0F",
"LJ.	c #501010",
"MJ.	c #470B0A",
"NJ.	c #430B0A",
"OJ.	c #2F0600",
"PJ.	c #2E0901",
"QJ.	c #2F0D04",
"RJ.	c #2B0802",
"SJ.	c #3A1411",
"TJ.	c #2D0E09",
"UJ.	c #280D06",
"VJ.	c #170302",
"WJ.	c #341F1A",
"XJ.	c #3E271F",
"YJ.	c #4A312A",
"ZJ.	c #372116",
"`J.	c #493328",
" K.	c #3F3625",
".K.	c #403726",
"+K.	c #463F2F",
"@K.	c #4E4737",
"#K.	c #514A3A",
"$K.	c #474030",
"%K.	c #160C03",
"&K.	c #3E3222",
"*K.	c #3A2D1C",
"=K.	c #40312C",
"-K.	c #3E2F2C",
";K.	c #3F312E",
">K.	c #463835",
",K.	c #372926",
"'K.	c #383330",
")K.	c #36312E",
"!K.	c #393431",
"~K.	c #403B38",
"{K.	c #413936",
"]K.	c #4B403A",
"^K.	c #251E16",
"/K.	c #2B241C",
"(K.	c #0F0609",
"_K.	c #170E11",
":K.	c #1E181A",
"<K.	c #222023",
"[K.	c #272729",
"}K.	c #303032",
"|K.	c #333335",
"1K.	c #1A1A1A",
"2K.	c #090601",
"3K.	c #191917",
"4K.	c #232321",
"5K.	c #0F0F0D",
"6K.	c #9F150B",
"7K.	c #921207",
"8K.	c #880C02",
"9K.	c #8E0E05",
"0K.	c #921209",
"aK.	c #B1241B",
"bK.	c #BC211C",
"cK.	c #C7191A",
"dK.	c #CA1315",
"eK.	c #CA1617",
"fK.	c #D42424",
"gK.	c #CA1E1E",
"hK.	c #C92422",
"iK.	c #D1322F",
"jK.	c #C72F2A",
"kK.	c #B01F1A",
"lK.	c #B12822",
"mK.	c #A2211B",
"nK.	c #941912",
"oK.	c #88130C",
"pK.	c #95241C",
"qK.	c #95291F",
"rK.	c #7D1208",
"sK.	c #81120B",
"tK.	c #850907",
"uK.	c #840405",
"vK.	c #860E0D",
"wK.	c #871612",
"xK.	c #942923",
"yK.	c #7B120E",
"zK.	c #710A03",
"AK.	c #750906",
"BK.	c #8C1614",
"CK.	c #8B0F0F",
"DK.	c #89090A",
"EK.	c #921115",
"FK.	c #8F0C11",
"GK.	c #830005",
"HK.	c #7D0004",
"IK.	c #7F1311",
"JK.	c #6F0D0A",
"KK.	c #6D140C",
"LK.	c #79130F",
"MK.	c #780F0C",
"NK.	c #861D1A",
"OK.	c #9F3633",
"PK.	c #A43C39",
"QK.	c #922C28",
"RK.	c #85241E",
"SK.	c #822923",
"TK.	c #5C1913",
"UK.	c #55100B",
"VK.	c #5D1813",
"WK.	c #651C16",
"XK.	c #631812",
"YK.	c #5B0C05",
"ZK.	c #630A02",
"`K.	c #660C04",
" L.	c #6B0500",
".L.	c #7E0B06",
"+L.	c #880702",
"@L.	c #990000",
"#L.	c #B40703",
"$L.	c #E11713",
"%L.	c #E50609",
"&L.	c #DE1116",
"*L.	c #D51E23",
"=L.	c #C11E23",
"-L.	c #A21013",
";L.	c #5E0205",
">L.	c #54090D",
",L.	c #510B0D",
"'L.	c #4C0C0C",
")L.	c #480E0D",
"!L.	c #44110E",
"~L.	c #280700",
"{L.	c #2A0902",
"]L.	c #2B0A03",
"^L.	c #431B19",
"/L.	c #461E1C",
"(L.	c #3D1714",
"_L.	c #270400",
":L.	c #31120D",
"<L.	c #180300",
"[L.	c #170201",
"}L.	c #1C0402",
"|L.	c #503834",
"1L.	c #3D241D",
"2L.	c #4D342D",
"3L.	c #371F15",
"4L.	c #463025",
"5L.	c #423525",
"6L.	c #423928",
"7L.	c #4B4434",
"8L.	c #564F3F",
"9L.	c #4F4838",
"0L.	c #392A27",
"aL.	c #433431",
"bL.	c #4E3F3C",
"cL.	c #443633",
"dL.	c #312320",
"eL.	c #514340",
"fL.	c #372C28",
"gL.	c #332E2B",
"hL.	c #2E2A27",
"iL.	c #2E2926",
"jL.	c #3C3431",
"kL.	c #4C433E",
"lL.	c #514843",
"mL.	c #50453F",
"nL.	c #1F1110",
"oL.	c #140606",
"pL.	c #110505",
"qL.	c #0D0304",
"rL.	c #0C0203",
"sL.	c #12090C",
"tL.	c #1F1619",
"uL.	c #292023",
"vL.	c #2B2527",
"wL.	c #272528",
"xL.	c #202022",
"yL.	c #1C1C1E",
"zL.	c #1A1A1C",
"AL.	c #171717",
"BL.	c #110E09",
"CL.	c #181411",
"DL.	c #010100",
"EL.	c #9B1009",
"FL.	c #8B0D01",
"GL.	c #830900",
"HL.	c #860A00",
"IL.	c #860700",
"JL.	c #8D0E05",
"KL.	c #92160A",
"LL.	c #A11E14",
"ML.	c #B3241C",
"NL.	c #C0231E",
"OL.	c #CE1213",
"PL.	c #D71919",
"QL.	c #E82A2A",
"RL.	c #EA2E2D",
"SL.	c #D82020",
"TL.	c #D2201E",
"UL.	c #D72E2B",
"VL.	c #D02E2B",
"WL.	c #BC231E",
"XL.	c #B12119",
"YL.	c #A31A12",
"ZL.	c #9A1A11",
"`L.	c #8D180E",
" M.	c #942419",
".M.	c #85120B",
"+M.	c #8E110F",
"@M.	c #8D0D0C",
"#M.	c #8C100E",
"$M.	c #87110D",
"%M.	c #92231C",
"&M.	c #7C0D06",
"*M.	c #8F1917",
"=M.	c #951011",
"-M.	c #990E11",
";M.	c #9C0B10",
">M.	c #9E090F",
",M.	c #9E070E",
"'M.	c #A40A12",
")M.	c #A3141A",
"!M.	c #770E0A",
"~M.	c #710A05",
"{M.	c #77110C",
"]M.	c #781710",
"^M.	c #76130E",
"/M.	c #73100A",
"(M.	c #770F0C",
"_M.	c #801310",
":M.	c #8B1918",
"<M.	c #9E2C2B",
"[M.	c #962A27",
"}M.	c #871E1A",
"|M.	c #7B1C18",
"1M.	c #792A26",
"2M.	c #611A16",
"3M.	c #58110D",
"4M.	c #5D1310",
"5M.	c #621913",
"6M.	c #580904",
"7M.	c #610A03",
"8M.	c #620903",
"9M.	c #690C05",
"0M.	c #6B0802",
"aM.	c #7E0D09",
"bM.	c #840401",
"cM.	c #8D0200",
"dM.	c #A40A08",
"eM.	c #C01714",
"fM.	c #D51E1A",
"gM.	c #E01B15",
"hM.	c #E4150F",
"iM.	c #F90700",
"jM.	c #E20D13",
"kM.	c #DA1820",
"lM.	c #D02128",
"mM.	c #BC1D22",
"nM.	c #9C151B",
"oM.	c #6B080D",
"pM.	c #590A0F",
"qM.	c #550A0E",
"rM.	c #530F10",
"sM.	c #501312",
"tM.	c #3E130D",
"uM.	c #2B0900",
"vM.	c #250400",
"wM.	c #2A0500",
"xM.	c #360D0B",
"yM.	c #441B19",
"zM.	c #4F2624",
"AM.	c #4A2220",
"BM.	c #2D0704",
"CM.	c #280E0D",
"DM.	c #6B524E",
"EM.	c #301411",
"FM.	c #3D221B",
"GM.	c #543932",
"HM.	c #3B2017",
"IM.	c #413424",
"JM.	c #443B2A",
"KM.	c #554E3E",
"LM.	c #4A4333",
"MM.	c #44382C",
"NM.	c #493B30",
"OM.	c #39271D",
"PM.	c #3D2C24",
"QM.	c #130500",
"RM.	c #40332A",
"SM.	c #3F3229",
"TM.	c #392929",
"UM.	c #362626",
"VM.	c #352525",
"WM.	c #443434",
"XM.	c #352726",
"YM.	c #211312",
"ZM.	c #4C3E3B",
"`M.	c #3B302A",
" N.	c #322924",
".N.	c #25201D",
"+N.	c #272320",
"@N.	c #3B3330",
"#N.	c #473F3C",
"$N.	c #3F342E",
"%N.	c #220E0D",
"&N.	c #1F0D0B",
"*N.	c #1D0B0B",
"=N.	c #100202",
"-N.	c #110303",
";N.	c #100406",
">N.	c #1B1014",
",N.	c #24191D",
"'N.	c #261B21",
")N.	c #201A1E",
"!N.	c #151316",
"~N.	c #101113",
"{N.	c #111113",
"]N.	c #121214",
"^N.	c #121212",
"/N.	c #0E0E0E",
"(N.	c #211D1A",
"_N.	c #20211C",
":N.	c #1A1A18",
"<N.	c #9F0B07",
"[N.	c #8D0801",
"}N.	c #920D06",
"|N.	c #910C05",
"1N.	c #8C0700",
"2N.	c #930E05",
"3N.	c #A1180E",
"4N.	c #B41F18",
"5N.	c #C4211C",
"6N.	c #CB1917",
"7N.	c #CD1110",
"8N.	c #CA0D0B",
"9N.	c #D11412",
"0N.	c #D91B1B",
"aN.	c #D71F1D",
"bN.	c #DB2D2C",
"cN.	c #DE3937",
"dN.	c #C72C27",
"eN.	c #AF1C15",
"fN.	c #A81F17",
"gN.	c #991A11",
"hN.	c #840E02",
"iN.	c #7E0C01",
"jN.	c #7F1104",
"kN.	c #902015",
"lN.	c #A52B26",
"mN.	c #9E2220",
"nN.	c #911714",
"oN.	c #7C0602",
"pN.	c #83120C",
"qN.	c #89130F",
"rN.	c #A62C29",
"sN.	c #961414",
"tN.	c #980E0E",
"uN.	c #A71619",
"vN.	c #AF1317",
"wN.	c #A9080E",
"xN.	c #B10E13",
"yN.	c #B2191C",
"zN.	c #9B1B18",
"AN.	c #770A03",
"BN.	c #770E08",
"CN.	c #77120A",
"DN.	c #720B06",
"EN.	c #780B08",
"FN.	c #7F0B0B",
"GN.	c #8C1113",
"HN.	c #9F2124",
"IN.	c #B5373A",
"JN.	c #C24648",
"KN.	c #B94140",
"LN.	c #9D2A27",
"MN.	c #7F1613",
"NN.	c #802824",
"ON.	c #681D17",
"PN.	c #691C14",
"QN.	c #5B0D03",
"RN.	c #611309",
"SN.	c #660F06",
"TN.	c #620800",
"UN.	c #640700",
"VN.	c #6D0C06",
"WN.	c #700D07",
"XN.	c #800000",
"YN.	c #930805",
"ZN.	c #BA211C",
"`N.	c #D82F2C",
" O.	c #E12825",
".O.	c #E31917",
"+O.	c #EB100C",
"@O.	c #F30700",
"#O.	c #F60A0C",
"$O.	c #E8070B",
"%O.	c #DC1B20",
"&O.	c #D21F23",
"*O.	c #B71E21",
"=O.	c #800B11",
"-O.	c #690A0E",
";O.	c #5F0A0D",
">O.	c #531613",
",O.	c #46130F",
"'O.	c #3E1710",
")O.	c #2F0C08",
"!O.	c #290801",
"~O.	c #2C0301",
"{O.	c #3B0F0E",
"]O.	c #481F1D",
"^O.	c #4D2422",
"/O.	c #30110C",
"(O.	c #260B04",
"_O.	c #1C0400",
":O.	c #240F0C",
"<O.	c #7D5F5D",
"[O.	c #3D201A",
"}O.	c #583D36",
"|O.	c #3F241B",
"1O.	c #472F25",
"2O.	c #3E2A1F",
"3O.	c #483A2D",
"4O.	c #494031",
"5O.	c #4F473A",
"6O.	c #493C33",
"7O.	c #42352C",
"8O.	c #2E2321",
"9O.	c #3B302E",
"0O.	c #2C2220",
"aO.	c #1F1919",
"bO.	c #272123",
"cO.	c #2E2828",
"dO.	c #342F2C",
"eO.	c #473D3B",
"fO.	c #433937",
"gO.	c #3E211B",
"hO.	c #381B13",
"iO.	c #33140F",
"jO.	c #190504",
"kO.	c #230F10",
"lO.	c #211112",
"mO.	c #241616",
"nO.	c #291B1B",
"oO.	c #2E2224",
"pO.	c #2F2325",
"qO.	c #271B1F",
"rO.	c #1A1114",
"sO.	c #100E0F",
"tO.	c #181A19",
"uO.	c #272725",
"vO.	c #2B2B29",
"wO.	c #222220",
"xO.	c #0C0E0B",
"yO.	c #24211C",
"zO.	c #110D0C",
"AO.	c #AF0B0A",
"BO.	c #AF100D",
"CO.	c #AC110F",
"DO.	c #A70D0B",
"EO.	c #A00B07",
"FO.	c #9B0703",
"GO.	c #A01008",
"HO.	c #A8150E",
"IO.	c #A8110A",
"JO.	c #C9201B",
"KO.	c #D52120",
"LO.	c #BF110A",
"MO.	c #BB0D06",
"NO.	c #BE0B06",
"OO.	c #C70F0D",
"PO.	c #D7191B",
"QO.	c #D91F20",
"RO.	c #DA2627",
"SO.	c #CC2320",
"TO.	c #A3140C",
"UO.	c #97140A",
"VO.	c #850F01",
"WO.	c #7A0C00",
"XO.	c #831A07",
"YO.	c #972D1F",
"ZO.	c #B6473E",
"`O.	c #A22F2C",
" P.	c #7B0A06",
".P.	c #891814",
"+P.	c #952420",
"@P.	c #7A0704",
"#P.	c #8E0606",
"$P.	c #A41615",
"%P.	c #B31F1F",
"&P.	c #A30B0A",
"*P.	c #A10604",
"=P.	c #B1120F",
"-P.	c #9C1511",
";P.	c #8B110C",
">P.	c #7D0C04",
",P.	c #741207",
"'P.	c #750805",
")P.	c #7C0103",
"!P.	c #8B060B",
"~P.	c #A2151B",
"{P.	c #B8292F",
"]P.	c #B92C32",
"^P.	c #A92123",
"/P.	c #9C1718",
"(P.	c #911B19",
"_P.	c #6E1A10",
":P.	c #68180D",
"<P.	c #64180B",
"[P.	c #640C00",
"}P.	c #680A00",
"|P.	c #710C02",
"1P.	c #850303",
"2P.	c #910707",
"3P.	c #AE100D",
"4P.	c #C51611",
"5P.	c #DC1917",
"6P.	c #EA1517",
"7P.	c #EE0F14",
"8P.	c #E9080C",
"9P.	c #EC0F14",
"0P.	c #DD0B0C",
"aP.	c #DC0E0E",
"bP.	c #DD0705",
"cP.	c #EF0F0D",
"dP.	c #DF0B0A",
"eP.	c #DA2625",
"fP.	c #AE191B",
"gP.	c #850A0D",
"hP.	c #640000",
"iP.	c #550500",
"jP.	c #4B1008",
"kP.	c #40150C",
"lP.	c #3B1112",
"mP.	c #3A0E0F",
"nP.	c #350709",
"oP.	c #2D0402",
"pP.	c #2B0502",
"qP.	c #290B03",
"rP.	c #270000",
"sP.	c #350C0A",
"tP.	c #451C1A",
"uP.	c #4E2825",
"vP.	c #3E1B15",
"wP.	c #270901",
"xP.	c #1E0501",
"yP.	c #200401",
"zP.	c #1B0000",
"AP.	c #7A5856",
"BP.	c #42201E",
"CP.	c #3F2820",
"DP.	c #503933",
"EP.	c #422B25",
"FP.	c #53463D",
"GP.	c #4B4137",
"HP.	c #4E4236",
"IP.	c #40312A",
"JP.	c #0F0200",
"KP.	c #43362E",
"LP.	c #40362D",
"MP.	c #41372D",
"NP.	c #393126",
"OP.	c #302C23",
"PP.	c #35302A",
"QP.	c #262219",
"RP.	c #302B25",
"SP.	c #2F2523",
"TP.	c #251B1A",
"UP.	c #20171A",
"VP.	c #30272C",
"WP.	c #3C3336",
"XP.	c #393033",
"YP.	c #33292A",
"ZP.	c #220F0B",
"`P.	c #2C130F",
" Q.	c #3B1512",
".Q.	c #401411",
"+Q.	c #461614",
"@Q.	c #380300",
"#Q.	c #320100",
"$Q.	c #310401",
"%Q.	c #23100C",
"&Q.	c #1F0B0A",
"*Q.	c #1A0504",
"=Q.	c #291111",
"-Q.	c #331E1D",
";Q.	c #463233",
">Q.	c #483636",
",Q.	c #3B2929",
"'Q.	c #332323",
")Q.	c #0C0B06",
"!Q.	c #2A2B25",
"~Q.	c #35382F",
"{Q.	c #2E3128",
"]Q.	c #262920",
"^Q.	c #15180F",
"/Q.	c #070D03",
"(Q.	c #0F1209",
"_Q.	c #0C0F06",
":Q.	c #0D1007",
"<Q.	c #0E0F07",
"[Q.	c #0B0B03",
"}Q.	c #0A0700",
"|Q.	c #110D04",
"1Q.	c #15120B",
"2Q.	c #12110D",
"3Q.	c #161211",
"4Q.	c #150B0C",
"5Q.	c #160C0D",
"6Q.	c #010300",
"7Q.	c #BD0D0F",
"8Q.	c #C11314",
"9Q.	c #BD1314",
"0Q.	c #B30D0D",
"aQ.	c #A90A07",
"bQ.	c #9F0400",
"cQ.	c #A10803",
"dQ.	c #AD0E08",
"eQ.	c #B6110B",
"fQ.	c #CB1E1A",
"gQ.	c #D3201C",
"hQ.	c #C6130F",
"iQ.	c #B70F06",
"jQ.	c #B20A01",
"kQ.	c #B60801",
"lQ.	c #C30D0A",
"mQ.	c #D11313",
"nQ.	c #DA191C",
"oQ.	c #DF1E21",
"pQ.	c #DE2427",
"qQ.	c #D02221",
"rQ.	c #B51310",
"sQ.	c #9C180C",
"tQ.	c #9A2212",
"uQ.	c #821B08",
"vQ.	c #831C0B",
"wQ.	c #A63A30",
"xQ.	c #9B2B27",
"yQ.	c #7F0E0A",
"zQ.	c #8E1D19",
"AQ.	c #9B2727",
"BQ.	c #820C0C",
"CQ.	c #7D0504",
"DQ.	c #8A0E0C",
"EQ.	c #941411",
"FQ.	c #8D0704",
"GQ.	c #AD1E1A",
"HQ.	c #A00C08",
"IQ.	c #A00803",
"JQ.	c #AC130B",
"KQ.	c #A7120C",
"LQ.	c #9A130F",
"MQ.	c #860B06",
"NQ.	c #760700",
"OQ.	c #740D04",
"PQ.	c #74160A",
"QQ.	c #73170C",
"RQ.	c #800507",
"SQ.	c #8C070C",
"TQ.	c #A11218",
"UQ.	c #B32028",
"VQ.	c #B42328",
"WQ.	c #A71B1E",
"XQ.	c #9C1615",
"YQ.	c #951B18",
"ZQ.	c #6F170D",
"`Q.	c #6F1D11",
" R.	c #691B0E",
".R.	c #5F1605",
"+R.	c #631A09",
"@R.	c #611505",
"#R.	c #630B00",
"$R.	c #84110C",
"%R.	c #960E10",
"&R.	c #9D0E10",
"*R.	c #A1100D",
"=R.	c #AB0C08",
"-R.	c #BC0A06",
";R.	c #CD0A08",
">R.	c #DB0306",
",R.	c #DE0003",
"'R.	c #DE0006",
")R.	c #DD050A",
"!R.	c #CD0205",
"~R.	c #CC0907",
"{R.	c #CE0B07",
"]R.	c #D30802",
"^R.	c #E7100D",
"/R.	c #EB0B09",
"(R.	c #CD2022",
"_R.	c #AC171B",
":R.	c #850B08",
"<R.	c #45160C",
"[R.	c #3D1B11",
"}R.	c #391614",
"|R.	c #3E1013",
"1R.	c #3C0B0F",
"2R.	c #2F0604",
"3R.	c #2F0705",
"4R.	c #300705",
"5R.	c #370F0D",
"6R.	c #411B18",
"7R.	c #4A2421",
"8R.	c #47261F",
"9R.	c #361810",
"0R.	c #210706",
"aR.	c #170200",
"bR.	c #240200",
"cR.	c #593634",
"dR.	c #775150",
"eR.	c #492624",
"fR.	c #3C251D",
"gR.	c #462D28",
"hR.	c #472E2A",
"iR.	c #48302C",
"jR.	c #47322D",
"kR.	c #4B3A33",
"lR.	c #55483F",
"mR.	c #43362D",
"nR.	c #453830",
"oR.	c #3C332A",
"pR.	c #2B241A",
"qR.	c #261F15",
"rR.	c #2F281E",
"sR.	c #343025",
"tR.	c #25251B",
"uR.	c #17170D",
"vR.	c #100D04",
"wR.	c #332E28",
"xR.	c #29241E",
"yR.	c #2C251F",
"zR.	c #332B28",
"AR.	c #403634",
"BR.	c #1B1110",
"CR.	c #1F1418",
"DR.	c #281D23",
"ER.	c #2C2125",
"FR.	c #201416",
"GR.	c #231515",
"HR.	c #371B18",
"IR.	c #3E1513",
"JR.	c #3D0302",
"KR.	c #430303",
"LR.	c #4B0708",
"MR.	c #4D0908",
"NR.	c #490806",
"OR.	c #4E0E0C",
"PR.	c #531917",
"QR.	c #54211E",
"RR.	c #4E2521",
"SR.	c #43221D",
"TR.	c #210F0D",
"UR.	c #281010",
"VR.	c #2A1212",
"WR.	c #2B1313",
"XR.	c #2D1515",
"YR.	c #392423",
"ZR.	c #453130",
"`R.	c #412D2C",
" S.	c #2D1B19",
".S.	c #17140B",
"+S.	c #181A0F",
"@S.	c #1B1D12",
"#S.	c #1D2015",
"$S.	c #181B10",
"%S.	c #070D01",
"&S.	c #010700",
"*S.	c #0A1004",
"=S.	c #090C01",
"-S.	c #0A0C01",
";S.	c #090900",
">S.	c #070700",
",S.	c #181212",
"'S.	c #120C0C",
")S.	c #100A0A",
"!S.	c #120608",
"~S.	c #C91111",
"{S.	c #CC1817",
"]S.	c #C81818",
"^S.	c #BA110E",
"/S.	c #AE0907",
"(S.	c #AD0E0A",
"_S.	c #A70A05",
":S.	c #AA0D06",
"<S.	c #B00E09",
"[S.	c #B60F09",
"}S.	c #C11410",
"|S.	c #C5120E",
"1S.	c #B90703",
"2S.	c #B70E07",
"3S.	c #AF0600",
"4S.	c #B00100",
"5S.	c #BB0502",
"6S.	c #C90D0C",
"7S.	c #D11315",
"8S.	c #D6181A",
"9S.	c #D51D1F",
"0S.	c #D72928",
"aS.	c #A82217",
"bS.	c #A72D20",
"cS.	c #982918",
"dS.	c #851E0B",
"eS.	c #811707",
"fS.	c #A5342C",
"gS.	c #A32D29",
"hS.	c #8D1715",
"iS.	c #931D1B",
"jS.	c #9E2826",
"kS.	c #840A07",
"lS.	c #880805",
"mS.	c #840300",
"nS.	c #99140F",
"oS.	c #AB221C",
"pS.	c #A3160F",
"qS.	c #9E0F07",
"rS.	c #A11106",
"sS.	c #970A01",
"tS.	c #9D1C16",
"uS.	c #780D03",
"vS.	c #78180C",
"wS.	c #741D13",
"xS.	c #72180F",
"yS.	c #7B1511",
"zS.	c #7A0808",
"AS.	c #951015",
"BS.	c #A41B22",
"CS.	c #A61F23",
"DS.	c #9C1A1C",
"ES.	c #941816",
"FS.	c #8F1E1A",
"GS.	c #712116",
"HS.	c #64180A",
"IS.	c #611809",
"JS.	c #661A0C",
"KS.	c #611306",
"LS.	c #641103",
"MS.	c #660C01",
"NS.	c #6D0B02",
"OS.	c #760B05",
"PS.	c #7F0C09",
"QS.	c #830C08",
"RS.	c #8A0A09",
"SS.	c #930B0D",
"TS.	c #9B0C0E",
"US.	c #9E0D0A",
"VS.	c #A60904",
"WS.	c #B50802",
"XS.	c #D90909",
"YS.	c #DB0409",
"ZS.	c #D8070A",
"`S.	c #C40001",
" T.	c #C30602",
".T.	c #C70702",
"+T.	c #CB0400",
"@T.	c #E50601",
"#T.	c #D80605",
"$T.	c #DB1C23",
"%T.	c #CE232B",
"&T.	c #B01F22",
"*T.	c #5F0801",
"=T.	c #42160B",
"-T.	c #3B1514",
";T.	c #3F1517",
">T.	c #3F1215",
",T.	c #340809",
"'T.	c #2E0405",
")T.	c #2D0503",
"!T.	c #4A2723",
"~T.	c #43241F",
"{T.	c #3B1C17",
"]T.	c #240B07",
"^T.	c #2A0806",
"/T.	c #755250",
"(T.	c #694340",
"_T.	c #532D2A",
":T.	c #3B1E18",
"<T.	c #482F28",
"[T.	c #48332E",
"}T.	c #422F29",
"|T.	c #5E4F48",
"1T.	c #52453C",
"2T.	c #453B31",
"3T.	c #41322B",
"4T.	c #2E1F1A",
"5T.	c #382D27",
"6T.	c #413630",
"7T.	c #2E271F",
"8T.	c #36332A",
"9T.	c #312C28",
"0T.	c #342C29",
"aT.	c #3D3331",
"bT.	c #140A09",
"cT.	c #1E1415",
"dT.	c #211819",
"eT.	c #211718",
"fT.	c #371513",
"gT.	c #3D0101",
"hT.	c #430000",
"iT.	c #510708",
"jT.	c #601013",
"kT.	c #64181A",
"lT.	c #6A2927",
"mT.	c #5D2A27",
"nT.	c #512421",
"oT.	c #411917",
"pT.	c #200E0C",
"qT.	c #210C0B",
"rT.	c #1F0A09",
"sT.	c #392524",
"tT.	c #352321",
"uT.	c #342220",
"vT.	c #1A160D",
"wT.	c #111107",
"xT.	c #15150B",
"yT.	c #16180D",
"zT.	c #0D0F04",
"AT.	c #060900",
"BT.	c #080B00",
"CT.	c #0B0E03",
"DT.	c #070900",
"ET.	c #080800",
"FT.	c #0C0900",
"GT.	c #0C0902",
"HT.	c #231F1E",
"IT.	c #130D0D",
"JT.	c #110B0B",
"KT.	c #160A0C",
"LT.	c #13090A",
"MT.	c #D11110",
"NT.	c #D41817",
"OT.	c #B20906",
"PT.	c #AB0803",
"QT.	c #A00000",
"RT.	c #AD0B06",
"ST.	c #C31713",
"TT.	c #C81612",
"UT.	c #BD140D",
"VT.	c #B00903",
"WT.	c #AB0000",
"XT.	c #B10000",
"YT.	c #BC0404",
"ZT.	c #C6090D",
"`T.	c #CB1418",
" U.	c #CC2020",
".U.	c #BD1B19",
"+U.	c #7F0E00",
"@U.	c #7A1100",
"#U.	c #821808",
"$U.	c #A12C25",
"%U.	c #A32926",
"&U.	c #8E1411",
"*U.	c #850B0A",
"=U.	c #8D1312",
"-U.	c #870D0C",
";U.	c #870A06",
">U.	c #860701",
",U.	c #95110C",
"'U.	c #A11C15",
")U.	c #9B150A",
"!U.	c #990F05",
"~U.	c #980E01",
"{U.	c #8F0900",
"]U.	c #90140C",
"^U.	c #6E1006",
"/U.	c #6A1407",
"(U.	c #5F0B00",
"_U.	c #6A0903",
":U.	c #6F0301",
"<U.	c #790204",
"[U.	c #8C1211",
"}U.	c #73140E",
"|U.	c #6F1A13",
"1U.	c #6E1B13",
"2U.	c #66180C",
"3U.	c #601206",
"4U.	c #601407",
"5U.	c #6E1F12",
"6U.	c #74170F",
"7U.	c #78120D",
"8U.	c #7C0F0A",
"9U.	c #800D0A",
"0U.	c #900508",
"aU.	c #980808",
"bU.	c #9B0A05",
"cU.	c #A20702",
"dU.	c #B10801",
"eU.	c #C50C07",
"fU.	c #D7100D",
"gU.	c #E00F12",
"hU.	c #DC0E10",
"iU.	c #D30B0D",
"jU.	c #BC0000",
"kU.	c #BC0501",
"lU.	c #C20702",
"mU.	c #C70200",
"nU.	c #E00000",
"oU.	c #E50909",
"pU.	c #DD0A13",
"qU.	c #E11F28",
"rU.	c #D52A30",
"sU.	c #AD1E20",
"tU.	c #7D0D0B",
"uU.	c #470B01",
"vU.	c #3E0F07",
"wU.	c #3A1715",
"xU.	c #3E1617",
"yU.	c #3A0C0E",
"zU.	c #370609",
"AU.	c #320406",
"BU.	c #2C0603",
"CU.	c #361510",
"DU.	c #3E1D18",
"EU.	c #462722",
"FU.	c #270B08",
"GU.	c #886261",
"HU.	c #59312F",
"IU.	c #58322F",
"JU.	c #513831",
"KU.	c #412D26",
"LU.	c #4B3631",
"MU.	c #47342E",
"NU.	c #584942",
"OU.	c #564740",
"PU.	c #483E34",
"QU.	c #453B2F",
"RU.	c #41322D",
"SU.	c #3A312A",
"TU.	c #312A22",
"UU.	c #353128",
"VU.	c #3A362D",
"WU.	c #2D2A21",
"XU.	c #130F06",
"YU.	c #342D27",
"ZU.	c #3A322F",
"`U.	c #352B29",
" V.	c #2B211F",
".V.	c #291F1D",
"+V.	c #1D1111",
"@V.	c #380605",
"#V.	c #400605",
"$V.	c #4D090A",
"%V.	c #5F1315",
"&V.	c #741F24",
"*V.	c #81282C",
"=V.	c #7E2C30",
"-V.	c #703332",
";V.	c #5F2C29",
">V.	c #4A1D1A",
",V.	c #230100",
"'V.	c #140200",
")V.	c #190403",
"!V.	c #503E3C",
"~V.	c #493A37",
"{V.	c #151108",
"]V.	c #0A0A00",
"^V.	c #0B0D02",
"/V.	c #121409",
"(V.	c #0C0F04",
"_V.	c #080A00",
":V.	c #0B0B01",
"<V.	c #0E0E04",
"[V.	c #110E05",
"}V.	c #1F1B1A",
"|V.	c #221819",
"1V.	c #1D1113",
"2V.	c #D90F0D",
"3V.	c #DA1413",
"4V.	c #D51512",
"5V.	c #C7100C",
"6V.	c #BA0B06",
"7V.	c #B20904",
"8V.	c #A20000",
"9V.	c #AB0801",
"0V.	c #B40D07",
"aV.	c #BF130F",
"bV.	c #C91A15",
"cV.	c #C01712",
"dV.	c #B30B08",
"eV.	c #AC0000",
"fV.	c #B60203",
"gV.	c #C10A0E",
"hV.	c #C71316",
"iV.	c #C51B1B",
"jV.	c #BF201D",
"kV.	c #A61D15",
"lV.	c #8C1004",
"mV.	c #7B0A00",
"nV.	c #7E1404",
"oV.	c #8F2316",
"pV.	c #AA2D2B",
"qV.	c #991C1A",
"rV.	c #870A08",
"sV.	c #8B0F0D",
"tV.	c #A02422",
"uV.	c #961915",
"vV.	c #920F07",
"wV.	c #8C0800",
"xV.	c #8B0500",
"yV.	c #8E0900",
"zV.	c #7E0D05",
"AV.	c #72140A",
"BV.	c #691105",
"CV.	c #6B0C06",
"DV.	c #6F0704",
"EV.	c #750504",
"FV.	c #7A0404",
"GV.	c #7D0506",
"HV.	c #780701",
"IV.	c #731108",
"JV.	c #71140D",
"KV.	c #5C0C03",
"LV.	c #73120C",
"MV.	c #770E0B",
"NV.	c #81090A",
"OV.	c #880A0D",
"PV.	c #910A0E",
"QV.	c #96070B",
"RV.	c #9C0A0B",
"SV.	c #A10802",
"TV.	c #A90500",
"UV.	c #BA0903",
"VV.	c #CC0C09",
"WV.	c #D50F0E",
"XV.	c #DA1617",
"YV.	c #CC0E0E",
"ZV.	c #B20000",
"`V.	c #B50400",
" W.	c #C00903",
".W.	c #C90600",
"+W.	c #E00A08",
"@W.	c #F60D10",
"#W.	c #E8010B",
"$W.	c #EB0F1B",
"%W.	c #E8202A",
"&W.	c #D4272B",
"*W.	c #AB1F1E",
"=W.	c #3D0100",
"-W.	c #3C1415",
";W.	c #3F1114",
">W.	c #3F0C11",
",W.	c #3C090E",
"'W.	c #390F10",
")W.	c #34110D",
"!W.	c #280501",
"~W.	c #240300",
"{W.	c #250301",
"]W.	c #270503",
"^W.	c #3A1B18",
"/W.	c #40211E",
"(W.	c #3F201B",
"_W.	c #351611",
":W.	c #3C1917",
"<W.	c #8B6564",
"[W.	c #4D2523",
"}W.	c #5B3331",
"|W.	c #42231E",
"1W.	c #533831",
"2W.	c #44312B",
"3W.	c #5C4B44",
"4W.	c #63544D",
"5W.	c #473A32",
"6W.	c #3F352B",
"7W.	c #4C4238",
"8W.	c #352822",
"9W.	c #4A3F39",
"0W.	c #564B45",
"aW.	c #453A34",
"bW.	c #373028",
"cW.	c #1B0F0F",
"dW.	c #350906",
"eW.	c #400A08",
"fW.	c #4E0E0F",
"gW.	c #64191D",
"hW.	c #7B292D",
"iW.	c #8C3136",
"jW.	c #8B2C32",
"kW.	c #7B262B",
"lW.	c #501615",
"mW.	c #3B1210",
"nW.	c #300806",
"oW.	c #200200",
"pW.	c #0F0504",
"qW.	c #190707",
"rW.	c #1A0607",
"sW.	c #1B0708",
"tW.	c #251112",
"uW.	c #412F2F",
"vW.	c #5F4D4D",
"wW.	c #4D3D3D",
"xW.	c #0F0F07",
"yW.	c #0A0A02",
"zW.	c #0F1008",
"AW.	c #111109",
"BW.	c #14110A",
"CW.	c #161010",
"DW.	c #191011",
"EW.	c #201617",
"FW.	c #2A1E20",
"GW.	c #261C1D",
"HW.	c #150C0D",
"IW.	c #C50F0B",
"JW.	c #B60903",
"KW.	c #A80100",
"LW.	c #A40100",
"MW.	c #A80500",
"NW.	c #A90400",
"OW.	c #B40B06",
"PW.	c #C0130D",
"QW.	c #C0130F",
"RW.	c #BF1714",
"SW.	c #B30E0C",
"TW.	c #AD0502",
"UW.	c #B00404",
"VW.	c #B60809",
"WW.	c #BF0F12",
"XW.	c #C81A1B",
"YW.	c #CF2224",
"ZW.	c #C41E1E",
"`W.	c #BE201F",
" X.	c #B82420",
".X.	c #B02721",
"+X.	c #A0241A",
"@X.	c #922113",
"#X.	c #902515",
"$X.	c #992B1E",
"%X.	c #A22921",
"&X.	c #A92926",
"*X.	c #951514",
"=X.	c #9C1F1D",
"-X.	c #A22523",
";X.	c #981B19",
">X.	c #BC3F39",
",X.	c #C1423C",
"'X.	c #C4443B",
")X.	c #C23F37",
"!X.	c #BB372B",
"~X.	c #B12D21",
"{X.	c #AA2418",
"]X.	c #A72317",
"^X.	c #9B1F17",
"/X.	c #941F18",
"(X.	c #8E2218",
"_X.	c #8A251B",
":X.	c #802419",
"<X.	c #7A2015",
"[X.	c #7D2018",
"}X.	c #85241D",
"|X.	c #821915",
"1X.	c #841412",
"2X.	c #820F0C",
"3X.	c #7A0901",
"4X.	c #781003",
"5X.	c #78160B",
"6X.	c #6C0D07",
"7X.	c #6A0D08",
"8X.	c #6B100B",
"9X.	c #711A11",
"0X.	c #6D160D",
"aX.	c #691209",
"bX.	c #691008",
"cX.	c #6A0D05",
"dX.	c #6F0C06",
"eX.	c #730C07",
"fX.	c #810304",
"gX.	c #8B0307",
"hX.	c #940205",
"iX.	c #9D0709",
"jX.	c #A20903",
"kX.	c #AB0A00",
"lX.	c #BE130B",
"mX.	c #E32624",
"nX.	c #E92D2C",
"oX.	c #B70A04",
"pX.	c #CC0B06",
"qX.	c #FD0A0E",
"rX.	c #FC0611",
"sX.	c #F20411",
"tX.	c #EA0C17",
"uX.	c #E41F26",
"vX.	c #D22C2E",
"wX.	c #AA2320",
"xX.	c #750C08",
"yX.	c #4B0000",
"zX.	c #450C03",
"AX.	c #361412",
"BX.	c #3B1415",
"CX.	c #420F16",
"DX.	c #400F13",
"EX.	c #3B1313",
"FX.	c #36130F",
"GX.	c #321310",
"HX.	c #391C18",
"IX.	c #240804",
"JX.	c #220300",
"KX.	c #54312F",
"LX.	c #845C5C",
"MX.	c #492622",
"NX.	c #472621",
"OX.	c #422B23",
"PX.	c #3D2C25",
"QX.	c #483730",
"RX.	c #60514A",
"SX.	c #3D3028",
"TX.	c #5A4F49",
"UX.	c #3C332C",
"VX.	c #463D36",
"WX.	c #1C1210",
"XX.	c #130707",
"YX.	c #1A0E0E",
"ZX.	c #270601",
"`X.	c #420C0C",
" Y.	c #501213",
".Y.	c #651D20",
"+Y.	c #7B2B2E",
"@Y.	c #842D33",
"#Y.	c #7C1F27",
"$Y.	c #641319",
"%Y.	c #210200",
"&Y.	c #1C0000",
"*Y.	c #1B0301",
"=Y.	c #0F0303",
"-Y.	c #140202",
";Y.	c #4A3838",
">Y.	c #5B4949",
",Y.	c #0D0802",
"'Y.	c #101008",
")Y.	c #2B2122",
"!Y.	c #3A3132",
"~Y.	c #2D2425",
"{Y.	c #DE0E0A",
"]Y.	c #D40E0B",
"^Y.	c #B70600",
"/Y.	c #AE0500",
"(Y.	c #AE0B04",
"_Y.	c #AE0D05",
":Y.	c #AF0C05",
"<Y.	c #BC150F",
"[Y.	c #C81F1A",
"}Y.	c #C61D18",
"|Y.	c #B61211",
"1Y.	c #B00C0A",
"2Y.	c #B00A0A",
"3Y.	c #AF0909",
"4Y.	c #B00A0C",
"5Y.	c #BB1718",
"6Y.	c #AE0E0E",
"7Y.	c #A90F0F",
"8Y.	c #A51411",
"9Y.	c #A51B18",
"0Y.	c #952016",
"aY.	c #891B0E",
"bY.	c #8E150D",
"cY.	c #961613",
"dY.	c #A12420",
"eY.	c #A62925",
"fY.	c #8D100C",
"gY.	c #AA2B25",
"hY.	c #B83732",
"iY.	c #C23D36",
"jY.	c #BD372C",
"kY.	c #AF261C",
"lY.	c #A2180D",
"mY.	c #9E150B",
"nY.	c #941F15",
"oY.	c #8F2015",
"pY.	c #8C2419",
"qY.	c #8E271E",
"rY.	c #8A2219",
"sY.	c #8E1F18",
"tY.	c #921F1A",
"uY.	c #97201A",
"vY.	c #972018",
"wY.	c #8F1F13",
"xY.	c #8A1F0F",
"yY.	c #871F12",
"zY.	c #7F1A12",
"AY.	c #771610",
"BY.	c #7F2119",
"CY.	c #791B13",
"DY.	c #7C170F",
"EY.	c #80150F",
"FY.	c #83130F",
"GY.	c #8B0D0E",
"HY.	c #8C0A0A",
"IY.	c #8D0708",
"JY.	c #900405",
"KY.	c #970005",
"LY.	c #9F0608",
"MY.	c #AD0F06",
"NY.	c #C51E16",
"OY.	c #E4322E",
"PY.	c #F6403D",
"QY.	c #F54140",
"RY.	c #DA2C2B",
"SY.	c #C2110B",
"TY.	c #CB0B08",
"UY.	c #FF040B",
"VY.	c #FF050E",
"WY.	c #FA030C",
"XY.	c #F0040E",
"YY.	c #E70E16",
"ZY.	c #E12025",
"`Y.	c #CC2829",
" Z.	c #A31D1C",
".Z.	c #760F0A",
"+Z.	c #560903",
"@Z.	c #3C0F14",
"#Z.	c #380E12",
"$Z.	c #3A1413",
"%Z.	c #2D0B09",
"&Z.	c #290706",
"*Z.	c #270504",
"=Z.	c #704A47",
"-Z.	c #764E4C",
";Z.	c #532A28",
">Z.	c #4A251F",
",Z.	c #4E2B25",
"'Z.	c #4B2E26",
")Z.	c #48352E",
"!Z.	c #43342D",
"~Z.	c #4D3E37",
"{Z.	c #463730",
"]Z.	c #493E38",
"^Z.	c #4F443E",
"/Z.	c #463B35",
"(Z.	c #1E1311",
"_Z.	c #2A0403",
":Z.	c #320404",
"<Z.	c #3E0808",
"[Z.	c #4B0D10",
"}Z.	c #5A1518",
"|Z.	c #62171C",
"1Z.	c #5E0F15",
"2Z.	c #4C070C",
"3Z.	c #0F0101",
"4Z.	c #100001",
"5Z.	c #1D0A0C",
"6Z.	c #200D0F",
"7Z.	c #281517",
"8Z.	c #594745",
"9Z.	c #0E0E06",
"0Z.	c #0B0A05",
"aZ.	c #1C1213",
"bZ.	c #2F2627",
"cZ.	c #32292A",
"dZ.	c #1C1817",
"eZ.	c #D60C08",
"fZ.	c #CD100A",
"gZ.	c #DF2C27",
"hZ.	c #D72E27",
"iZ.	c #D22F28",
"jZ.	c #C6251D",
"kZ.	c #B91810",
"lZ.	c #BA1710",
"mZ.	c #BD1812",
"nZ.	c #B5100C",
"oZ.	c #BC1A18",
"pZ.	c #B61616",
"qZ.	c #AC0E0D",
"rZ.	c #A20705",
"sZ.	c #9B0000",
"tZ.	c #9A0000",
"uZ.	c #9E0203",
"vZ.	c #A20808",
"wZ.	c #9F090A",
"xZ.	c #9E0E0D",
"yZ.	c #9D1612",
"zZ.	c #971B13",
"AZ.	c #8F1A10",
"BZ.	c #83190B",
"CZ.	c #82160A",
"DZ.	c #8D160E",
"EZ.	c #931612",
"FZ.	c #951814",
"GZ.	c #AF322E",
"HZ.	c #B43733",
"IZ.	c #90130F",
"JZ.	c #90100D",
"KZ.	c #9E1D18",
"LZ.	c #AC2824",
"MZ.	c #AE2924",
"NZ.	c #AC231D",
"OZ.	c #A3160D",
"PZ.	c #A61910",
"QZ.	c #9F1A13",
"RZ.	c #97180F",
"SZ.	c #91160E",
"TZ.	c #9B291E",
"UZ.	c #97251B",
"VZ.	c #8C170E",
"WZ.	c #881109",
"XZ.	c #961B13",
"YZ.	c #A5291F",
"ZZ.	c #AD3127",
"`Z.	c #AD3326",
" `.	c #A62E20",
".`.	c #992614",
"+`.	c #8F1F11",
"@`.	c #9F342A",
"#`.	c #8F2821",
"$`.	c #821B14",
"%`.	c #7F1811",
"&`.	c #7C170D",
"*`.	c #781108",
"=`.	c #750D04",
"-`.	c #7E0701",
";`.	c #840703",
">`.	c #8B0705",
",`.	c #8C0404",
"'`.	c #8C0200",
")`.	c #A80F12",
"!`.	c #AB1113",
"~`.	c #A70F0C",
"{`.	c #A00902",
"]`.	c #A60900",
"^`.	c #BB1811",
"/`.	c #D92D29",
"(`.	c #EB3C39",
"_`.	c #EB3F3D",
":`.	c #CE2927",
"<`.	c #A80905",
"[`.	c #AA0803",
"}`.	c #B90C06",
"|`.	c #C60907",
"1`.	c #EB0507",
"2`.	c #FF0208",
"3`.	c #F9060C",
"4`.	c #E70006",
"5`.	c #DF0A10",
"6`.	c #DD2024",
"7`.	c #C9292B",
"8`.	c #AA2624",
"9`.	c #680500",
"0`.	c #560B05",
"a`.	c #460F08",
"b`.	c #3F140E",
"c`.	c #350E11",
"d`.	c #310A0D",
"e`.	c #32100F",
"f`.	c #2B0908",
"g`.	c #240201",
"h`.	c #220000",
"i`.	c #2A0B06",
"j`.	c #7E5855",
"k`.	c #6B4240",
"l`.	c #502423",
"m`.	c #4A231E",
"n`.	c #4E3028",
"o`.	c #523730",
"p`.	c #56483F",
"q`.	c #594B40",
"r`.	c #44362B",
"s`.	c #40352F",
"t`.	c #1A0F0D",
"u`.	c #210000",
"v`.	c #2C0000",
"w`.	c #320002",
"x`.	c #3B0208",
"y`.	c #3F0209",
"z`.	c #350306",
"A`.	c #0B0102",
"B`.	c #0A0104",
"C`.	c #0B0507",
"D`.	c #0A0001",
"E`.	c #0D0101",
"F`.	c #0E0202",
"G`.	c #150707",
"H`.	c #120203",
"I`.	c #170708",
"J`.	c #1A0709",
"K`.	c #4E3A3B",
"L`.	c #5A4645",
"M`.	c #3F2D2B",
"N`.	c #0D0C07",
"O`.	c #0E0D09",
"P`.	c #241E1E",
"Q`.	c #1E1A19",
"R`.	c #E70700",
"S`.	c #DD0000",
"T`.	c #E31A13",
"U`.	c #E72722",
"V`.	c #FF4D48",
"W`.	c #E63D36",
"X`.	c #C92820",
"Y`.	c #B41710",
"Z`.	c #AE110A",
"``.	c #AE100F",
"  +	c #A60C0C",
". +	c #A81412",
"+ +	c #9E0C0C",
"@ +	c #A61212",
"# +	c #AF1D1D",
"$ +	c #B02020",
"% +	c #B42827",
"& +	c #B5312D",
"* +	c #AB3029",
"= +	c #851D10",
"- +	c #83190C",
"; +	c #951E18",
"> +	c #AD332E",
", +	c #AE3431",
"' +	c #9A1E1C",
") +	c #870706",
"! +	c #9C1613",
"~ +	c #9C1512",
"{ +	c #A41916",
"] +	c #AC1D19",
"^ +	c #B3221D",
"/ +	c #BC2922",
"( +	c #C33029",
"_ +	c #BC2C24",
": +	c #BD2E26",
"< +	c #B0261C",
"[ +	c #A52218",
"} +	c #B13128",
"| +	c #AB2B22",
"1 +	c #9F1C12",
"2 +	c #A9241B",
"3 +	c #B52F24",
"4 +	c #BA3629",
"5 +	c #AD2B1B",
"6 +	c #9C1D0A",
"7 +	c #8E1504",
"8 +	c #911F14",
"9 +	c #891D13",
"0 +	c #85190D",
"a +	c #861A0E",
"b +	c #912116",
"c +	c #89170C",
"d +	c #880F06",
"e +	c #860A02",
"f +	c #8D0904",
"g +	c #900500",
"h +	c #8E0000",
"i +	c #900000",
"j +	c #A60B0F",
"k +	c #A40E0D",
"l +	c #A10C06",
"m +	c #A91008",
"n +	c #B71812",
"o +	c #BE1613",
"p +	c #B91110",
"q +	c #A10904",
"r +	c #BE1711",
"s +	c #DD0F0F",
"t +	c #E7080B",
"u +	c #F00003",
"v +	c #FF0507",
"w +	c #F90001",
"x +	c #EA080C",
"y +	c #E00D13",
"z +	c #D41A1F",
"A +	c #C72729",
"B +	c #981817",
"C +	c #440D08",
"D +	c #2F100E",
"E +	c #371514",
"F +	c #3E1C1D",
"G +	c #280607",
"H +	c #250302",
"I +	c #44231E",
"J +	c #86605D",
"K +	c #502725",
"L +	c #4C201D",
"M +	c #5B2F2C",
"N +	c #532C27",
"O +	c #502B25",
"P +	c #4F322C",
"Q +	c #4A362F",
"R +	c #43302A",
"S +	c #3B2822",
"T +	c #3C2922",
"U +	c #4D3C34",
"V +	c #53423A",
"W +	c #504541",
"X +	c #453A36",
"Y +	c #413632",
"Z +	c #2F2420",
"` +	c #050304",
" .+	c #160000",
"..+	c #1E0000",
"+.+	c #1F0000",
"@.+	c #040003",
"#.+	c #050003",
"$.+	c #070001",
"%.+	c #110507",
"&.+	c #0F0003",
"*.+	c #150508",
"=.+	c #18080B",
"-.+	c #190608",
";.+	c #291516",
">.+	c #513D3E",
",.+	c #11100B",
"'.+	c #F41913",
").+	c #F92521",
"!.+	c #EC221E",
"~.+	c #D71A14",
"{.+	c #D82721",
"].+	c #C61F19",
"^.+	c #A60C04",
"/.+	c #A50C04",
"(.+	c #A80F09",
"_.+	c #AB100B",
":.+	c #AB100E",
"<.+	c #AC1413",
"[.+	c #A50F11",
"}.+	c #9F0F0E",
"|.+	c #9E1211",
"1.+	c #97100C",
"2.+	c #8F0906",
"3.+	c #9A100E",
"4.+	c #A11A17",
"5.+	c #A02921",
"6.+	c #96271C",
"7.+	c #8B2519",
"8.+	c #82130A",
"9.+	c #88150E",
"0.+	c #88120E",
"a.+	c #8A1410",
"b.+	c #7E0401",
"c.+	c #830705",
"d.+	c #8F0F0E",
"e.+	c #971311",
"f.+	c #A01A19",
"g.+	c #A81E1C",
"h.+	c #A81A18",
"i.+	c #9D0905",
"j.+	c #9D0A03",
"k.+	c #A5120A",
"l.+	c #A3130B",
"m.+	c #9F1209",
"n.+	c #A1160F",
"o.+	c #A61B14",
"p.+	c #9C130B",
"q.+	c #A61D13",
"r.+	c #A61C12",
"s.+	c #A41A0F",
"t.+	c #A3190C",
"u.+	c #A51D0D",
"v.+	c #A5200D",
"w.+	c #A32413",
"x.+	c #941E12",
"y.+	c #8F1D13",
"z.+	c #8D1B10",
"A.+	c #901B11",
"B.+	c #92190E",
"C.+	c #95190F",
"D.+	c #9D1D14",
"E.+	c #A6211A",
"F.+	c #A82219",
"G.+	c #A81D16",
"H.+	c #A91C15",
"I.+	c #AC1B18",
"J.+	c #AB1215",
"K.+	c #A50C11",
"L.+	c #9B0707",
"M.+	c #970601",
"N.+	c #9E0B03",
"O.+	c #AD0E0B",
"P.+	c #AA0708",
"Q.+	c #A00A09",
"R.+	c #980905",
"S.+	c #B41511",
"T.+	c #D81012",
"U.+	c #E30D0F",
"V.+	c #FC0607",
"W.+	c #E9080E",
"X.+	c #DF1016",
"Y.+	c #C12528",
"Z.+	c #9A1A19",
"`.+	c #6D0907",
" ++	c #420B06",
".++	c #31100B",
"+++	c #2F0D0C",
"@++	c #321011",
"#++	c #381617",
"$++	c #3D1A1E",
"%++	c #2A0809",
"&++	c #240500",
"*++	c #512E2A",
"=++	c #815957",
"-++	c #4B1F1E",
";++	c #552825",
">++	c #57302B",
",++	c #4F2C26",
"'++	c #50312C",
")++	c #4E3731",
"!++	c #422D28",
"~++	c #38231E",
"{++	c #4E3A33",
"]++	c #45322B",
"^++	c #534844",
"/++	c #281818",
"(++	c #1F1313",
"_++	c #160D0E",
":++	c #050306",
"<++	c #040406",
"[++	c #030305",
"}++	c #030303",
"|++	c #040203",
"1++	c #070304",
"2++	c #0C0002",
"3++	c #0E0002",
"4++	c #050004",
"5++	c #040005",
"6++	c #040001",
"7++	c #0B0001",
"8++	c #140508",
"9++	c #17080B",
"0++	c #422E2F",
"a++	c #574545",
"b++	c #0E0B06",
"c++	c #F1140C",
"d++	c #F31C17",
"e++	c #EC1C18",
"f++	c #DE1815",
"g++	c #D01510",
"h++	c #BD100A",
"i++	c #B31009",
"j++	c #A40D06",
"k++	c #A30E07",
"l++	c #A6110B",
"m++	c #A8130D",
"n++	c #A51111",
"o++	c #9E0D10",
"p++	c #97100D",
"q++	c #93110F",
"r++	c #8B1009",
"s++	c #8D120B",
"t++	c #981B17",
"u++	c #B12F2D",
"v++	c #AF2B29",
"w++	c #AB2927",
"x++	c #AA2D29",
"y++	c #A7322B",
"z++	c #9F3329",
"A++	c #963427",
"B++	c #983025",
"C++	c #9C2F28",
"D++	c #85160F",
"E++	c #83140D",
"F++	c #83120E",
"G++	c #7D0302",
"H++	c #A82827",
"I++	c #BD3937",
"J++	c #C23B38",
"K++	c #BF3532",
"L++	c #BD322F",
"M++	c #C23430",
"N++	c #B82921",
"O++	c #BA2A22",
"P++	c #BA2B23",
"Q++	c #B92A22",
"R++	c #AF221B",
"S++	c #9C110A",
"T++	c #9D120B",
"U++	c #A81E14",
"V++	c #A91C13",
"W++	c #A81B11",
"X++	c #A71B0E",
"Y++	c #A71B0C",
"Z++	c #A61D0B",
"`++	c #A52210",
" @+	c #8A150B",
".@+	c #881709",
"+@+	c #8A1609",
"@@+	c #8C180B",
"#@+	c #8F190D",
"$@+	c #911B0F",
"%@+	c #951C11",
"&@+	c #941A0D",
"*@+	c #961A0E",
"=@+	c #9B1B10",
"-@+	c #9E1B11",
";@+	c #AB1D19",
">@+	c #A71518",
",@+	c #9B080E",
"'@+	c #8D0100",
")@+	c #8D0300",
"!@+	c #940902",
"~@+	c #9A0904",
"{@+	c #9D0504",
"]@+	c #9C0204",
"^@+	c #980404",
"/@+	c #910302",
"(@+	c #8D0603",
"_@+	c #950B08",
":@+	c #B40F0D",
"<@+	c #CB0F0E",
"[@+	c #DD1112",
"}@+	c #E81011",
"|@+	c #EE0C0E",
"1@+	c #F2080B",
"2@+	c #EE0509",
"3@+	c #E80B10",
"4@+	c #DE1317",
"5@+	c #D52025",
"6@+	c #BE2426",
"7@+	c #961819",
"8@+	c #670502",
"9@+	c #490000",
"0@+	c #310E0C",
"a@+	c #310F10",
"b@+	c #351216",
"c@+	c #39161C",
"d@+	c #3C1C1F",
"e@+	c #361619",
"f@+	c #2F0F10",
"g@+	c #260903",
"h@+	c #351A13",
"i@+	c #603D39",
"j@+	c #754E49",
"k@+	c #461A17",
"l@+	c #522220",
"m@+	c #562624",
"n@+	c #522721",
"o@+	c #41231B",
"p@+	c #4F332F",
"q@+	c #4A312D",
"r@+	c #3E2521",
"s@+	c #402722",
"t@+	c #472E29",
"u@+	c #47302A",
"v@+	c #4E433F",
"w@+	c #2D1F1C",
"x@+	c #1C1412",
"y@+	c #030408",
"z@+	c #020307",
"A@+	c #020305",
"B@+	c #030406",
"C@+	c #010506",
"D@+	c #000203",
"E@+	c #000304",
"F@+	c #010204",
"G@+	c #030104",
"H@+	c #020003",
"I@+	c #020005",
"J@+	c #020001",
"K@+	c #030102",
"L@+	c #050102",
"M@+	c #0A0003",
"N@+	c #0F0307",
"O@+	c #12060A",
"P@+	c #150609",
"Q@+	c #301C1D",
"R@+	c #554343",
"S@+	c #3A2A2A",
"T@+	c #F11A15",
"U@+	c #BB120D",
"V@+	c #B51610",
"W@+	c #B01912",
"X@+	c #AB1B13",
"Y@+	c #AA1B13",
"Z@+	c #AB1C16",
"`@+	c #AD1E18",
" #+	c #AF1F1E",
".#+	c #AE201F",
"+#+	c #A61E20",
"@#+	c #9F1F1C",
"##+	c #97201C",
"$#+	c #8F1E16",
"%#+	c #8C1D16",
"&#+	c #94251C",
"*#+	c #A12E29",
"=#+	c #BB413C",
"-#+	c #B53937",
";#+	c #AE312D",
">#+	c #9E2D25",
",#+	c #952D22",
"'#+	c #8B2E1F",
")#+	c #882A1E",
"!#+	c #912A21",
"~#+	c #811812",
"{#+	c #801411",
"]#+	c #780C09",
"^#+	c #740704",
"/#+	c #7C0906",
"(#+	c #A02623",
"_#+	c #A52A25",
":#+	c #A72822",
"<#+	c #AC2B25",
"[#+	c #AB261F",
"}#+	c #B12B22",
"|#+	c #B73128",
"1#+	c #B7302A",
"2#+	c #B42B25",
"3#+	c #AF2620",
"4#+	c #AD2620",
"5#+	c #AF2822",
"6#+	c #AB251C",
"7#+	c #AF2920",
"8#+	c #B93327",
"9#+	c #BA3526",
"0#+	c #B62F1C",
"a#+	c #B02C1D",
"b#+	c #A0271C",
"c#+	c #99271D",
"d#+	c #952318",
"e#+	c #921D13",
"f#+	c #8E190F",
"g#+	c #8D170D",
"h#+	c #8C160C",
"i#+	c #90160B",
"j#+	c #8B1106",
"k#+	c #8C0C01",
"l#+	c #A01D13",
"m#+	c #AC2722",
"n#+	c #8E060A",
"o#+	c #890503",
"p#+	c #940403",
"q#+	c #950505",
"r#+	c #850001",
"s#+	c #820503",
"t#+	c #8F0502",
"u#+	c #B80808",
"v#+	c #D10F0F",
"w#+	c #E81015",
"x#+	c #D40D12",
"y#+	c #D21F25",
"z#+	c #BE282A",
"A#+	c #931719",
"B#+	c #640503",
"C#+	c #3A0F08",
"D#+	c #2F0801",
"E#+	c #2F0C10",
"F#+	c #310E14",
"G#+	c #331016",
"H#+	c #36161B",
"I#+	c #341419",
"J#+	c #331316",
"K#+	c #311112",
"L#+	c #280B03",
"M#+	c #6A4743",
"N#+	c #633A36",
"O#+	c #623230",
"P#+	c #5C2A29",
"Q#+	c #4E211C",
"R#+	c #4A211B",
"S#+	c #3A1D19",
"T#+	c #3D211E",
"U#+	c #452725",
"V#+	c #3E211D",
"W#+	c #402420",
"X#+	c #4F3631",
"Y#+	c #402921",
"Z#+	c #342017",
"`#+	c #25170C",
" $+	c #140404",
".$+	c #100000",
"+$+	c #120202",
"@$+	c #010206",
"#$+	c #000407",
"$$+	c #000505",
"%$+	c #000508",
"&$+	c #000403",
"*$+	c #000305",
"=$+	c #000405",
"-$+	c #000506",
";$+	c #000504",
">$+	c #000400",
",$+	c #020401",
"'$+	c #010101",
")$+	c #080405",
"!$+	c #0B0004",
"~$+	c #0D0206",
"{$+	c #0F0305",
"]$+	c #483A39",
"^$+	c #E31613",
"/$+	c #D71110",
"($+	c #CA0E0C",
"_$+	c #B01712",
":$+	c #AC1B16",
"<$+	c #AA1D16",
"[$+	c #A91E19",
"}$+	c #AB201B",
"|$+	c #AE2221",
"1$+	c #A61E1E",
"2$+	c #9F1D1F",
"3$+	c #941D19",
"4$+	c #891915",
"5$+	c #7D160D",
"6$+	c #78160D",
"7$+	c #881F19",
"8$+	c #93221C",
"9$+	c #921C1A",
"0$+	c #8D1612",
"a$+	c #7E110A",
"b$+	c #781309",
"c$+	c #6D1406",
"d$+	c #6B0900",
"e$+	c #7C1611",
"f$+	c #640100",
"g$+	c #6D0A05",
"h$+	c #6E0803",
"i$+	c #700904",
"j$+	c #740D06",
"k$+	c #740901",
"l$+	c #790A01",
"m$+	c #7A0800",
"n$+	c #860F07",
"o$+	c #8B140C",
"p$+	c #8A100B",
"q$+	c #8C110C",
"r$+	c #991C18",
"s$+	c #971A16",
"t$+	c #91160F",
"u$+	c #931810",
"v$+	c #961C11",
"w$+	c #9A2013",
"x$+	c #9F2415",
"y$+	c #A52719",
"z$+	c #A8291A",
"A$+	c #A82A1C",
"B$+	c #9C271E",
"C$+	c #97261E",
"D$+	c #93221A",
"E$+	c #912018",
"F$+	c #901F17",
"G$+	c #921F18",
"H$+	c #942218",
"I$+	c #98231A",
"J$+	c #A32C24",
"K$+	c #9C251D",
"L$+	c #982218",
"M$+	c #992017",
"N$+	c #9A2118",
"O$+	c #981F16",
"P$+	c #971E15",
"Q$+	c #9A1F18",
"R$+	c #84080A",
"S$+	c #87100C",
"T$+	c #8D1811",
"U$+	c #8F160E",
"V$+	c #870A04",
"W$+	c #8A0403",
"X$+	c #770705",
"Y$+	c #7B0000",
"Z$+	c #880000",
"`$+	c #A20300",
" %+	c #BE0B07",
".%+	c #D7110E",
"+%+	c #EA0B0E",
"@%+	c #DC070D",
"#%+	c #D32228",
"$%+	c #BB2227",
"%%+	c #901416",
"&%+	c #690505",
"*%+	c #510200",
"=%+	c #440702",
"-%+	c #340701",
";%+	c #320B0C",
">%+	c #320B0E",
",%+	c #300C10",
"'%+	c #2F0C12",
")%+	c #300D14",
"!%+	c #300F16",
"~%+	c #301015",
"{%+	c #2E1010",
"]%+	c #73504A",
"^%+	c #683733",
"/%+	c #592824",
"(%+	c #421510",
"_%+	c #2C0701",
":%+	c #381615",
"<%+	c #401E1D",
"[%+	c #4A2B28",
"}%+	c #4E2F2C",
"|%+	c #4E322E",
"1%+	c #473028",
"2%+	c #422E25",
"3%+	c #3C2A20",
"4%+	c #312016",
"5%+	c #3F3533",
"6%+	c #201513",
"7%+	c #302221",
"8%+	c #211111",
"9%+	c #120606",
"0%+	c #020403",
"a%+	c #010302",
"b%+	c #000402",
"c%+	c #000404",
"d%+	c #000501",
"e%+	c #050505",
"f%+	c #060405",
"g%+	c #0F0506",
"h%+	c #160808",
"i%+	c #160607",
"j%+	c #392B2B",
"k%+	c #403434",
"l%+	c #201615",
"m%+	c #E21713",
"n%+	c #DB1919",
"o%+	c #CD1716",
"p%+	c #BF1311",
"q%+	c #A0120E",
"r%+	c #9B120C",
"s%+	c #940D09",
"t%+	c #940D0A",
"u%+	c #8A0506",
"v%+	c #830506",
"w%+	c #790804",
"x%+	c #6F0801",
"y%+	c #670900",
"z%+	c #670B00",
"A%+	c #780D07",
"B%+	c #6E0600",
"C%+	c #690900",
"D%+	c #670500",
"E%+	c #74110C",
"F%+	c #7C1B15",
"G%+	c #781915",
"H%+	c #6D100B",
"I%+	c #660D07",
"J%+	c #691107",
"K%+	c #6C140A",
"L%+	c #6C1408",
"M%+	c #6C1406",
"N%+	c #6A0A00",
"O%+	c #730E06",
"P%+	c #730A04",
"Q%+	c #6A0000",
"R%+	c #740300",
"S%+	c #720100",
"T%+	c #7B0900",
"U%+	c #7F0B00",
"V%+	c #810B00",
"W%+	c #820C02",
"X%+	c #7B0E09",
"Y%+	c #80100C",
"Z%+	c #861612",
"`%+	c #8C1B15",
" &+	c #901F19",
".&+	c #97241F",
"+&+	c #9C2922",
"@&+	c #A13028",
"#&+	c #9F2E26",
"$&+	c #800F07",
"%&+	c #750400",
"&&+	c #7B0908",
"*&+	c #800E0E",
"=&+	c #841913",
"-&+	c #871C14",
";&+	c #7F0301",
">&+	c #820405",
",&+	c #7F080A",
"'&+	c #710B07",
")&+	c #6F0904",
"!&+	c #920100",
"~&+	c #AC0500",
"{&+	c #CB0E08",
"]&+	c #EC0C0C",
"^&+	c #FF0406",
"/&+	c #E60406",
"(&+	c #E00A12",
"_&+	c #D20F17",
":&+	c #C61620",
"<&+	c #B01B21",
"[&+	c #8E1115",
"}&+	c #6A0304",
"|&+	c #3E0905",
"1&+	c #340D08",
"2&+	c #330C0D",
"3&+	c #340D10",
"4&+	c #340C14",
"5&+	c #320D14",
"6&+	c #2D0C13",
"7&+	c #280A0C",
"8&+	c #230704",
"9&+	c #220500",
"0&+	c #78534D",
"a&+	c #411512",
"b&+	c #4E1E1C",
"c&+	c #5B2A26",
"d&+	c #4B1A16",
"e&+	c #3A0A06",
"f&+	c #330802",
"g&+	c #300701",
"h&+	c #330F0F",
"i&+	c #320E0E",
"j&+	c #340D0E",
"k&+	c #2E0A0A",
"l&+	c #452220",
"m&+	c #4B2927",
"n&+	c #4A2D29",
"o&+	c #523932",
"p&+	c #432F26",
"q&+	c #3D2B21",
"r&+	c #251D1A",
"s&+	c #040603",
"t&+	c #040605",
"u&+	c #050706",
"v&+	c #010602",
"w&+	c #000503",
"x&+	c #070506",
"y&+	c #090506",
"z&+	c #0C0809",
"A&+	c #1B0F11",
"B&+	c #1E1212",
"C&+	c #2A201F",
"D&+	c #1B1714",
"E&+	c #D20E0F",
"F&+	c #D01212",
"G&+	c #C61414",
"H&+	c #B8100F",
"I&+	c #A40605",
"J&+	c #9C0806",
"K&+	c #8E0904",
"L&+	c #8A0601",
"M&+	c #830000",
"N&+	c #800001",
"O&+	c #730603",
"P&+	c #6B1309",
"Q&+	c #6B170C",
"R&+	c #6C150B",
"S&+	c #6E1109",
"T&+	c #700B03",
"U&+	c #6B0D03",
"V&+	c #661305",
"W&+	c #671104",
"X&+	c #6F0E05",
"Y&+	c #720C07",
"Z&+	c #6E0D07",
"`&+	c #73160F",
" *+	c #6C130D",
".*+	c #64110B",
"+*+	c #580B01",
"@*+	c #5A1204",
"#*+	c #591102",
"$*+	c #560E00",
"%*+	c #560F00",
"&*+	c #5B1201",
"**+	c #601005",
"=*+	c #640F08",
"-*+	c #670E08",
";*+	c #660904",
">*+	c #6B0705",
",*+	c #740E0C",
"'*+	c #791311",
")*+	c #700D08",
"!*+	c #711007",
"~*+	c #730D01",
"{*+	c #720800",
"]*+	c #700400",
"^*+	c #710908",
"/*+	c #6B0200",
"(*+	c #6F0200",
"_*+	c #7C0F0C",
":*+	c #780F09",
"<*+	c #720905",
"[*+	c #79100D",
"}*+	c #7D1512",
"|*+	c #7C1B14",
"1*+	c #79170E",
"2*+	c #780B04",
"3*+	c #7B0805",
"4*+	c #7C0606",
"5*+	c #7C0E0F",
"6*+	c #750D0E",
"7*+	c #6E110C",
"8*+	c #6C120A",
"9*+	c #720D05",
"0*+	c #890400",
"a*+	c #9F0200",
"b*+	c #C30C06",
"c*+	c #E90E0C",
"d*+	c #F80003",
"e*+	c #E60501",
"f*+	c #E40203",
"g*+	c #EF0D11",
"h*+	c #E70A13",
"i*+	c #DB0713",
"j*+	c #CF0D18",
"k*+	c #C31922",
"l*+	c #B01D25",
"m*+	c #8C0F15",
"n*+	c #610103",
"o*+	c #450A06",
"p*+	c #2E0D14",
"q*+	c #2B0A11",
"r*+	c #26080A",
"s*+	c #220605",
"t*+	c #200300",
"u*+	c #1D0200",
"v*+	c #52312A",
"w*+	c #6C4741",
"x*+	c #3E120F",
"y*+	c #491814",
"z*+	c #400F0B",
"A*+	c #401711",
"B*+	c #492322",
"C*+	c #3E1718",
"D*+	c #350E0F",
"E*+	c #3F1918",
"F*+	c #421F1D",
"G*+	c #432421",
"H*+	c #3D261E",
"I*+	c #211916",
"J*+	c #020605",
"K*+	c #010200",
"L*+	c #020204",
"M*+	c #000002",
"N*+	c #050507",
"O*+	c #060608",
"P*+	c #070508",
"Q*+	c #0C070B",
"R*+	c #130D0F",
"S*+	c #1A1011",
"T*+	c #100404",
"U*+	c #1D1815",
"V*+	c #1A1112",
"W*+	c #CF0E0F",
"X*+	c #C70F0F",
"Y*+	c #C61618",
"Z*+	c #9F0304",
"`*+	c #930000",
" =+	c #8B0401",
".=+	c #8A0B05",
"+=+	c #880903",
"@=+	c #850600",
"#=+	c #790100",
"$=+	c #750302",
"%=+	c #6C0E06",
"&=+	c #6A180C",
"*=+	c #671308",
"==+	c #640300",
"-=+	c #6F0A02",
";=+	c #740B05",
">=+	c #680600",
",=+	c #670A02",
"'=+	c #671006",
")=+	c #691208",
"!=+	c #6F0C07",
"~=+	c #680603",
"{=+	c #6A0B07",
"]=+	c #6F140F",
"^=+	c #580B03",
"/=+	c #590F06",
"(=+	c #5B150B",
"_=+	c #591606",
":=+	c #561303",
"<=+	c #5A1907",
"[=+	c #632010",
"}=+	c #60170E",
"|=+	c #5F120A",
"1=+	c #60110A",
"2=+	c #5D0201",
"3=+	c #650A07",
"4=+	c #731815",
"5=+	c #69100A",
"6=+	c #610400",
"7=+	c #630500",
"8=+	c #690801",
"9=+	c #640200",
"0=+	c #620203",
"a=+	c #630402",
"b=+	c #660403",
"c=+	c #650604",
"d=+	c #670506",
"e=+	c #670504",
"f=+	c #6C0808",
"g=+	c #6F0B0B",
"h=+	c #74100E",
"i=+	c #76100C",
"j=+	c #730D09",
"k=+	c #78170E",
"l=+	c #720B04",
"m=+	c #7F0F0D",
"n=+	c #7B0F0F",
"o=+	c #70110D",
"p=+	c #7C140B",
"q=+	c #820D04",
"r=+	c #8B0600",
"s=+	c #9D0000",
"t=+	c #C40904",
"u=+	c #EB0D0C",
"v=+	c #E20705",
"w=+	c #E30B0C",
"x=+	c #E9181D",
"y=+	c #E41B23",
"z=+	c #D41620",
"A=+	c #CB1D26",
"B=+	c #C8272F",
"C=+	c #B21D23",
"D=+	c #890E11",
"E=+	c #560200",
"F=+	c #440704",
"G=+	c #3E0605",
"H=+	c #380808",
"I=+	c #330B0B",
"J=+	c #300C0E",
"K=+	c #2F0C13",
"L=+	c #2A070E",
"M=+	c #2B080C",
"N=+	c #2A0A0B",
"O=+	c #210E00",
"P=+	c #1E0A00",
"Q=+	c #1F0300",
"R=+	c #5C372F",
"S=+	c #613630",
"T=+	c #592623",
"U=+	c #420C0A",
"V=+	c #3E0B08",
"W=+	c #331412",
"X=+	c #351614",
"Y=+	c #502C2C",
"Z=+	c #4C2526",
"`=+	c #492223",
" -+	c #512929",
".-+	c #422922",
"+-+	c #382419",
"@-+	c #322014",
"#-+	c #2A201E",
"$-+	c #1B1112",
"%-+	c #000201",
"&-+	c #010103",
"*-+	c #000103",
"=-+	c #040205",
"--+	c #090408",
";-+	c #100A0C",
">-+	c #1E1A17",
",-+	c #2C2626",
"'-+	c #373131",
")-+	c #BA0308",
"!-+	c #AD0407",
"~-+	c #AC1013",
"{-+	c #9D0D0D",
"]-+	c #870000",
"^-+	c #880606",
"/-+	c #880C0A",
"(-+	c #850B06",
"_-+	c #7D0801",
":-+	c #740500",
"<-+	c #6B1508",
"[-+	c #6F170B",
"}-+	c #691002",
"|-+	c #680C00",
"1-+	c #660800",
"2-+	c #6D0C03",
"3-+	c #6D0F07",
"4-+	c #71120C",
"5-+	c #751811",
"6-+	c #721510",
"7-+	c #6D0B0A",
"8-+	c #660806",
"9-+	c #680D0A",
"0-+	c #6D1312",
"a-+	c #6A1210",
"b-+	c #620D0A",
"c-+	c #550800",
"d-+	c #5B1108",
"e-+	c #580E05",
"f-+	c #520900",
"g-+	c #60130D",
"h-+	c #5C0C05",
"i-+	c #600B04",
"j-+	c #610E06",
"k-+	c #620F07",
"l-+	c #5E0B05",
"m-+	c #5E0904",
"n-+	c #630D0C",
"o-+	c #630F0F",
"p-+	c #621110",
"q-+	c #611110",
"r-+	c #5E1010",
"s-+	c #570706",
"t-+	c #5F0E0D",
"u-+	c #5E0A0A",
"v-+	c #5F0706",
"w-+	c #650708",
"x-+	c #6D0B0C",
"y-+	c #730F0F",
"z-+	c #781011",
"A-+	c #7A1003",
"B-+	c #790E04",
"C-+	c #790908",
"D-+	c #780709",
"E-+	c #75070A",
"F-+	c #7A0C0D",
"G-+	c #7D0F0E",
"H-+	c #7D0A07",
"I-+	c #880300",
"J-+	c #9D0E08",
"K-+	c #BA120F",
"L-+	c #E90B0A",
"M-+	c #DA0A08",
"N-+	c #D12121",
"O-+	c #B41112",
"P-+	c #B81317",
"Q-+	c #C2191E",
"R-+	c #C71A1E",
"S-+	c #BF1E23",
"T-+	c #951718",
"U-+	c #6C0604",
"V-+	c #2A0E0D",
"W-+	c #2E0F14",
"X-+	c #2D0810",
"Y-+	c #350A14",
"Z-+	c #3A0B13",
"`-+	c #35080D",
" ;+	c #201303",
".;+	c #1D0F02",
"+;+	c #1C0300",
"@;+	c #2B0500",
"#;+	c #6E3F37",
"$;+	c #5A251F",
"%;+	c #470D0B",
"&;+	c #612524",
"*;+	c #440A09",
"=;+	c #471413",
"-;+	c #401A19",
";;+	c #150300",
">;+	c #150000",
",;+	c #1F0504",
"';+	c #4D2525",
");+	c #623637",
"!;+	c #562A29",
"~;+	c #3C1510",
"{;+	c #43201A",
"];+	c #3D1C13",
"^;+	c #33170C",
"/;+	c #2F190E",
"(;+	c #100605",
"_;+	c #190F10",
":;+	c #160D10",
"<;+	c #150F0F",
"[;+	c #120C0E",
"};+	c #080307",
"|;+	c #000302",
"1;+	c #060407",
"2;+	c #251F1F",
"3;+	c #AE030B",
"4;+	c #960C0C",
"5;+	c #890908",
"6;+	c #7B0100",
"7;+	c #7C0405",
"8;+	c #790A03",
"9;+	c #7C1107",
"0;+	c #670802",
"a;+	c #640904",
"b;+	c #670D05",
"c;+	c #6D1308",
"d;+	c #781F11",
"e;+	c #761D0F",
"f;+	c #6C1005",
"g;+	c #6E1008",
"h;+	c #751610",
"i;+	c #862723",
"j;+	c #8D2E2C",
"k;+	c #812220",
"l;+	c #7A1C1C",
"m;+	c #711313",
"n;+	c #690E0D",
"o;+	c #690F0E",
"p;+	c #5F0A07",
"q;+	c #5D0A06",
"r;+	c #5A0905",
"s;+	c #651410",
"t;+	c #6E1F1A",
"u;+	c #641510",
"v;+	c #570A04",
"w;+	c #5E100C",
"x;+	c #60120E",
"y;+	c #5C0D06",
"z;+	c #5D0D04",
"A;+	c #580902",
"B;+	c #580A06",
"C;+	c #5B0B0A",
"D;+	c #570D0C",
"E;+	c #560F0D",
"F;+	c #551110",
"G;+	c #570F10",
"H;+	c #5B0D0D",
"I;+	c #5C0B0A",
"J;+	c #650B0B",
"K;+	c #6D0F10",
"L;+	c #751113",
"M;+	c #7B1314",
"N;+	c #7C1310",
"O;+	c #780E01",
"P;+	c #7E0F04",
"Q;+	c #7B0A0C",
"R;+	c #7A090D",
"S;+	c #78070B",
"T;+	c #7A0609",
"U;+	c #7E0403",
"V;+	c #840200",
"W;+	c #900200",
"X;+	c #9E0807",
"Y;+	c #B0110E",
"Z;+	c #C61211",
"`;+	c #E30D0D",
" >+	c #D50E0B",
".>+	c #CA1B18",
"+>+	c #BC1D1A",
"@>+	c #A40F0B",
"#>+	c #990302",
"$>+	c #AC0C0C",
"%>+	c #C21819",
"&>+	c #D21A1C",
"*>+	c #D41F24",
"=>+	c #B91D20",
"->+	c #940F10",
";>+	c #410A03",
">>+	c #27090B",
",>+	c #2C070E",
"'>+	c #350711",
")>+	c #38060F",
"!>+	c #35040A",
"~>+	c #2E0606",
"{>+	c #1F1104",
"]>+	c #270803",
"^>+	c #280300",
"/>+	c #6A3831",
"(>+	c #5E2420",
"_>+	c #501310",
":>+	c #5B1E1D",
"<>+	c #4D1111",
"[>+	c #4A1414",
"}>+	c #0A0100",
"|>+	c #180501",
"1>+	c #280605",
"2>+	c #4F2324",
"3>+	c #592D2C",
"4>+	c #4F2121",
"5>+	c #3C1A11",
"6>+	c #161012",
"7>+	c #030106",
"8>+	c #010002",
"9>+	c #030002",
"0>+	c #161115",
"a>+	c #1B1718",
"b>+	c #1B1515",
"c>+	c #121210",
"d>+	c #9D0104",
"e>+	c #900403",
"f>+	c #850502",
"g>+	c #750501",
"h>+	c #720603",
"i>+	c #700701",
"j>+	c #731307",
"k>+	c #5E0200",
"l>+	c #650900",
"m>+	c #6C1003",
"n>+	c #660A00",
"o>+	c #6D0F05",
"p>+	c #6D0C05",
"q>+	c #801E1B",
"r>+	c #872826",
"s>+	c #852725",
"t>+	c #7B201F",
"u>+	c #6B1110",
"v>+	c #6D1513",
"w>+	c #66110E",
"x>+	c #620F0B",
"y>+	c #5D0C08",
"z>+	c #762923",
"A>+	c #590E08",
"B>+	c #61130F",
"C>+	c #5F0F06",
"D>+	c #5D0E09",
"E>+	c #5F110D",
"F>+	c #5F100C",
"G>+	c #5B100B",
"H>+	c #57100C",
"I>+	c #57110F",
"J>+	c #5A1412",
"K>+	c #5D1715",
"L>+	c #550E0C",
"M>+	c #5D0C0B",
"N>+	c #751111",
"O>+	c #7A1213",
"P>+	c #770A05",
"Q>+	c #760906",
"R>+	c #790B0C",
"S>+	c #7B0D0E",
"T>+	c #7C0B0F",
"U>+	c #780508",
"V>+	c #7E0000",
"W>+	c #A20607",
"X>+	c #B81010",
"Y>+	c #C71515",
"Z>+	c #CF201B",
"`>+	c #B2130F",
" ,+	c #8B0000",
".,+	c #D61D22",
"+,+	c #B3181C",
"@,+	c #4B0500",
"#,+	c #2F0B0D",
"$,+	c #330A10",
"%,+	c #35080F",
"&,+	c #32050A",
"*,+	c #2E0607",
"=,+	c #230908",
"-,+	c #240000",
";,+	c #602F2A",
">,+	c #511A17",
",,+	c #5E2120",
"',+	c #541716",
"),+	c #5B1F1F",
"!,+	c #4D1619",
"~,+	c #401415",
"{,+	c #200305",
"],+	c #2A0606",
"^,+	c #4E2626",
"/,+	c #5B3132",
"(,+	c #552D2B",
"_,+	c #0E0A0B",
":,+	c #0B0708",
"<,+	c #221E1F",
"[,+	c #2D292A",
"},+	c #1C1714",
"|,+	c #191411",
"1,+	c #0C0C0A",
"2,+	c #920000",
"3,+	c #840000",
"4,+	c #760602",
"5,+	c #720903",
"6,+	c #6C0B02",
"7,+	c #72150E",
"8,+	c #72130D",
"9,+	c #771B10",
"0,+	c #812317",
"a,+	c #7A1C10",
"b,+	c #7B1D11",
"c,+	c #7B1B0F",
"d,+	c #822118",
"e,+	c #84211B",
"f,+	c #7D1C15",
"g,+	c #7E1B16",
"h,+	c #82201D",
"i,+	c #7D1E1C",
"j,+	c #791E1B",
"k,+	c #741A19",
"l,+	c #6F1514",
"m,+	c #6F1A17",
"n,+	c #6C1915",
"o,+	c #60110C",
"p,+	c #5A0B06",
"q,+	c #661913",
"r,+	c #611610",
"s,+	c #601510",
"t,+	c #621410",
"u,+	c #62130E",
"v,+	c #62120B",
"w,+	c #63130A",
"x,+	c #661814",
"y,+	c #681915",
"z,+	c #691A16",
"A,+	c #661B16",
"B,+	c #641B15",
"C,+	c #5B1611",
"D,+	c #560C09",
"E,+	c #5A0C08",
"F,+	c #600C0A",
"G,+	c #6C0E0C",
"H,+	c #720E0E",
"I,+	c #750D0C",
"J,+	c #6E0800",
"K,+	c #720C00",
"L,+	c #740C03",
"M,+	c #710802",
"N,+	c #710804",
"O,+	c #740B08",
"P,+	c #790D0D",
"Q,+	c #750102",
"R,+	c #9D0305",
"S,+	c #B90C0E",
"T,+	c #CF1216",
"U,+	c #DB1218",
"V,+	c #E50E13",
"W,+	c #D82622",
"X,+	c #8C0000",
"Y,+	c #AD0B09",
"Z,+	c #C51919",
"`,+	c #CD1515",
" '+	c #CE0F14",
".'+	c #CD1A1E",
"+'+	c #B81E20",
"@'+	c #640500",
"#'+	c #4A0300",
"$'+	c #400B05",
"%'+	c #360E0E",
"&'+	c #330A0E",
"*'+	c #33090D",
"='+	c #31090A",
"-'+	c #250000",
";'+	c #673632",
">'+	c #460F0C",
",'+	c #662A29",
"''+	c #4E1011",
")'+	c #4D191B",
"!'+	c #3D1013",
"~'+	c #290507",
"{'+	c #1B0002",
"]'+	c #170000",
"^'+	c #1F0101",
"/'+	c #53302E",
"('+	c #5A3836",
"_'+	c #312622",
":'+	c #1E1D1B",
"<'+	c #0F0B0C",
"['+	c #262223",
"}'+	c #2E2A2B",
"|'+	c #1E1916",
"1'+	c #191512",
"2'+	c #7D0000",
"3'+	c #77100B",
"4'+	c #6B0E06",
"5'+	c #7F221B",
"6'+	c #771812",
"7'+	c #8E2D27",
"8'+	c #93352B",
"9'+	c #913027",
"0'+	c #8E2C21",
"a'+	c #822015",
"b'+	c #7E1C11",
"c'+	c #85231A",
"d'+	c #8D2722",
"e'+	c #892620",
"f'+	c #801C1A",
"g'+	c #72100F",
"h'+	c #6E1511",
"i'+	c #701816",
"j'+	c #681511",
"k'+	c #5C110B",
"l'+	c #651A14",
"m'+	c #5B120B",
"n'+	c #5F0F08",
"o'+	c #631511",
"p'+	c #6A1B16",
"q'+	c #5D1610",
"r'+	c #58130C",
"s'+	c #560F09",
"t'+	c #59100A",
"u'+	c #5D0F0B",
"v'+	c #6E0C09",
"w'+	c #740F03",
"x'+	c #740F05",
"y'+	c #6F0905",
"z'+	c #740607",
"A'+	c #980607",
"B'+	c #B20C10",
"C'+	c #CC0F15",
"D'+	c #DD0E16",
"E'+	c #EB0B15",
"F'+	c #F10710",
"G'+	c #F4050A",
"H'+	c #B8130D",
"I'+	c #B00D08",
"J'+	c #C61915",
"K'+	c #CC1310",
"L'+	c #E21116",
"M'+	c #E01519",
"N'+	c #D11D1E",
"O'+	c #B71D1B",
"P'+	c #8E130E",
"Q'+	c #380B08",
"R'+	c #320A0A",
"S'+	c #30090A",
"T'+	c #330B0C",
"U'+	c #290505",
"V'+	c #240606",
"W'+	c #2F1312",
"X'+	c #1D0100",
"Y'+	c #855551",
"Z'+	c #501A18",
"`'+	c #44090B",
" )+	c #592124",
".)+	c #461417",
"+)+	c #370D11",
"@)+	c #240105",
"#)+	c #180001",
"$)+	c #120001",
"%)+	c #210504",
"&)+	c #422925",
"*)+	c #524944",
"=)+	c #6D645F",
"-)+	c #15100A",
";)+	c #171314",
">)+	c #211C19",
",)+	c #960A0B",
"')+	c #810704",
"))+	c #7D0C08",
"!)+	c #760904",
"~)+	c #7A0E0B",
"{)+	c #760D09",
"])+	c #79110E",
"^)+	c #83221B",
"/)+	c #7E241B",
"()+	c #832921",
"_)+	c #872A25",
":)+	c #7E1F1B",
"<)+	c #872620",
"[)+	c #902F29",
"})+	c #85241B",
"|)+	c #721005",
"1)+	c #730E04",
"2)+	c #7B1510",
"3)+	c #750F0A",
"4)+	c #5E0000",
"5)+	c #620A06",
"6)+	c #600D09",
"7)+	c #62110D",
"8)+	c #5A110A",
"9)+	c #611811",
"0)+	c #59130B",
"a)+	c #561008",
"b)+	c #5F1911",
"c)+	c #5B0C07",
"d)+	c #64150E",
"e)+	c #661712",
"f)+	c #671A14",
"g)+	c #651810",
"h)+	c #65160F",
"i)+	c #62180F",
"j)+	c #621711",
"k)+	c #601710",
"l)+	c #551009",
"m)+	c #520B05",
"n)+	c #6A130C",
"o)+	c #6C0F0A",
"p)+	c #751308",
"q)+	c #77150A",
"r)+	c #6F0E07",
"s)+	c #6B0A04",
"t)+	c #6D0401",
"u)+	c #A81213",
"v)+	c #C51719",
"w)+	c #F1040E",
"x)+	c #F8030B",
"y)+	c #E32A25",
"z)+	c #C61913",
"A)+	c #9C0000",
"B)+	c #B60A06",
"C)+	c #CA1713",
"D)+	c #DC100F",
"E)+	c #EE1214",
"F)+	c #E40A0B",
"G)+	c #D50D0D",
"H)+	c #CC1A18",
"I)+	c #B7221E",
"J)+	c #921813",
"K)+	c #690A04",
"L)+	c #400501",
"M)+	c #340400",
"N)+	c #2E0503",
"O)+	c #31080C",
"P)+	c #2F0509",
"Q)+	c #2D0408",
"R)+	c #2D1312",
"S)+	c #633D3A",
"T)+	c #9F7370",
"U)+	c #3E070A",
"V)+	c #441014",
"W)+	c #3B0A0E",
"X)+	c #2E070C",
"Y)+	c #200005",
"Z)+	c #180003",
"`)+	c #130304",
" !+	c #150100",
".!+	c #504742",
"+!+	c #605752",
"@!+	c #413A34",
"#!+	c #080808",
"$!+	c #070707",
"%!+	c #211D1E",
"&!+	c #272324",
"*!+	c #241F1C",
"=!+	c #A9171A",
"-!+	c #890B0C",
";!+	c #8A100F",
">!+	c #831312",
",!+	c #922926",
"'!+	c #8A221F",
")!+	c #700E0B",
"!!+	c #700900",
"~!+	c #7B140B",
"{!+	c #872019",
"]!+	c #851E19",
"^!+	c #721311",
"/!+	c #591009",
"(!+	c #5D170F",
"_!+	c #58140B",
":!+	c #551108",
"<!+	c #5B150D",
"[!+	c #61140C",
"}!+	c #641006",
"|!+	c #742721",
"1!+	c #70231B",
"2!+	c #6A1C12",
"3!+	c #60160B",
"4!+	c #5E140B",
"5!+	c #5A140C",
"6!+	c #5D140D",
"7!+	c #62150D",
"8!+	c #690F07",
"9!+	c #6E0B05",
"0!+	c #700E05",
"a!+	c #721007",
"b!+	c #75130A",
"c!+	c #731209",
"d!+	c #6D0703",
"e!+	c #8E0E0B",
"f!+	c #B01A19",
"g!+	c #CC1C1E",
"h!+	c #E72422",
"i!+	c #D9211F",
"j!+	c #C10F0D",
"k!+	c #B30401",
"l!+	c #C40E0A",
"m!+	c #D6100D",
"n!+	c #CE211D",
"o!+	c #BD2822",
"p!+	c #9B2019",
"q!+	c #791610",
"r!+	c #570803",
"s!+	c #440500",
"t!+	c #360501",
"u!+	c #330706",
"v!+	c #33090A",
"w!+	c #30070B",
"x!+	c #30060A",
"y!+	c #7D5C57",
"z!+	c #926C69",
"A!+	c #491D1C",
"B!+	c #441316",
"C!+	c #320407",
"D!+	c #31070B",
"E!+	c #250508",
"F!+	c #1C0205",
"G!+	c #140103",
"H!+	c #5A534D",
"I!+	c #36312B",
"J!+	c #2E2923",
"K!+	c #38352E",
"L!+	c #27241D",
"M!+	c #070906",
"N!+	c #060807",
"O!+	c #292323",
"P!+	c #282222",
"Q!+	c #231E1B",
"R!+	c #181310",
"S!+	c #B52024",
"T!+	c #AA191E",
"U!+	c #970C0F",
"V!+	c #930E0F",
"W!+	c #9A1A1B",
"X!+	c #8E1212",
"Y!+	c #7C0808",
"Z!+	c #811110",
"`!+	c #6D0B08",
" ~+	c #650400",
".~+	c #6C0A01",
"+~+	c #831E16",
"@~+	c #882118",
"#~+	c #771007",
"$~+	c #99322B",
"%~+	c #99322D",
"&~+	c #841D18",
"*~+	c #7F1915",
"=~+	c #902A28",
"-~+	c #983937",
";~+	c #7D2A24",
">~+	c #5E130D",
",~+	c #5B100A",
"'~+	c #510801",
")~+	c #5E1810",
"!~+	c #57130A",
"~~+	c #661D16",
"{~+	c #6C1C15",
"]~+	c #66110A",
"^~+	c #762B25",
"/~+	c #7C3229",
"(~+	c #82352B",
"_~+	c #681B11",
":~+	c #621910",
"<~+	c #671E15",
"[~+	c #671E17",
"}~+	c #670D04",
"|~+	c #680B03",
"1~+	c #6A0800",
"2~+	c #6D0A04",
"3~+	c #6A1008",
"4~+	c #740903",
"5~+	c #8E130C",
"6~+	c #CC201E",
"7~+	c #DD1515",
"8~+	c #EA1C1C",
"9~+	c #EA2627",
"0~+	c #DD1F1F",
"a~+	c #D71513",
"b~+	c #E30804",
"c~+	c #D61510",
"d~+	c #D2251F",
"e~+	c #A1221C",
"f~+	c #5C0903",
"g~+	c #460501",
"h~+	c #3C0703",
"i~+	c #300607",
"j~+	c #2F080B",
"k~+	c #2C0E0E",
"l~+	c #3A211D",
"m~+	c #886B67",
"n~+	c #74534E",
"o~+	c #270100",
"p~+	c #4C2224",
"q~+	c #2A0105",
"r~+	c #2C090D",
"s~+	c #200609",
"t~+	c #180406",
"u~+	c #0D0103",
"v~+	c #080500",
"w~+	c #24241C",
"x~+	c #58514B",
"y~+	c #3B3630",
"z~+	c #302D26",
"A~+	c #050704",
"B~+	c #030504",
"C~+	c #2A2424",
"D~+	c #272121",
"E~+	c #221D1A",
"F~+	c #1F1B18",
"G~+	c #AE1D20",
"H~+	c #AA1E21",
"I~+	c #A21A1C",
"J~+	c #9D181B",
"K~+	c #8E1011",
"L~+	c #821210",
"M~+	c #770B09",
"N~+	c #6F0706",
"O~+	c #710D0B",
"P~+	c #801B13",
"Q~+	c #7A130A",
"R~+	c #87211C",
"S~+	c #892621",
"T~+	c #8E2A28",
"U~+	c #8C2E2C",
"V~+	c #803029",
"W~+	c #752822",
"X~+	c #671C16",
"Y~+	c #5C130C",
"Z~+	c #5E150E",
"`~+	c #58120A",
" {+	c #571109",
".{+	c #561209",
"+{+	c #57140B",
"@{+	c #6F261F",
"#{+	c #762921",
"${+	c #691912",
"%{+	c #6E170E",
"&{+	c #6F160E",
"*{+	c #66160F",
"={+	c #681912",
"-{+	c #691F16",
";{+	c #72251B",
">{+	c #601309",
",{+	c #61180F",
"'{+	c #5D130A",
"){+	c #671309",
"!{+	c #690C04",
"~{+	c #76150C",
"{{+	c #7E0900",
"]{+	c #DE0C0F",
"^{+	c #DE0E0C",
"/{+	c #F7140B",
"({+	c #F51106",
"_{+	c #D10E08",
":{+	c #C61712",
"<{+	c #BF241F",
"[{+	c #A7231E",
"}{+	c #5A0100",
"|{+	c #490200",
"1{+	c #350503",
"2{+	c #2B0303",
"3{+	c #2D0E0C",
"4{+	c #7E625E",
"5{+	c #482B27",
"6{+	c #220507",
"7{+	c #59504B",
"8{+	c #39342E",
"9{+	c #322F28",
"0{+	c #29261F",
"a{+	c #2E2E26",
"b{+	c #060701",
"c{+	c #0A0B06",
"d{+	c #131512",
"e{+	c #141613",
"f{+	c #0E100D",
"g{+	c #070908",
"h{+	c #2B2623",
"i{+	c #211C18",
"j{+	c #A31416",
"k{+	c #A8191B",
"l{+	c #A21617",
"m{+	c #9A1212",
"n{+	c #941212",
"o{+	c #800A08",
"p{+	c #6B0803",
"q{+	c #72130F",
"r{+	c #690C07",
"s{+	c #6C110C",
"t{+	c #7E190F",
"u{+	c #7A140F",
"v{+	c #781711",
"w{+	c #771814",
"x{+	c #751A17",
"y{+	c #60150F",
"z{+	c #68180F",
"A{+	c #63160C",
"B{+	c #64170D",
"C{+	c #5E1109",
"D{+	c #67170E",
"E{+	c #660E04",
"F{+	c #690F06",
"G{+	c #7F1E15",
"H{+	c #77110D",
"I{+	c #71100A",
"J{+	c #650E05",
"K{+	c #900B02",
"L{+	c #AD1009",
"M{+	c #CA110C",
"N{+	c #E8090E",
"O{+	c #E50A0E",
"P{+	c #E30B0E",
"Q{+	c #E70B0B",
"R{+	c #F10F03",
"S{+	c #EE0E02",
"T{+	c #F01109",
"U{+	c #DB1610",
"V{+	c #D41E1A",
"W{+	c #C01E1B",
"X{+	c #AC211E",
"Y{+	c #3B0B07",
"Z{+	c #543834",
"`{+	c #7C605C",
" ]+	c #442723",
".]+	c #341415",
"+]+	c #4C413D",
"@]+	c #574C48",
"#]+	c #3B322D",
"$]+	c #49423C",
"%]+	c #25251D",
"&]+	c #23231B",
"*]+	c #1C1E1B",
"=]+	c #171916",
"-]+	c #121411",
";]+	c #0A0C0B",
">]+	c #423D3A",
",]+	c #4C4744",
"']+	c #312C29",
")]+	c #1E1915",
"!]+	c #920E0A",
"~]+	c #930C09",
"{]+	c #8E0A06",
"]]+	c #8C0F09",
"^]+	c #861108",
"/]+	c #720D03",
"(]+	c #6C1209",
"_]+	c #680E06",
":]+	c #6C0E04",
"<]+	c #761409",
"[]+	c #73120B",
"}]+	c #6B0E09",
"|]+	c #580F08",
"1]+	c #520C04",
"2]+	c #59150C",
"3]+	c #5A160D",
"4]+	c #59160D",
"5]+	c #540E04",
"6]+	c #5F150C",
"7]+	c #611108",
"8]+	c #600C02",
"9]+	c #6D130A",
"0]+	c #66160D",
"a]+	c #641A11",
"b]+	c #651B12",
"c]+	c #66190F",
"d]+	c #7C1E14",
"e]+	c #7F1C16",
"f]+	c #7A1712",
"g]+	c #720700",
"h]+	c #800200",
"i]+	c #9B0400",
"j]+	c #BD0A03",
"k]+	c #DA0F0B",
"l]+	c #EC0E0B",
"m]+	c #EE090E",
"n]+	c #EB0B00",
"o]+	c #F21208",
"p]+	c #EE140B",
"q]+	c #E11610",
"r]+	c #D61A18",
"s]+	c #CF2623",
"t]+	c #B92523",
"u]+	c #911513",
"v]+	c #6C0806",
"w]+	c #570804",
"x]+	c #490A05",
"y]+	c #3B0804",
"z]+	c #694A45",
"A]+	c #5B3E38",
"B]+	c #311313",
"C]+	c #483A37",
"D]+	c #5B4D4A",
"E]+	c #564845",
"F]+	c #3E3530",
"G]+	c #463D38",
"H]+	c #4C453F",
"I]+	c #1E1D18",
"J]+	c #110C08",
"K]+	c #534E4A",
"L]+	c #48433F",
"M]+	c #221D19",
"N]+	c #201D18",
"O]+	c #860500",
"P]+	c #8B0800",
"Q]+	c #8D1109",
"R]+	c #7D0B00",
"S]+	c #6B180A",
"T]+	c #631407",
"U]+	c #6A1005",
"V]+	c #7C1C10",
"W]+	c #73150D",
"X]+	c #67120D",
"Y]+	c #5B170E",
"Z]+	c #571107",
"`]+	c #61170E",
" ^+	c #651107",
".^+	c #6E140B",
"+^+	c #61140A",
"@^+	c #5E1409",
"#^+	c #5F1208",
"$^+	c #64170F",
"%^+	c #5D0E07",
"&^+	c #721D16",
"*^+	c #782016",
"=^+	c #7D1F17",
"-^+	c #781613",
";^+	c #71140F",
">^+	c #6E1916",
",^+	c #651009",
"'^+	c #6B1108",
")^+	c #6F0400",
"!^+	c #D7100B",
"~^+	c #F8050B",
"{^+	c #F60808",
"]^+	c #F50E04",
"^^+	c #F11107",
"/^+	c #F31307",
"(^+	c #E3120E",
"_^+	c #DA1715",
":^+	c #D32121",
"<^+	c #C32929",
"[^+	c #A0201F",
"}^+	c #740C09",
"|^+	c #400604",
"1^+	c #3C0B07",
"2^+	c #401713",
"3^+	c #5A3733",
"4^+	c #260500",
"5^+	c #2E1211",
"6^+	c #3D2E2B",
"7^+	c #564744",
"8^+	c #5A4B48",
"9^+	c #4F413E",
"0^+	c #4D423E",
"a^+	c #544B46",
"b^+	c #1A1A12",
"c^+	c #22211C",
"d^+	c #26211D",
"e^+	c #3F3A36",
"f^+	c #443F3B",
"g^+	c #28201D",
"h^+	c #25201C",
"i^+	c #870400",
"j^+	c #8F0600",
"k^+	c #891005",
"l^+	c #871B0E",
"m^+	c #781707",
"n^+	c #680F00",
"o^+	c #601104",
"p^+	c #611106",
"q^+	c #661208",
"r^+	c #6A1206",
"s^+	c #6B1106",
"t^+	c #6F1306",
"u^+	c #731509",
"v^+	c #7D1F13",
"w^+	c #6E1207",
"x^+	c #5C160C",
"y^+	c #6B1B12",
"z^+	c #671612",
"A^+	c #6C1710",
"B^+	c #7F261E",
"C^+	c #80231B",
"D^+	c #6F120B",
"E^+	c #6B1715",
"F^+	c #630B07",
"G^+	c #6A0D06",
"H^+	c #BB0905",
"I^+	c #E7100E",
"J^+	c #FA0700",
"K^+	c #EE1003",
"L^+	c #E40808",
"M^+	c #E11315",
"N^+	c #C82828",
"O^+	c #A01916",
"P^+	c #7C0B07",
"Q^+	c #500605",
"R^+	c #4B1411",
"S^+	c #3A0704",
"T^+	c #6B3B37",
"U^+	c #7C504D",
"V^+	c #5E3533",
"W^+	c #320C0B",
"X^+	c #351111",
"Y^+	c #0E0903",
"Z^+	c #3E2C2A",
"`^+	c #574543",
" /+	c #655351",
"./+	c #544240",
"+/+	c #4E403D",
"@/+	c #5A4C49",
"#/+	c #3F3A34",
"$/+	c #4A453F",
"%/+	c #282820",
"&/+	c #27271F",
"*/+	c #1F1F17",
"=/+	c #14140C",
"-/+	c #8F0400",
";/+	c #950400",
">/+	c #950100",
",/+	c #9C1C11",
"'/+	c #A02C1F",
")/+	c #861F10",
"!/+	c #680B00",
"~/+	c #691304",
"{/+	c #650F02",
"]/+	c #671509",
"^/+	c #5E1004",
"//+	c #681004",
"(/+	c #6B1204",
"_/+	c #73170A",
":/+	c #771B0E",
"</+	c #6D150B",
"[/+	c #6C180D",
"}/+	c #661409",
"|/+	c #611B13",
"1/+	c #621C14",
"2/+	c #5E150C",
"3/+	c #741A11",
"4/+	c #781B13",
"5/+	c #73160E",
"6/+	c #671814",
"7/+	c #64130F",
"8/+	c #63100A",
"9/+	c #5F0A05",
"0/+	c #731B11",
"a/+	c #650C06",
"b/+	c #681310",
"c/+	c #661210",
"d/+	c #A20806",
"e/+	c #C30F0E",
"f/+	c #DB1313",
"g/+	c #F9060A",
"h/+	c #EA0E00",
"i/+	c #EE1202",
"j/+	c #F50909",
"k/+	c #F10C0F",
"l/+	c #E51016",
"m/+	c #D61C1F",
"n/+	c #C92526",
"o/+	c #A91E1B",
"p/+	c #610908",
"q/+	c #550D0E",
"r/+	c #420504",
"s/+	c #4C1512",
"t/+	c #6B3835",
"u/+	c #7C4C4A",
"v/+	c #653737",
"w/+	c #421617",
"x/+	c #300C0C",
"y/+	c #260808",
"z/+	c #120404",
"A/+	c #150204",
"B/+	c #261315",
"C/+	c #3E2A2C",
"D/+	c #614D4C",
"E/+	c #584443",
"F/+	c #473533",
"G/+	c #4C3A38",
"H/+	c #5B4C49",
"I/+	c #594B48",
"J/+	c #4B3D3A",
"K/+	c #48433D",
"L/+	c #3D3832",
"M/+	c #292921",
"N/+	c #16160E",
"O/+	c #9B0602",
"P/+	c #B00E0C",
"Q/+	c #A70805",
"R/+	c #AF2F26",
"S/+	c #740A00",
"T/+	c #730E02",
"U/+	c #6E0D04",
"V/+	c #5E160A",
"W/+	c #741B0D",
"X/+	c #7B2214",
"Y/+	c #62140A",
"Z/+	c #641B14",
"`/+	c #5C160E",
" (+	c #6F150D",
".(+	c #71130B",
"+(+	c #6F120A",
"@(+	c #661C13",
"#(+	c #651514",
"$(+	c #671613",
"%(+	c #650C04",
"&(+	c #630C05",
"*(+	c #630E07",
"=(+	c #65100B",
"-(+	c #64110D",
";(+	c #600A09",
">(+	c #640908",
",(+	c #6A0402",
"'(+	c #DF1316",
")(+	c #E90C11",
"!(+	c #FA0800",
"~(+	c #ED1403",
"{(+	c #F41504",
"](+	c #F91103",
"^(+	c #FF0909",
"/(+	c #FC070C",
"((+	c #E31016",
"_(+	c #DB1E24",
":(+	c #A82020",
"<(+	c #7C1516",
"[(+	c #621012",
"}(+	c #560A0A",
"|(+	c #420202",
"1(+	c #460C0B",
"2(+	c #632D2D",
"3(+	c #7F4B4D",
"4(+	c #633235",
"5(+	c #4C1E20",
"6(+	c #0B0200",
"7(+	c #250F12",
"8(+	c #422C2F",
"9(+	c #5D4448",
"0(+	c #675251",
"a(+	c #5B4645",
"b(+	c #442F2E",
"c(+	c #463231",
"d(+	c #5F4D4B",
"e(+	c #614F4D",
"f(+	c #231B18",
"g(+	c #060300",
"h(+	c #2A251F",
"i(+	c #1F1E19",
"j(+	c #22211F",
"k(+	c #201F1D",
"l(+	c #AC0904",
"m(+	c #BB120F",
"n(+	c #C51C19",
"o(+	c #BF1716",
"p(+	c #B00E0B",
"q(+	c #9E0500",
"r(+	c #B4251F",
"s(+	c #A42119",
"t(+	c #840B03",
"u(+	c #821109",
"v(+	c #63190C",
"w(+	c #611508",
"x(+	c #66170A",
"y(+	c #691608",
"z(+	c #661003",
"A(+	c #6B1305",
"B(+	c #751D0F",
"C(+	c #8B3325",
"D(+	c #7B2315",
"E(+	c #691910",
"F(+	c #661B15",
"G(+	c #72150D",
"H(+	c #771911",
"I(+	c #690B01",
"J(+	c #6A0C04",
"K(+	c #69170C",
"L(+	c #67190F",
"M(+	c #6F2117",
"N(+	c #651612",
"O(+	c #651411",
"P(+	c #691815",
"Q(+	c #6F1E1A",
"R(+	c #75221E",
"S(+	c #711C15",
"T(+	c #6C150E",
"U(+	c #6D160F",
"V(+	c #65100D",
"W(+	c #630807",
"X(+	c #A50F10",
"Y(+	c #E31215",
"Z(+	c #FF060A",
"`(+	c #FB0D0B",
" _+	c #EC1002",
"._+	c #F31405",
"+_+	c #F81004",
"@_+	c #FE0B05",
"#_+	c #FD0C12",
"$_+	c #F00F13",
"%_+	c #DF0E13",
"&_+	c #D41616",
"*_+	c #CB2726",
"=_+	c #A52323",
"-_+	c #650100",
";_+	c #510706",
">_+	c #51100E",
",_+	c #612525",
"'_+	c #885252",
")_+	c #643233",
"!_+	c #150303",
"~_+	c #240B0E",
"{_+	c #3D2024",
"]_+	c #533439",
"^_+	c #5F4045",
"/_+	c #5F4244",
"(_+	c #563C3D",
"__+	c #482E2D",
":_+	c #553D3D",
"<_+	c #685350",
"[_+	c #513D3C",
"}_+	c #26231A",
"|_+	c #312C26",
"1_+	c #16110B",
"2_+	c #25241F",
"3_+	c #211D1C",
"4_+	c #201C1B",
"5_+	c #272322",
"6_+	c #262523",
"7_+	c #CA150C",
"8_+	c #CC1B11",
"9_+	c #C81B14",
"0_+	c #C31811",
"a_+	c #AC0806",
"b_+	c #B91919",
"c_+	c #BE2625",
"d_+	c #A51716",
"e_+	c #961412",
"f_+	c #901915",
"g_+	c #712316",
"h_+	c #71170C",
"i_+	c #751C0E",
"j_+	c #6A180A",
"k_+	c #6C1D10",
"l_+	c #6A1A11",
"m_+	c #691A15",
"n_+	c #661710",
"o_+	c #65170D",
"p_+	c #691B11",
"q_+	c #601208",
"r_+	c #641511",
"s_+	c #64160A",
"t_+	c #6A0E03",
"u_+	c #77160D",
"v_+	c #6E0E02",
"w_+	c #6D1106",
"x_+	c #6E1E15",
"y_+	c #6C1913",
"z_+	c #6A1916",
"A_+	c #5B0C08",
"B_+	c #5C0B08",
"C_+	c #701912",
"D_+	c #731C15",
"E_+	c #6A1211",
"F_+	c #6B1214",
"G_+	c #651111",
"H_+	c #9C0403",
"I_+	c #BB0D0E",
"J_+	c #D41316",
"K_+	c #EA1011",
"L_+	c #F6050B",
"M_+	c #F90C06",
"N_+	c #F71008",
"O_+	c #F6130A",
"P_+	c #F31007",
"Q_+	c #CD211D",
"R_+	c #BE2621",
"S_+	c #A71C17",
"T_+	c #4F0804",
"U_+	c #7D4A47",
"V_+	c #451916",
"W_+	c #1A0202",
"X_+	c #3C1E20",
"Y_+	c #633F43",
"Z_+	c #562B32",
"`_+	c #481E22",
" :+	c #532F31",
".:+	c #553737",
"+:+	c #573E3A",
"@:+	c #3A2220",
"#:+	c #44322E",
"$:+	c #202014",
"%:+	c #15190B",
"&:+	c #111308",
"*:+	c #261C1A",
"=:+	c #2A221F",
"-:+	c #060600",
";:+	c #050500",
">:+	c #36332C",
",:+	c #434039",
"':+	c #2F2A24",
"):+	c #110E07",
"!:+	c #24201D",
"~:+	c #292522",
"{:+	c #221E1B",
"]:+	c #2A2927",
"^:+	c #2C2B29",
"/:+	c #2B2A28",
"(:+	c #292826",
"_:+	c #232220",
"::+	c #D8180D",
"<:+	c #D11B10",
"[:+	c #C8170D",
"}:+	c #C1140D",
"|:+	c #B60C0C",
"1:+	c #BC1618",
"2:+	c #BE1E20",
"3:+	c #AB1517",
"4:+	c #A41C1C",
"5:+	c #A12523",
"6:+	c #871713",
"7:+	c #7A1711",
"8:+	c #722316",
"9:+	c #791D12",
"0:+	c #8E3829",
"a:+	c #873527",
"b:+	c #6C1D0E",
"c:+	c #681A0E",
"d:+	c #6D1A14",
"e:+	c #6D1A12",
"f:+	c #752318",
"g:+	c #631509",
"h:+	c #690D02",
"i:+	c #75170B",
"j:+	c #77170B",
"k:+	c #76160A",
"l:+	c #731C12",
"m:+	c #6B1D13",
"n:+	c #68130E",
"o:+	c #671410",
"p:+	c #5D0E0A",
"q:+	c #5E0D09",
"r:+	c #671112",
"s:+	c #661013",
"t:+	c #960200",
"u:+	c #AC0404",
"v:+	c #C3090A",
"w:+	c #D60E10",
"x:+	c #F7060F",
"y:+	c #F8070D",
"z:+	c #FA070D",
"A:+	c #F80902",
"B:+	c #F70D06",
"C:+	c #F6110B",
"D:+	c #E70E07",
"E:+	c #D8150F",
"F:+	c #DA2923",
"G:+	c #D32F26",
"H:+	c #B21D16",
"I:+	c #730200",
"J:+	c #69322F",
"K:+	c #5D302B",
"L:+	c #3F1C16",
"M:+	c #341912",
"N:+	c #4B2B2C",
"O:+	c #673E42",
"P:+	c #4E1F25",
"Q:+	c #3E0F15",
"R:+	c #411A1B",
"S:+	c #4F2D2C",
"T:+	c #3F2622",
"U:+	c #2A2319",
"V:+	c #252317",
"W:+	c #222417",
"X:+	c #1F2315",
"Y:+	c #181E10",
"Z:+	c #17190E",
"`:+	c #281E1C",
" <+	c #211715",
".<+	c #090901",
"+<+	c #12120A",
"@<+	c #030300",
"#<+	c #403D36",
"$<+	c #4D4A43",
"%<+	c #46433C",
"&<+	c #3A3730",
"*<+	c #26221F",
"=<+	c #282421",
"-<+	c #2B2724",
";<+	c #27221F",
"><+	c #24201F",
",<+	c #1D1C1A",
"'<+	c #E21912",
")<+	c #C7120B",
"!<+	c #BE0F0A",
"~<+	c #BC100C",
"{<+	c #B40A0A",
"]<+	c #B10D0E",
"^<+	c #AF1112",
"/<+	c #A20D0F",
"(<+	c #A6201F",
"_<+	c #A72D2A",
":<+	c #80291F",
"<<+	c #752317",
"[<+	c #681409",
"}<+	c #81271C",
"|<+	c #721A0C",
"1<+	c #8C3A2C",
"2<+	c #742516",
"3<+	c #691A0D",
"4<+	c #691B0F",
"5<+	c #631B0F",
"6<+	c #5B170C",
"7<+	c #56160C",
"8<+	c #5A170E",
"9<+	c #671A10",
"0<+	c #6B0F04",
"a<+	c #7D1B10",
"b<+	c #7A1C12",
"c<+	c #741C12",
"d<+	c #7B241A",
"e<+	c #751E15",
"f<+	c #6E1710",
"g<+	c #63120F",
"h<+	c #5F0E0B",
"i<+	c #671009",
"j<+	c #69140F",
"k<+	c #650000",
"l<+	c #A80808",
"m<+	c #BB0B0D",
"n<+	c #D91312",
"o<+	c #F10B0E",
"p<+	c #F50810",
"q<+	c #FB0709",
"r<+	c #F8110B",
"s<+	c #E31811",
"t<+	c #DD2219",
"u<+	c #B02119",
"v<+	c #9A1D17",
"w<+	c #7E1511",
"x<+	c #540A09",
"y<+	c #561918",
"z<+	c #6F3F3B",
"A<+	c #542F29",
"B<+	c #41261F",
"C<+	c #2B1112",
"D<+	c #583839",
"E<+	c #653C40",
"F<+	c #411218",
"G<+	c #35060C",
"H<+	c #330C0F",
"I<+	c #442425",
"J<+	c #3D1F1F",
"K<+	c #442A29",
"L<+	c #49312F",
"M<+	c #422F2B",
"N<+	c #1B1B11",
"O<+	c #352D2A",
"P<+	c #040100",
"Q<+	c #13130B",
"R<+	c #3E3B34",
"S<+	c #35322B",
"T<+	c #292420",
"U<+	c #2F2A26",
"V<+	c #2C2723",
"W<+	c #B60D0A",
"X<+	c #AD0505",
"Y<+	c #A70405",
"Z<+	c #A10707",
"`<+	c #970707",
" [+	c #A11D1B",
".[+	c #A12A26",
"+[+	c #81140D",
"@[+	c #742216",
"#[+	c #6B140A",
"$[+	c #83291E",
"%[+	c #70180A",
"&[+	c #8E3B2D",
"*[+	c #702015",
"=[+	c #71211A",
"-[+	c #70180E",
";[+	c #6C2314",
">[+	c #5D1E0F",
",[+	c #561B0D",
"'[+	c #541C0D",
")[+	c #581D0F",
"![+	c #5B1509",
"~[+	c #6D1509",
"{[+	c #6F1308",
"][+	c #812115",
"^[+	c #842217",
"/[+	c #7C1A0F",
"([+	c #781A12",
"_[+	c #741D14",
":[+	c #76231B",
"<[+	c #81291F",
"[[+	c #67120B",
"}[+	c #68150F",
"|[+	c #880203",
"1[+	c #9D080A",
"2[+	c #B10E11",
"3[+	c #BC0F11",
"4[+	c #D51918",
"5[+	c #DD1B19",
"6[+	c #DD1714",
"7[+	c #D70E07",
"8[+	c #FC0D08",
"9[+	c #F80E05",
"0[+	c #F70E07",
"a[+	c #F70C09",
"b[+	c #EE1B12",
"c[+	c #DD170C",
"d[+	c #CA1E14",
"e[+	c #C82E26",
"f[+	c #BC332D",
"g[+	c #96201C",
"h[+	c #6F0B09",
"i[+	c #631211",
"j[+	c #4B0A08",
"k[+	c #653D3B",
"l[+	c #472B27",
"m[+	c #321517",
"n[+	c #624041",
"o[+	c #5E3539",
"p[+	c #380B10",
"q[+	c #33060B",
"r[+	c #2E0A0C",
"s[+	c #29090A",
"t[+	c #361617",
"u[+	c #4D2F2F",
"v[+	c #573B3A",
"w[+	c #3C2422",
"x[+	c #231C14",
"y[+	c #221E15",
"z[+	c #201D14",
"A[+	c #39312E",
"B[+	c #29211E",
"C[+	c #040400",
"D[+	c #34342C",
"E[+	c #404038",
"F[+	c #3B3B33",
"G[+	c #DE090D",
"H[+	c #CE0A0B",
"I[+	c #BF0705",
"J[+	c #B50706",
"K[+	c #B10908",
"L[+	c #A90705",
"M[+	c #9F0908",
"N[+	c #960807",
"O[+	c #9A1816",
"P[+	c #9A231F",
"Q[+	c #7D1009",
"R[+	c #732115",
"S[+	c #6E1A0F",
"T[+	c #741C0E",
"U[+	c #6E1608",
"V[+	c #893324",
"W[+	c #8D3A2C",
"X[+	c #701B14",
"Y[+	c #731A12",
"Z[+	c #77190F",
"`[+	c #701709",
" }+	c #701D0F",
".}+	c #6E2212",
"+}+	c #682313",
"@}+	c #5E210E",
"#}+	c #561F0B",
"$}+	c #54210C",
"%}+	c #592110",
"&}+	c #5D190C",
"*}+	c #67170C",
"=}+	c #832317",
"-}+	c #862419",
";}+	c #791811",
">}+	c #772019",
",}+	c #7C251C",
"'}+	c #6D1813",
")}+	c #69100C",
"!}+	c #560E02",
"~}+	c #610700",
"{}+	c #7D0D09",
"]}+	c #971112",
"^}+	c #AB1016",
"/}+	c #BD141B",
"(}+	c #CE1B21",
"_}+	c #D11418",
":}+	c #D31716",
"<}+	c #D11611",
"[}+	c #E30709",
"}}+	c #FC0F09",
"|}+	c #F70F05",
"1}+	c #F60D09",
"2}+	c #F7080B",
"3}+	c #EC180C",
"4}+	c #E61C10",
"5}+	c #DA1E15",
"6}+	c #A4201E",
"7}+	c #8F1F1E",
"8}+	c #5B1112",
"9}+	c #390100",
"0}+	c #3F231F",
"a}+	c #3F2121",
"b}+	c #694746",
"c}+	c #562E2F",
"d}+	c #330609",
"e}+	c #310709",
"f}+	c #2D0B0C",
"g}+	c #270909",
"h}+	c #2C100F",
"i}+	c #402423",
"j}+	c #422A28",
"k}+	c #271E17",
"l}+	c #25221D",
"m}+	c #282520",
"n}+	c #322F2A",
"o}+	c #201F1A",
"p}+	c #383530",
"q}+	c #34312C",
"r}+	c #0C0703",
"s}+	c #D6030A",
"t}+	c #C60405",
"u}+	c #B70302",
"v}+	c #B00606",
"w}+	c #A10908",
"x}+	c #A00C0C",
"y}+	c #920704",
"z}+	c #91100B",
"A}+	c #8F1812",
"B}+	c #780C02",
"C}+	c #69150A",
"D}+	c #6D1A0C",
"E}+	c #6E1809",
"F}+	c #8D3728",
"G}+	c #721F11",
"H}+	c #731E17",
"I}+	c #751C16",
"J}+	c #74130C",
"K}+	c #751008",
"L}+	c #7C150C",
"M}+	c #6F1C0C",
"N}+	c #691D0D",
"O}+	c #601F0B",
"P}+	c #581E0A",
"Q}+	c #54200A",
"R}+	c #581F0C",
"S}+	c #621C10",
"T}+	c #72180D",
"U}+	c #832116",
"V}+	c #75170F",
"W}+	c #761B16",
"X}+	c #781F17",
"Y}+	c #731C13",
"Z}+	c #6E1612",
"`}+	c #69110F",
" |+	c #6F1612",
".|+	c #6B120E",
"+|+	c #591103",
"@|+	c #BC2729",
"#|+	c #C81F26",
"$|+	c #D01820",
"%|+	c #D91A22",
"&|+	c #D21318",
"*|+	c #C50E0A",
"=|+	c #BD0600",
"-|+	c #B80100",
";|+	c #B90100",
">|+	c #C20600",
",|+	c #DF0708",
"'|+	c #E70509",
")|+	c #EA0508",
"!|+	c #FB0C05",
"~|+	c #FB0E06",
"{|+	c #F20E05",
"]|+	c #F30D0D",
"^|+	c #F00A00",
"/|+	c #F21304",
"(|+	c #F01A0F",
"_|+	c #E3190F",
":|+	c #CE1510",
"<|+	c #BE1915",
"[|+	c #B52524",
"}|+	c #AD3234",
"||+	c #993738",
"1|+	c #7C2E2E",
"2|+	c #380000",
"3|+	c #583030",
"4|+	c #0B0603",
"5|+	c #503031",
"6|+	c #6D4949",
"7|+	c #4C2425",
"8|+	c #2E0406",
"9|+	c #2B0D0D",
"0|+	c #240807",
"a|+	c #200403",
"b|+	c #38201E",
"c|+	c #3E2926",
"d|+	c #392622",
"e|+	c #27221E",
"f|+	c #26231E",
"g|+	c #3E3B36",
"h|+	c #413E39",
"i|+	c #37342F",
"j|+	c #33302B",
"k|+	c #302D28",
"l|+	c #2A2722",
"m|+	c #2C2B26",
"n|+	c #35342F",
"o|+	c #33322D",
"p|+	c #383732",
"q|+	c #3E3D38",
"r|+	c #2E2D28",
"s|+	c #1C1B16",
"t|+	c #272621",
"u|+	c #31302B",
"v|+	c #2F2E29",
"w|+	c #090400",
"x|+	c #D1060C",
"y|+	c #BC0203",
"z|+	c #AD0100",
"A|+	c #A90704",
"B|+	c #AA110C",
"C|+	c #9D0804",
"D|+	c #9D0907",
"E|+	c #9B0B0A",
"F|+	c #890803",
"G|+	c #70160B",
"H|+	c #711D12",
"I|+	c #6C1A0C",
"J|+	c #6A1707",
"K|+	c #711B0C",
"L|+	c #873124",
"M|+	c #6C1F17",
"N|+	c #79130E",
"O|+	c #760D07",
"P|+	c #790C05",
"Q|+	c #84130B",
"R|+	c #7F1007",
"S|+	c #7A1207",
"T|+	c #761407",
"U|+	c #681908",
"V|+	c #5D1C08",
"W|+	c #5D1A09",
"X|+	c #69190E",
"Y|+	c #71190D",
"Z|+	c #71150A",
"`|+	c #7A1B15",
" 1+	c #791C17",
".1+	c #771E16",
"+1+	c #711812",
"@1+	c #6A120E",
"#1+	c #6E1310",
"$1+	c #6B100D",
"%1+	c #5D1000",
"&1+	c #5E0800",
"*1+	c #AC2522",
"=1+	c #CC2C2E",
"-1+	c #D21D24",
";1+	c #CF1018",
">1+	c #D21116",
",1+	c #CC1011",
"'1+	c #C60E0C",
")1+	c #BC0B05",
"!1+	c #B70000",
"~1+	c #C20500",
"{1+	c #CF0805",
"]1+	c #E00B0D",
"^1+	c #E5090B",
"/1+	c #E8090A",
"(1+	c #F70801",
"_1+	c #F90D02",
":1+	c #F10E07",
"<1+	c #ED0F0C",
"[1+	c #F90908",
"}1+	c #FA0A00",
"|1+	c #F40B00",
"11+	c #DA150F",
"21+	c #CE1C1A",
"31+	c #C22828",
"41+	c #B63436",
"51+	c #A94142",
"61+	c #7F2F30",
"71+	c #3F0706",
"81+	c #321D1A",
"91+	c #1D0302",
"01+	c #5D3939",
"a1+	c #6B4343",
"b1+	c #2F0506",
"c1+	c #320A0B",
"d1+	c #230B09",
"e1+	c #2D1A16",
"f1+	c #35322D",
"g1+	c #3F3C37",
"h1+	c #3B3833",
"i1+	c #3C3934",
"j1+	c #393631",
"k1+	c #3A3732",
"l1+	c #CC0B10",
"m1+	c #B20403",
"n1+	c #A10200",
"o1+	c #A20A05",
"p1+	c #A7170F",
"q1+	c #9B0C06",
"r1+	c #9A0C08",
"s1+	c #8A0300",
"t1+	c #870601",
"u1+	c #870C05",
"v1+	c #790600",
"w1+	c #761A0F",
"x1+	c #6A1908",
"y1+	c #721F0F",
"z1+	c #822A1E",
"A1+	c #722015",
"B1+	c #6F221A",
"C1+	c #772319",
"D1+	c #81271F",
"E1+	c #8A2922",
"F1+	c #8C2520",
"G1+	c #891C15",
"H1+	c #891611",
"I1+	c #8F1510",
"J1+	c #931813",
"K1+	c #860F09",
"L1+	c #751507",
"M1+	c #6F1608",
"N1+	c #5F1105",
"O1+	c #681A10",
"P1+	c #6F1B11",
"Q1+	c #721A0E",
"R1+	c #852318",
"S1+	c #7E1813",
"T1+	c #801D17",
"U1+	c #82211B",
"V1+	c #721911",
"W1+	c #6F110F",
"X1+	c #6D0F0D",
"Y1+	c #CC2326",
"Z1+	c #CD141A",
"`1+	c #C7080D",
" 2+	c #C80A0C",
".2+	c #C20C09",
"+2+	c #BA0901",
"@2+	c #BF0601",
"#2+	c #C80604",
"$2+	c #D20806",
"%2+	c #E70D0E",
"&2+	c #EB0C0D",
"*2+	c #F80C01",
"=2+	c #F90C04",
"-2+	c #F60C05",
";2+	c #D6140B",
">2+	c #D8130B",
",2+	c #DB120B",
"'2+	c #FD0909",
")2+	c #FF0907",
"!2+	c #FF0B00",
"~2+	c #FE0C00",
"{2+	c #F70E00",
"]2+	c #DC0F0A",
"^2+	c #C02020",
"/2+	c #B32D2E",
"(2+	c #9D3536",
"_2+	c #390301",
":2+	c #220404",
"<2+	c #61393A",
"[2+	c #623839",
"}2+	c #320809",
"|2+	c #391312",
"12+	c #2B1311",
"22+	c #292621",
"32+	c #2E2B26",
"42+	c #B90909",
"52+	c #980E04",
"62+	c #980F05",
"72+	c #940B03",
"82+	c #950C06",
"92+	c #9C120F",
"02+	c #8F0804",
"a2+	c #7C1006",
"b2+	c #6A1D0D",
"c2+	c #701D0D",
"d2+	c #893123",
"e2+	c #761C11",
"f2+	c #6C1A0F",
"g2+	c #6C1E14",
"h2+	c #681F16",
"i2+	c #84261E",
"j2+	c #8F2823",
"k2+	c #992A23",
"l2+	c #9E2723",
"m2+	c #9C1C19",
"n2+	c #95110F",
"o2+	c #930D0A",
"p2+	c #8E0805",
"q2+	c #791B0F",
"r2+	c #7D1712",
"s2+	c #80211D",
"t2+	c #7C231B",
"u2+	c #6F100C",
"v2+	c #C41A1B",
"w2+	c #C41013",
"x2+	c #C20C0B",
"y2+	c #AF0400",
"z2+	c #B30D01",
"A2+	c #B81206",
"B2+	c #BF0E06",
"C2+	c #CB0E0A",
"D2+	c #D80E0E",
"E2+	c #DC0B0E",
"F2+	c #DB0B0B",
"G2+	c #E20E0D",
"H2+	c #FA0E03",
"I2+	c #FB1106",
"J2+	c #EB120D",
"K2+	c #F50D0B",
"L2+	c #FD0708",
"M2+	c #FE0600",
"N2+	c #FD0A00",
"O2+	c #FF1105",
"P2+	c #F31009",
"Q2+	c #C32323",
"R2+	c #B53031",
"S2+	c #851E1F",
"T2+	c #3E0000",
"U2+	c #431B1C",
"V2+	c #663A3B",
"W2+	c #592B2B",
"X2+	c #2F0101",
"Y2+	c #2E0201",
"Z2+	c #2E0807",
"`2+	c #301212",
" 3+	c #210909",
".3+	c #190101",
"+3+	c #180302",
"@3+	c #180403",
"#3+	c #2B1917",
"$3+	c #301C1B",
"%3+	c #35201F",
"&3+	c #361E1E",
"*3+	c #2B2622",
"=3+	c #2E2925",
"-3+	c #302B27",
";3+	c #332F2C",
">3+	c #34302D",
",3+	c #312D2A",
"'3+	c #2A2623",
")3+	c #9B0800",
"!3+	c #941003",
"~3+	c #981609",
"{3+	c #A62118",
"]3+	c #9E180F",
"^3+	c #9D140E",
"/3+	c #8E0703",
"(3+	c #8E0F09",
"_3+	c #810A02",
":3+	c #7E0F06",
"<3+	c #79180F",
"[3+	c #66180B",
"}3+	c #6A1E0E",
"|3+	c #671A08",
"13+	c #6F1E0D",
"23+	c #82281D",
"33+	c #6D1B10",
"43+	c #6C1F15",
"53+	c #672117",
"63+	c #662016",
"73+	c #8C1C18",
"83+	c #961F1B",
"93+	c #9D1B19",
"03+	c #9C1414",
"a3+	c #A21615",
"b3+	c #A01211",
"c3+	c #970D0B",
"d3+	c #8F0805",
"e3+	c #880604",
"f3+	c #6F180F",
"g3+	c #791D10",
"h3+	c #79170C",
"i3+	c #7D1713",
"j3+	c #7C1816",
"k3+	c #7A1B17",
"l3+	c #74251E",
"m3+	c #6D130B",
"n3+	c #72110B",
"o3+	c #7B0C03",
"p3+	c #970C07",
"q3+	c #B51B19",
"r3+	c #BD1816",
"s3+	c #BC0E0D",
"t3+	c #BA0D07",
"u3+	c #B80D05",
"v3+	c #B21204",
"w3+	c #B71105",
"x3+	c #DE1014",
"y3+	c #DC1011",
"z3+	c #DD1110",
"A3+	c #F70B00",
"B3+	c #FF1409",
"C3+	c #FF0E07",
"D3+	c #DA130C",
"E3+	c #B20400",
"F3+	c #A80200",
"G3+	c #B30B00",
"H3+	c #D8170E",
"I3+	c #FF0A00",
"J3+	c #FD0900",
"K3+	c #FD1106",
"L3+	c #D01818",
"M3+	c #C02425",
"N3+	c #A62829",
"O3+	c #400000",
"P3+	c #3B231F",
"Q3+	c #26211E",
"R3+	c #100607",
"S3+	c #2E0708",
"T3+	c #4B1D1F",
"U3+	c #6C3A3D",
"V3+	c #582627",
"W3+	c #320202",
"X3+	c #160201",
"Y3+	c #362120",
"Z3+	c #2F1516",
"`3+	c #2B0E10",
" 4+	c #25100F",
".4+	c #120807",
"+4+	c #A00C00",
"@4+	c #8D0B00",
"#4+	c #9D1D10",
"$4+	c #B12C23",
"%4+	c #A31D14",
"&4+	c #9C130D",
"*4+	c #890500",
"=4+	c #830C04",
"-4+	c #611507",
";4+	c #601706",
">4+	c #67200E",
",4+	c #671C09",
"'4+	c #6E1F0E",
")4+	c #872F21",
"!4+	c #82261B",
"~4+	c #662217",
"{4+	c #8B1813",
"]4+	c #AC1E1D",
"^4+	c #AB1C1E",
"/4+	c #A5191A",
"(4+	c #950D0D",
"_4+	c #900A0B",
":4+	c #671507",
"<4+	c #7C1614",
"[4+	c #741614",
"}4+	c #70211C",
"|4+	c #6D241D",
"14+	c #5C1209",
"24+	c #731F15",
"34+	c #71190F",
"44+	c #74110B",
"54+	c #830904",
"64+	c #9B0D09",
"74+	c #B21A17",
"84+	c #AF0C07",
"94+	c #B00D04",
"04+	c #B01004",
"a4+	c #B60E03",
"b4+	c #E41117",
"c4+	c #E40F15",
"d4+	c #F00C0B",
"e4+	c #FF160E",
"f4+	c #FE0C08",
"g4+	c #ED1613",
"h4+	c #E01612",
"i4+	c #AE0000",
"j4+	c #AB0700",
"k4+	c #C11509",
"l4+	c #D41910",
"m4+	c #E2130D",
"n4+	c #FD0B00",
"o4+	c #F50900",
"p4+	c #DE1616",
"q4+	c #D12123",
"r4+	c #BA2527",
"s4+	c #942021",
"t4+	c #410C08",
"u4+	c #2B2320",
"v4+	c #0D0105",
"w4+	c #0E0206",
"x4+	c #200000",
"y4+	c #300306",
"z4+	c #542024",
"A4+	c #70393C",
"B4+	c #521C1C",
"C4+	c #330100",
"D4+	c #3B0E09",
"E4+	c #281413",
"F4+	c #3A2222",
"G4+	c #33191A",
"H4+	c #2D1012",
"I4+	c #251A18",
"J4+	c #130908",
"K4+	c #9B0E00",
"L4+	c #920D00",
"M4+	c #8F1000",
"N4+	c #951806",
"O4+	c #9E1F10",
"P4+	c #A72116",
"Q4+	c #A0170F",
"R4+	c #9E130C",
"S4+	c #8E0500",
"T4+	c #890D05",
"U4+	c #77150C",
"V4+	c #6A1208",
"W4+	c #5F1305",
"X4+	c #832B1D",
"Y4+	c #7E2217",
"Z4+	c #631F14",
"`4+	c #632115",
" 5+	c #641E14",
".5+	c #8F1915",
"+5+	c #9C1814",
"@5+	c #A51E1B",
"#5+	c #B02626",
"$5+	c #B52B2B",
"%5+	c #B22828",
"&5+	c #A81E1E",
"*5+	c #9B1013",
"=5+	c #651607",
"-5+	c #761E10",
";5+	c #781C0F",
">5+	c #7B190E",
",5+	c #801A16",
"'5+	c #7D1715",
")5+	c #6B201B",
"!5+	c #4F0A03",
"~5+	c #6E2016",
"{5+	c #721A10",
"]5+	c #771208",
"^5+	c #771009",
"/5+	c #9C0E0C",
"(5+	c #AC1814",
"_5+	c #A40A00",
":5+	c #A80E02",
"<5+	c #BB0F05",
"[5+	c #C80F0C",
"}5+	c #D81213",
"|5+	c #E21117",
"15+	c #E00F15",
"25+	c #D00A07",
"35+	c #D50805",
"45+	c #E00907",
"55+	c #F9090A",
"65+	c #F8080B",
"75+	c #F60901",
"85+	c #F90F06",
"95+	c #FD150B",
"05+	c #FF180F",
"a5+	c #FF170F",
"b5+	c #FD100A",
"c5+	c #F40F0C",
"d5+	c #F41615",
"e5+	c #EA1615",
"f5+	c #D30D0C",
"g5+	c #BE0502",
"h5+	c #AD0000",
"i5+	c #B40901",
"j5+	c #C2140B",
"k5+	c #D2170E",
"l5+	c #ED0900",
"m5+	c #D91819",
"n5+	c #CD2729",
"o5+	c #AF2729",
"p5+	c #3F0000",
"q5+	c #0D0003",
"r5+	c #1C0404",
"s5+	c #260000",
"t5+	c #320105",
"u5+	c #5E2629",
"v5+	c #74373C",
"w5+	c #4E1315",
"x5+	c #370101",
"y5+	c #1F0302",
"z5+	c #3D2525",
"A5+	c #3D2324",
"B5+	c #381B1D",
"C5+	c #301818",
"D5+	c #231717",
"E5+	c #29211F",
"F5+	c #A01301",
"G5+	c #9B1702",
"H5+	c #971601",
"I5+	c #971603",
"J5+	c #9B1708",
"K5+	c #9B1107",
"L5+	c #A1140D",
"M5+	c #970E08",
"N5+	c #81160C",
"O5+	c #680E05",
"P5+	c #5D1906",
"Q5+	c #63200D",
"R5+	c #621B07",
"S5+	c #6C1F0D",
"T5+	c #80281A",
"U5+	c #7E2016",
"V5+	c #70130C",
"W5+	c #611F13",
"X5+	c #5F2114",
"Y5+	c #622014",
"Z5+	c #601A10",
"`5+	c #7E160D",
" 6+	c #86150F",
".6+	c #850E08",
"+6+	c #A92725",
"@6+	c #AF2D2D",
"#6+	c #AA2526",
"$6+	c #9A1516",
"%6+	c #661E10",
"&6+	c #641707",
"*6+	c #731D0E",
"=6+	c #7E1615",
"-6+	c #741916",
";6+	c #651E1A",
">6+	c #531611",
",6+	c #5A170F",
"'6+	c #791108",
")6+	c #830604",
"!6+	c #890302",
"~6+	c #960F0B",
"{6+	c #A31813",
"]6+	c #9F1008",
"^6+	c #9C0C01",
"/6+	c #A51103",
"(6+	c #C2160A",
"_6+	c #C8130C",
":6+	c #CE110F",
"<6+	c #D0130F",
"[6+	c #CA0D09",
"}6+	c #CB0100",
"|6+	c #F80E07",
"16+	c #FC130C",
"26+	c #FF160F",
"36+	c #F9120A",
"46+	c #F60C0D",
"56+	c #F60D11",
"66+	c #EF0C13",
"76+	c #E30A12",
"86+	c #D70A0F",
"96+	c #CC0A0B",
"06+	c #C60D0A",
"a6+	c #C70E09",
"b6+	c #E7120C",
"c6+	c #F4100D",
"d6+	c #F70F0B",
"e6+	c #DA1214",
"f6+	c #CD191C",
"g6+	c #C2282A",
"h6+	c #A12628",
"i6+	c #3A0000",
"j6+	c #32332D",
"k6+	c #120005",
"l6+	c #120107",
"m6+	c #1F0506",
"n6+	c #2D0506",
"o6+	c #3A050B",
"p6+	c #692B30",
"q6+	c #75343A",
"r6+	c #4D0F12",
"s6+	c #3C0403",
"t6+	c #3F0E09",
"u6+	c #310A05",
"v6+	c #160002",
"w6+	c #362022",
"x6+	c #402629",
"y6+	c #412428",
"z6+	c #231719",
"A6+	c #291F20",
"B6+	c #1E1818",
"C6+	c #180F10",
"D6+	c #9B1603",
"E6+	c #9C1205",
"F6+	c #A81810",
"G6+	c #B52620",
"H6+	c #A01711",
"I6+	c #870700",
"J6+	c #7F0600",
"K6+	c #81190E",
"L6+	c #601708",
"M6+	c #5C1906",
"N6+	c #611E0B",
"O6+	c #601905",
"P6+	c #5F1F13",
"Q6+	c #5C2113",
"R6+	c #5A1A10",
"S6+	c #67190D",
"T6+	c #740C01",
"U6+	c #951E1A",
"V6+	c #981E1B",
"W6+	c #681E11",
"X6+	c #711E0E",
"Y6+	c #77190D",
"Z6+	c #77140E",
"`6+	c #7D1514",
" 7+	c #751A19",
".7+	c #601C19",
"+7+	c #450B07",
"@7+	c #6C281F",
"#7+	c #6A2015",
"$7+	c #731607",
"%7+	c #7A1408",
"&7+	c #7B1308",
"*7+	c #7A1205",
"=7+	c #820604",
"-7+	c #9B1810",
";7+	c #981207",
">7+	c #990F02",
",7+	c #CE1910",
"'7+	c #D41411",
")7+	c #D41213",
"!7+	c #C40B06",
"~7+	c #C50500",
"{7+	c #CA0300",
"]7+	c #F5040B",
"^7+	c #F20801",
"/7+	c #F2020D",
"(7+	c #EE0411",
"_7+	c #E80813",
":7+	c #E10E15",
"<7+	c #D70C10",
"[7+	c #CD090A",
"}7+	c #CD0A06",
"|7+	c #EA130E",
"17+	c #E41819",
"27+	c #D41618",
"37+	c #C41A1D",
"47+	c #B72629",
"57+	c #932322",
"67+	c #5B0D09",
"77+	c #242A20",
"87+	c #2D322B",
"97+	c #302F2B",
"07+	c #120205",
"a7+	c #19040B",
"b7+	c #150208",
"c7+	c #230706",
"d7+	c #350B0D",
"e7+	c #450C12",
"f7+	c #6F2E34",
"g7+	c #712C31",
"h7+	c #430908",
"i7+	c #190305",
"j7+	c #291315",
"k7+	c #351C1F",
"l7+	c #3A2023",
"m7+	c #382224",
"n7+	c #221616",
"o7+	c #25191B",
"p7+	c #281E1F",
"q7+	c #231A1B",
"r7+	c #1C1314",
"s7+	c #B5200C",
"t7+	c #AB1E0C",
"u7+	c #A71B0A",
"v7+	c #AA1C0E",
"w7+	c #A51208",
"x7+	c #AB1811",
"y7+	c #7E190D",
"z7+	c #631A0B",
"A7+	c #5D1A07",
"B7+	c #5B1702",
"C7+	c #7F2719",
"D7+	c #7E1D14",
"E7+	c #781913",
"F7+	c #5E1E12",
"G7+	c #591F11",
"H7+	c #581C11",
"I7+	c #54180E",
"J7+	c #57170D",
"K7+	c #611C0D",
"L7+	c #701407",
"M7+	c #6E0900",
"N7+	c #601C0F",
"O7+	c #682012",
"P7+	c #651909",
"Q7+	c #68190A",
"R7+	c #701F0E",
"S7+	c #721C0D",
"T7+	c #72190B",
"U7+	c #76180C",
"V7+	c #761B1A",
"W7+	c #5B1B19",
"X7+	c #370200",
"Y7+	c #400602",
"Z7+	c #6B2820",
"`7+	c #76281C",
" 8+	c #681507",
".8+	c #771606",
"+8+	c #7B1507",
"@8+	c #7C1506",
"#8+	c #7E1406",
"$8+	c #811209",
"%8+	c #800905",
"&8+	c #8D120D",
"*8+	c #951911",
"=8+	c #941409",
"-8+	c #971105",
";8+	c #A61407",
">8+	c #BD1208",
",8+	c #C9140B",
"'8+	c #D2150F",
")8+	c #D61412",
"!8+	c #D61615",
"~8+	c #CD0D08",
"{8+	c #F6050C",
"]8+	c #F4040D",
"^8+	c #F3020B",
"/8+	c #EA1205",
"(8+	c #F9020D",
"_8+	c #F9000F",
":8+	c #F70011",
"<8+	c #F50214",
"[8+	c #EE0717",
"}8+	c #E40812",
"|8+	c #D40A08",
"18+	c #E01413",
"28+	c #DB1719",
"38+	c #CC1519",
"48+	c #BE1B1E",
"58+	c #B1292B",
"68+	c #851F1D",
"78+	c #470400",
"88+	c #37150C",
"98+	c #1A1006",
"08+	c #171D11",
"a8+	c #1E2A1E",
"b8+	c #232A22",
"c8+	c #3B3A36",
"d8+	c #170408",
"e8+	c #140006",
"f8+	c #100003",
"g8+	c #3B0E11",
"h8+	c #4D1218",
"i8+	c #6F2931",
"j8+	c #641D23",
"k8+	c #4A080A",
"l8+	c #470B0B",
"m8+	c #3E0B07",
"n8+	c #3C130F",
"o8+	c #290D0C",
"p8+	c #1F090B",
"q8+	c #22090C",
"r8+	c #2A1013",
"s8+	c #2E181A",
"t8+	c #382A29",
"u8+	c #221816",
"v8+	c #201614",
"w8+	c #171111",
"x8+	c #251A1E",
"y8+	c #291E22",
"z8+	c #231A1D",
"A8+	c #0F090B",
"B8+	c #060606",
"C8+	c #BD200D",
"D8+	c #B92410",
"E8+	c #B3220F",
"F8+	c #B22312",
"G8+	c #B92A1C",
"H8+	c #A7170C",
"I8+	c #A5150C",
"J8+	c #810500",
"K8+	c #7E0C02",
"L8+	c #7C170B",
"M8+	c #671B0D",
"N8+	c #5E1A07",
"O8+	c #5C1302",
"P8+	c #6B1C0D",
"Q8+	c #771A13",
"R8+	c #641A0F",
"S8+	c #5B1C0D",
"T8+	c #5B1B11",
"U8+	c #5D190E",
"V8+	c #611B0F",
"W8+	c #641A0D",
"X8+	c #70130B",
"Y8+	c #641C0E",
"Z8+	c #692113",
"`8+	c #6B2114",
" 9+	c #741708",
".9+	c #7A180B",
"+9+	c #7E1C0F",
"@9+	c #811C12",
"#9+	c #561C1A",
"$9+	c #3E0704",
"%9+	c #702F29",
"&9+	c #80281E",
"*9+	c #741406",
"=9+	c #751404",
"-9+	c #7B1506",
";9+	c #7F1507",
">9+	c #801407",
",9+	c #821407",
"'9+	c #841208",
")9+	c #830906",
"!9+	c #8C120D",
"~9+	c #941911",
"{9+	c #AB0D02",
"]9+	c #BF140C",
"^9+	c #C6130C",
"/9+	c #CB120D",
"(9+	c #CD120D",
"_9+	c #CF1611",
":9+	c #D01915",
"<9+	c #D6150E",
"[9+	c #F4020E",
"}9+	c #EF020C",
"|9+	c #EC070E",
"19+	c #EB090D",
"29+	c #F00C03",
"39+	c #E60C00",
"49+	c #FF060E",
"59+	c #FF0210",
"69+	c #FE0211",
"79+	c #FB0313",
"89+	c #F1010E",
"99+	c #EB050F",
"09+	c #DE0C0B",
"a9+	c #D70800",
"b9+	c #D60A03",
"c9+	c #D30706",
"d9+	c #D10D0F",
"e9+	c #CB1315",
"f9+	c #BE1518",
"g9+	c #B12121",
"h9+	c #A63030",
"i9+	c #77221F",
"j9+	c #350000",
"k9+	c #1A1108",
"l9+	c #24271E",
"m9+	c #1C261D",
"n9+	c #41423D",
"o9+	c #0F0001",
"p9+	c #2D1E19",
"q9+	c #3B0D0D",
"r9+	c #4F1315",
"s9+	c #6A2329",
"t9+	c #5A0F14",
"u9+	c #470004",
"v9+	c #431613",
"w9+	c #321213",
"x9+	c #130505",
"y9+	c #231111",
"z9+	c #3B2D2C",
"A9+	c #302624",
"B9+	c #0E0405",
"C9+	c #14080A",
"D9+	c #291D1F",
"E9+	c #130A0D",
"F9+	c #030502",
"G9+	c #C51E0B",
"H9+	c #B61906",
"I9+	c #C22D19",
"J9+	c #A61E12",
"K9+	c #880800",
"L9+	c #870E05",
"M9+	c #740800",
"N9+	c #7B1509",
"O9+	c #641506",
"P9+	c #751E14",
"Q9+	c #631B0D",
"R9+	c #5B1C0B",
"S9+	c #5C1A0C",
"T9+	c #5C1207",
"U9+	c #61120B",
"V9+	c #65150A",
"W9+	c #67150A",
"X9+	c #6D1D12",
"Y9+	c #6F2013",
"Z9+	c #781C0D",
"`9+	c #841A0C",
" 0+	c #82180B",
".0+	c #771A15",
"+0+	c #6A1F1A",
"@0+	c #3F120D",
"#0+	c #2A0200",
"$0+	c #400906",
"%0+	c #851E17",
"&0+	c #8B1C13",
"*0+	c #801005",
"=0+	c #7D0E03",
"-0+	c #7D1508",
";0+	c #7E1609",
">0+	c #821206",
",0+	c #841003",
"'0+	c #850F03",
")0+	c #971108",
"!0+	c #A2150C",
"~0+	c #AA150E",
"{0+	c #B1140D",
"]0+	c #C31C14",
"^0+	c #CF271E",
"/0+	c #C82015",
"(0+	c #C31D11",
"_0+	c #B91307",
":0+	c #CF130A",
"<0+	c #EE0E0C",
"[0+	c #FF0310",
"}0+	c #FC0615",
"|0+	c #EE0812",
"10+	c #E0070F",
"20+	c #D50D0F",
"30+	c #D51314",
"40+	c #E40C11",
"50+	c #ED080F",
"60+	c #F5040D",
"70+	c #F9020A",
"80+	c #F70706",
"90+	c #F50204",
"00+	c #EA0605",
"a0+	c #CE0306",
"b0+	c #BA0000",
"c0+	c #B3090A",
"d0+	c #A41213",
"e0+	c #9D2725",
"f0+	c #7C231F",
"g0+	c #3C130D",
"h0+	c #2C2E29",
"i0+	c #434540",
"j0+	c #3B3D38",
"k0+	c #2E191E",
"l0+	c #341D23",
"m0+	c #423434",
"n0+	c #544C49",
"o0+	c #4E4B44",
"p0+	c #41140F",
"q0+	c #5B1F1E",
"r0+	c #722A2D",
"s0+	c #63171B",
"t0+	c #55090D",
"u0+	c #530B0C",
"v0+	c #450503",
"w0+	c #3D0705",
"x0+	c #220205",
"y0+	c #413634",
"z0+	c #3F3432",
"A0+	c #261C1B",
"B0+	c #120306",
"C0+	c #000600",
"D0+	c #000800",
"E0+	c #000700",
"F0+	c #361A19",
"G0+	c #0A0408",
"H0+	c #CF2412",
"I0+	c #BF2815",
"J0+	c #A01705",
"K0+	c #971201",
"L0+	c #9E1A0D",
"M0+	c #9E1C0F",
"N0+	c #8C0D04",
"O0+	c #8A0F07",
"P0+	c #871008",
"Q0+	c #760600",
"R0+	c #6A1709",
"S0+	c #761E14",
"T0+	c #7F221A",
"U0+	c #5C1A0A",
"V0+	c #5C1909",
"W0+	c #7B1B0D",
"X0+	c #7E1708",
"Y0+	c #861809",
"Z0+	c #891A09",
"`0+	c #86180B",
" a+	c #7E180C",
".a+	c #641D19",
"+a+	c #8F1C15",
"@a+	c #851308",
"#a+	c #871D10",
"$a+	c #87150A",
"%a+	c #880E03",
"&a+	c #861006",
"*a+	c #8B1209",
"=a+	c #8F1309",
"-a+	c #931008",
";a+	c #AA0F0A",
">a+	c #B91B12",
",a+	c #C5221B",
"'a+	c #CA281D",
")a+	c #C62419",
"!a+	c #BF1D10",
"~a+	c #BA1A0C",
"{a+	c #B51809",
"]a+	c #E0140D",
"^a+	c #EB110F",
"/a+	c #F9000A",
"(a+	c #F90715",
"_a+	c #EC0C16",
":a+	c #D3070A",
"<a+	c #B40502",
"[a+	c #BC0D0A",
"}a+	c #CA1011",
"|a+	c #DA0D12",
"1a+	c #F30610",
"2a+	c #FB040D",
"3a+	c #E30908",
"4a+	c #DB0608",
"5a+	c #B90002",
"6a+	c #A40001",
"7a+	c #910A07",
"8a+	c #3D0B04",
"9a+	c #221817",
"0a+	c #393532",
"aa+	c #545952",
"ba+	c #575350",
"ca+	c #715C61",
"da+	c #796066",
"ea+	c #6A5C5C",
"fa+	c #29261D",
"ga+	c #1C180C",
"ha+	c #380D06",
"ia+	c #5A201C",
"ja+	c #702A2A",
"ka+	c #5E1214",
"la+	c #530709",
"ma+	c #560C0D",
"na+	c #490504",
"oa+	c #421518",
"pa+	c #280509",
"qa+	c #1A0001",
"ra+	c #150103",
"sa+	c #070802",
"ta+	c #372C2A",
"ua+	c #1D1910",
"va+	c #271B1B",
"wa+	c #140405",
"xa+	c #000900",
"ya+	c #140100",
"za+	c #290604",
"Aa+	c #4C2927",
"Ba+	c #5B3937",
"Ca+	c #B72110",
"Da+	c #AA2111",
"Ea+	c #A11B0F",
"Fa+	c #A21E12",
"Ga+	c #651305",
"Ha+	c #701D15",
"Ia+	c #6D1D14",
"Ja+	c #7C1C0E",
"Ka+	c #7F1809",
"La+	c #87190A",
"Ma+	c #8A1A0C",
"Na+	c #7B1D15",
"Oa+	c #4D100B",
"Pa+	c #7B2822",
"Qa+	c #8B241D",
"Ra+	c #911A12",
"Sa+	c #8B0B02",
"Ta+	c #880D05",
"Ua+	c #881208",
"Va+	c #871B0F",
"Wa+	c #891A0F",
"Xa+	c #870E03",
"Ya+	c #850B00",
"Za+	c #8A1108",
"`a+	c #91150B",
" b+	c #941109",
".b+	c #920901",
"+b+	c #B1140F",
"@b+	c #C9241E",
"#b+	c #CA231A",
"$b+	c #C31B12",
"%b+	c #BC1409",
"&b+	c #C90F03",
"*b+	c #ED0F0E",
"=b+	c #F7010C",
"-b+	c #F30914",
";b+	c #E20B12",
">b+	c #C60203",
",b+	c #A50000",
"'b+	c #B10501",
")b+	c #C10B0A",
"!b+	c #D40D10",
"~b+	c #E20B10",
"{b+	c #F0090F",
"]b+	c #E20809",
"^b+	c #D80A0C",
"/b+	c #CF1113",
"(b+	c #B20C0C",
"_b+	c #A31917",
":b+	c #B54C48",
"<b+	c #7C2E2A",
"[b+	c #312122",
"}b+	c #35292B",
"|b+	c #362C2D",
"1b+	c #362C2B",
"2b+	c #45403C",
"3b+	c #524847",
"4b+	c #624B51",
"5b+	c #52393F",
"6b+	c #302222",
"7b+	c #14140A",
"8b+	c #2C1408",
"9b+	c #310901",
"0b+	c #5C2522",
"ab+	c #702C2B",
"bb+	c #580E0F",
"cb+	c #4F0506",
"db+	c #460405",
"eb+	c #471A1D",
"fb+	c #2D0A0E",
"gb+	c #1F0206",
"hb+	c #291E1C",
"ib+	c #211B1B",
"jb+	c #1F1013",
"kb+	c #000901",
"lb+	c #020901",
"mb+	c #240100",
"nb+	c #5B3836",
"ob+	c #664442",
"pb+	c #462826",
"qb+	c #070206",
"rb+	c #BB1B0B",
"sb+	c #B52413",
"tb+	c #B62D1D",
"ub+	c #AE261A",
"vb+	c #A51C12",
"wb+	c #920C03",
"xb+	c #900F09",
"yb+	c #850901",
"zb+	c #851007",
"Ab+	c #6C1607",
"Bb+	c #631103",
"Cb+	c #742015",
"Db+	c #61190D",
"Eb+	c #630F04",
"Fb+	c #6A160B",
"Gb+	c #731B0F",
"Hb+	c #82180A",
"Ib+	c #8C1B0D",
"Jb+	c #851E15",
"Kb+	c #5A1311",
"Lb+	c #320200",
"Mb+	c #310100",
"Nb+	c #581713",
"Ob+	c #842C28",
"Pb+	c #931610",
"Qb+	c #8F0A01",
"Rb+	c #901007",
"Sb+	c #851309",
"Tb+	c #831409",
"Ub+	c #85150A",
"Vb+	c #871209",
"Wb+	c #891007",
"Xb+	c #840B02",
"Yb+	c #B81913",
"Zb+	c #C1130A",
"`b+	c #BD0D00",
" c+	c #DD0D09",
".c+	c #FB0B14",
"+c+	c #EC0B11",
"@c+	c #D70609",
"#c+	c #BE0100",
"$c+	c #A60200",
"%c+	c #AB0400",
"&c+	c #B30400",
"*c+	c #D00E0E",
"=c+	c #DF0D10",
"-c+	c #F30A0D",
";c+	c #B32825",
">c+	c #B94D4A",
",c+	c #7B2C28",
"'c+	c #47110F",
")c+	c #361D20",
"!c+	c #342427",
"~c+	c #3B2C31",
"{c+	c #3D2E33",
"]c+	c #322326",
"^c+	c #251717",
"/c+	c #381F23",
"(c+	c #2B1518",
"_c+	c #1C1C12",
":c+	c #161407",
"<c+	c #351F14",
"[c+	c #5E2B27",
"}c+	c #733331",
"|c+	c #571111",
"1c+	c #410101",
"2c+	c #481011",
"3c+	c #46191C",
"4c+	c #322826",
"5c+	c #1C1616",
"6c+	c #2C1D20",
"7c+	c #251619",
"8c+	c #1A0E10",
"9c+	c #040903",
"0c+	c #000A02",
"ac+	c #000A01",
"bc+	c #050A03",
"cc+	c #4C2A29",
"dc+	c #220D0C",
"ec+	c #B72818",
"fc+	c #B72E1E",
"gc+	c #B42F20",
"hc+	c #B22A1E",
"ic+	c #9F160C",
"jc+	c #99120E",
"kc+	c #840902",
"lc+	c #761608",
"mc+	c #731708",
"nc+	c #6F190A",
"oc+	c #691807",
"pc+	c #621505",
"qc+	c #6A1B0C",
"rc+	c #621004",
"sc+	c #6D1F13",
"tc+	c #7F1E0E",
"uc+	c #85190C",
"vc+	c #8D1C0E",
"wc+	c #8E1C11",
"xc+	c #8B1C11",
"yc+	c #882319",
"zc+	c #360300",
"Ac+	c #380200",
"Bc+	c #8A2D28",
"Cc+	c #951F1B",
"Dc+	c #97130E",
"Ec+	c #9E140A",
"Fc+	c #9C0F06",
"Gc+	c #9D180F",
"Hc+	c #93140B",
"Ic+	c #871107",
"Jc+	c #821006",
"Kc+	c #8F140C",
"Lc+	c #8D140C",
"Mc+	c #9A0700",
"Nc+	c #B81611",
"Oc+	c #C71A14",
"Pc+	c #C30B01",
"Qc+	c #F40E11",
"Rc+	c #E60E11",
"Sc+	c #D30C09",
"Tc+	c #C00702",
"Uc+	c #AC0400",
"Vc+	c #A30100",
"Wc+	c #CF1210",
"Xc+	c #DB0F0E",
"Yc+	c #E80E0F",
"Zc+	c #EC0C02",
"`c+	c #ED1312",
" d+	c #CA1D19",
".d+	c #BE2D2A",
"+d+	c #A93937",
"@d+	c #6A1918",
"#d+	c #4A1213",
"$d+	c #3D191D",
"%d+	c #2B1218",
"&d+	c #25141C",
"*d+	c #2D1E25",
"=d+	c #392830",
"-d+	c #3A272B",
";d+	c #321E20",
">d+	c #2F191B",
",d+	c #3B2226",
"'d+	c #311B1E",
")d+	c #302923",
"!d+	c #19170A",
"~d+	c #723836",
"{d+	c #5B1B1B",
"]d+	c #490708",
"^d+	c #460606",
"/d+	c #461010",
"(d+	c #2A070B",
"_d+	c #1F0204",
":d+	c #1A0F13",
"<d+	c #25191D",
"[d+	c #2B1C1F",
"}d+	c #080A05",
"|d+	c #19090A",
"1d+	c #210301",
"2d+	c #B72B1C",
"3d+	c #B02B1C",
"4d+	c #9B1C0D",
"5d+	c #BB392B",
"6d+	c #AC281C",
"7d+	c #961007",
"8d+	c #980F07",
"9d+	c #A11812",
"0d+	c #840800",
"ad+	c #791808",
"bd+	c #781B0A",
"cd+	c #761F0E",
"dd+	c #661B08",
"ed+	c #6C1E11",
"fd+	c #6B1C0F",
"gd+	c #62150B",
"hd+	c #67180B",
"id+	c #811D0E",
"jd+	c #822722",
"kd+	c #390000",
"ld+	c #971C17",
"md+	c #9A150C",
"nd+	c #880F07",
"od+	c #8E120A",
"pd+	c #91150D",
"qd+	c #930801",
"rd+	c #A10E07",
"sd+	c #B01510",
"td+	c #BD1A13",
"ud+	c #C1160F",
"vd+	c #CA0E05",
"wd+	c #D30E06",
"xd+	c #E50F0F",
"yd+	c #DD1611",
"zd+	c #C91109",
"Ad+	c #AD0200",
"Bd+	c #D31612",
"Cd+	c #F31311",
"Dd+	c #C52B29",
"Ed+	c #A42C2B",
"Fd+	c #680E10",
"Gd+	c #4C0E13",
"Hd+	c #391016",
"Id+	c #270E14",
"Jd+	c #1B0A12",
"Kd+	c #1C0C16",
"Ld+	c #28171F",
"Md+	c #341F24",
"Nd+	c #362023",
"Od+	c #371D1E",
"Pd+	c #1B180F",
"Qd+	c #252116",
"Rd+	c #49201A",
"Sd+	c #6C3936",
"Td+	c #622826",
"Ud+	c #490D0C",
"Vd+	c #430706",
"Wd+	c #260405",
"Xd+	c #1E0201",
"Yd+	c #150A0E",
"Zd+	c #1E0F12",
"`d+	c #2B0707",
" e+	c #A02214",
".e+	c #941C0C",
"+e+	c #951D0D",
"@e+	c #C74D40",
"#e+	c #A6281C",
"$e+	c #96110A",
"%e+	c #A11A14",
"&e+	c #A7221B",
"*e+	c #801205",
"=e+	c #7C1608",
"-e+	c #7A1D0C",
";e+	c #792211",
">e+	c #71230F",
",e+	c #6A1F0C",
"'e+	c #661F0B",
")e+	c #68210F",
"!e+	c #6B2213",
"~e+	c #6B1F11",
"{e+	c #5F170B",
"]e+	c #67190C",
"^e+	c #721C0F",
"/e+	c #821C0E",
"(e+	c #851509",
"_e+	c #891A11",
":e+	c #87241E",
"<e+	c #651516",
"[e+	c #8C231F",
"}e+	c #9A1914",
"|e+	c #A2110C",
"1e+	c #B0170F",
"2e+	c #B1170F",
"3e+	c #AD1A12",
"4e+	c #910E06",
"5e+	c #880C04",
"6e+	c #8B0A04",
"7e+	c #890A04",
"8e+	c #9B0E07",
"9e+	c #B61914",
"0e+	c #C11C16",
"ae+	c #C20C08",
"be+	c #F40A0D",
"ce+	c #E60405",
"de+	c #E21814",
"ee+	c #BA0800",
"fe+	c #B10300",
"ge+	c #C30C04",
"he+	c #F00B08",
"ie+	c #F2050B",
"je+	c #C21D1B",
"ke+	c #B42F30",
"le+	c #751014",
"me+	c #470006",
"ne+	c #31020A",
"oe+	c #2F1119",
"pe+	c #220E17",
"qe+	c #1B0C13",
"re+	c #1D0E15",
"se+	c #251216",
"te+	c #281415",
"ue+	c #2B1718",
"ve+	c #161207",
"we+	c #653833",
"xe+	c #683532",
"ye+	c #491110",
"ze+	c #3F0E0A",
"Ae+	c #360C0D",
"Be+	c #240203",
"Ce+	c #0A0509",
"De+	c #11060A",
"Ee+	c #16070A",
"Fe+	c #160609",
"Ge+	c #110102",
"He+	c #220203",
"Ie+	c #3A1616",
"Je+	c #361715",
"Ke+	c #89190B",
"Le+	c #801505",
"Me+	c #831808",
"Ne+	c #8D1F10",
"Oe+	c #CB5A4C",
"Pe+	c #9F291D",
"Qe+	c #860C01",
"Re+	c #911209",
"Se+	c #830A01",
"Te+	c #7D0F02",
"Ue+	c #791304",
"Ve+	c #791C0B",
"We+	c #7A2310",
"Xe+	c #68200A",
"Ye+	c #651E0A",
"Ze+	c #67200C",
"`e+	c #6D2113",
" f+	c #691A13",
".f+	c #651B0E",
"+f+	c #681A0D",
"@f+	c #6D1B0F",
"#f+	c #851B0E",
"$f+	c #831307",
"%f+	c #8B160C",
"&f+	c #87180F",
"*f+	c #84231D",
"=f+	c #3B0000",
"-f+	c #8E211E",
";f+	c #9B1611",
">f+	c #A30E08",
",f+	c #B1120C",
"'f+	c #B3120A",
")f+	c #B51C14",
"!f+	c #9D140C",
"~f+	c #911108",
"{f+	c #8F0E08",
"]f+	c #8A0500",
"^f+	c #8C0803",
"/f+	c #97100A",
"(f+	c #A60F08",
"_f+	c #BD1610",
":f+	c #BC0E07",
"<f+	c #C30A05",
"[f+	c #CE0D06",
"}f+	c #D4130E",
"|f+	c #E61916",
"1f+	c #E70507",
"2f+	c #F0070B",
"3f+	c #ED0908",
"4f+	c #F7120F",
"5f+	c #F3120E",
"6f+	c #DE130F",
"7f+	c #CD1B1B",
"8f+	c #D64445",
"9f+	c #962328",
"0f+	c #530107",
"af+	c #3E050C",
"bf+	c #370F18",
"cf+	c #2C121B",
"df+	c #231218",
"ef+	c #201114",
"ff+	c #2C281F",
"gf+	c #5F3833",
"hf+	c #6B3E39",
"if+	c #461511",
"jf+	c #390804",
"kf+	c #350B0C",
"lf+	c #250101",
"mf+	c #1E0200",
"nf+	c #0D0709",
"of+	c #1A0608",
"pf+	c #170103",
"qf+	c #2E2020",
"rf+	c #1F1315",
"sf+	c #492525",
"tf+	c #573534",
"uf+	c #3C1D1B",
"vf+	c #7F1E0D",
"wf+	c #791A08",
"xf+	c #7F200E",
"yf+	c #9C3B2A",
"zf+	c #B85243",
"Af+	c #942418",
"Bf+	c #962117",
"Cf+	c #931D13",
"Df+	c #921C12",
"Ef+	c #8C170D",
"Ff+	c #7E2110",
"Gf+	c #78230F",
"Hf+	c #6F220E",
"If+	c #69210B",
"Jf+	c #68210D",
"Kf+	c #69220E",
"Lf+	c #691D0F",
"Mf+	c #6A1C0F",
"Nf+	c #6E1C0E",
"Of+	c #741A0F",
"Pf+	c #7D1B0E",
"Qf+	c #8C1A0F",
"Rf+	c #861004",
"Sf+	c #840F05",
"Tf+	c #8A1D16",
"Uf+	c #852622",
"Vf+	c #500A0C",
"Wf+	c #3D0000",
"Xf+	c #3C0201",
"Yf+	c #932321",
"Zf+	c #A01613",
"`f+	c #AF140F",
" g+	c #B9140E",
".g+	c #B00F07",
"+g+	c #B41B13",
"@g+	c #A6170F",
"#g+	c #950A03",
"$g+	c #920702",
"%g+	c #A0110B",
"&g+	c #A50C06",
"*g+	c #BA110A",
"=g+	c #C00F09",
"-g+	c #CA0F0A",
";g+	c #D30E08",
">g+	c #DE150E",
",g+	c #F1060B",
"'g+	c #EB090B",
")g+	c #F40000",
"!g+	c #E22122",
"~g+	c #DB383B",
"{g+	c #BE393E",
"]g+	c #801B21",
"^g+	c #300004",
"/g+	c #2B080E",
"(g+	c #210B0E",
"_g+	c #371C15",
":g+	c #472420",
"<g+	c #704743",
"[g+	c #60332E",
"}g+	c #370602",
"|g+	c #40100E",
"1g+	c #340807",
"2g+	c #060105",
"3g+	c #402A2C",
"4g+	c #250709",
"5g+	c #1F0103",
"6g+	c #1D0002",
"7g+	c #2F1B1C",
"8g+	c #1F0F10",
"9g+	c #543233",
"0g+	c #341616",
"ag+	c #701707",
"bg+	c #6E1807",
"cg+	c #7D2716",
"dg+	c #943B29",
"eg+	c #9E4132",
"fg+	c #8F2B1C",
"gg+	c #922A1D",
"hg+	c #92261A",
"ig+	c #8E1F14",
"jg+	c #891D11",
"kg+	c #781808",
"lg+	c #781F0D",
"mg+	c #74210F",
"ng+	c #6C2010",
"og+	c #681C0C",
"pg+	c #6A1E10",
"qg+	c #6D1E11",
"rg+	c #801B0F",
"sg+	c #901A0E",
"tg+	c #8B1207",
"ug+	c #88130A",
"vg+	c #8A1F17",
"wg+	c #7E231E",
"xg+	c #490709",
"yg+	c #3E0607",
"zg+	c #410000",
"Ag+	c #BC130C",
"Bg+	c #B30600",
"Cg+	c #B81109",
"Dg+	c #AB140B",
"Eg+	c #990C05",
"Fg+	c #9F0E09",
"Gg+	c #A10D09",
"Hg+	c #A6130C",
"Ig+	c #A70E08",
"Jg+	c #B41108",
"Kg+	c #CA1710",
"Lg+	c #DF0F0B",
"Mg+	c #FC0309",
"Ng+	c #E7110F",
"Og+	c #ED0B0D",
"Pg+	c #F2070C",
"Qg+	c #D70200",
"Rg+	c #D60100",
"Sg+	c #DA0C0E",
"Tg+	c #CB3237",
"Ug+	c #9D242B",
"Vg+	c #690A10",
"Wg+	c #3C0B0E",
"Xg+	c #28100E",
"Yg+	c #674440",
"Zg+	c #6C433F",
"`g+	c #350908",
" h+	c #300808",
".h+	c #270805",
"+h+	c #1F0602",
"@h+	c #080607",
"#h+	c #2A1818",
"$h+	c #442C2C",
"%h+	c #422426",
"&h+	c #310D0F",
"*h+	c #290004",
"=h+	c #1F0002",
"-h+	c #221010",
";h+	c #1B0B0C",
">h+	c #2D1110",
",h+	c #432120",
"'h+	c #422223",
")h+	c #600D00",
"!h+	c #611201",
"~h+	c #782918",
"{h+	c #7C2617",
"]h+	c #872B1C",
"^h+	c #88281A",
"/h+	c #771709",
"(h+	c #721504",
"_h+	c #6D1102",
":h+	c #6B0E00",
"<h+	c #6F1304",
"[h+	c #701A09",
"}h+	c #6F1E0B",
"|h+	c #6A1F0A",
"1h+	c #671E0B",
"2h+	c #681F0C",
"3h+	c #6D2010",
"4h+	c #68190C",
"5h+	c #671A0A",
"6h+	c #7F170A",
"7h+	c #941B10",
"8h+	c #8F160B",
"9h+	c #8D180F",
"0h+	c #89201A",
"ah+	c #771F1B",
"bh+	c #3F0406",
"ch+	c #330003",
"dh+	c #390605",
"eh+	c #A3332F",
"fh+	c #C91C15",
"gh+	c #BB140C",
"hh+	c #AC0F06",
"ih+	c #A60D05",
"jh+	c #A51009",
"kh+	c #AF1611",
"lh+	c #A50C07",
"mh+	c #AB100C",
"nh+	c #B0130C",
"oh+	c #AC0F08",
"ph+	c #B51108",
"qh+	c #D11E17",
"rh+	c #DB1E18",
"sh+	c #E41410",
"th+	c #F60108",
"uh+	c #F70008",
"vh+	c #FC030B",
"wh+	c #FB040C",
"xh+	c #E30907",
"yh+	c #FF0B0A",
"zh+	c #D90001",
"Ah+	c #D2090F",
"Bh+	c #D2232A",
"Ch+	c #B62329",
"Dh+	c #8B1217",
"Eh+	c #520000",
"Fh+	c #440000",
"Gh+	c #380502",
"Hh+	c #52332E",
"Ih+	c #613C36",
"Jh+	c #3D0D09",
"Kh+	c #300000",
"Lh+	c #350707",
"Mh+	c #2A0705",
"Nh+	c #532F2F",
"Oh+	c #532629",
"Ph+	c #441317",
"Qh+	c #2F060A",
"Rh+	c #2F1113",
"Sh+	c #230D0F",
"Th+	c #1E0908",
"Uh+	c #600E00",
"Vh+	c #601303",
"Wh+	c #742717",
"Xh+	c #7B2516",
"Yh+	c #74180B",
"Zh+	c #6E1205",
"`h+	c #661001",
" i+	c #631000",
".i+	c #610E00",
"+i+	c #671102",
"@i+	c #681704",
"#i+	c #661907",
"$i+	c #651A07",
"%i+	c #631A07",
"&i+	c #6A1D0B",
"*i+	c #732113",
"=i+	c #6C1D0C",
"-i+	c #65190C",
";i+	c #6A1B0E",
">i+	c #91180D",
",i+	c #87201B",
"'i+	c #4F0B0C",
")i+	c #360204",
"!i+	c #300205",
"~i+	c #330505",
"{i+	c #9E2E2C",
"]i+	c #BD1C14",
"^i+	c #C71910",
"/i+	c #CF1A11",
"(i+	c #AE0A01",
"_i+	c #AE1007",
":i+	c #AF150D",
"<i+	c #B5120B",
"[i+	c #B30F06",
"}i+	c #B40D04",
"|i+	c #B60B01",
"1i+	c #D61B14",
"2i+	c #E1110F",
"3i+	c #FB060D",
"4i+	c #FA050C",
"5i+	c #EA110C",
"6i+	c #E0050D",
"7i+	c #DC151C",
"8i+	c #C81920",
"9i+	c #590000",
"0i+	c #370000",
"ai+	c #341208",
"bi+	c #2F1715",
"ci+	c #3C201C",
"di+	c #421F1B",
"ei+	c #2F0602",
"fi+	c #370703",
"gi+	c #3A0905",
"hi+	c #310504",
"ii+	c #512728",
"ji+	c #693738",
"ki+	c #6A3235",
"li+	c #591E24",
"mi+	c #4C1319",
"ni+	c #501F23",
"oi+	c #1D0505",
"pi+	c #3C1F21",
"qi+	c #331112",
"ri+	c #240405",
"si+	c #1E0405",
"ti+	c #712215",
"ui+	c #722314",
"vi+	c #610F01",
"wi+	c #5A1100",
"xi+	c #611203",
"yi+	c #621304",
"zi+	c #621503",
"Ai+	c #601404",
"Bi+	c #5D1403",
"Ci+	c #6B1C0B",
"Di+	c #762011",
"Ei+	c #771E10",
"Fi+	c #731C0B",
"Gi+	c #6C1E0A",
"Hi+	c #6E1F10",
"Ii+	c #711F13",
"Ji+	c #7A1E13",
"Ki+	c #811C10",
"Li+	c #911C12",
"Mi+	c #91170A",
"Ni+	c #8E1D15",
"Oi+	c #851F1A",
"Pi+	c #470708",
"Qi+	c #320104",
"Ri+	c #2E0509",
"Si+	c #380001",
"Ti+	c #5A0A09",
"Ui+	c #8C201D",
"Vi+	c #B90800",
"Wi+	c #B00800",
"Xi+	c #B9180E",
"Yi+	c #AE0903",
"Zi+	c #BE110D",
"`i+	c #B90D09",
" j+	c #B80F08",
".j+	c #BA130B",
"+j+	c #BA130A",
"@j+	c #B50D04",
"#j+	c #B10600",
"$j+	c #C70F07",
"%j+	c #D40905",
"&j+	c #DD0707",
"*j+	c #F6070D",
"=j+	c #F01211",
"-j+	c #EC1512",
";j+	c #E51410",
">j+	c #DB0E09",
",j+	c #DC0B07",
"'j+	c #E70302",
")j+	c #F3080F",
"!j+	c #CC191D",
"~j+	c #A91314",
"{j+	c #550600",
"]j+	c #340000",
"^j+	c #360700",
"/j+	c #341817",
"(j+	c #360904",
"_j+	c #451410",
":j+	c #3A0807",
"<j+	c #390909",
"[j+	c #0E0204",
"}j+	c #050600",
"|j+	c #342424",
"1j+	c #302020",
"2j+	c #622A2B",
"3j+	c #7D3C40",
"4j+	c #723034",
"5j+	c #612328",
"6j+	c #551E23",
"7j+	c #3D2022",
"8j+	c #2E0B0F",
"9j+	c #1E0001",
"0j+	c #1C0001",
"aj+	c #620E03",
"bj+	c #5D0E01",
"cj+	c #5C1002",
"dj+	c #570F00",
"ej+	c #541100",
"fj+	c #561302",
"gj+	c #5E1506",
"hj+	c #5D1604",
"ij+	c #671807",
"jj+	c #6E1B0B",
"kj+	c #75190A",
"lj+	c #721B0A",
"mj+	c #6F1C0A",
"nj+	c #6B1D07",
"oj+	c #691C0A",
"pj+	c #701E10",
"qj+	c #721E13",
"rj+	c #821C10",
"sj+	c #8A1B10",
"tj+	c #8F1508",
"uj+	c #90170C",
"vj+	c #8D1C14",
"wj+	c #801D18",
"xj+	c #621211",
"yj+	c #400404",
"zj+	c #2E0104",
"Aj+	c #2D090D",
"Bj+	c #30090C",
"Cj+	c #350103",
"Dj+	c #530505",
"Ej+	c #A51C16",
"Fj+	c #BD0800",
"Gj+	c #B60A00",
"Hj+	c #BA1209",
"Ij+	c #C01910",
"Jj+	c #B71008",
"Kj+	c #B30B02",
"Lj+	c #BF120C",
"Mj+	c #C0150D",
"Nj+	c #C0180F",
"Oj+	c #B91106",
"Pj+	c #B40900",
"Qj+	c #CA0000",
"Rj+	c #E10507",
"Sj+	c #E81411",
"Tj+	c #D80B08",
"Uj+	c #D60000",
"Vj+	c #ED0001",
"Wj+	c #FB060B",
"Xj+	c #EF0208",
"Yj+	c #E1161A",
"Zj+	c #B21C1B",
"`j+	c #9B201B",
" k+	c #86201B",
".k+	c #5A150E",
"+k+	c #450803",
"@k+	c #340100",
"#k+	c #2D0F0F",
"$k+	c #200C0B",
"%k+	c #380B06",
"&k+	c #43100F",
"*k+	c #410F0E",
"=k+	c #3A110F",
"-k+	c #290300",
";k+	c #541617",
">k+	c #793236",
",k+	c #843C40",
"'k+	c #460B0F",
")k+	c #2B0000",
"!k+	c #311416",
"~k+	c #260307",
"{k+	c #5D0F03",
"]k+	c #5C1205",
"^k+	c #571203",
"/k+	c #521302",
"(k+	c #541504",
"_k+	c #571404",
":k+	c #5B1606",
"<k+	c #5D1808",
"[k+	c #5E1909",
"}k+	c #631707",
"|k+	c #71190B",
"1k+	c #7B1E0F",
"2k+	c #761908",
"3k+	c #741B09",
"4k+	c #6C1E07",
"5k+	c #6A1D09",
"6k+	c #6B190B",
"7k+	c #7D170B",
"8k+	c #87170C",
"9k+	c #8F160D",
"0k+	c #901408",
"ak+	c #8C1B13",
"bk+	c #5E100E",
"ck+	c #3D0204",
"dk+	c #29090C",
"ek+	c #270506",
"fk+	c #4D0101",
"gk+	c #BE1D15",
"hk+	c #C7150B",
"ik+	c #D0160A",
"jk+	c #BE1208",
"kk+	c #C7100A",
"lk+	c #C30E07",
"mk+	c #C31009",
"nk+	c #C4160D",
"ok+	c #C2170D",
"pk+	c #BA0E02",
"qk+	c #B60800",
"rk+	c #C10100",
"sk+	c #C60000",
"tk+	c #CD0000",
"uk+	c #DA0003",
"vk+	c #E30208",
"wk+	c #EA0107",
"xk+	c #F50800",
"yk+	c #EB0400",
"zk+	c #EA0300",
"Ak+	c #F10D0C",
"Bk+	c #E81210",
"Ck+	c #E91716",
"Dk+	c #DA0A0A",
"Ek+	c #D70000",
"Fk+	c #E70104",
"Gk+	c #EF0003",
"Hk+	c #F90E0B",
"Ik+	c #F10208",
"Jk+	c #D40E0F",
"Kk+	c #C41818",
"Lk+	c #B32420",
"Mk+	c #A62F2B",
"Nk+	c #9F3935",
"Ok+	c #8D3835",
"Pk+	c #6D1F1D",
"Qk+	c #2A0C0C",
"Rk+	c #330B09",
"Sk+	c #401413",
"Tk+	c #110205",
"Uk+	c #020500",
"Vk+	c #230F0E",
"Wk+	c #2E0604",
"Xk+	c #4A0809",
"Yk+	c #6D2226",
"Zk+	c #87383D",
"`k+	c #722A2E",
" l+	c #400205",
".l+	c #25080A",
"+l+	c #230004",
"@l+	c #1D0001",
"#l+	c #1D0304",
"$l+	c #641206",
"%l+	c #600E03",
"&l+	c #5F1003",
"*l+	c #5B1607",
"=l+	c #551001",
"-l+	c #5A1505",
";l+	c #5F1A0A",
">l+	c #631C0A",
",l+	c #661A0A",
"'l+	c #691A09",
")l+	c #701A0B",
"!l+	c #7C2011",
"~l+	c #7B1B0B",
"{l+	c #7A1A0A",
"]l+	c #781D0A",
"^l+	c #761E0A",
"/l+	c #731E09",
"(l+	c #721C0B",
"_l+	c #701A0D",
":l+	c #92160C",
"<l+	c #801815",
"[l+	c #3C0000",
"}l+	c #230304",
"|l+	c #300204",
"1l+	c #480001",
"2l+	c #720B0C",
"3l+	c #A41E1B",
"4l+	c #BD1E1A",
"5l+	c #C4130B",
"6l+	c #CE1207",
"7l+	c #C9170B",
"8l+	c #CE110B",
"9l+	c #CC140C",
"0l+	c #CB140E",
"al+	c #C5140C",
"bl+	c #BD0C04",
"cl+	c #C10A04",
"dl+	c #C10400",
"el+	c #D30000",
"fl+	c #EA0200",
"gl+	c #E60100",
"hl+	c #E70200",
"il+	c #F00F0B",
"jl+	c #F30F0E",
"kl+	c #FC0A09",
"ll+	c #EE1212",
"ml+	c #F01A1A",
"nl+	c #E00A0C",
"ol+	c #DC0407",
"pl+	c #DD0103",
"ql+	c #E40206",
"rl+	c #ED040A",
"sl+	c #F1060D",
"tl+	c #ED0101",
"ul+	c #FF080D",
"vl+	c #FD070C",
"wl+	c #E20C0C",
"xl+	c #DC1C1B",
"yl+	c #CA2523",
"zl+	c #B52622",
"Al+	c #A62B26",
"Bl+	c #A13431",
"Cl+	c #94332D",
"Dl+	c #7E2D29",
"El+	c #4F1410",
"Fl+	c #311512",
"Gl+	c #260402",
"Hl+	c #450F0D",
"Il+	c #48100F",
"Jl+	c #431311",
"Kl+	c #030801",
"Ll+	c #382626",
"Ml+	c #2C1A1A",
"Nl+	c #2B1611",
"Ol+	c #2C1410",
"Pl+	c #280200",
"Ql+	c #61191C",
"Rl+	c #772A30",
"Sl+	c #6A2128",
"Tl+	c #45070C",
"Ul+	c #36080A",
"Vl+	c #1A0500",
"Wl+	c #190400",
"Xl+	c #5E1003",
"Yl+	c #5E1202",
"Zl+	c #5F1104",
"`l+	c #5E1705",
" m+	c #5C1503",
".m+	c #5C1501",
"+m+	c #5F1603",
"@m+	c #661B06",
"#m+	c #6B1D09",
"$m+	c #751E0D",
"%m+	c #7B1E0D",
"&m+	c #7E1D0C",
"*m+	c #801C0C",
"=m+	c #7F1B0B",
"-m+	c #801A0C",
";m+	c #862119",
">m+	c #621E13",
",m+	c #652116",
"'m+	c #801609",
")m+	c #9D1B1B",
"!m+	c #8C1517",
"~m+	c #340608",
"{m+	c #430001",
"]m+	c #68080A",
"^m+	c #9A1C1D",
"/m+	c #B01817",
"(m+	c #BA0D09",
"_m+	c #CE1004",
":m+	c #D4130A",
"<m+	c #D5160C",
"[m+	c #D21A12",
"}m+	c #CD1610",
"|m+	c #C7110D",
"1m+	c #C00D09",
"2m+	c #C10B08",
"3m+	c #C30B09",
"4m+	c #C50806",
"5m+	c #C40200",
"6m+	c #D30400",
"7m+	c #EC0201",
"8m+	c #E90401",
"9m+	c #F10D0E",
"0m+	c #E7080D",
"am+	c #E8070D",
"bm+	c #EA040E",
"cm+	c #EA030D",
"dm+	c #EC020D",
"em+	c #EF030F",
"fm+	c #F2050F",
"gm+	c #E81615",
"hm+	c #B21913",
"im+	c #9A2015",
"jm+	c #A4392F",
"km+	c #9C423A",
"lm+	c #460700",
"mm+	c #300100",
"nm+	c #280A00",
"om+	c #1B170C",
"pm+	c #181911",
"qm+	c #2C0605",
"rm+	c #350505",
"sm+	c #4C1210",
"tm+	c #4A1310",
"um+	c #310D0D",
"vm+	c #2E1C1C",
"wm+	c #0A0501",
"xm+	c #2C1005",
"ym+	c #3F1B0F",
"zm+	c #48180E",
"Am+	c #51100C",
"Bm+	c #310000",
"Cm+	c #2D0601",
"Dm+	c #39100C",
"Em+	c #340402",
"Fm+	c #67262C",
"Gm+	c #722C34",
"Hm+	c #5F1E26",
"Im+	c #41080E",
"Jm+	c #0D0500",
"Km+	c #130300",
"Lm+	c #1B0800",
"Mm+	c #681203",
"Nm+	c #641204",
"Om+	c #611404",
"Pm+	c #611603",
"Qm+	c #641906",
"Rm+	c #691E09",
"Sm+	c #6D200C",
"Tm+	c #762512",
"Um+	c #7C2311",
"Vm+	c #812111",
"Wm+	c #831F0F",
"Xm+	c #8A1F19",
"Ym+	c #611B11",
"Zm+	c #5F190F",
"`m+	c #6A1E11",
" n+	c #751D11",
".n+	c #8A1A0E",
"+n+	c #971513",
"@n+	c #971C21",
"#n+	c #660608",
"$n+	c #460200",
"%n+	c #311104",
"&n+	c #220E03",
"*n+	c #5C0305",
"=n+	c #8F181A",
"-n+	c #AA1C1B",
";n+	c #B71210",
">n+	c #D81A0E",
",n+	c #CF140F",
"'n+	c #C10708",
")n+	c #C30A08",
"!n+	c #C60A09",
"~n+	c #C80807",
"{n+	c #C60301",
"]n+	c #C60100",
"^n+	c #CA0100",
"/n+	c #F3040A",
"(n+	c #EF0303",
"_n+	c #ED0302",
":n+	c #EF1009",
"<n+	c #EE070F",
"[n+	c #EE040F",
"}n+	c #F10511",
"|n+	c #F31210",
"1n+	c #D60B07",
"2n+	c #C40806",
"3n+	c #AB120A",
"4n+	c #AA1D13",
"5n+	c #AE2F26",
"6n+	c #AA3B34",
"7n+	c #9C3D37",
"8n+	c #792A23",
"9n+	c #450A02",
"0n+	c #200E02",
"an+	c #13150A",
"bn+	c #2B1110",
"cn+	c #310B0A",
"dn+	c #420606",
"en+	c #4A0D0A",
"fn+	c #4A1819",
"gn+	c #380E10",
"hn+	c #020902",
"in+	c #030600",
"jn+	c #2D2522",
"kn+	c #39170B",
"ln+	c #4E2013",
"mn+	c #53170D",
"nn+	c #6E1817",
"on+	c #550707",
"pn+	c #571113",
"qn+	c #561616",
"rn+	c #541A18",
"sn+	c #4F1A16",
"tn+	c #440E0C",
"un+	c #531216",
"vn+	c #7C333A",
"wn+	c #6D242D",
"xn+	c #530B16",
"yn+	c #41040B",
"zn+	c #100A00",
"An+	c #2A0D00",
"Bn+	c #300800",
"Cn+	c #150506",
"Dn+	c #180308",
"En+	c #19060C",
"Fn+	c #110B0D",
"Gn+	c #0E0C0D",
"Hn+	c #650D00",
"In+	c #651202",
"Jn+	c #631403",
"Kn+	c #5F1401",
"Ln+	c #75190E",
"Mn+	c #711309",
"Nn+	c #670F01",
"On+	c #641302",
"Pn+	c #651403",
"Qn+	c #73220F",
"Rn+	c #7D2814",
"Sn+	c #7E2714",
"Tn+	c #812614",
"Un+	c #852414",
"Vn+	c #872112",
"Wn+	c #881E10",
"Xn+	c #881C0F",
"Yn+	c #882017",
"Zn+	c #711611",
"`n+	c #861A0D",
" o+	c #951812",
".o+	c #9A1818",
"+o+	c #A7262A",
"@o+	c #982427",
"#o+	c #680E0E",
"$o+	c #470803",
"%o+	c #360000",
"&o+	c #A4231E",
"*o+	c #B71E19",
"=o+	c #C41912",
"-o+	c #D31B11",
";o+	c #DC1405",
">o+	c #DC180C",
",o+	c #DB190F",
"'o+	c #D2120D",
")o+	c #C40606",
"!o+	c #C90908",
"~o+	c #CA0808",
"{o+	c #CD0706",
"]o+	c #CD0301",
"^o+	c #D20300",
"/o+	c #FB130F",
"(o+	c #F6150F",
"_o+	c #F51410",
":o+	c #F1080C",
"<o+	c #CD0603",
"[o+	c #C70B0A",
"}o+	c #BD100C",
"|o+	c #BD2522",
"1o+	c #B52A27",
"2o+	c #A22827",
"3o+	c #AE4444",
"4o+	c #A34A46",
"5o+	c #702B26",
"6o+	c #3F0E07",
"7o+	c #390D0C",
"8o+	c #4A0A08",
"9o+	c #4B0E0D",
"0o+	c #501517",
"ao+	c #4B1719",
"bo+	c #2F1D1D",
"co+	c #200605",
"do+	c #421A10",
"eo+	c #552018",
"fo+	c #59160E",
"go+	c #68100E",
"ho+	c #7E2021",
"io+	c #72171C",
"jo+	c #6F191C",
"ko+	c #6F1D1F",
"lo+	c #752526",
"mo+	c #6C1E1E",
"no+	c #560607",
"oo+	c #5D080B",
"po+	c #7D2227",
"qo+	c #8C2D35",
"ro+	c #70131D",
"so+	c #530005",
"to+	c #4A0008",
"uo+	c #42090F",
"vo+	c #2C0405",
"wo+	c #571717",
"xo+	c #762428",
"yo+	c #7A1D25",
"zo+	c #650F18",
"Ao+	c #3D0005",
"Bo+	c #220207",
"Co+	c #1E0308",
"Do+	c #1E030A",
"Eo+	c #1A070B",
"Fo+	c #631201",
"Go+	c #621302",
"Ho+	c #601502",
"Io+	c #741209",
"Jo+	c #6B0D01",
"Ko+	c #711B0A",
"Lo+	c #7E2311",
"Mo+	c #7F2211",
"No+	c #822111",
"Oo+	c #871D0F",
"Po+	c #7F1D14",
"Qo+	c #730B08",
"Ro+	c #8B1D10",
"So+	c #931C14",
"To+	c #991813",
"Uo+	c #A32729",
"Vo+	c #932629",
"Wo+	c #61100D",
"Xo+	c #420902",
"Yo+	c #33150A",
"Zo+	c #2A160B",
"`o+	c #320000",
" p+	c #6E150F",
".p+	c #9D2A23",
"+p+	c #B62B24",
"@p+	c #C12018",
"#p+	c #CE1C12",
"$p+	c #D5150A",
"%p+	c #E0180B",
"&p+	c #CA0705",
"*p+	c #CB0504",
"=p+	c #CE0807",
"-p+	c #D10707",
";p+	c #D20605",
">p+	c #D40402",
",p+	c #F6110E",
"'p+	c #F91512",
")p+	c #F2130E",
"!p+	c #FA1C17",
"~p+	c #F41915",
"{p+	c #F00005",
"]p+	c #F40A0B",
"^p+	c #E20701",
"/p+	c #CC0100",
"(p+	c #D20C0B",
"_p+	c #CC1A1A",
":p+	c #CB2122",
"<p+	c #C92629",
"[p+	c #B51F21",
"}p+	c #A01D22",
"|p+	c #A23133",
"1p+	c #A74546",
"2p+	c #964645",
"3p+	c #682C2B",
"4p+	c #2E1614",
"5p+	c #541213",
"6p+	c #5A1A1A",
"7p+	c #531719",
"8p+	c #460F12",
"9p+	c #341012",
"0p+	c #170001",
"ap+	c #270E11",
"bp+	c #301A1C",
"cp+	c #2D191A",
"dp+	c #1E1E16",
"ep+	c #220406",
"fp+	c #2A0306",
"gp+	c #300608",
"hp+	c #521912",
"ip+	c #811A1E",
"jp+	c #821D23",
"kp+	c #731013",
"lp+	c #790F11",
"mp+	c #A02D32",
"np+	c #962129",
"op+	c #881922",
"pp+	c #6E0911",
"qp+	c #58020B",
"rp+	c #46050B",
"sp+	c #320508",
"tp+	c #3B0709",
"up+	c #741A24",
"vp+	c #9D2D3D",
"wp+	c #A4293D",
"xp+	c #901C2F",
"yp+	c #590310",
"zp+	c #40030B",
"Ap+	c #2C010A",
"Bp+	c #230209",
"Cp+	c #210409",
"Dp+	c #641101",
"Ep+	c #611402",
"Fp+	c #711307",
"Gp+	c #720D01",
"Hp+	c #701304",
"Ip+	c #721705",
"Jp+	c #751A08",
"Kp+	c #7B1C0A",
"Lp+	c #7E1A0A",
"Mp+	c #7F190A",
"Np+	c #83170A",
"Op+	c #81170A",
"Pp+	c #75190C",
"Qp+	c #6E1507",
"Rp+	c #730C05",
"Sp+	c #7E0A0A",
"Tp+	c #820A0C",
"Up+	c #830D0D",
"Vp+	c #781F0F",
"Wp+	c #801F0F",
"Xp+	c #9B1E18",
"Yp+	c #991717",
"Zp+	c #9E2729",
"`p+	c #8C2828",
" q+	c #5A110B",
".q+	c #390801",
"+q+	c #280F0B",
"@q+	c #AD3328",
"#q+	c #BB271D",
"$q+	c #C91D13",
"%q+	c #DE0E01",
"&q+	c #E41609",
"*q+	c #D90D06",
"=q+	c #D20404",
"-q+	c #D50707",
";q+	c #E10300",
">q+	c #E50400",
",q+	c #F60A0A",
"'q+	c #E20202",
")q+	c #F41A18",
"!q+	c #EE1915",
"~q+	c #F01C19",
"{q+	c #F62521",
"]q+	c #EE1E1A",
"^q+	c #E50200",
"/q+	c #DF130C",
"(q+	c #D80D07",
"_q+	c #D10A07",
":q+	c #DE2022",
"<q+	c #CD1C22",
"[q+	c #C81A23",
"}q+	c #AF0F17",
"|q+	c #A51C23",
"1q+	c #961F25",
"2q+	c #993035",
"3q+	c #9F464A",
"4q+	c #864042",
"5q+	c #572121",
"6q+	c #270A0C",
"7q+	c #3B0E08",
"8q+	c #631F20",
"9q+	c #702E2F",
"0q+	c #5A1C1F",
"aq+	c #41060A",
"bq+	c #400E11",
"cq+	c #230608",
"dq+	c #2A050C",
"eq+	c #2C0108",
"fq+	c #2A0107",
"gq+	c #2B0409",
"hq+	c #2C0C0F",
"iq+	c #1A1B13",
"jq+	c #210104",
"kq+	c #280003",
"lq+	c #310407",
"mq+	c #330507",
"nq+	c #360906",
"oq+	c #3D0A07",
"pq+	c #50100E",
"qq+	c #6B1B1C",
"rq+	c #811C22",
"sq+	c #85161D",
"tq+	c #8B1E23",
"uq+	c #7B0D10",
"vq+	c #710001",
"wq+	c #A82324",
"xq+	c #AE2326",
"yq+	c #BB2F32",
"zq+	c #AD2227",
"Aq+	c #AC2B30",
"Bq+	c #8F1E24",
"Cq+	c #64080D",
"Dq+	c #4D080D",
"Eq+	c #431518",
"Fq+	c #200001",
"Gq+	c #410008",
"Hq+	c #7A1122",
"Iq+	c #A5233B",
"Jq+	c #B22641",
"Kq+	c #A1213A",
"Lq+	c #640618",
"Mq+	c #460410",
"Nq+	c #2D0007",
"Oq+	c #1E0407",
"Pq+	c #601301",
"Qq+	c #651605",
"Rq+	c #671404",
"Sq+	c #790D03",
"Tq+	c #740E02",
"Uq+	c #730F00",
"Vq+	c #721101",
"Wq+	c #731303",
"Xq+	c #741706",
"Yq+	c #731605",
"Zq+	c #761705",
"`q+	c #781706",
" r+	c #7A1606",
".r+	c #731A0C",
"+r+	c #9C171A",
"@r+	c #9A1317",
"#r+	c #940C10",
"$r+	c #850408",
"%r+	c #772112",
"&r+	c #78210E",
"*r+	c #812010",
"=r+	c #9E1D17",
"-r+	c #9C2A2A",
";r+	c #882D2A",
">r+	c #56150F",
",r+	c #370B02",
"'r+	c #2D0A04",
")r+	c #320700",
"!r+	c #9C3225",
"~r+	c #DA1D17",
"{r+	c #E51606",
"]r+	c #E81B0A",
"^r+	c #DE0B04",
"/r+	c #DF0806",
"(r+	c #EA0502",
"_r+	c #F30D0F",
":r+	c #E20A0B",
"<r+	c #DE0A09",
"[r+	c #E71D1B",
"}r+	c #E82521",
"|r+	c #E72523",
"1r+	c #E72A26",
"2r+	c #EA2E2C",
"3r+	c #DF2621",
"4r+	c #D01712",
"5r+	c #E60600",
"6r+	c #E40400",
"7r+	c #E20500",
"8r+	c #E40300",
"9r+	c #DC110B",
"0r+	c #DA1415",
"ar+	c #D1171C",
"br+	c #CC1821",
"cr+	c #C4141E",
"dr+	c #AF0D18",
"er+	c #970E16",
"fr+	c #8E161F",
"gr+	c #91262C",
"hr+	c #9A3E43",
"ir+	c #984D51",
"jr+	c #7E4244",
"kr+	c #4D1F21",
"lr+	c #280102",
"mr+	c #371813",
"nr+	c #6A2426",
"or+	c #803B3E",
"pr+	c #69282C",
"qr+	c #45090B",
"rr+	c #420E12",
"sr+	c #41141B",
"tr+	c #45101A",
"ur+	c #400E17",
"vr+	c #3A0D14",
"wr+	c #320E12",
"xr+	c #2C1A18",
"yr+	c #230308",
"zr+	c #2A0006",
"Ar+	c #320309",
"Br+	c #360509",
"Cr+	c #3B0B0B",
"Dr+	c #4E0C0D",
"Er+	c #902831",
"Fr+	c #911D26",
"Gr+	c #850E10",
"Hr+	c #AD1B1B",
"Ir+	c #BE2424",
"Jr+	c #BE1E1E",
"Kr+	c #BD1D1D",
"Lr+	c #B61C1E",
"Mr+	c #B32728",
"Nr+	c #90191B",
"Or+	c #630506",
"Pr+	c #510F11",
"Qr+	c #4D2325",
"Rr+	c #12070B",
"Sr+	c #19060A",
"Tr+	c #240107",
"Ur+	c #3E0109",
"Vr+	c #6B081A",
"Wr+	c #92182F",
"Xr+	c #9F1D35",
"Yr+	c #921E33",
"Zr+	c #590715",
"`r+	c #3A020B",
" s+	c #230003",
".s+	c #1B0104",
"+s+	c #1C0306",
"@s+	c #161209",
"#s+	c #601300",
"$s+	c #611400",
"%s+	c #621501",
"&s+	c #691805",
"*s+	c #6A1403",
"=s+	c #6B1202",
"-s+	c #711103",
";s+	c #7C0D02",
">s+	c #7B0B00",
",s+	c #7C0C01",
"'s+	c #7C0E01",
")s+	c #790F02",
"!s+	c #750F00",
"~s+	c #751101",
"{s+	c #741503",
"]s+	c #741705",
"^s+	c #731604",
"/s+	c #731805",
"(s+	c #771605",
"_s+	c #781404",
":s+	c #761505",
"<s+	c #711405",
"[s+	c #721909",
"}s+	c #6F1807",
"|s+	c #800B04",
"1s+	c #931312",
"2s+	c #B52429",
"3s+	c #B11E24",
"4s+	c #A81118",
"5s+	c #9B040B",
"6s+	c #8F0004",
"7s+	c #79220F",
"8s+	c #821E0E",
"9s+	c #A11312",
"0s+	c #9C1617",
"as+	c #9D2D2C",
"bs+	c #8C3430",
"cs+	c #561B13",
"ds+	c #32160B",
"es+	c #2E0C02",
"fs+	c #330500",
"gs+	c #892D20",
"hs+	c #A82C22",
"is+	c #C0211B",
"js+	c #D91E19",
"ks+	c #E91814",
"ls+	c #E50C03",
"ms+	c #E10803",
"ns+	c #E70A11",
"os+	c #E30C11",
"ps+	c #DB1013",
"qs+	c #D61415",
"rs+	c #D21615",
"ss+	c #D21E1D",
"ts+	c #D12521",
"us+	c #CE2925",
"vs+	c #CA2D28",
"ws+	c #C52C27",
"xs+	c #BA231C",
"ys+	c #AF1811",
"zs+	c #AC120A",
"As+	c #B0110B",
"Bs+	c #BA130D",
"Cs+	c #C31411",
"Ds+	c #CF1614",
"Es+	c #D81415",
"Fs+	c #E20D0F",
"Gs+	c #E60A0A",
"Hs+	c #D60C0C",
"Is+	c #CF0B0F",
"Js+	c #D2181D",
"Ks+	c #CC1B21",
"Ls+	c #AA1018",
"Ms+	c #85030B",
"Ns+	c #7E0F16",
"Os+	c #7F1A20",
"Ps+	c #862D33",
"Qs+	c #93484D",
"Rs+	c #905358",
"Ss+	c #69373A",
"Ts+	c #3C0F12",
"Us+	c #3F1718",
"Vs+	c #341010",
"Ws+	c #3C1D18",
"Xs+	c #34180C",
"Ys+	c #460A09",
"Zs+	c #641E20",
"`s+	c #853E42",
" t+	c #7B393D",
".t+	c #541619",
"+t+	c #460F14",
"@t+	c #411316",
"#t+	c #260204",
"$t+	c #372523",
"%t+	c #3A1E1D",
"&t+	c #4A191F",
"*t+	c #4C141D",
"=t+	c #47141B",
"-t+	c #401318",
";t+	c #371315",
">t+	c #2C1817",
",t+	c #27070C",
"'t+	c #30050C",
")t+	c #340106",
"!t+	c #3C0A0B",
"~t+	c #420A0B",
"{t+	c #4A0607",
"]t+	c #6C151B",
"^t+	c #902630",
"/t+	c #9A252E",
"(t+	c #931F22",
"_t+	c #9A0606",
":t+	c #C41816",
"<t+	c #C2100E",
"[t+	c #BA1614",
"}t+	c #AB1A17",
"|t+	c #670C0B",
"1t+	c #551918",
"2t+	c #421E1E",
"3t+	c #180910",
"4t+	c #200911",
"5t+	c #26070D",
"6t+	c #4B030E",
"7t+	c #640C1A",
"8t+	c #6E121F",
"9t+	c #61141E",
"0t+	c #5F1200",
"at+	c #641602",
"bt+	c #6C1100",
"ct+	c #701000",
"dt+	c #771103",
"et+	c #7B1104",
"ft+	c #7B0F03",
"gt+	c #7C0C00",
"ht+	c #7C0A00",
"it+	c #7D0D01",
"jt+	c #771303",
"kt+	c #761907",
"lt+	c #751A07",
"mt+	c #741C08",
"nt+	c #731B07",
"ot+	c #741906",
"pt+	c #721503",
"qt+	c #6D1200",
"rt+	c #711A09",
"st+	c #711506",
"tt+	c #741205",
"ut+	c #820B05",
"vt+	c #981412",
"wt+	c #B02123",
"xt+	c #BE272C",
"yt+	c #BD2228",
"zt+	c #B4141C",
"At+	c #A8070F",
"Bt+	c #9C0308",
"Ct+	c #890206",
"Dt+	c #7E2310",
"Et+	c #841D0C",
"Ft+	c #9B100B",
"Gt+	c #A00E0F",
"Ht+	c #9B1315",
"It+	c #592017",
"Jt+	c #360E04",
"Kt+	c #32140A",
"Lt+	c #471204",
"Mt+	c #A12F25",
"Nt+	c #B8201B",
"Ot+	c #D31B1B",
"Pt+	c #E61616",
"Qt+	c #EB1105",
"Rt+	c #EB0D02",
"St+	c #EA0C01",
"Tt+	c #E60700",
"Ut+	c #F30304",
"Vt+	c #DE0F15",
"Wt+	c #DA0E17",
"Xt+	c #D50D17",
"Yt+	c #D00E16",
"Zt+	c #CB1217",
"`t+	c #C8181B",
" u+	c #C22423",
".u+	c #B82422",
"+u+	c #AF241F",
"@u+	c #A92520",
"#u+	c #A32620",
"$u+	c #9D261E",
"%u+	c #94211A",
"&u+	c #891810",
"*u+	c #99100A",
"=u+	c #AA1612",
"-u+	c #BA1B18",
";u+	c #C71D1D",
">u+	c #D11A1C",
",u+	c #D71112",
"'u+	c #DD100D",
")u+	c #DD120B",
"!u+	c #DF160C",
"~u+	c #E51610",
"{u+	c #F21411",
"]u+	c #EE1715",
"^u+	c #D90B0B",
"/u+	c #CE0A0C",
"(u+	c #CA2023",
"_u+	c #960A0D",
":u+	c #820D13",
"<u+	c #6E0B10",
"[u+	c #61060B",
"}u+	c #621316",
"|u+	c #763436",
"1u+	c #8A4F53",
"2u+	c #7F4D50",
"3u+	c #673A3D",
"4u+	c #451B1D",
"5u+	c #401F18",
"6u+	c #3C1E14",
"7u+	c #5C1618",
"8u+	c #823B3F",
"9u+	c #894449",
"0u+	c #622427",
"au+	c #4A1117",
"bu+	c #290203",
"cu+	c #4A3834",
"du+	c #381A1A",
"eu+	c #43141A",
"fu+	c #451219",
"gu+	c #401117",
"hu+	c #3C1317",
"iu+	c #351717",
"ju+	c #1A0A0B",
"ku+	c #2A0B10",
"lu+	c #350C12",
"mu+	c #33040A",
"nu+	c #300002",
"ou+	c #39080B",
"pu+	c #5D060E",
"qu+	c #871D27",
"ru+	c #9D252F",
"su+	c #870F11",
"tu+	c #860402",
"uu+	c #B10E0F",
"vu+	c #D01311",
"wu+	c #D20F0D",
"xu+	c #DD201C",
"yu+	c #B11914",
"zu+	c #7A1F1C",
"Au+	c #5B211F",
"Bu+	c #1D0811",
"Cu+	c #230914",
"Du+	c #1E080B",
"Eu+	c #280000",
"Fu+	c #370305",
"Gu+	c #3C0508",
"Hu+	c #310506",
"Iu+	c #611300",
"Ju+	c #671905",
"Ku+	c #661802",
"Lu+	c #671601",
"Mu+	c #681601",
"Nu+	c #6B1401",
"Ou+	c #701502",
"Pu+	c #751403",
"Qu+	c #7C1204",
"Ru+	c #7D1104",
"Su+	c #801002",
"Tu+	c #7E0D00",
"Uu+	c #7E0E00",
"Vu+	c #7C1101",
"Wu+	c #791402",
"Xu+	c #761502",
"Yu+	c #731702",
"Zu+	c #721702",
"`u+	c #711B04",
" v+	c #721C05",
".v+	c #721E06",
"+v+	c #731D06",
"@v+	c #721A06",
"#v+	c #711905",
"$v+	c #731806",
"%v+	c #701705",
"&v+	c #6E1704",
"*v+	c #6C1703",
"=v+	c #6D1402",
"-v+	c #991511",
";v+	c #AC1C1C",
">v+	c #BA1B20",
",v+	c #BB171E",
"'v+	c #B51017",
")v+	c #A60910",
"!v+	c #8E110D",
"~v+	c #83180E",
"{v+	c #842310",
"]v+	c #99160C",
"^v+	c #9E0F0B",
"/v+	c #A21818",
"(v+	c #963E3A",
"_v+	c #2C0100",
":v+	c #301005",
"<v+	c #2D0607",
"[v+	c #2C0C01",
"}v+	c #8F2620",
"|v+	c #B92B29",
"1v+	c #C6181A",
"2v+	c #D80D11",
"3v+	c #EC1213",
"4v+	c #F61415",
"5v+	c #F4110B",
"6v+	c #EC0C00",
"7v+	c #FC0609",
"8v+	c #DB1917",
"9v+	c #D41F28",
"0v+	c #C71722",
"av+	c #BF151E",
"bv+	c #BF1B24",
"cv+	c #B92025",
"dv+	c #AC1D21",
"ev+	c #8F1514",
"fv+	c #73251B",
"gv+	c #6C2217",
"hv+	c #6A241A",
"iv+	c #73291E",
"jv+	c #762218",
"kv+	c #7E2018",
"lv+	c #921F1C",
"mv+	c #9D1D1C",
"nv+	c #AE1416",
"ov+	c #B30E12",
"pv+	c #BB0D0F",
"qv+	c #C71014",
"rv+	c #CF1717",
"sv+	c #D31A18",
"tv+	c #D21916",
"uv+	c #D31A15",
"vv+	c #DA1A15",
"wv+	c #EE0E0E",
"xv+	c #E61413",
"yv+	c #D81616",
"zv+	c #C21413",
"Av+	c #AD0F0C",
"Bv+	c #6C1A1C",
"Cv+	c #4C0203",
"Dv+	c #4F0F0F",
"Ev+	c #470F0E",
"Fv+	c #764A4B",
"Gv+	c #7C5253",
"Hv+	c #593131",
"Iv+	c #431B1B",
"Jv+	c #3C1412",
"Kv+	c #441C1A",
"Lv+	c #401B15",
"Mv+	c #500C0D",
"Nv+	c #692427",
"Ov+	c #99575B",
"Pv+	c #783A3D",
"Qv+	c #430A10",
"Rv+	c #1D0000",
"Sv+	c #202119",
"Tv+	c #1F2018",
"Uv+	c #25211E",
"Vv+	c #301214",
"Wv+	c #360D13",
"Xv+	c #37060A",
"Yv+	c #450305",
"Zv+	c #69141B",
"`v+	c #882029",
" w+	c #941C26",
".w+	c #931216",
"+w+	c #9E100F",
"@w+	c #B41416",
"#w+	c #C91619",
"$w+	c #E31112",
"%w+	c #E61211",
"&w+	c #D70B0A",
"*w+	c #CF1613",
"=w+	c #B91A14",
"-w+	c #7B1E19",
";w+	c #1C0D12",
">w+	c #200410",
",w+	c #1C020D",
"'w+	c #131007",
")w+	c #4C3231",
"!w+	c #402421",
"~w+	c #661502",
"{w+	c #661804",
"]w+	c #6A1906",
"^w+	c #6A1904",
"/w+	c #6A1803",
"(w+	c #6D1804",
"_w+	c #761504",
":w+	c #7A1302",
"<w+	c #7B1101",
"[w+	c #800F01",
"}w+	c #7F1100",
"|w+	c #7D1202",
"1w+	c #7A1503",
"2w+	c #781704",
"3w+	c #751904",
"4w+	c #731B05",
"5w+	c #731F07",
"6w+	c #722008",
"7w+	c #742008",
"8w+	c #741E07",
"9w+	c #731C08",
"0w+	c #701906",
"aw+	c #6E1905",
"bw+	c #6D1603",
"cw+	c #800B02",
"dw+	c #900F0A",
"ew+	c #9F1312",
"fw+	c #A91315",
"gw+	c #B01418",
"hw+	c #B6151B",
"iw+	c #B7131A",
"jw+	c #A51314",
"kw+	c #9A1411",
"lw+	c #881D0B",
"mw+	c #911E0C",
"nw+	c #A81410",
"ow+	c #AA1211",
"pw+	c #8E1816",
"qw+	c #390900",
"rw+	c #351007",
"sw+	c #2F0809",
"tw+	c #270900",
"uw+	c #53130A",
"vw+	c #751612",
"ww+	c #AB2929",
"xw+	c #C42126",
"yw+	c #D8191E",
"zw+	c #E7141A",
"Aw+	c #EF1315",
"Bw+	c #F41311",
"Cw+	c #F10000",
"Dw+	c #EE0005",
"Ew+	c #DF1E1F",
"Fw+	c #DA2826",
"Gw+	c #CF2A26",
"Hw+	c #C52726",
"Iw+	c #AE1720",
"Jw+	c #AD1B28",
"Kw+	c #A81C25",
"Lw+	c #97141C",
"Mw+	c #830A0F",
"Nw+	c #642921",
"Ow+	c #66372D",
"Pw+	c #61372B",
"Qw+	c #613B2E",
"Rw+	c #6A3E33",
"Sw+	c #6D372B",
"Tw+	c #7A2520",
"Uw+	c #811D1B",
"Vw+	c #881817",
"Ww+	c #A20D11",
"Xw+	c #AB1014",
"Yw+	c #B41617",
"Zw+	c #BA1718",
"`w+	c #BB1716",
" x+	c #BD1918",
".x+	c #BF1D1A",
"+x+	c #D8120F",
"@x+	c #EB0200",
"#x+	c #E01310",
"$x+	c #C3201B",
"%x+	c #96170E",
"&x+	c #701F1B",
"*x+	c #601F1D",
"=x+	c #4E1211",
"-x+	c #501D1A",
";x+	c #310907",
">x+	c #4E2827",
",x+	c #593332",
"'x+	c #785251",
")x+	c #451C18",
"!x+	c #341206",
"~x+	c #451A11",
"{x+	c #4C0A0C",
"]x+	c #622022",
"^x+	c #935256",
"/x+	c #783A3F",
"(x+	c #450D10",
"_x+	c #280001",
":x+	c #230A06",
"<x+	c #6D5A53",
"[x+	c #6A5750",
"}x+	c #3A211A",
"|x+	c #3F221E",
"1x+	c #3D1E1B",
"2x+	c #3D1E1C",
"3x+	c #35201B",
"4x+	c #222419",
"5x+	c #1F2217",
"6x+	c #360D11",
"7x+	c #34070A",
"8x+	c #3D0A09",
"9x+	c #5E0C10",
"0x+	c #7E161F",
"ax+	c #9B222B",
"bx+	c #A92125",
"cx+	c #C7181D",
"dx+	c #E50E15",
"ex+	c #ED0A11",
"fx+	c #9D1E18",
"gx+	c #731611",
"hx+	c #470705",
"ix+	c #1B0206",
"jx+	c #200B12",
"kx+	c #240612",
"lx+	c #1E040F",
"mx+	c #060B04",
"nx+	c #0A0E00",
"ox+	c #0C0A00",
"px+	c #0B0900",
"qx+	c #3D2427",
"rx+	c #4D2D30",
"sx+	c #170D01",
"tx+	c #6C1A05",
"ux+	c #6C1A04",
"vx+	c #6B1903",
"wx+	c #701B06",
"xx+	c #731803",
"yx+	c #761703",
"zx+	c #791603",
"Ax+	c #791400",
"Bx+	c #7A1300",
"Cx+	c #7C1300",
"Dx+	c #821302",
"Ex+	c #831202",
"Fx+	c #801300",
"Gx+	c #7D1401",
"Hx+	c #7B1602",
"Ix+	c #791903",
"Jx+	c #771B04",
"Kx+	c #751D05",
"Lx+	c #751F06",
"Mx+	c #752107",
"Nx+	c #76220A",
"Ox+	c #762009",
"Px+	c #751F08",
"Qx+	c #751D09",
"Rx+	c #761A0B",
"Sx+	c #6F1908",
"Tx+	c #711604",
"Ux+	c #7D0D02",
"Vx+	c #880D06",
"Wx+	c #910C07",
"Xx+	c #980A08",
"Yx+	c #9F0B0B",
"Zx+	c #A91012",
"`x+	c #AF1517",
" y+	c #B01719",
".y+	c #AD1919",
"+y+	c #A71917",
"@y+	c #93190C",
"#y+	c #911909",
"$y+	c #981A0B",
"%y+	c #B11C15",
"&y+	c #AD1311",
"*y+	c #A61414",
"=y+	c #911412",
"-y+	c #9A322F",
";y+	c #80332D",
">y+	c #4B1209",
",y+	c #2D0400",
"'y+	c #590503",
")y+	c #922020",
"!y+	c #D22529",
"~y+	c #DE1B21",
"{y+	c #E61417",
"]y+	c #EF1313",
"^y+	c #F1120D",
"/y+	c #F60903",
"(y+	c #FB060E",
"_y+	c #ED0209",
":y+	c #E4070E",
"<y+	c #DD1218",
"[y+	c #D51E22",
"}y+	c #B62424",
"|y+	c #A8221F",
"1y+	c #A02424",
"2y+	c #8F1A22",
"3y+	c #8C1C28",
"4y+	c #821920",
"5y+	c #6F0B13",
"6y+	c #5C0307",
"7y+	c #580A0A",
"8y+	c #5D1916",
"9y+	c #602622",
"0y+	c #64332E",
"ay+	c #603830",
"by+	c #614037",
"cy+	c #61463B",
"dy+	c #5D473A",
"ey+	c #564438",
"fy+	c #554538",
"gy+	c #5B3B30",
"hy+	c #60352C",
"iy+	c #612F26",
"jy+	c #6C221F",
"ky+	c #751F1E",
"ly+	c #7D1D1E",
"my+	c #881B1E",
"ny+	c #911D20",
"oy+	c #9B1A1E",
"py+	c #9A1415",
"qy+	c #A41614",
"ry+	c #B81D19",
"sy+	c #C11916",
"ty+	c #C71813",
"uy+	c #D0211E",
"vy+	c #C32C25",
"wy+	c #AD2D24",
"xy+	c #912518",
"yy+	c #68251D",
"zy+	c #531E1A",
"Ay+	c #461711",
"By+	c #3F201D",
"Cy+	c #452623",
"Dy+	c #6B4A45",
"Ey+	c #603A37",
"Fy+	c #522B26",
"Gy+	c #481F1B",
"Hy+	c #3A1409",
"Iy+	c #41150C",
"Jy+	c #440607",
"Ky+	c #581819",
"Ly+	c #87494C",
"My+	c #76393E",
"Ny+	c #4C1417",
"Oy+	c #48171A",
"Py+	c #310708",
"Qy+	c #57433C",
"Ry+	c #7D6960",
"Sy+	c #49322A",
"Ty+	c #442920",
"Uy+	c #39201B",
"Vy+	c #272318",
"Wy+	c #242418",
"Xy+	c #23251A",
"Yy+	c #1F2116",
"Zy+	c #32080A",
"`y+	c #3A090C",
" z+	c #450000",
".z+	c #620005",
"+z+	c #921922",
"@z+	c #B4232A",
"#z+	c #BD161D",
"$z+	c #CE131C",
"%z+	c #E2101D",
"&z+	c #ED0714",
"*z+	c #F50512",
"=z+	c #E2020A",
"-z+	c #D61214",
";z+	c #BC1817",
">z+	c #971714",
",z+	c #4E0A0B",
"'z+	c #37090C",
")z+	c #2A070D",
"!z+	c #23050F",
"~z+	c #230310",
"{z+	c #1B060D",
"]z+	c #040E05",
"^z+	c #040F01",
"/z+	c #0E0A00",
"(z+	c #240A0D",
"_z+	c #37141A",
":z+	c #3F181D",
"<z+	c #361413",
"[z+	c #161002",
"}z+	c #6E1904",
"|z+	c #721B07",
"1z+	c #741904",
"2z+	c #771701",
"3z+	c #781802",
"4z+	c #7A1702",
"5z+	c #7C1600",
"6z+	c #841502",
"7z+	c #841301",
"8z+	c #811400",
"9z+	c #7E1300",
"0z+	c #7B1700",
"az+	c #7B1803",
"bz+	c #7A1B05",
"cz+	c #781E06",
"dz+	c #771F07",
"ez+	c #772108",
"fz+	c #78220B",
"gz+	c #79210B",
"hz+	c #7A1F0A",
"iz+	c #791E09",
"jz+	c #791C0A",
"kz+	c #781B0C",
"lz+	c #731A0A",
"mz+	c #6C1907",
"nz+	c #6D1706",
"oz+	c #7C1205",
"pz+	c #8D0803",
"qz+	c #910704",
"rz+	c #A10F0F",
"sz+	c #AD1716",
"tz+	c #AD1915",
"uz+	c #A01A0F",
"vz+	c #9D190C",
"wz+	c #A1190B",
"xz+	c #AA1A0F",
"yz+	c #B31C13",
"zz+	c #AF1410",
"Az+	c #AC1615",
"Bz+	c #9B1313",
"Cz+	c #9E2A2A",
"Dz+	c #5B1812",
"Ez+	c #3E0F05",
"Fz+	c #3A1816",
"Gz+	c #470000",
"Hz+	c #721011",
"Iz+	c #981A1D",
"Jz+	c #BE2528",
"Kz+	c #D42427",
"Lz+	c #DD191B",
"Mz+	c #FA070B",
"Nz+	c #F2090F",
"Oz+	c #E8171D",
"Pz+	c #BA2426",
"Qz+	c #A01E1E",
"Rz+	c #8C353B",
"Sz+	c #74232A",
"Tz+	c #601319",
"Uz+	c #5A1317",
"Vz+	c #5C1E1F",
"Wz+	c #602A28",
"Xz+	c #623633",
"Yz+	c #63403A",
"Zz+	c #654840",
"`z+	c #614A42",
" A+	c #5C4B41",
".A+	c #574940",
"+A+	c #4F4539",
"@A+	c #494136",
"#A+	c #484035",
"$A+	c #57322A",
"%A+	c #6D2D2B",
"&A+	c #762F2D",
"*A+	c #852C2E",
"=A+	c #87292A",
"-A+	c #852324",
";A+	c #811A1B",
">A+	c #7D1313",
",A+	c #7A1010",
"'A+	c #841211",
")A+	c #9D1D1A",
"!A+	c #A31916",
"~A+	c #AB1713",
"{A+	c #B51813",
"]A+	c #D01714",
"^A+	c #DB1512",
"/A+	c #CF1918",
"(A+	c #C52320",
"_A+	c #B62D25",
":A+	c #A23026",
"<A+	c #8C2C20",
"[A+	c #77291D",
"}A+	c #521510",
"|A+	c #3F261F",
"1A+	c #3B221D",
"2A+	c #41221D",
"3A+	c #522F2B",
"4A+	c #411812",
"5A+	c #3F140D",
"6A+	c #471C13",
"7A+	c #481E12",
"8A+	c #451910",
"9A+	c #4B1612",
"0A+	c #501416",
"aA+	c #793D3F",
"bA+	c #6F3438",
"cA+	c #4C1518",
"dA+	c #451417",
"eA+	c #836C64",
"fA+	c #644D45",
"gA+	c #2D150B",
"hA+	c #44291E",
"iA+	c #3E2016",
"jA+	c #391D12",
"kA+	c #311D14",
"lA+	c #242216",
"mA+	c #232317",
"nA+	c #202217",
"oA+	c #481617",
"pA+	c #2E0000",
"qA+	c #500003",
"rA+	c #6C070F",
"sA+	c #9C232C",
"tA+	c #B6252C",
"uA+	c #BE151C",
"vA+	c #CF0F1A",
"wA+	c #E10D1B",
"xA+	c #ED0515",
"yA+	c #F30213",
"zA+	c #F10414",
"AA+	c #E00410",
"BA+	c #AD1112",
"CA+	c #650D0B",
"DA+	c #4E2023",
"EA+	c #351017",
"FA+	c #1B0004",
"GA+	c #1E000A",
"HA+	c #160309",
"IA+	c #080E02",
"JA+	c #0D0D01",
"KA+	c #190306",
"LA+	c #200107",
"MA+	c #240007",
"NA+	c #290006",
"OA+	c #131102",
"PA+	c #711808",
"QA+	c #6F1805",
"RA+	c #6E1703",
"SA+	c #6F1804",
"TA+	c #711901",
"UA+	c #731901",
"VA+	c #751900",
"WA+	c #781A01",
"XA+	c #791B02",
"YA+	c #7E1A02",
"ZA+	c #851602",
"`A+	c #871401",
" B+	c #831400",
".B+	c #7C1801",
"+B+	c #7B1B03",
"@B+	c #7B1D04",
"#B+	c #7A1E07",
"$B+	c #791F07",
"%B+	c #7B1F08",
"&B+	c #7C2009",
"*B+	c #7B1F0A",
"=B+	c #7C1D09",
"-B+	c #7B1C08",
";B+	c #7B1A09",
">B+	c #7C1A0D",
",B+	c #781A0E",
"'B+	c #6B1A09",
")B+	c #6E1505",
"!B+	c #870E06",
"~B+	c #890802",
"{B+	c #8E0701",
"]B+	c #A5110D",
"^B+	c #AD140F",
"/B+	c #AF1A13",
"(B+	c #B01C12",
"_B+	c #AD1B0E",
":B+	c #AB190C",
"<B+	c #AD160B",
"[B+	c #AF170C",
"}B+	c #B21816",
"|B+	c #A32324",
"1B+	c #932D2B",
"2B+	c #691B17",
"3B+	c #441005",
"4B+	c #550305",
"5B+	c #720A0B",
"6B+	c #9E1C1E",
"7B+	c #C62A2D",
"8B+	c #D72324",
"9B+	c #D61011",
"0B+	c #F51515",
"aB+	c #E21818",
"bB+	c #D01617",
"cB+	c #C82020",
"dB+	c #B82221",
"eB+	c #A82422",
"fB+	c #6E2725",
"gB+	c #83484A",
"hB+	c #622B2E",
"iB+	c #501E1F",
"jB+	c #5A2C2C",
"kB+	c #663E3C",
"lB+	c #62413C",
"mB+	c #5C413A",
"nB+	c #5C453F",
"oB+	c #5C4B43",
"pB+	c #584A41",
"qB+	c #4C3F37",
"rB+	c #483B33",
"sB+	c #4B3D34",
"tB+	c #503C31",
"uB+	c #563B32",
"vB+	c #573A32",
"wB+	c #59382F",
"xB+	c #5B342D",
"yB+	c #5E312B",
"zB+	c #63302C",
"AB+	c #6A302E",
"BB+	c #6B2E2B",
"CB+	c #6B2A26",
"DB+	c #692321",
"EB+	c #721F1B",
"FB+	c #7C1D1B",
"GB+	c #811815",
"HB+	c #861511",
"IB+	c #9F1610",
"JB+	c #C61D1A",
"KB+	c #BE1F1C",
"LB+	c #B0201F",
"MB+	c #9D221D",
"NB+	c #8C231D",
"OB+	c #7E251D",
"PB+	c #5D221E",
"QB+	c #400E0D",
"RB+	c #47221A",
"SB+	c #421710",
"TB+	c #44180F",
"UB+	c #471B10",
"VB+	c #55261E",
"WB+	c #4A1713",
"XB+	c #4D1516",
"YB+	c #672F30",
"ZB+	c #60282B",
"`B+	c #461214",
" C+	c #3D0C0F",
".C+	c #684B45",
"+C+	c #81695F",
"@C+	c #483026",
"#C+	c #361B10",
"$C+	c #462A1F",
"%C+	c #3A1A0F",
"&C+	c #391B10",
"*C+	c #282419",
"=C+	c #280604",
"-C+	c #35090A",
";C+	c #4B1417",
">C+	c #562020",
",C+	c #420F0C",
"'C+	c #5B1716",
")C+	c #792729",
"!C+	c #8F2A30",
"~C+	c #AD343D",
"{C+	c #BA2D33",
"]C+	c #BC1B20",
"^C+	c #CC141E",
"/C+	c #E01322",
"(C+	c #EB0A1C",
"_C+	c #EE071B",
":C+	c #E60719",
"<C+	c #D40814",
"[C+	c #BB1114",
"}C+	c #321318",
"|C+	c #180004",
"1C+	c #190008",
"2C+	c #140407",
"3C+	c #080E04",
"4C+	c #0E0B02",
"5C+	c #1C070C",
"6C+	c #1E0008",
"7C+	c #1C0004",
"8C+	c #200003",
"9C+	c #210708",
"0C+	c #0F1002",
"aC+	c #741809",
"bC+	c #6E1503",
"cC+	c #701A03",
"dC+	c #741A00",
"eC+	c #751B01",
"fC+	c #771D02",
"gC+	c #7E1C03",
"hC+	c #861703",
"iC+	c #851501",
"jC+	c #801501",
"kC+	c #7E1802",
"lC+	c #7E1A03",
"mC+	c #7E1B04",
"nC+	c #7C1C06",
"oC+	c #7D1D07",
"pC+	c #7E1E08",
"qC+	c #801D08",
"rC+	c #801D0A",
"sC+	c #801B09",
"tC+	c #7F1A08",
"uC+	c #7E1809",
"vC+	c #79190D",
"wC+	c #681A06",
"xC+	c #6B1806",
"yC+	c #701503",
"zC+	c #741303",
"AC+	c #821005",
"BC+	c #800B01",
"CC+	c #870800",
"DC+	c #9F0C05",
"EC+	c #AB0E09",
"FC+	c #B4150F",
"GC+	c #B81C10",
"HC+	c #AC1206",
"IC+	c #B61815",
"JC+	c #A61A1D",
"KC+	c #9A2828",
"LC+	c #75201D",
"MC+	c #491309",
"NC+	c #3D170C",
"OC+	c #391112",
"PC+	c #3B090A",
"QC+	c #440203",
"RC+	c #560001",
"SC+	c #7F0F0E",
"TC+	c #AF2525",
"UC+	c #C92524",
"VC+	c #CD1314",
"WC+	c #D5090A",
"XC+	c #EB0303",
"YC+	c #EF1F1D",
"ZC+	c #E82825",
"`C+	c #D1261F",
" D+	c #9D1A12",
".D+	c #8E1D17",
"+D+	c #7D1E18",
"@D+	c #591814",
"#D+	c #643432",
"$D+	c #734A48",
"%D+	c #5C3937",
"&D+	c #4E2C2A",
"*D+	c #4C2F2B",
"=D+	c #5D413D",
"-D+	c #634C46",
";D+	c #56433C",
">D+	c #4F3E36",
",D+	c #5A4D45",
"'D+	c #53463E",
")D+	c #4C3D36",
"!D+	c #4E3B35",
"~D+	c #543C32",
"{D+	c #563E34",
"]D+	c #593E35",
"^D+	c #54362C",
"/D+	c #533229",
"(D+	c #593129",
"_D+	c #582D26",
":D+	c #552822",
"<D+	c #54231C",
"[D+	c #56251E",
"}D+	c #6B2726",
"|D+	c #6E2020",
"1D+	c #701B18",
"2D+	c #921B13",
"3D+	c #A01D15",
"4D+	c #AB1E17",
"5D+	c #AD1C17",
"6D+	c #B01F1C",
"7D+	c #AA201E",
"8D+	c #731110",
"9D+	c #651E1C",
"0D+	c #652929",
"aD+	c #1A0300",
"bD+	c #442219",
"cD+	c #562E26",
"dD+	c #5D3229",
"eD+	c #360A00",
"fD+	c #4F2018",
"gD+	c #42110C",
"hD+	c #410E0B",
"iD+	c #4C1918",
"jD+	c #592323",
"kD+	c #531C1F",
"lD+	c #471315",
"mD+	c #340A0B",
"nD+	c #92736E",
"oD+	c #5E433A",
"pD+	c #43281F",
"qD+	c #4F3328",
"rD+	c #3E1C10",
"sD+	c #3E1E13",
"tD+	c #36241A",
"uD+	c #2C2825",
"vD+	c #591E22",
"wD+	c #612527",
"xD+	c #6A302F",
"yD+	c #571C18",
"zD+	c #783230",
"AD+	c #984346",
"BD+	c #A43C43",
"CD+	c #A93238",
"DD+	c #A32123",
"ED+	c #B80D15",
"FD+	c #D1111E",
"GD+	c #E10E1F",
"HD+	c #E40D1F",
"ID+	c #DD101F",
"JD+	c #CA121C",
"KD+	c #A71113",
"LD+	c #180509",
"MD+	c #0D0E06",
"ND+	c #15040A",
"OD+	c #18030A",
"PD+	c #1E0509",
"QD+	c #100C01",
"RD+	c #701804",
"SD+	c #711B02",
"TD+	c #701A00",
"UD+	c #6F1900",
"VD+	c #711A00",
"WD+	c #721B00",
"XD+	c #741D01",
"YD+	c #7B1B02",
"ZD+	c #881802",
"`D+	c #8D1602",
" E+	c #8A1503",
".E+	c #871703",
"+E+	c #851803",
"@E+	c #831903",
"#E+	c #821904",
"$E+	c #801A04",
"%E+	c #801B07",
"&E+	c #811C08",
"*E+	c #831C09",
"=E+	c #851B0B",
"-E+	c #851A0A",
";E+	c #821609",
">E+	c #6C1B0A",
",E+	c #6A1B0A",
"'E+	c #701405",
")E+	c #7A1406",
"!E+	c #7A1002",
"~E+	c #880F04",
"{E+	c #A90A04",
"]E+	c #B30E08",
"^E+	c #B11808",
"/E+	c #A90C03",
"(E+	c #B51613",
"_E+	c #B01012",
":E+	c #A12629",
"<E+	c #541A0F",
"[E+	c #472116",
"}E+	c #2B0B0E",
"|E+	c #360C0E",
"1E+	c #3D0707",
"2E+	c #610301",
"3E+	c #8E1413",
"4E+	c #C71717",
"5E+	c #E71310",
"6E+	c #E1211C",
"7E+	c #D12821",
"8E+	c #B5251A",
"9E+	c #992113",
"0E+	c #4E1C13",
"aE+	c #461F18",
"bE+	c #4C2B26",
"cE+	c #553936",
"dE+	c #59413F",
"eE+	c #412C27",
"fE+	c #503F38",
"gE+	c #55463F",
"hE+	c #554840",
"iE+	c #50463D",
"jE+	c #52483E",
"kE+	c #554B41",
"lE+	c #5E5148",
"mE+	c #5E5047",
"nE+	c #5A4740",
"oE+	c #553E38",
"pE+	c #553A33",
"qE+	c #593A37",
"rE+	c #5C3935",
"sE+	c #593632",
"tE+	c #53352D",
"uE+	c #573B30",
"vE+	c #51362B",
"wE+	c #4D3227",
"xE+	c #4D3125",
"yE+	c #5E3030",
"zE+	c #612A2D",
"AE+	c #622625",
"BE+	c #672320",
"CE+	c #872218",
"DE+	c #902118",
"EE+	c #9A201B",
"FE+	c #992120",
"GE+	c #8D1B1B",
"HE+	c #771011",
"IE+	c #66070B",
"JE+	c #5C070A",
"KE+	c #560B0F",
"LE+	c #4F0D11",
"ME+	c #461415",
"NE+	c #704745",
"OE+	c #5C3D38",
"PE+	c #3F2119",
"QE+	c #5E382F",
"RE+	c #71493F",
"SE+	c #542920",
"TE+	c #370B00",
"UE+	c #40140B",
"VE+	c #471812",
"WE+	c #4F1F1B",
"XE+	c #5A2827",
"YE+	c #542120",
"ZE+	c #471516",
"`E+	c #694642",
" F+	c #876863",
".F+	c #492E25",
"+F+	c #4D2F24",
"@F+	c #321207",
"#F+	c #421E12",
"$F+	c #3F1D13",
"%F+	c #39221A",
"&F+	c #201B18",
"*F+	c #2E2D2B",
"=F+	c #2A0100",
"-F+	c #360D09",
";F+	c #44090D",
">F+	c #5B1A1E",
",F+	c #77363A",
"'F+	c #773738",
")F+	c #6E3231",
"!F+	c #6E2E2C",
"~F+	c #7E3433",
"{F+	c #933A3C",
"]F+	c #9A2F35",
"^F+	c #952026",
"/F+	c #990003",
"(F+	c #BA0C15",
"_F+	c #CD0E1D",
":F+	c #D3101E",
"<F+	c #CC1622",
"[F+	c #8C0F0D",
"}F+	c #460E01",
"|F+	c #2E0E01",
"1F+	c #1F0F02",
"2F+	c #171006",
"3F+	c #000904",
"4F+	c #040807",
"5F+	c #0C0A0B",
"6F+	c #761606",
"7F+	c #751D07",
"8F+	c #731B03",
"9F+	c #721A02",
"0F+	c #701800",
"aF+	c #701900",
"bF+	c #731900",
"cF+	c #7B1801",
"dF+	c #8B1805",
"eF+	c #8F1605",
"fF+	c #8E1605",
"gF+	c #8D1806",
"hF+	c #891905",
"iF+	c #881905",
"jF+	c #861904",
"kF+	c #841905",
"lF+	c #851A06",
"mF+	c #851A08",
"nF+	c #861B09",
"oF+	c #88180A",
"pF+	c #85170A",
"qF+	c #80180D",
"rF+	c #741D0C",
"sF+	c #7A1304",
"tF+	c #871608",
"uF+	c #9A1005",
"vF+	c #B7100A",
"wF+	c #BB170E",
"xF+	c #BB1B0F",
"yF+	c #B21B0A",
"zF+	c #A50D00",
"AF+	c #AC0D0A",
"BF+	c #A62627",
"CF+	c #922C2A",
"DF+	c #53241A",
"EF+	c #2F1111",
"FF+	c #6C0602",
"GF+	c #981410",
"HF+	c #BB1D1C",
"IF+	c #D81817",
"JF+	c #C8231D",
"KF+	c #912113",
"LF+	c #631B0C",
"MF+	c #592112",
"NF+	c #4D2315",
"OF+	c #432318",
"PF+	c #442E23",
"QF+	c #473A31",
"RF+	c #54473E",
"SF+	c #4D4339",
"TF+	c #544C41",
"UF+	c #5D5347",
"VF+	c #5D5145",
"WF+	c #53453A",
"XF+	c #56443A",
"YF+	c #563F37",
"ZF+	c #553631",
"`F+	c #5B3834",
" G+	c #5E3634",
".G+	c #59342E",
"+G+	c #56352C",
"@G+	c #57392F",
"#G+	c #4E362A",
"$G+	c #4D3A2C",
"%G+	c #4B382A",
"&G+	c #4A362B",
"*G+	c #52302F",
"=G+	c #542C2D",
"-G+	c #632822",
";G+	c #892523",
">G+	c #6F1515",
",G+	c #5E080B",
"'G+	c #510006",
")G+	c #490105",
"!G+	c #5A191D",
"~G+	c #370707",
"{G+	c #4F2725",
"]G+	c #321C11",
"^G+	c #3C1B12",
"/G+	c #49231A",
"(G+	c #6C4138",
"_G+	c #6D3E36",
":G+	c #511F16",
"<G+	c #47150C",
"[G+	c #602F28",
"}G+	c #6B3A35",
"|G+	c #723F3B",
"1G+	c #5C2624",
"2G+	c #491313",
"3G+	c #450F0F",
"4G+	c #370504",
"5G+	c #855E59",
"6G+	c #66433D",
"7G+	c #38160C",
"8G+	c #442014",
"9G+	c #401A0F",
"0G+	c #411B10",
"aG+	c #42241A",
"bG+	c #3F221A",
"cG+	c #3A1F16",
"dG+	c #2B2726",
"eG+	c #312D2C",
"fG+	c #320605",
"gG+	c #49211F",
"hG+	c #3A0003",
"iG+	c #642327",
"jG+	c #5C1C1D",
"kG+	c #561A19",
"lG+	c #5C1415",
"mG+	c #671215",
"nG+	c #710D15",
"oG+	c #6E050A",
"pG+	c #6E0806",
"qG+	c #6C0000",
"rG+	c #A90D11",
"sG+	c #C00F17",
"tG+	c #C51019",
"uG+	c #BE131B",
"vG+	c #151203",
"wG+	c #0E1204",
"xG+	c #0C0E01",
"yG+	c #070C06",
"zG+	c #000B04",
"AG+	c #000B07",
"BG+	c #090E0A",
"CG+	c #131309",
"DG+	c #7C1808",
"EG+	c #771806",
"FG+	c #771A08",
"GG+	c #7A1F0C",
"HG+	c #771C07",
"IG+	c #771B06",
"JG+	c #761A05",
"KG+	c #771804",
"LG+	c #791805",
"MG+	c #7F1505",
"NG+	c #8F1506",
"OG+	c #911708",
"PG+	c #901808",
"QG+	c #8C1705",
"RG+	c #8A1704",
"SG+	c #891603",
"TG+	c #8A1907",
"UG+	c #8B1A08",
"VG+	c #8F1B0C",
"WG+	c #901C0F",
"XG+	c #8E1A0D",
"YG+	c #86160A",
"ZG+	c #7B1A0A",
"`G+	c #771707",
" H+	c #7D1607",
".H+	c #921406",
"+H+	c #9C1207",
"@H+	c #AD1C0B",
"#H+	c #AD1E0D",
"$H+	c #AA1707",
"%H+	c #AC1409",
"&H+	c #B12B28",
"*H+	c #9C2A29",
"=H+	c #520E0B",
"-H+	c #D82626",
";H+	c #F60001",
">H+	c #EA0813",
",H+	c #E5121B",
"'H+	c #BC191A",
")H+	c #98140F",
"!H+	c #612318",
"~H+	c #59281A",
"{H+	c #46241A",
"]H+	c #442D1F",
"^H+	c #433E2B",
"/H+	c #41442F",
"(H+	c #464833",
"_H+	c #4D4433",
":H+	c #534636",
"<H+	c #564939",
"[H+	c #544737",
"}H+	c #544639",
"|H+	c #59473B",
"1H+	c #5B3D35",
"2H+	c #583730",
"3H+	c #57362F",
"4H+	c #583A30",
"5H+	c #53372B",
"6H+	c #513529",
"7H+	c #53372C",
"8H+	c #553A2F",
"9H+	c #51362D",
"0H+	c #482D24",
"aH+	c #583D34",
"bH+	c #4C3128",
"cH+	c #5E433C",
"dH+	c #513531",
"eH+	c #523432",
"fH+	c #543231",
"gH+	c #552F2C",
"hH+	c #572822",
"iH+	c #5B241F",
"jH+	c #63241D",
"kH+	c #6B221B",
"lH+	c #772925",
"mH+	c #7F312D",
"nH+	c #722724",
"oH+	c #671D1C",
"pH+	c #671F20",
"qH+	c #4B1515",
"rH+	c #3A1C12",
"sH+	c #3F170F",
"tH+	c #7D433F",
"uH+	c #7E3F3A",
"vH+	c #7E3F38",
"wH+	c #743E34",
"xH+	c #723E33",
"yH+	c #703932",
"zH+	c #501612",
"AH+	c #460E0D",
"BH+	c #612E2B",
"CH+	c #8E615C",
"DH+	c #411B12",
"EH+	c #451F14",
"FH+	c #4D2317",
"GH+	c #44180D",
"HH+	c #3C1206",
"IH+	c #4C261D",
"JH+	c #45221C",
"KH+	c #0B0B0B",
"LH+	c #0D0B0C",
"MH+	c #292421",
"NH+	c #2C2724",
"OH+	c #0C0004",
"PH+	c #1E0B0F",
"QH+	c #17040A",
"RH+	c #1D0713",
"SH+	c #150008",
"TH+	c #5A3B39",
"UH+	c #370005",
"VH+	c #430B0E",
"WH+	c #53181C",
"XH+	c #4B1012",
"YH+	c #410306",
"ZH+	c #4A0508",
"`H+	c #4C0106",
" I+	c #4D0002",
".I+	c #570209",
"+I+	c #560808",
"@I+	c #770101",
"#I+	c #970508",
"$I+	c #BC1215",
"%I+	c #CF1C20",
"&I+	c #C1181D",
"*I+	c #A31114",
"=I+	c #730609",
"-I+	c #230000",
";I+	c #090D00",
">I+	c #0F1200",
",I+	c #100D00",
"'I+	c #7D1708",
")I+	c #7B1707",
"!I+	c #7A1B09",
"~I+	c #7C1F0D",
"{I+	c #7B1E0C",
"]I+	c #7A1D0B",
"^I+	c #7C1B0A",
"/I+	c #8E1907",
"(I+	c #8D1A05",
"_I+	c #8D1A07",
":I+	c #8D1A08",
"<I+	c #901C0D",
"[I+	c #8F1B0E",
"}I+	c #8E180E",
"|I+	c #88180C",
"1I+	c #7C1607",
"2I+	c #811508",
"3I+	c #831508",
"4I+	c #841609",
"5I+	c #A70F0A",
"6I+	c #A51606",
"7I+	c #A31501",
"8I+	c #B31B0D",
"9I+	c #AF1B11",
"0I+	c #AD2320",
"aI+	c #A72B2B",
"bI+	c #831C1D",
"cI+	c #240D00",
"dI+	c #290100",
"eI+	c #3E0200",
"fI+	c #A01E1C",
"gI+	c #C32927",
"hI+	c #D21914",
"iI+	c #FD090B",
"jI+	c #FB0001",
"kI+	c #E60B0F",
"lI+	c #D1131D",
"mI+	c #9F1815",
"nI+	c #52261B",
"oI+	c #4D291D",
"pI+	c #4B2B20",
"qI+	c #4A3427",
"rI+	c #46442F",
"sI+	c #42482E",
"tI+	c #43472E",
"uI+	c #4C412F",
"vI+	c #5C4B3B",
"wI+	c #5D4D3D",
"xI+	c #554335",
"yI+	c #584537",
"zI+	c #60433B",
"AI+	c #5B3E36",
"BI+	c #583A32",
"CI+	c #593D31",
"DI+	c #4A2E22",
"EI+	c #4A2E23",
"FI+	c #52362B",
"GI+	c #472A22",
"HI+	c #553830",
"II+	c #51342E",
"JI+	c #492C28",
"KI+	c #462925",
"LI+	c #4D302C",
"MI+	c #4E322F",
"NI+	c #4F2C28",
"OI+	c #502922",
"PI+	c #532620",
"QI+	c #5C251E",
"RI+	c #662D24",
"SI+	c #6F332B",
"TI+	c #83443D",
"UI+	c #884743",
"VI+	c #753430",
"WI+	c #6D2926",
"XI+	c #773634",
"YI+	c #804443",
"ZI+	c #4B1B19",
"`I+	c #411A13",
" J+	c #48160F",
".J+	c #884D49",
"+J+	c #BE7A77",
"@J+	c #924D48",
"#J+	c #73352A",
"$J+	c #672B20",
"%J+	c #500D07",
"&J+	c #581210",
"*J+	c #732F2E",
"=J+	c #81413F",
"-J+	c #905453",
";J+	c #8C5753",
">J+	c #552521",
",J+	c #441912",
"'J+	c #451D15",
")J+	c #451D13",
"!J+	c #4A2014",
"~J+	c #461A0D",
"{J+	c #441A0E",
"]J+	c #241A1B",
"^J+	c #424240",
"/J+	c #262626",
"(J+	c #0B090A",
"_J+	c #100408",
":J+	c #18090C",
"<J+	c #140009",
"[J+	c #1C0716",
"}J+	c #180410",
"|J+	c #391515",
"1J+	c #2C0204",
"2J+	c #2C0001",
"3J+	c #350408",
"4J+	c #380609",
"5J+	c #491519",
"6J+	c #451113",
"7J+	c #3E0609",
"8J+	c #470B0D",
"9J+	c #4D0C10",
"0J+	c #4B060B",
"aJ+	c #4E070D",
"bJ+	c #4D080B",
"cJ+	c #590709",
"dJ+	c #9C1011",
"eJ+	c #C21C1E",
"fJ+	c #D02224",
"gJ+	c #A41519",
"hJ+	c #6D0409",
"iJ+	c #430003",
"jJ+	c #220001",
"kJ+	c #111000",
"lJ+	c #110B00",
"mJ+	c #811709",
"nJ+	c #7D1C0B",
"oJ+	c #7C1D0B",
"pJ+	c #7D1909",
"qJ+	c #831C0D",
"rJ+	c #8B1F12",
"sJ+	c #8C1C0E",
"tJ+	c #8F1E10",
"uJ+	c #901F0F",
"vJ+	c #8F1E0C",
"wJ+	c #8D1C0A",
"xJ+	c #8D1D09",
"yJ+	c #8C1C08",
"zJ+	c #8B1B07",
"AJ+	c #8D1C0C",
"BJ+	c #7F190B",
"CJ+	c #7A1607",
"DJ+	c #7C1407",
"EJ+	c #7D1306",
"FJ+	c #801408",
"GJ+	c #821308",
"HJ+	c #821207",
"IJ+	c #88160B",
"JJ+	c #8E180C",
"KJ+	c #95160D",
"LJ+	c #A10D0B",
"MJ+	c #A30B08",
"NJ+	c #A40B06",
"OJ+	c #A30F03",
"PJ+	c #A71100",
"QJ+	c #B2190B",
"RJ+	c #BE2015",
"SJ+	c #B51A15",
"TJ+	c #B33131",
"UJ+	c #992D2D",
"VJ+	c #440807",
"WJ+	c #340C0C",
"XJ+	c #2E120F",
"YJ+	c #2A1C0F",
"ZJ+	c #241103",
"`J+	c #260600",
" K+	c #330300",
".K+	c #480200",
"+K+	c #A21D18",
"@K+	c #CB221D",
"#K+	c #DA1A17",
"$K+	c #DE1412",
"%K+	c #FE0509",
"&K+	c #CD1318",
"*K+	c #B61318",
"=K+	c #9D1110",
"-K+	c #86130E",
";K+	c #622417",
">K+	c #56281B",
",K+	c #4C2A1E",
"'K+	c #4C4532",
")K+	c #474931",
"!K+	c #46462E",
"~K+	c #4F4432",
"{K+	c #615040",
"]K+	c #5C4C3C",
"^K+	c #514132",
"/K+	c #5A4A3B",
"(K+	c #534334",
"_K+	c #544234",
":K+	c #442C22",
"<K+	c #62453D",
"[K+	c #56382D",
"}K+	c #503228",
"|K+	c #53352B",
"1K+	c #563830",
"2K+	c #55372F",
"3K+	c #65473F",
"4K+	c #684944",
"5K+	c #543532",
"6K+	c #452824",
"7K+	c #482F2B",
"8K+	c #492E27",
"9K+	c #4A2B26",
"0K+	c #4C2A21",
"aK+	c #4D281F",
"bK+	c #4F271D",
"cK+	c #52261D",
"dK+	c #4D1D13",
"eK+	c #763F38",
"fK+	c #804740",
"gK+	c #6F322D",
"hK+	c #5E211E",
"iK+	c #61211F",
"jK+	c #612725",
"kK+	c #2F1409",
"lK+	c #4E1D16",
"mK+	c #8F5551",
"nK+	c #B97874",
"oK+	c #75302B",
"pK+	c #5D140B",
"qK+	c #7A2928",
"rK+	c #8F3F40",
"sK+	c #873B3D",
"tK+	c #853F41",
"uK+	c #874B4A",
"vK+	c #481B15",
"wK+	c #471F17",
"xK+	c #421C11",
"yK+	c #431F13",
"zK+	c #441E11",
"AK+	c #421D15",
"BK+	c #271D1E",
"CK+	c #5A5A58",
"DK+	c #3C3C3C",
"EK+	c #2D2825",
"FK+	c #0C0E09",
"GK+	c #050A06",
"HK+	c #010504",
"IK+	c #11070F",
"JK+	c #0E040C",
"KK+	c #26090B",
"LK+	c #260002",
"MK+	c #290001",
"NK+	c #2D0102",
"OK+	c #360808",
"PK+	c #4C1616",
"QK+	c #4B1110",
"RK+	c #4D0D0E",
"SK+	c #480204",
"TK+	c #550000",
"UK+	c #720001",
"VK+	c #9C0D0F",
"WK+	c #C11B1D",
"XK+	c #CC1F23",
"YK+	c #A5181E",
"ZK+	c #680105",
"`K+	c #0B0B00",
" L+	c #130D00",
".L+	c #881D0D",
"+L+	c #8A1F0D",
"@L+	c #8C1E0D",
"#L+	c #8B1E0A",
"$L+	c #8A1B08",
"%L+	c #8A1B07",
"&L+	c #881906",
"*L+	c #881908",
"=L+	c #8B1B0D",
"-L+	c #8A1C0F",
";L+	c #7D1709",
">L+	c #7F1508",
",L+	c #7F1307",
"'L+	c #801106",
")L+	c #811106",
"!L+	c #8F130B",
"~L+	c #980E0B",
"{L+	c #9E0A0A",
"]L+	c #A40907",
"^L+	c #A90F05",
"/L+	c #B10F04",
"(L+	c #C01911",
"_L+	c #BC1713",
":L+	c #AF1513",
"<L+	c #B82E2E",
"[L+	c #AB3535",
"}L+	c #360302",
"|L+	c #370909",
"1L+	c #251508",
"2L+	c #271002",
"3L+	c #300C00",
"4L+	c #3B0600",
"5L+	c #780902",
"6L+	c #C91D1B",
"7L+	c #E4090D",
"8L+	c #D20E10",
"9L+	c #B21214",
"0L+	c #5A2C1D",
"aL+	c #503021",
"bL+	c #4B3122",
"cL+	c #573F33",
"dL+	c #594135",
"eL+	c #4C3B2B",
"fL+	c #514433",
"gL+	c #4F4A34",
"hL+	c #4C4630",
"iL+	c #544736",
"jL+	c #5A4939",
"kL+	c #413121",
"lL+	c #5C4C3D",
"mL+	c #5E4E3F",
"nL+	c #4F3F30",
"oL+	c #5A483A",
"pL+	c #50382E",
"qL+	c #63483F",
"rL+	c #5D4038",
"sL+	c #5B3D33",
"tL+	c #55372D",
"uL+	c #56382E",
"vL+	c #5A3C32",
"wL+	c #62443C",
"xL+	c #61423D",
"yL+	c #70514C",
"zL+	c #6C4D48",
"AL+	c #654641",
"BL+	c #5B3C39",
"CL+	c #472A26",
"DL+	c #452C28",
"EL+	c #442D27",
"FL+	c #442B24",
"GL+	c #462B24",
"HL+	c #482A20",
"IL+	c #48281D",
"JL+	c #4A261A",
"KL+	c #461E12",
"LL+	c #491F13",
"ML+	c #5C2D23",
"NL+	c #6B3930",
"OL+	c #67302B",
"PL+	c #5D231F",
"QL+	c #450E0B",
"RL+	c #471A17",
"SL+	c #22160A",
"TL+	c #210F05",
"UL+	c #6C3D37",
"VL+	c #965F5A",
"WL+	c #7F403B",
"XL+	c #76211A",
"YL+	c #852C28",
"ZL+	c #8D3231",
"`L+	c #9A3C3D",
" M+	c #903437",
".M+	c #762023",
"+M+	c #792A2D",
"@M+	c #864241",
"#M+	c #491813",
"$M+	c #461E16",
"%M+	c #3D1B0F",
"&M+	c #3E1E11",
"*M+	c #3E2113",
"=M+	c #45281A",
"-M+	c #251B1C",
";M+	c #555553",
">M+	c #3A3A3A",
",M+	c #2A2522",
"'M+	c #080D07",
")M+	c #000601",
"!M+	c #020703",
"~M+	c #230800",
"{M+	c #1F0601",
"]M+	c #080609",
"^M+	c #180405",
"/M+	c #240002",
"(M+	c #2B0407",
"_M+	c #3B140F",
":M+	c #41110D",
"<M+	c #4A100F",
"[M+	c #52070B",
"}M+	c #6F0000",
"|M+	c #940509",
"1M+	c #B71417",
"2M+	c #C01A1E",
"3M+	c #B2161A",
"4M+	c #9A151A",
"5M+	c #5F0003",
"6M+	c #120600",
"7M+	c #80190A",
"8M+	c #7A1405",
"9M+	c #771102",
"0M+	c #771001",
"aM+	c #7F1306",
"bM+	c #801A0B",
"cM+	c #861D0A",
"dM+	c #861905",
"eM+	c #871804",
"fM+	c #8A1A06",
"gM+	c #871604",
"hM+	c #851605",
"iM+	c #871807",
"jM+	c #881A0B",
"kM+	c #861B0B",
"lM+	c #851B0D",
"mM+	c #80180B",
"nM+	c #7C1409",
"oM+	c #80150B",
"pM+	c #801108",
"qM+	c #820F08",
"rM+	c #89120C",
"sM+	c #89140B",
"tM+	c #960C0A",
"uM+	c #A20609",
"vM+	c #A70709",
"wM+	c #AA0B07",
"xM+	c #B20600",
"yM+	c #B30F0E",
"zM+	c #B23030",
"AM+	c #8D2323",
"BM+	c #550909",
"CM+	c #3E0204",
"DM+	c #3B0304",
"EM+	c #3F0B0D",
"FM+	c #261406",
"GM+	c #2C1203",
"HM+	c #310B00",
"IM+	c #420400",
"JM+	c #560100",
"KM+	c #A31313",
"LM+	c #BD1F20",
"MM+	c #D91718",
"NM+	c #DD0C11",
"OM+	c #C51114",
"PM+	c #961210",
"QM+	c #552C1A",
"RM+	c #4D321F",
"SM+	c #433625",
"TM+	c #433324",
"UM+	c #513F33",
"VM+	c #584737",
"WM+	c #574A37",
"XM+	c #514431",
"YM+	c #5B4E3E",
"ZM+	c #594C3C",
"`M+	c #5D4B3F",
" N+	c #483227",
".N+	c #503730",
"+N+	c #5F443D",
"@N+	c #60453E",
"#N+	c #5F423A",
"$N+	c #5F4137",
"%N+	c #62443A",
"&N+	c #45271F",
"*N+	c #745550",
"=N+	c #4D2E2B",
"-N+	c #4F322E",
";N+	c #402C25",
">N+	c #3F2B22",
",N+	c #412A1C",
"'N+	c #41271A",
")N+	c #4A2D1F",
"!N+	c #411F13",
"~N+	c #4F241B",
"{N+	c #592720",
"]N+	c #5B2421",
"^N+	c #511B19",
"/N+	c #471B18",
"(N+	c #37110E",
"_N+	c #673A34",
":N+	c #A26D69",
"<N+	c #753A36",
"[N+	c #661F1B",
"}N+	c #802B24",
"|N+	c #852620",
"1N+	c #8F2C27",
"2N+	c #9B3332",
"3N+	c #A3393B",
"4N+	c #8D2428",
"5N+	c #79161B",
"6N+	c #92393D",
"7N+	c #883C3E",
"8N+	c #431B13",
"9N+	c #3B1B10",
"0N+	c #3A2013",
"aN+	c #382113",
"bN+	c #3D2618",
"cN+	c #3A1E13",
"dN+	c #3B221B",
"eN+	c #2B2219",
"fN+	c #50504E",
"gN+	c #2E302D",
"hN+	c #030A03",
"iN+	c #000803",
"jN+	c #010A05",
"kN+	c #040905",
"lN+	c #280C09",
"mN+	c #300300",
"nN+	c #170406",
"oN+	c #28080B",
"pN+	c #371718",
"qN+	c #412220",
"rN+	c #1F0400",
"sN+	c #2F0A02",
"tN+	c #5B0C11",
"uN+	c #640007",
"vN+	c #780004",
"wN+	c #980B11",
"xN+	c #B61B1F",
"yN+	c #BB1F22",
"zN+	c #A8171A",
"AN+	c #8D1215",
"BN+	c #200204",
"CN+	c #841207",
"DN+	c #781203",
"EN+	c #831909",
"FN+	c #831804",
"GN+	c #851603",
"HN+	c #881502",
"IN+	c #8C1403",
"JN+	c #881302",
"KN+	c #881503",
"LN+	c #871606",
"MN+	c #7F170C",
"NN+	c #82170D",
"ON+	c #8C130B",
"PN+	c #8F120C",
"QN+	c #990D0C",
"RN+	c #A0070A",
"SN+	c #A50409",
"TN+	c #AB0509",
"UN+	c #B70B07",
"VN+	c #CC1B15",
"WN+	c #C20B05",
"XN+	c #A32F2F",
"YN+	c #5E0D0C",
"ZN+	c #420203",
"`N+	c #3F0708",
" O+	c #3D0B0C",
".O+	c #221205",
"+O+	c #231002",
"@O+	c #280C00",
"#O+	c #2E0A00",
"$O+	c #770706",
"%O+	c #9B1B1C",
"&O+	c #B42223",
"*O+	c #C71F1F",
"=O+	c #E70708",
"-O+	c #E51316",
";O+	c #DC1417",
">O+	c #B21415",
",O+	c #632B1E",
"'O+	c #4D3420",
")O+	c #423522",
"!O+	c #3D3623",
"~O+	c #3D3624",
"{O+	c #5D4739",
"]O+	c #604A3C",
"^O+	c #5B4A38",
"/O+	c #554432",
"(O+	c #493929",
"_O+	c #4E3E2F",
":O+	c #584839",
"<O+	c #574A3A",
"[O+	c #504333",
"}O+	c #514434",
"|O+	c #4F4134",
"1O+	c #5A4A3D",
"2O+	c #543D35",
"3O+	c #5B423B",
"4O+	c #6A4C44",
"5O+	c #61433B",
"6O+	c #462820",
"7O+	c #573931",
"8O+	c #72534E",
"9O+	c #866762",
"0O+	c #6D4E49",
"aO+	c #452621",
"bO+	c #492A25",
"cO+	c #452C27",
"dO+	c #3F2B24",
"eO+	c #3D2D20",
"fO+	c #402013",
"gO+	c #441F16",
"hO+	c #441910",
"iO+	c #4B1A15",
"jO+	c #4E1B18",
"kO+	c #431714",
"lO+	c #381B15",
"mO+	c #290400",
"nO+	c #481B16",
"oO+	c #A16C68",
"pO+	c #9E635F",
"qO+	c #761D17",
"rO+	c #7C130F",
"sO+	c #8A1E1C",
"tO+	c #9E2D2F",
"uO+	c #8B1D20",
"vO+	c #780F14",
"wO+	c #98383C",
"xO+	c #893739",
"yO+	c #54100F",
"zO+	c #430E0A",
"AO+	c #401810",
"BO+	c #381A0F",
"CO+	c #382517",
"DO+	c #321E17",
"EO+	c #3A302F",
"FO+	c #2D2C28",
"GO+	c #545550",
"HO+	c #272926",
"IO+	c #080A07",
"JO+	c #0A0C09",
"KO+	c #3A1012",
"LO+	c #63282A",
"MO+	c #672527",
"NO+	c #521012",
"OO+	c #160003",
"PO+	c #2B0E12",
"QO+	c #543837",
"RO+	c #412824",
"SO+	c #210500",
"TO+	c #3B0A06",
"UO+	c #4E0003",
"VO+	c #660007",
"WO+	c #810811",
"XO+	c #A0191F",
"YO+	c #B8272C",
"ZO+	c #BB2C2E",
"`O+	c #821518",
" P+	c #791203",
".P+	c #7A0E01",
"+P+	c #790F01",
"@P+	c #7D1605",
"#P+	c #811606",
"$P+	c #881000",
"%P+	c #8A0F00",
"&P+	c #8D0F00",
"*P+	c #921304",
"=P+	c #901203",
"-P+	c #8D1202",
";P+	c #8D1304",
">P+	c #8A1909",
",P+	c #85160B",
"'P+	c #8B160D",
")P+	c #8D1308",
"!P+	c #9C0B08",
"~P+	c #A50708",
"{P+	c #AD0409",
"]P+	c #B5060B",
"^P+	c #BB0B0B",
"/P+	c #C20F0B",
"(P+	c #D41B16",
"_P+	c #D4150D",
":P+	c #D51917",
"<P+	c #C91D19",
"[P+	c #C02922",
"}P+	c #B33833",
"|P+	c #711717",
"1P+	c #4C0608",
"2P+	c #390303",
"3P+	c #350802",
"4P+	c #881615",
"5P+	c #B91A17",
"6P+	c #E00A0A",
"7P+	c #D51719",
"8P+	c #B61012",
"9P+	c #981211",
"0P+	c #59291D",
"aP+	c #553020",
"bP+	c #473A27",
"cP+	c #413C28",
"dP+	c #3D3A27",
"eP+	c #3B3827",
"fP+	c #4A3E32",
"gP+	c #5C4736",
"hP+	c #544333",
"iP+	c #57493C",
"jP+	c #514036",
"kP+	c #524036",
"lP+	c #5B473E",
"mP+	c #5D463E",
"nP+	c #5F463F",
"oP+	c #5F423C",
"pP+	c #5D403A",
"qP+	c #4B2E28",
"rP+	c #70534D",
"sP+	c #846761",
"tP+	c #694C46",
"uP+	c #492C26",
"vP+	c #41241E",
"wP+	c #35291B",
"xP+	c #342415",
"yP+	c #43271B",
"zP+	c #48261D",
"AP+	c #441C14",
"BP+	c #481814",
"CP+	c #3E110E",
"DP+	c #34110F",
"EP+	c #8E5856",
"FP+	c #BE8281",
"GP+	c #803B36",
"HP+	c #801E15",
"IP+	c #881C19",
"JP+	c #9F2F2E",
"KP+	c #922123",
"LP+	c #790F13",
"MP+	c #912E31",
"NP+	c #873235",
"OP+	c #530D0D",
"PP+	c #440D0A",
"QP+	c #3B1F1B",
"RP+	c #49413F",
"SP+	c #4B4140",
"TP+	c #170305",
"UP+	c #2F060C",
"VP+	c #490D15",
"WP+	c #82323B",
"XP+	c #903640",
"YP+	c #7E232C",
"ZP+	c #5B0A10",
"`P+	c #400507",
" Q+	c #280201",
".Q+	c #0E0307",
"+Q+	c #1C0609",
"@Q+	c #23090C",
"#Q+	c #412927",
"$Q+	c #230600",
"%Q+	c #4F0004",
"&Q+	c #730D18",
"*Q+	c #922028",
"=Q+	c #A2272C",
"-Q+	c #AB2A2E",
";Q+	c #A82A2D",
">Q+	c #8D1F20",
",Q+	c #6C1212",
"'Q+	c #290101",
")Q+	c #1D0503",
"!Q+	c #751604",
"~Q+	c #780E00",
"{Q+	c #821101",
"]Q+	c #870D00",
"^Q+	c #8E0800",
"/Q+	c #990F04",
"(Q+	c #980E03",
"_Q+	c #941204",
":Q+	c #911607",
"<Q+	c #8E1908",
"[Q+	c #83170B",
"}Q+	c #86170C",
"|Q+	c #801004",
"1Q+	c #831107",
"2Q+	c #89140A",
"3Q+	c #8C1008",
"4Q+	c #8E0F06",
"5Q+	c #8D0D00",
"6Q+	c #940B01",
"7Q+	c #AA0404",
"8Q+	c #B40608",
"9Q+	c #BE0A0D",
"0Q+	c #C4100F",
"aQ+	c #CC1511",
"bQ+	c #D0100B",
"cQ+	c #DA1912",
"dQ+	c #D01D16",
"eQ+	c #C3251A",
"fQ+	c #B9362E",
"gQ+	c #862826",
"hQ+	c #5C1213",
"iQ+	c #470101",
"jQ+	c #230200",
"kQ+	c #590805",
"lQ+	c #9B1A15",
"mQ+	c #BB221D",
"nQ+	c #C9120E",
"oQ+	c #CC0F0D",
"pQ+	c #CA110F",
"qQ+	c #C01C1B",
"rQ+	c #9C1210",
"sQ+	c #482E1F",
"tQ+	c #463D2C",
"uQ+	c #444130",
"vQ+	c #41402E",
"wQ+	c #3F3C2B",
"xQ+	c #574F42",
"yQ+	c #52463A",
"zQ+	c #4F3F32",
"AQ+	c #564033",
"BQ+	c #574133",
"CQ+	c #5A4738",
"DQ+	c #675547",
"EQ+	c #59493A",
"FQ+	c #504436",
"GQ+	c #4F4335",
"HQ+	c #4A3C2F",
"IQ+	c #544339",
"JQ+	c #614F45",
"KQ+	c #604C43",
"LQ+	c #5A463D",
"MQ+	c #604740",
"NQ+	c #694E47",
"OQ+	c #866963",
"PQ+	c #654842",
"QQ+	c #4C2F29",
"RQ+	c #533630",
"SQ+	c #2C190B",
"TQ+	c #2F170B",
"UQ+	c #441712",
"VQ+	c #4F1C19",
"WQ+	c #4B1817",
"XQ+	c #441817",
"YQ+	c #401818",
"ZQ+	c #39201C",
"`Q+	c #381F1B",
" R+	c #3E0C0B",
".R+	c #7D4745",
"+R+	c #CA8E8D",
"@R+	c #944F4A",
"#R+	c #8D3426",
"$R+	c #8C2B22",
"%R+	c #922623",
"&R+	c #8C2020",
"*R+	c #8D2D2F",
"=R+	c #832F2F",
"-R+	c #520C0C",
";R+	c #440F0B",
">R+	c #421913",
",R+	c #301C15",
"'R+	c #361D18",
")R+	c #2E211B",
"!R+	c #504846",
"~R+	c #453B3A",
"{R+	c #363531",
"]R+	c #1C1C1A",
"^R+	c #1D1C18",
"/R+	c #1E080A",
"(R+	c #180204",
"_R+	c #110104",
":R+	c #2F0008",
"<R+	c #4D0914",
"[R+	c #78202C",
"}R+	c #95303E",
"|R+	c #8F2934",
"1R+	c #6F141D",
"2R+	c #510C0F",
"3R+	c #310303",
"4R+	c #1C0C0F",
"5R+	c #170002",
"6R+	c #671A20",
"7R+	c #8D3038",
"8R+	c #A43F45",
"9R+	c #A0353B",
"0R+	c #96282B",
"aR+	c #892122",
"bR+	c #721301",
"cR+	c #711402",
"dR+	c #731402",
"eR+	c #761202",
"fR+	c #761001",
"gR+	c #760F00",
"hR+	c #780D00",
"iR+	c #811103",
"jR+	c #851102",
"kR+	c #8D0700",
"lR+	c #A71309",
"mR+	c #A80F07",
"nR+	c #AF160E",
"oR+	c #AE170E",
"pR+	c #A9160C",
"qR+	c #A11508",
"rR+	c #921002",
"sR+	c #8C1101",
"tR+	c #8A1202",
"uR+	c #841607",
"vR+	c #811306",
"wR+	c #820D03",
"xR+	c #8A0A01",
"yR+	c #950C00",
"zR+	c #9C0800",
"AR+	c #C50E10",
"BR+	c #CF1719",
"CR+	c #D31B19",
"DR+	c #D61B16",
"ER+	c #E31D14",
"FR+	c #E71810",
"GR+	c #E91D14",
"HR+	c #E52017",
"IR+	c #D62116",
"JR+	c #C62417",
"KR+	c #B22C21",
"LR+	c #8F2D2A",
"MR+	c #681C1E",
"NR+	c #3B0908",
"OR+	c #300403",
"PR+	c #280906",
"QR+	c #290B09",
"RR+	c #45221E",
"SR+	c #4D1812",
"TR+	c #530A01",
"UR+	c #6A0900",
"VR+	c #8E170F",
"WR+	c #B0251E",
"XR+	c #B81F1A",
"YR+	c #C2231F",
"ZR+	c #C62825",
"`R+	c #BC2723",
" S+	c #41392C",
".S+	c #453F31",
"+S+	c #4A4235",
"@S+	c #52483C",
"#S+	c #4E3E31",
"$S+	c #68564A",
"%S+	c #5F4D3F",
"&S+	c #483527",
"*S+	c #6B5849",
"=S+	c #594D3F",
"-S+	c #4F4637",
";S+	c #55493B",
">S+	c #5E5045",
",S+	c #56453B",
"'S+	c #65514A",
")S+	c #6F5852",
"!S+	c #5B423D",
"~S+	c #321612",
"{S+	c #432723",
"]S+	c #412521",
"^S+	c #7A5F58",
"/S+	c #51362F",
"(S+	c #4E332C",
"_S+	c #482D26",
":S+	c #472C25",
"<S+	c #4A2D27",
"[S+	c #42251F",
"}S+	c #40231D",
"|S+	c #372018",
"1S+	c #322117",
"2S+	c #29150A",
"3S+	c #3D100D",
"4S+	c #491615",
"5S+	c #451312",
"6S+	c #3D1A18",
"7S+	c #3D1515",
"8S+	c #461818",
"9S+	c #5F2728",
"0S+	c #AF7373",
"aS+	c #8F4739",
"bS+	c #742715",
"cS+	c #7A1614",
"dS+	c #600100",
"eS+	c #7C2222",
"fS+	c #833533",
"gS+	c #2F1B12",
"hS+	c #3E3433",
"iS+	c #463C3B",
"jS+	c #302C29",
"kS+	c #180507",
"lS+	c #1C0106",
"mS+	c #33040C",
"nS+	c #3D0004",
"oS+	c #670F1B",
"pS+	c #841F2D",
"qS+	c #97313C",
"rS+	c #892E37",
"sS+	c #5D181B",
"tS+	c #120E0F",
"uS+	c #110207",
"vS+	c #140105",
"wS+	c #683232",
"xS+	c #975056",
"yS+	c #8F3E45",
"zS+	c #822D32",
"AS+	c #7A2125",
"BS+	c #540302",
"CS+	c #3B0602",
"DS+	c #711603",
"ES+	c #870F01",
"FS+	c #9B0B02",
"GS+	c #C31C16",
"HS+	c #C01913",
"IS+	c #B71910",
"JS+	c #A51608",
"KS+	c #981405",
"LS+	c #951708",
"MS+	c #8F1E0E",
"NS+	c #8C1B0B",
"OS+	c #851404",
"PS+	c #820E00",
"QS+	c #871304",
"RS+	c #860E00",
"SS+	c #880C00",
"TS+	c #8F0F04",
"US+	c #941107",
"VS+	c #940E05",
"WS+	c #9E0B00",
"XS+	c #A80B00",
"YS+	c #CC1213",
"ZS+	c #D5191A",
"`S+	c #DA211C",
" T+	c #D1150C",
".T+	c #DA1A0F",
"+T+	c #D01E10",
"@T+	c #C42414",
"#T+	c #B12D20",
"$T+	c #9E3B36",
"%T+	c #7A2A2B",
"&T+	c #300A09",
"*T+	c #2F0C0A",
"=T+	c #5C3E36",
"-T+	c #59291F",
";T+	c #4C0800",
">T+	c #5C0200",
",T+	c #AC2B26",
"'T+	c #B73832",
")T+	c #AE3731",
"!T+	c #8E251F",
"~T+	c #5C2217",
"{T+	c #54463B",
"]T+	c #5E5043",
"^T+	c #69594A",
"/T+	c #5F4F3F",
"(T+	c #4D3D2E",
"_T+	c #574B3D",
":T+	c #4E4536",
"<T+	c #52493A",
"[T+	c #5B4F43",
"}T+	c #564A3E",
"|T+	c #514539",
"1T+	c #75615A",
"2T+	c #59403B",
"3T+	c #331713",
"4T+	c #4C332E",
"5T+	c #7B5F5B",
"6T+	c #553C35",
"7T+	c #442922",
"8T+	c #3F221C",
"9T+	c #3C100D",
"0T+	c #401010",
"aT+	c #401212",
"bT+	c #3F1516",
"cT+	c #3E1817",
"dT+	c #2C0A09",
"eT+	c #4C2223",
"fT+	c #965C5B",
"gT+	c #C78A85",
"hT+	c #824334",
"iT+	c #682512",
"jT+	c #722918",
"kT+	c #72211E",
"lT+	c #7F3834",
"mT+	c #511612",
"nT+	c #48231D",
"oT+	c #2F2724",
"pT+	c #250B0C",
"qT+	c #130407",
"rT+	c #200A0D",
"sT+	c #330C11",
"tT+	c #3B0209",
"uT+	c #4F030D",
"vT+	c #660F18",
"wT+	c #7D232C",
"xT+	c #7F2E34",
"yT+	c #5E2023",
"zT+	c #250C0F",
"AT+	c #2A100F",
"BT+	c #471D1E",
"CT+	c #7F4E51",
"DT+	c #8A5358",
"ET+	c #6B2E33",
"FT+	c #601E22",
"GT+	c #521014",
"HT+	c #500B0E",
"IT+	c #480607",
"JT+	c #260300",
"KT+	c #1E0904",
"LT+	c #8E0E03",
"MT+	c #9D0A02",
"NT+	c #AF120B",
"OT+	c #D32421",
"PT+	c #D8221F",
"QT+	c #B0180B",
"RT+	c #A21909",
"ST+	c #9E1B09",
"TT+	c #941705",
"UT+	c #931808",
"VT+	c #971E0D",
"WT+	c #961E0D",
"XT+	c #921A09",
"YT+	c #8D1403",
"ZT+	c #951104",
"`T+	c #960E02",
" U+	c #980B01",
".U+	c #9C0E04",
"+U+	c #A90A00",
"@U+	c #B60C00",
"#U+	c #D4231D",
"$U+	c #E32E25",
"%U+	c #E22A1E",
"&U+	c #E6281C",
"*U+	c #E82A1E",
"=U+	c #E32D20",
"-U+	c #D83121",
";U+	c #CB3524",
">U+	c #BC3D2E",
",U+	c #A33D39",
"'U+	c #5F1411",
")U+	c #390803",
"!U+	c #2D0909",
"~U+	c #4C3E35",
"{U+	c #62463B",
"]U+	c #5A2E23",
"^U+	c #4F1007",
"/U+	c #500100",
"(U+	c #670400",
"_U+	c #812621",
":U+	c #72251D",
"<U+	c #5E2015",
"[U+	c #5B2A1C",
"}U+	c #623C2F",
"|U+	c #583C31",
"1U+	c #4F3830",
"2U+	c #4A332B",
"3U+	c #49382E",
"4U+	c #534238",
"5U+	c #514336",
"6U+	c #56483B",
"7U+	c #65574A",
"8U+	c #4A3D2D",
"9U+	c #59493C",
"0U+	c #5A4E40",
"aU+	c #54483A",
"bU+	c #4C4236",
"cU+	c #605448",
"dU+	c #615048",
"eU+	c #604D46",
"fU+	c #3B221E",
"gU+	c #513A34",
"hU+	c #3D241F",
"iU+	c #4A332D",
"jU+	c #49302B",
"kU+	c #412A22",
"lU+	c #36221B",
"mU+	c #3C0C0A",
"nU+	c #431515",
"oU+	c #411718",
"pU+	c #3C1414",
"qU+	c #3F1314",
"rU+	c #743E3E",
"sU+	c #B97F7B",
"tU+	c #8B5344",
"uU+	c #6D3220",
"vU+	c #712F1F",
"wU+	c #773B33",
"xU+	c #4D1B14",
"yU+	c #3E160E",
"zU+	c #493F3D",
"AU+	c #3F3534",
"BU+	c #4F4543",
"CU+	c #3F3734",
"DU+	c #282320",
"EU+	c #2A1114",
"FU+	c #340002",
"GU+	c #3D0002",
"HU+	c #501011",
"IU+	c #5E2222",
"JU+	c #4B1E1B",
"KU+	c #1E0B0D",
"LU+	c #190507",
"MU+	c #1B0102",
"NU+	c #3A1C1C",
"OU+	c #583436",
"PU+	c #805658",
"QU+	c #835256",
"RU+	c #420F14",
"SU+	c #2E0002",
"TU+	c #2A0401",
"UU+	c #160203",
"VU+	c #1D0400",
"WU+	c #821204",
"XU+	c #8E1206",
"YU+	c #991006",
"ZU+	c #A11108",
"`U+	c #D2201C",
" V+	c #DA1E1D",
".V+	c #D91918",
"+V+	c #B6160A",
"@V+	c #A31A08",
"#V+	c #9F1707",
"$V+	c #9B1806",
"%V+	c #9A1705",
"&V+	c #991805",
"*V+	c #991604",
"=V+	c #A7190B",
"-V+	c #A00E01",
";V+	c #A00900",
">V+	c #A70D03",
",V+	c #A70500",
"'V+	c #B60B00",
")V+	c #CE1817",
"!V+	c #C11A12",
"~V+	c #BB1104",
"{V+	c #B70900",
"]V+	c #B10900",
"^V+	c #A50900",
"/V+	c #960D00",
"(V+	c #891103",
"_V+	c #8D2725",
":V+	c #702220",
"<V+	c #450200",
"[V+	c #3F0801",
"}V+	c #2E0600",
"|V+	c #2F0803",
"1V+	c #2F0708",
"2V+	c #280C0B",
"3V+	c #664941",
"4V+	c #5E332C",
"5V+	c #4C120E",
"6V+	c #58130E",
"7V+	c #510603",
"8V+	c #550705",
"9V+	c #5F1A15",
"0V+	c #5F261F",
"aV+	c #51271B",
"bV+	c #4E3A31",
"cV+	c #67594C",
"dV+	c #776B5D",
"eV+	c #4B3F2F",
"fV+	c #5C4E41",
"gV+	c #5B4B3E",
"hV+	c #5B4D40",
"iV+	c #554B3F",
"jV+	c #564C40",
"kV+	c #574D41",
"lV+	c #63594F",
"mV+	c #493B32",
"nV+	c #7C6E65",
"oV+	c #503B36",
"pV+	c #5A463F",
"qV+	c #4D3932",
"rV+	c #341E13",
"sV+	c #3A0E0B",
"tV+	c #381513",
"uV+	c #2F0908",
"vV+	c #532321",
"wV+	c #9A6763",
"xV+	c #9F6A5C",
"yV+	c #7A4130",
"zV+	c #601C13",
"AV+	c #471B12",
"BV+	c #331107",
"CV+	c #2F140B",
"DV+	c #453B39",
"EV+	c #4A403E",
"FV+	c #5C5451",
"GV+	c #403835",
"HV+	c #17070A",
"IV+	c #160204",
"JV+	c #1C0809",
"KV+	c #271113",
"LV+	c #412728",
"MV+	c #532C31",
"NV+	c #380D14",
"OV+	c #32070E",
"PV+	c #250506",
"QV+	c #0F0800",
"RV+	c #230401",
"SV+	c #851104",
"TV+	c #951306",
"UV+	c #A11309",
"VV+	c #AD160F",
"WV+	c #CE1F1A",
"XV+	c #D81F1C",
"YV+	c #D91614",
"ZV+	c #D70D0D",
"`V+	c #D80E0C",
" W+	c #AE1505",
".W+	c #A71A06",
"+W+	c #B71E10",
"@W+	c #AE0A00",
"#W+	c #B81007",
"$W+	c #BB1008",
"%W+	c #CA0B03",
"&W+	c #D21819",
"*W+	c #C51517",
"=W+	c #B2100D",
"-W+	c #A60D07",
";W+	c #9F0800",
">W+	c #A00800",
",W+	c #A10500",
"'W+	c #9E0100",
")W+	c #980100",
"!W+	c #8F0500",
"~W+	c #7B0C01",
"{W+	c #923435",
"]W+	c #81302F",
"^W+	c #500B06",
"/W+	c #3C0600",
"(W+	c #3C1005",
"_W+	c #320C01",
":W+	c #2F0D03",
"<W+	c #3D2A24",
"[W+	c #542B29",
"}W+	c #6A3638",
"|W+	c #5D2224",
"1W+	c #571B1D",
"2W+	c #5E2828",
"3W+	c #5C332D",
"4W+	c #4D3126",
"5W+	c #443828",
"6W+	c #4D4133",
"7W+	c #503A2F",
"8W+	c #513B30",
"9W+	c #504033",
"0W+	c #5D4F42",
"aW+	c #453C2D",
"bW+	c #534A3B",
"cW+	c #5E5244",
"dW+	c #5F5144",
"eW+	c #594B3E",
"fW+	c #54483C",
"gW+	c #524A3D",
"hW+	c #585043",
"iW+	c #5B5348",
"jW+	c #493F35",
"kW+	c #5F554B",
"lW+	c #5A4C43",
"mW+	c #4D3A36",
"nW+	c #3A2721",
"oW+	c #2F1F12",
"pW+	c #2C1B11",
"qW+	c #2A190F",
"rW+	c #27120F",
"sW+	c #371B1A",
"tW+	c #351918",
"uW+	c #402222",
"vW+	c #351312",
"wW+	c #2B0504",
"xW+	c #835651",
"yW+	c #A26C62",
"zW+	c #81453A",
"AW+	c #631F16",
"BW+	c #55150C",
"CW+	c #531A11",
"DW+	c #403533",
"EW+	c #3E3331",
"FW+	c #271C1A",
"GW+	c #443A38",
"HW+	c #524846",
"IW+	c #160200",
"JW+	c #1B0508",
"KW+	c #240E11",
"LW+	c #2F1B1D",
"MW+	c #372426",
"NW+	c #302021",
"OW+	c #4A3C3C",
"PW+	c #716161",
"QW+	c #341E20",
"RW+	c #23060A",
"SW+	c #2F1015",
"TW+	c #1C0E0E",
"UW+	c #0F0500",
"VW+	c #891309",
"WW+	c #7E0E02",
"XW+	c #930D02",
"YW+	c #A20F05",
"ZW+	c #C41D17",
"`W+	c #D51F1B",
" X+	c #DD1311",
".X+	c #DB0B09",
"+X+	c #D80E0A",
"@X+	c #D11009",
"#X+	c #C81308",
"$X+	c #AD1D05",
"%X+	c #B91E0C",
"&X+	c #BA210F",
"*X+	c #B9200E",
"=X+	c #B61F0C",
"-X+	c #B41D0A",
";X+	c #B41B09",
">X+	c #B91C0B",
",X+	c #C02010",
"'X+	c #C8160C",
")X+	c #CD160E",
"!X+	c #CD0C07",
"~X+	c #D51415",
"{X+	c #910800",
"]X+	c #8F0200",
"^X+	c #880200",
"/X+	c #820600",
"(X+	c #8D2A2D",
"_X+	c #8D3738",
":X+	c #3E0800",
"<X+	c #3A1002",
"[X+	c #341304",
"}X+	c #260900",
"|X+	c #2C0F01",
"1X+	c #2C0E03",
"2X+	c #2D0B0A",
"3X+	c #260E0C",
"4X+	c #2D1817",
"5X+	c #482A2C",
"6X+	c #471E24",
"7X+	c #491A20",
"8X+	c #512026",
"9X+	c #5A2D30",
"0X+	c #563432",
"aX+	c #4C493A",
"bX+	c #4A4434",
"cX+	c #685A4D",
"dX+	c #504738",
"eX+	c #584C3E",
"fX+	c #55473A",
"gX+	c #574F44",
"hX+	c #574541",
"iX+	c #483632",
"jX+	c #413029",
"kX+	c #291411",
"lX+	c #270F0D",
"mX+	c #2C1412",
"nX+	c #301816",
"oX+	c #220100",
"pX+	c #5D342E",
"qX+	c #9C635C",
"rX+	c #93524C",
"sX+	c #54110B",
"tX+	c #4E1911",
"uX+	c #43180F",
"vX+	c #311106",
"wX+	c #2A1206",
"xX+	c #3D3230",
"yX+	c #5D5351",
"zX+	c #120B03",
"AX+	c #140300",
"BX+	c #150200",
"CX+	c #1B0507",
"DX+	c #170104",
"EX+	c #1D0408",
"FX+	c #261013",
"GX+	c #261617",
"HX+	c #2D2523",
"IX+	c #230602",
"JX+	c #8C130A",
"KX+	c #861409",
"LX+	c #841408",
"MX+	c #7F0D02",
"NX+	c #800A00",
"OX+	c #9E0A00",
"PX+	c #C0150E",
"QX+	c #D41209",
"RX+	c #CB1508",
"SX+	c #C01907",
"TX+	c #B81D09",
"UX+	c #B22208",
"VX+	c #B5230C",
"WX+	c #C31D0D",
"XX+	c #C72111",
"YX+	c #C62312",
"ZX+	c #C01F0D",
"`X+	c #BF1E0C",
" Y+	c #C51F0F",
".Y+	c #C5180A",
"+Y+	c #CB1309",
"@Y+	c #D4180F",
"#Y+	c #D91811",
"$Y+	c #D7170C",
"%Y+	c #B41116",
"&Y+	c #970908",
"*Y+	c #860603",
"=Y+	c #850A03",
"-Y+	c #8A0B04",
";Y+	c #830600",
">Y+	c #7E0400",
",Y+	c #7A0A06",
"'Y+	c #70070B",
")Y+	c #861F23",
"!Y+	c #8E3635",
"~Y+	c #461006",
"{Y+	c #371001",
"]Y+	c #271000",
"^Y+	c #2A1003",
"/Y+	c #2B0F0E",
"(Y+	c #271315",
"_Y+	c #32191F",
":Y+	c #38141E",
"<Y+	c #431B24",
"[Y+	c #4E252D",
"}Y+	c #512A2F",
"|Y+	c #462A29",
"1Y+	c #3F382E",
"2Y+	c #464739",
"3Y+	c #444533",
"4Y+	c #3A3724",
"5Y+	c #614E40",
"6Y+	c #5C5246",
"7Y+	c #473B2F",
"8Y+	c #51473B",
"9Y+	c #595144",
"0Y+	c #4F473C",
"aY+	c #70685D",
"bY+	c #4B4338",
"cY+	c #60534A",
"dY+	c #3C2D28",
"eY+	c #2C2515",
"fY+	c #282212",
"gY+	c #261E11",
"hY+	c #2A1514",
"iY+	c #905551",
"jY+	c #B06967",
"kY+	c #7D3330",
"lY+	c #5A1711",
"mY+	c #5C2119",
"nY+	c #4D1B12",
"oY+	c #261305",
"pY+	c #514644",
"qY+	c #625755",
"rY+	c #332826",
"sY+	c #3E3432",
"tY+	c #504644",
"uY+	c #594F4D",
"vY+	c #2A0608",
"wY+	c #260301",
"xY+	c #250304",
"yY+	c #220509",
"zY+	c #110002",
"AY+	c #110A00",
"BY+	c #230507",
"CY+	c #29040C",
"DY+	c #28030B",
"EY+	c #1D0004",
"FY+	c #1F0508",
"GY+	c #25080C",
"HY+	c #0C0E0D",
"IY+	c #090D0E",
"JY+	c #050A0D",
"KY+	c #04090C",
"LY+	c #05090A",
"MY+	c #270303",
"NY+	c #2C0307",
"OY+	c #92130A",
"PY+	c #8E150A",
"QY+	c #8D1409",
"RY+	c #8C1207",
"SY+	c #8B0F03",
"TY+	c #950900",
"UY+	c #A20B00",
"VY+	c #B00F05",
"WY+	c #CB100B",
"XY+	c #BF1F09",
"YY+	c #BA220A",
"ZY+	c #BE240C",
"`Y+	c #CB220F",
" Z+	c #CF200F",
".Z+	c #C91806",
"+Z+	c #D32210",
"@Z+	c #D01C0D",
"#Z+	c #CB1507",
"$Z+	c #D41B19",
"%Z+	c #A8100D",
"&Z+	c #7F0A01",
"*Z+	c #7C0D04",
"=Z+	c #810B07",
"-Z+	c #80130E",
";Z+	c #7A1616",
">Z+	c #7C181A",
",Z+	c #89312F",
"'Z+	c #7F342F",
")Z+	c #52160C",
"!Z+	c #3D0F02",
"~Z+	c #411D0D",
"{Z+	c #391C0C",
"]Z+	c #2B1402",
"^Z+	c #2B1404",
"/Z+	c #261002",
"(Z+	c #220C00",
"_Z+	c #3B0D0F",
":Z+	c #321D1C",
"<Z+	c #321C1E",
"[Z+	c #2C1116",
"}Z+	c #44252A",
"|Z+	c #4A2A2F",
"1Z+	c #502D33",
"2Z+	c #472F2D",
"3Z+	c #473531",
"4Z+	c #4C433A",
"5Z+	c #534F43",
"6Z+	c #444331",
"7Z+	c #383522",
"8Z+	c #4F3B30",
"9Z+	c #614F41",
"0Z+	c #574B3F",
"aZ+	c #5D4F44",
"bZ+	c #57493E",
"cZ+	c #5C4E43",
"dZ+	c #584C40",
"eZ+	c #4B4135",
"fZ+	c #594F43",
"gZ+	c #675F54",
"hZ+	c #655B51",
"iZ+	c #493F33",
"jZ+	c #42332E",
"kZ+	c #262012",
"lZ+	c #7E4442",
"mZ+	c #BE7677",
"nZ+	c #863E3F",
"oZ+	c #5A1213",
"pZ+	c #5D1717",
"qZ+	c #58211C",
"rZ+	c #44150F",
"sZ+	c #2D0800",
"tZ+	c #615654",
"uZ+	c #534846",
"vZ+	c #5A524F",
"wZ+	c #341210",
"xZ+	c #270408",
"yZ+	c #210207",
"zZ+	c #1E0105",
"AZ+	c #280002",
"BZ+	c #34020B",
"CZ+	c #3A1117",
"DZ+	c #441F26",
"EZ+	c #523235",
"FZ+	c #553739",
"GZ+	c #3E2425",
"HZ+	c #291413",
"IZ+	c #311F1D",
"JZ+	c #4E4741",
"KZ+	c #282722",
"LZ+	c #030802",
"MZ+	c #0F1410",
"NZ+	c #090F0B",
"OZ+	c #050B09",
"PZ+	c #050B0B",
"QZ+	c #090A0C",
"RZ+	c #0A0A0A",
"SZ+	c #230400",
"TZ+	c #94180C",
"UZ+	c #901108",
"VZ+	c #8F0F06",
"WZ+	c #A7201A",
"XZ+	c #B02923",
"YZ+	c #AE281F",
"ZZ+	c #941407",
"`Z+	c #991B0C",
" `+	c #8B1302",
".`+	c #861100",
"+`+	c #8A1001",
"@`+	c #A00600",
"#`+	c #B10A01",
"$`+	c #D91A10",
"%`+	c #D9190E",
"&`+	c #D7190B",
"*`+	c #D3190A",
"=`+	c #CC200C",
"-`+	c #CC230E",
";`+	c #CE240D",
">`+	c #D9200C",
",`+	c #DE210D",
"'`+	c #E01F0D",
")`+	c #D91403",
"!`+	c #DB1605",
"~`+	c #DF160E",
"{`+	c #E61914",
"]`+	c #DF1A0A",
"^`+	c #D00F00",
"/`+	c #CF1A0F",
"(`+	c #9E1203",
"_`+	c #840F00",
":`+	c #7D1603",
"<`+	c #720F00",
"[`+	c #831106",
"}`+	c #90150D",
"|`+	c #812C27",
"1`+	c #772E27",
"2`+	c #55160D",
"3`+	c #4A2216",
"4`+	c #331606",
"5`+	c #301909",
"6`+	c #291808",
"7`+	c #231103",
"8`+	c #422320",
"9`+	c #503430",
"0`+	c #5D4A43",
"a`+	c #55443C",
"b`+	c #5D4F46",
"c`+	c #55473E",
"d`+	c #564940",
"e`+	c #7D7367",
"f`+	c #2E1A19",
"g`+	c #5B2825",
"h`+	c #955555",
"i`+	c #995959",
"j`+	c #652526",
"k`+	c #531516",
"l`+	c #5E2325",
"m`+	c #4A1817",
"n`+	c #41221F",
"o`+	c #6A5F5B",
"p`+	c #473C38",
"q`+	c #433E3A",
"r`+	c #393430",
"s`+	c #26090D",
"t`+	c #270A0E",
"u`+	c #250B0E",
"v`+	c #1A0808",
"w`+	c #2D0002",
"x`+	c #430C0F",
"y`+	c #551B1A",
"z`+	c #682C2E",
"A`+	c #723A45",
"B`+	c #75434E",
"C`+	c #6B4449",
"D`+	c #371F1B",
"E`+	c #4A382E",
"F`+	c #121407",
"G`+	c #0F1509",
"H`+	c #070A03",
"I`+	c #080F07",
"J`+	c #041006",
"K`+	c #030D04",
"L`+	c #210905",
"M`+	c #1B0802",
"N`+	c #961809",
"O`+	c #931006",
"P`+	c #B0231A",
"Q`+	c #A1170C",
"R`+	c #9A1B08",
"S`+	c #971D08",
"T`+	c #8C1703",
"U`+	c #851402",
"V`+	c #881405",
"W`+	c #930E00",
"X`+	c #9C0A00",
"Y`+	c #AA0C00",
"Z`+	c #D6180A",
"``+	c #D41908",
"  @	c #D31E0B",
". @	c #DD230E",
"+ @	c #DF200D",
"@ @	c #E3200E",
"# @	c #E82010",
"$ @	c #E81D0C",
"% @	c #E71A09",
"& @	c #E01B08",
"* @	c #DF1E0D",
"= @	c #DB1A09",
"- @	c #DD170A",
"; @	c #E91A14",
"> @	c #E51B0D",
", @	c #D51405",
"' @	c #D41E10",
") @	c #781200",
"! @	c #7D1804",
"~ @	c #94150E",
"{ @	c #891307",
"] @	c #802520",
"^ @	c #8D3531",
"/ @	c #440100",
"( @	c #471308",
"_ @	c #381205",
": @	c #301406",
"< @	c #281302",
"[ @	c #260E02",
"} @	c #350C08",
"| @	c #7C5E54",
"1 @	c #362015",
"2 @	c #432F24",
"3 @	c #564239",
"4 @	c #503C33",
"5 @	c #67504A",
"6 @	c #58413B",
"7 @	c #4C3B31",
"8 @	c #5A493F",
"9 @	c #3F3126",
"0 @	c #504239",
"a @	c #51433A",
"b @	c #4E443A",
"c @	c #685B52",
"d @	c #75685F",
"e @	c #55493D",
"f @	c #3E3121",
"g @	c #471715",
"h @	c #874D4B",
"i @	c #A16766",
"j @	c #713736",
"k @	c #561E1F",
"l @	c #521E20",
"m @	c #431D1C",
"n @	c #6E504E",
"o @	c #372825",
"p @	c #3A2C29",
"q @	c #4A3F3B",
"r @	c #322D29",
"s @	c #180606",
"t @	c #1F0609",
"u @	c #25060B",
"v @	c #29060C",
"w @	c #26060B",
"x @	c #1D0709",
"y @	c #2F0103",
"z @	c #420A0D",
"A @	c #521117",
"B @	c #652025",
"C @	c #71292D",
"D @	c #752D30",
"E @	c #6F272A",
"F @	c #6A2625",
"G @	c #6B2A28",
"H @	c #692B2E",
"I @	c #5E202D",
"J @	c #46101D",
"K @	c #340B11",
"L @	c #381A12",
"M @	c #2F0E05",
"N @	c #170300",
"O @	c #0E0E02",
"P @	c #090A02",
"Q @	c #1E1010",
"R @	c #080D06",
"S @	c #030F03",
"T @	c #050B01",
"U @	c #971507",
"V @	c #961406",
"W @	c #961005",
"X @	c #9B120A",
"Y @	c #A4170E",
"Z @	c #AC1F16",
"` @	c #AA2016",
" .@	c #A1190D",
"..@	c #9D1809",
"+.@	c #A1200D",
"@.@	c #901506",
"#.@	c #AC0800",
"$.@	c #DA1D0A",
"%.@	c #E02011",
"&.@	c #E11D0D",
"*.@	c #E62111",
"=.@	c #E82312",
"-.@	c #E72211",
";.@	c #E21A0D",
">.@	c #E2130B",
",.@	c #EA170C",
"'.@	c #DE1C13",
").@	c #C6180D",
"!.@	c #810E00",
"~.@	c #9C1813",
"{.@	c #9A0C0B",
"].@	c #800F09",
"^.@	c #851813",
"/.@	c #790C09",
"(.@	c #821613",
"_.@	c #9E3834",
":.@	c #8E312C",
"<.@	c #430F04",
"[.@	c #2F0F02",
"}.@	c #290B01",
"|.@	c #2B0A01",
"1.@	c #714640",
"2.@	c #856058",
"3.@	c #4D2F25",
"4.@	c #41261D",
"5.@	c #634F48",
"6.@	c #4E443B",
"7.@	c #4C4239",
"8.@	c #534940",
"9.@	c #9A9086",
"0.@	c #81776D",
"a.@	c #3C3022",
"b.@	c #72413C",
"c.@	c #9D6A67",
"d.@	c #6F3C39",
"e.@	c #421011",
"f.@	c #654240",
"g.@	c #745855",
"h.@	c #3C312F",
"i.@	c #3E302F",
"j.@	c #655A56",
"k.@	c #4B403C",
"l.@	c #20070A",
"m.@	c #28080D",
"n.@	c #27080D",
"o.@	c #451719",
"p.@	c #5B2326",
"q.@	c #65272C",
"r.@	c #6E2C30",
"s.@	c #7A3339",
"t.@	c #7C3539",
"u.@	c #702B2E",
"v.@	c #5F1F1F",
"w.@	c #511413",
"x.@	c #3E0611",
"y.@	c #2C0005",
"z.@	c #260004",
"A.@	c #3F0F0D",
"B.@	c #120800",
"C.@	c #090B00",
"D.@	c #0B0800",
"E.@	c #280404",
"F.@	c #2A0304",
"G.@	c #9B1104",
"H.@	c #991103",
"I.@	c #991105",
"J.@	c #9B1307",
"K.@	c #A4170D",
"L.@	c #A61C11",
"M.@	c #A51D0F",
"N.@	c #A82511",
"O.@	c #A52710",
"P.@	c #981606",
"Q.@	c #991307",
"R.@	c #9C0E02",
"S.@	c #DD190B",
"T.@	c #DD180F",
"U.@	c #DC170E",
"V.@	c #DB1B10",
"W.@	c #DE2012",
"X.@	c #DF200E",
"Y.@	c #E32211",
"Z.@	c #DB1303",
"`.@	c #DE0F05",
" +@	c #E31814",
".+@	c #CA130D",
"++@	c #A90600",
"@+@	c #911307",
"#+@	c #91170C",
"$+@	c #961710",
"%+@	c #A11514",
"&+@	c #A1080B",
"*+@	c #970204",
"=+@	c #910603",
"-+@	c #910D08",
";+@	c #941914",
">+@	c #850D0C",
",+@	c #992623",
"'+@	c #AD4441",
")+@	c #8C312C",
"!+@	c #540701",
"~+@	c #340606",
"{+@	c #8A5955",
"]+@	c #865B55",
"^+@	c #512C24",
"/+@	c #4F372D",
"(+@	c #5F4B44",
"_+@	c #473D34",
":+@	c #4B4138",
"<+@	c #574D44",
"[+@	c #857B71",
"}+@	c #50463C",
"|+@	c #280500",
"1+@	c #976A65",
"2+@	c #794945",
"3+@	c #4F1F1D",
"4+@	c #8A6765",
"5+@	c #634A45",
"6+@	c #6F6460",
"7+@	c #552729",
"8+@	c #60292C",
"9+@	c #5E2126",
"0+@	c #57161A",
"a+@	c #5E1C20",
"b+@	c #601E20",
"c+@	c #32030B",
"d+@	c #2C020C",
"e+@	c #330F13",
"f+@	c #2A0203",
"g+@	c #300001",
"h+@	c #55171C",
"i+@	c #783338",
"j+@	c #68262A",
"k+@	c #2B0405",
"l+@	c #2D0305",
"m+@	c #2A0202",
"n+@	c #A01005",
"o+@	c #A01206",
"p+@	c #A0160B",
"q+@	c #9A1003",
"r+@	c #9F1508",
"s+@	c #A41C0C",
"t+@	c #A9220F",
"u+@	c #AC2512",
"v+@	c #AB2712",
"w+@	c #A8240F",
"x+@	c #A41608",
"y+@	c #A51105",
"z+@	c #A50B00",
"A+@	c #A80600",
"B+@	c #B00600",
"C+@	c #BC0700",
"D+@	c #CA0B01",
"E+@	c #D90D04",
"F+@	c #E10E03",
"G+@	c #E2160D",
"H+@	c #DB1816",
"I+@	c #D91E17",
"J+@	c #D51F14",
"K+@	c #CB190B",
"L+@	c #D81D0C",
"M+@	c #DC1707",
"N+@	c #E11306",
"O+@	c #F11B11",
"P+@	c #EE1A0F",
"Q+@	c #E41106",
"R+@	c #E51209",
"S+@	c #AF0601",
"T+@	c #9C0C03",
"U+@	c #9C170E",
"V+@	c #95100B",
"W+@	c #AE1317",
"X+@	c #AC0D11",
"Y+@	c #A2080A",
"Z+@	c #9C0A0A",
"`+@	c #9E1310",
" @@	c #940B05",
".@@	c #9E1815",
"+@@	c #94100E",
"@@@	c #8A0F0A",
"#@@	c #AC3B37",
"$@@	c #AA4742",
"%@@	c #4C0500",
"&@@	c #320B06",
"*@@	c #310806",
"=@@	c #6A2E2D",
"-@@	c #A36967",
";@@	c #8E5B57",
">@@	c #532822",
",@@	c #4D3028",
"'@@	c #462D26",
")@@	c #4C3932",
"!@@	c #2E1C10",
"~@@	c #43352C",
"{@@	c #4A3B34",
"]@@	c #5D534A",
"^@@	c #443A31",
"/@@	c #190F06",
"(@@	c #322423",
"_@@	c #1E0300",
":@@	c #4B2920",
"<@@	c #936C65",
"[@@	c #8F6660",
"}@@	c #4B2321",
"|@@	c #967472",
"1@@	c #6C504C",
"2@@	c #37241E",
"3@@	c #423836",
"4@@	c #493E3C",
"5@@	c #605553",
"6@@	c #3A2F2D",
"7@@	c #2F2422",
"8@@	c #46181B",
"9@@	c #461216",
"0@@	c #3F060C",
"a@@	c #46090E",
"b@@	c #490C11",
"c@@	c #480C0E",
"d@@	c #400809",
"e@@	c #410B09",
"f@@	c #340D12",
"g@@	c #29060D",
"h@@	c #2F0104",
"i@@	c #4D1017",
"j@@	c #772A34",
"k@@	c #8F3946",
"l@@	c #8B3744",
"m@@	c #6F2830",
"n@@	c #431114",
"o@@	c #2B0304",
"p@@	c #2B0103",
"q@@	c #2F0205",
"r@@	c #260202",
"s@@	c #AA1006",
"t@@	c #A71005",
"u@@	c #A8140A",
"v@@	c #A61709",
"w@@	c #A51709",
"x@@	c #A11506",
"y@@	c #A01707",
"z@@	c #A9220E",
"A@@	c #AD2411",
"B@@	c #A81A06",
"C@@	c #AF1509",
"D@@	c #B21107",
"E@@	c #B70B01",
"F@@	c #E91007",
"G@@	c #E9130B",
"H@@	c #DF191A",
"I@@	c #DA1E1F",
"J@@	c #B00A00",
"K@@	c #F5160E",
"L@@	c #F4150E",
"M@@	c #B20700",
"N@@	c #9F0B01",
"O@@	c #9D140A",
"P@@	c #970D0A",
"Q@@	c #AA1415",
"R@@	c #BB1C20",
"S@@	c #BB1B1D",
"T@@	c #A81915",
"U@@	c #920500",
"V@@	c #A9403A",
"W@@	c #540903",
"X@@	c #480902",
"Y@@	c #3F0504",
"Z@@	c #521213",
"`@@	c #8A4849",
" #@	c #B27272",
".#@	c #8B514F",
"+#@	c #54231E",
"@#@	c #542D26",
"##@	c #4E2D24",
"$#@	c #534137",
"%#@	c #231105",
"&#@	c #241208",
"*#@	c #493F36",
"=#@	c #675D54",
"-#@	c #100600",
";#@	c #3E2217",
">#@	c #826057",
",#@	c #977069",
"'#@	c #663A37",
")#@	c #5F3632",
"!#@	c #A07A77",
"~#@	c #664943",
"{#@	c #524745",
"]#@	c #463B39",
"^#@	c #392E2C",
"/#@	c #241415",
"(#@	c #271718",
"_#@	c #210B0D",
":#@	c #310003",
"<#@	c #3D060B",
"[#@	c #3A0306",
"}#@	c #350302",
"|#@	c #300401",
"1#@	c #22070C",
"2#@	c #1D0306",
"3#@	c #2B0003",
"4#@	c #53161E",
"5#@	c #7E2E3B",
"6#@	c #8E3342",
"7#@	c #963E4C",
"8#@	c #7D2F3C",
"9#@	c #4C131A",
"0#@	c #270003",
"a#@	c #1A0100",
"b#@	c #2C0907",
"c#@	c #2F0707",
"d#@	c #2D0003",
"e#@	c #1E0403",
"f#@	c #AF150B",
"g#@	c #AE180A",
"h#@	c #A01502",
"i#@	c #AA1F0A",
"j#@	c #AA1C06",
"k#@	c #BA160A",
"l#@	c #C0140A",
"m#@	c #EC130C",
"n#@	c #CE1B1E",
"o#@	c #C41C19",
"p#@	c #A20700",
"q#@	c #AD0800",
"r#@	c #E61511",
"s#@	c #D1110C",
"t#@	c #B30800",
"u#@	c #910D01",
"v#@	c #B11916",
"w#@	c #C52728",
"x#@	c #BC1E1D",
"y#@	c #AC1912",
"z#@	c #A9190E",
"A#@	c #9E1006",
"B#@	c #9B3E37",
"C#@	c #511108",
"D#@	c #320500",
"E#@	c #310400",
"F#@	c #3B0503",
"G#@	c #712B2D",
"H#@	c #A75F60",
"I#@	c #B56F6F",
"J#@	c #945454",
"K#@	c #58211E",
"L#@	c #562924",
"M#@	c #352118",
"N#@	c #473831",
"O#@	c #463931",
"P#@	c #574C46",
"Q#@	c #382F26",
"R#@	c #50473E",
"S#@	c #453C33",
"T#@	c #362F25",
"U#@	c #2A211A",
"V#@	c #34190E",
"W#@	c #704F46",
"X#@	c #9B746D",
"Y#@	c #673A35",
"Z#@	c #7C4C48",
"`#@	c #AD817E",
" $@	c #57312E",
".$@	c #403531",
"+$@	c #201011",
"@$@	c #2B0709",
"#$@	c #2B0206",
"$$@	c #2F0002",
"%$@	c #360508",
"&$@	c #390B0D",
"*$@	c #3D080E",
"=$@	c #641C27",
"-$@	c #752331",
";$@	c #7D2B39",
">$@	c #6E2530",
",$@	c #430E14",
"'$@	c #250001",
")$@	c #300405",
"!$@	c #2F0304",
"~$@	c #290205",
"{$@	c #270305",
"]$@	c #B7160C",
"^$@	c #B1170B",
"/$@	c #AC1608",
"($@	c #A41504",
"_$@	c #9C0F00",
":$@	c #9A0F00",
"<$@	c #A21501",
"[$@	c #A81A04",
"}$@	c #C3150A",
"|$@	c #DB1A11",
"1$@	c #E21C13",
"2$@	c #E61A11",
"3$@	c #F2140F",
"4$@	c #E31515",
"5$@	c #CE1719",
"6$@	c #BD1719",
"7$@	c #B11612",
"8$@	c #A61309",
"9$@	c #A80700",
"0$@	c #BC0800",
"a$@	c #F90E0A",
"b$@	c #F0120D",
"c$@	c #EB1811",
"d$@	c #B80A01",
"e$@	c #9E0600",
"f$@	c #940800",
"g$@	c #970F03",
"h$@	c #B71C18",
"i$@	c #CE2C2A",
"j$@	c #D12D2B",
"k$@	c #C0211D",
"l$@	c #A8150B",
"m$@	c #AF1C12",
"n$@	c #A5170B",
"o$@	c #950C02",
"p$@	c #910E04",
"q$@	c #840901",
"r$@	c #97342E",
"s$@	c #86312A",
"t$@	c #3F0200",
"u$@	c #330D0A",
"v$@	c #330200",
"w$@	c #591315",
"x$@	c #B86C6E",
"y$@	c #B16768",
"z$@	c #B4706F",
"A$@	c #5F2322",
"B$@	c #4B1C16",
"C$@	c #4F2A22",
"D$@	c #3B271C",
"E$@	c #37231A",
"F$@	c #331F16",
"G$@	c #4C413B",
"H$@	c #61584F",
"I$@	c #5C534A",
"J$@	c #483F36",
"K$@	c #312A20",
"L$@	c #29221A",
"M$@	c #6E4D44",
"N$@	c #AE857F",
"O$@	c #794844",
"P$@	c #945E5C",
"Q$@	c #B4817E",
"R$@	c #392B2A",
"S$@	c #4F4442",
"T$@	c #261214",
"U$@	c #1E1F1A",
"V$@	c #181914",
"W$@	c #3F3130",
"X$@	c #402E2C",
"Y$@	c #3F060D",
"Z$@	c #4B0811",
"`$@	c #531019",
" %@	c #4E1118",
".%@	c #2B0806",
"+%@	c #BC130E",
"@%@	c #BE150E",
"#%@	c #BF1810",
"$%@	c #A91604",
"%%@	c #A31200",
"&%@	c #9F1100",
"*%@	c #A21400",
"=%@	c #AB1300",
"-%@	c #BF1808",
";%@	c #CB150A",
">%@	c #E71E16",
",%@	c #F11310",
"'%@	c #DE1B19",
")%@	c #A5160E",
"!%@	c #9F170B",
"~%@	c #9A1202",
"{%@	c #9B0C00",
"]%@	c #AB0B00",
"^%@	c #E3140E",
"/%@	c #FF080A",
"(%@	c #FF0A09",
"_%@	c #F10E05",
":%@	c #F51108",
"<%@	c #ED140D",
"[%@	c #A10D00",
"}%@	c #9F1002",
"|%@	c #AF0D08",
"1%@	c #CD2421",
"2%@	c #DA2E2A",
"3%@	c #C8211B",
"4%@	c #AD1105",
"5%@	c #A70F04",
"6%@	c #A40D04",
"7%@	c #A10E04",
"8%@	c #950F06",
"9%@	c #851815",
"0%@	c #751310",
"a%@	c #410908",
"b%@	c #2D0600",
"c%@	c #451812",
"d%@	c #3F0A06",
"e%@	c #641A1B",
"f%@	c #B06061",
"g%@	c #AF5F60",
"h%@	c #BA6B6E",
"i%@	c #C17B7B",
"j%@	c #6D302F",
"k%@	c #4A231C",
"l%@	c #53362E",
"m%@	c #341D15",
"n%@	c #342019",
"o%@	c #3D2A23",
"p%@	c #4E4139",
"q%@	c #4A3D35",
"r%@	c #4D423C",
"s%@	c #564D46",
"t%@	c #786F68",
"u%@	c #615A52",
"v%@	c #3E372F",
"w%@	c #3A332B",
"x%@	c #2B2620",
"y%@	c #3C2015",
"z%@	c #704B43",
"A%@	c #91645F",
"B%@	c #834E4A",
"C%@	c #602423",
"D%@	c #995C5B",
"E%@	c #AD7171",
"F%@	c #743C3D",
"G%@	c #3F0F0F",
"H%@	c #3B2625",
"I%@	c #382425",
"J%@	c #281A1A",
"K%@	c #372B2B",
"L%@	c #2C1E1E",
"M%@	c #251113",
"N%@	c #1C0C0D",
"O%@	c #332524",
"P%@	c #392725",
"Q%@	c #2E1918",
"R%@	c #351518",
"S%@	c #341213",
"T%@	c #2C0A0B",
"U%@	c #290708",
"V%@	c #2D090B",
"W%@	c #190100",
"X%@	c #C21710",
"Y%@	c #BB170D",
"Z%@	c #A51200",
"`%@	c #AE1601",
" &@	c #B61000",
".&@	c #D5130A",
"+&@	c #DE180F",
"@&@	c #E61A13",
"#&@	c #E50702",
"$&@	c #ED140F",
"%&@	c #EC1713",
"&&@	c #E01710",
"*&@	c #AC110D",
"=&@	c #9C160B",
"-&@	c #9C180B",
";&@	c #9C1706",
">&@	c #FF0A0C",
",&@	c #FF0C0D",
"'&@	c #FD0E0B",
")&@	c #F7100A",
"!&@	c #F30E08",
"~&@	c #F31510",
"{&@	c #B10D01",
"]&@	c #A81003",
"^&@	c #A10A00",
"/&@	c #9F0500",
"(&@	c #AF0802",
"_&@	c #D2231E",
":&@	c #C91E17",
"<&@	c #B21206",
"[&@	c #A60A00",
"}&@	c #A50B01",
"|&@	c #A10800",
"1&@	c #9C0700",
"2&@	c #9B0B03",
"3&@	c #980A06",
"4&@	c #8F0F0C",
"5&@	c #911716",
"6&@	c #881518",
"7&@	c #7F161A",
"8&@	c #741519",
"9&@	c #934143",
"0&@	c #81393C",
"a&@	c #360701",
"b&@	c #440905",
"c&@	c #4A0605",
"d&@	c #772B2B",
"e&@	c #B46264",
"f&@	c #B56365",
"g&@	c #B86869",
"h&@	c #AA6361",
"i&@	c #6F322F",
"j&@	c #501F1A",
"k&@	c #4B2D23",
"l&@	c #361F17",
"m&@	c #39251E",
"n&@	c #4C433C",
"o&@	c #4F463F",
"p&@	c #39322A",
"q&@	c #7D564F",
"r&@	c #84534F",
"s&@	c #611F20",
"t&@	c #9B5557",
"u&@	c #A86264",
"v&@	c #814142",
"w&@	c #490E10",
"x&@	c #331314",
"y&@	c #381E21",
"z&@	c #372123",
"A&@	c #352224",
"B&@	c #352727",
"C&@	c #352929",
"D&@	c #261A1A",
"E&@	c #1C1010",
"F&@	c #261818",
"G&@	c #271416",
"H&@	c #220F11",
"I&@	c #1D0D0E",
"J&@	c #010400",
"K&@	c #341A1B",
"L&@	c #270F0F",
"M&@	c #0D0F0A",
"N&@	c #0B0C06",
"O&@	c #2D0706",
"P&@	c #BD110D",
"Q&@	c #C1140E",
"R&@	c #AF0F01",
"S&@	c #AC1100",
"T&@	c #E61711",
"U&@	c #E9120D",
"V&@	c #EA1612",
"W&@	c #E81D17",
"X&@	c #E21F19",
"Y&@	c #D71C15",
"Z&@	c #C6140A",
"`&@	c #B41006",
" *@	c #9C1809",
".*@	c #A61A09",
"+*@	c #B1190B",
"@*@	c #C51B0E",
"#*@	c #FC090B",
"$*@	c #FF0C0E",
"%*@	c #FE0E0F",
"&*@	c #FA0F0C",
"**@	c #E51511",
"=*@	c #CC0F09",
"-*@	c #B40C03",
";*@	c #AA0E02",
">*@	c #B0160C",
",*@	c #B80F0C",
"'*@	c #A80D09",
")*@	c #A10B0A",
"!*@	c #A00E0E",
"~*@	c #9F1110",
"{*@	c #9E1316",
"]*@	c #9F181E",
"^*@	c #9A171D",
"/*@	c #A1252D",
"(*@	c #901C25",
"_*@	c #B44B52",
":*@	c #BD6166",
"<*@	c #6F1D21",
"[*@	c #4E0E0E",
"}*@	c #3D0300",
"|*@	c #3B0200",
"1*@	c #450400",
"2*@	c #924241",
"3*@	c #B86766",
"4*@	c #B56767",
"5*@	c #894341",
"6*@	c #703330",
"7*@	c #5B2A25",
"8*@	c #46281E",
"9*@	c #3C251F",
"0*@	c #45322C",
"a*@	c #433630",
"b*@	c #51443E",
"c*@	c #5B4E48",
"d*@	c #403730",
"e*@	c #2F2C27",
"f*@	c #8F645E",
"g*@	c #915B59",
"h*@	c #6D2B2C",
"i*@	c #6E2425",
"j*@	c #97484B",
"k*@	c #A7585D",
"l*@	c #884043",
"m*@	c #411516",
"n*@	c #361214",
"o*@	c #311418",
"p*@	c #30171A",
"q*@	c #352123",
"r*@	c #342626",
"s*@	c #312525",
"t*@	c #2A1E1E",
"u*@	c #211114",
"v*@	c #1F0F12",
"w*@	c #1E0E11",
"x*@	c #291717",
"y*@	c #321E1F",
"z*@	c #251313",
"A*@	c #061008",
"B*@	c #020E04",
"C*@	c #040B03",
"D*@	c #B81412",
"E*@	c #BF100B",
"F*@	c #BC0F08",
"G*@	c #BF170A",
"H*@	c #CB0C02",
"I*@	c #E71C16",
"J*@	c #E2211A",
"K*@	c #B41406",
"L*@	c #A30F01",
"M*@	c #B01D0D",
"N*@	c #CF190E",
"O*@	c #EA1311",
"P*@	c #DC1510",
"Q*@	c #AE0D03",
"R*@	c #AC150E",
"S*@	c #B4100E",
"T*@	c #BF1515",
"U*@	c #D12523",
"V*@	c #D52E28",
"W*@	c #BF2219",
"X*@	c #AA150F",
"Y*@	c #A5110F",
"Z*@	c #9F0D0D",
"`*@	c #9E100E",
" =@	c #9F1314",
".=@	c #9E1117",
"+=@	c #9C1118",
"@=@	c #9F131C",
"#=@	c #AE2632",
"$=@	c #91121D",
"%=@	c #9C2730",
"&=@	c #BC535A",
"*=@	c #9E3F45",
"==@	c #691419",
"-=@	c #580C0C",
";=@	c #A85756",
">=@	c #B76363",
",=@	c #A75655",
"'=@	c #A35855",
")=@	c #722F29",
"!=@	c #693029",
"~=@	c #5C2D25",
"{=@	c #4B251C",
"]=@	c #180100",
"^=@	c #49322C",
"/=@	c #412E28",
"(=@	c #42352F",
"_=@	c #534640",
":=@	c #514841",
"<=@	c #403933",
"[=@	c #9F6865",
"}=@	c #7B3736",
"|=@	c #732427",
"1=@	c #88363A",
"2=@	c #B05B60",
"3=@	c #853639",
"4=@	c #5F181C",
"5=@	c #511618",
"6=@	c #461518",
"7=@	c #281416",
"8=@	c #2D1F1F",
"9=@	c #201414",
"0=@	c #2F2323",
"a=@	c #1C0D10",
"b=@	c #1E1214",
"c=@	c #2B1D1C",
"d=@	c #040F07",
"e=@	c #010E04",
"f=@	c #000C02",
"g=@	c #BE0C0A",
"h=@	c #CA150E",
"i=@	c #D51510",
"j=@	c #CE0E03",
"k=@	c #E4150D",
"l=@	c #EE1412",
"m=@	c #EC1B17",
"n=@	c #E4211B",
"o=@	c #C21E14",
"p=@	c #961B09",
"q=@	c #961907",
"r=@	c #9F1805",
"s=@	c #C31F13",
"t=@	c #D11C13",
"u=@	c #E0160C",
"v=@	c #CD1A15",
"w=@	c #B9160F",
"x=@	c #A3150B",
"y=@	c #981408",
"z=@	c #A61512",
"A=@	c #CC3230",
"B=@	c #D23F38",
"C=@	c #B93125",
"D=@	c #9D190D",
"E=@	c #9A1A17",
"F=@	c #9A1D1B",
"G=@	c #9C1C1D",
"H=@	c #9B1619",
"I=@	c #981117",
"J=@	c #A11822",
"K=@	c #8B0712",
"L=@	c #850913",
"M=@	c #9E2F35",
"N=@	c #AB484B",
"O=@	c #8C3335",
"P=@	c #631513",
"Q=@	c #B96865",
"R=@	c #AE5D5A",
"S=@	c #893A36",
"T=@	c #853B38",
"U=@	c #6A2B24",
"V=@	c #622B24",
"W=@	c #4C271E",
"X=@	c #45302B",
"Y=@	c #4A3731",
"Z=@	c #48352F",
"`=@	c #4B3E38",
" -@	c #41342E",
".-@	c #5C534C",
"+-@	c #322D27",
"@-@	c #24231E",
"#-@	c #2C2B27",
"$-@	c #2C2827",
"%-@	c #301C13",
"&-@	c #724741",
"*-@	c #955E5B",
"=-@	c #7B3535",
"--@	c #742427",
";-@	c #7B2528",
">-@	c #AA5359",
",-@	c #7F2F32",
"'-@	c #6B2326",
")-@	c #5C2022",
"!-@	c #2C080A",
"~-@	c #2E1115",
"{-@	c #250F11",
"]-@	c #2A1C1C",
"^-@	c #1D1314",
"/-@	c #09120D",
"(-@	c #051008",
"_-@	c #070E07",
":-@	c #220809",
"<-@	c #B41B16",
"[-@	c #BB1111",
"}-@	c #C00C0B",
"|-@	c #C40B09",
"1-@	c #C30A07",
"2-@	c #DA1713",
"3-@	c #D4180D",
"4-@	c #DD190D",
"5-@	c #ED1812",
"6-@	c #E71C18",
"7-@	c #DA1F18",
"8-@	c #C71C12",
"9-@	c #9E1606",
"0-@	c #951B06",
"a-@	c #931F08",
"b-@	c #991B05",
"c-@	c #BE2112",
"d-@	c #D22117",
"e-@	c #DE1B15",
"f-@	c #D9170D",
"g-@	c #D91B0F",
"h-@	c #D71D11",
"i-@	c #CC150D",
"j-@	c #C41713",
"k-@	c #B71A13",
"l-@	c #891F12",
"m-@	c #A11D19",
"n-@	c #AF2B26",
"o-@	c #AE322A",
"p-@	c #962517",
"q-@	c #821711",
"r-@	c #870A0E",
"s-@	c #8B0810",
"t-@	c #8E0F18",
"u-@	c #921920",
"v-@	c #992C2F",
"w-@	c #A9494A",
"x-@	c #A4514D",
"y-@	c #8A3C38",
"z-@	c #4C0200",
"A-@	c #5A100D",
"B-@	c #570907",
"C-@	c #7F2F2E",
"D-@	c #C2716E",
"E-@	c #A75653",
"F-@	c #4B2115",
"G-@	c #4E2920",
"H-@	c #533733",
"I-@	c #4D342F",
"J-@	c #482F2A",
"K-@	c #442F2A",
"L-@	c #4C3D38",
"M-@	c #564943",
"N-@	c #463933",
"O-@	c #4B423B",
"P-@	c #524942",
"Q-@	c #272622",
"R-@	c #2B2C27",
"S-@	c #2F312C",
"T-@	c #33342F",
"U-@	c #2A2A28",
"V-@	c #2F2E2C",
"W-@	c #32140C",
"X-@	c #6D453D",
"Y-@	c #8E5754",
"Z-@	c #813B3B",
"`-@	c #843236",
" ;@	c #943B3F",
".;@	c #823034",
"+;@	c #762B2F",
"@;@	c #2D1316",
"#;@	c #0A100C",
"$;@	c #080F08",
"%;@	c #2F0507",
"&;@	c #200607",
"*;@	c #2A0D0F",
"=;@	c #B41F1B",
"-;@	c #C9120C",
";;@	c #BC0B03",
">;@	c #CD100C",
",;@	c #D81513",
"';@	c #D91D12",
");@	c #D61C0F",
"!;@	c #DC1A10",
"~;@	c #E61B14",
"{;@	c #ED1210",
"];@	c #EA0F0D",
"^;@	c #EB1513",
"/;@	c #DE1712",
"(;@	c #CC1710",
"_;@	c #B7150A",
":;@	c #931904",
"<;@	c #8D2009",
"[;@	c #8D230B",
"};@	c #B31D0C",
"|;@	c #C71F12",
"1;@	c #D91D14",
"2;@	c #EB1110",
"3;@	c #DB160D",
"4;@	c #D5190D",
"5;@	c #CF1B0D",
"6;@	c #CA1A0B",
"7;@	c #AE140C",
"8;@	c #9D1A10",
"9;@	c #8F1D12",
"0;@	c #7E2112",
"a;@	c #742111",
"b;@	c #711F11",
"c;@	c #5A0700",
"d;@	c #570100",
"e;@	c #5D0600",
"f;@	c #670100",
"g;@	c #760205",
"h;@	c #780105",
"i;@	c #881417",
"j;@	c #952728",
"k;@	c #94322F",
"l;@	c #943C38",
"m;@	c #974D44",
"n;@	c #A66058",
"o;@	c #742B25",
"p;@	c #A55451",
"q;@	c #B86764",
"r;@	c #954642",
"s;@	c #7A2F2A",
"t;@	c #6A271F",
"u;@	c #61281F",
"v;@	c #5C2C22",
"w;@	c #482014",
"x;@	c #4C2A20",
"y;@	c #49302C",
"z;@	c #49312D",
"A;@	c #3F2A25",
"B;@	c #3E2F2A",
"C;@	c #554641",
"D;@	c #4A413C",
"E;@	c #332E2A",
"F;@	c #1E201D",
"G;@	c #282826",
"H;@	c #262624",
"I;@	c #120308",
"J;@	c #100104",
"K;@	c #613B32",
"L;@	c #7A4541",
"M;@	c #853335",
"N;@	c #731D1E",
"O;@	c #8A3135",
"P;@	c #873539",
"Q;@	c #783033",
"R;@	c #5E2423",
"S;@	c #1C1012",
"T;@	c #261A1C",
"U;@	c #211517",
"V;@	c #151A16",
"W;@	c #161B17",
"X;@	c #131814",
"Y;@	c #0D120E",
"Z;@	c #0D0F0C",
"`;@	c #0B0D0A",
" >@	c #28050B",
".>@	c #2A0C0E",
"+>@	c #1B0303",
"@>@	c #AC251F",
"#>@	c #BB201B",
"$>@	c #C51915",
"%>@	c #CB1511",
"&>@	c #CE130E",
"*>@	c #CD1209",
"=>@	c #CD0B0B",
"->@	c #D50E11",
";>@	c #D21011",
">>@	c #CA1712",
",>@	c #C8150E",
"'>@	c #E51314",
")>@	c #DF0E0A",
"!>@	c #DC1913",
"~>@	c #CC170E",
"{>@	c #A21302",
"]>@	c #951802",
"^>@	c #8D1D07",
"/>@	c #882209",
"(>@	c #A3270F",
"_>@	c #AD210A",
":>@	c #BA1F0D",
"<>@	c #CB1D12",
"[>@	c #D81710",
"}>@	c #E50D0E",
"|>@	c #CC2016",
"1>@	c #C12113",
"2>@	c #B51F10",
"3>@	c #A01B0A",
"4>@	c #951D0F",
"5>@	c #931D11",
"6>@	c #8F1F14",
"7>@	c #712D1A",
"8>@	c #6A2D1A",
"9>@	c #6D2E1F",
"0>@	c #742A1D",
"a>@	c #702416",
"b>@	c #682514",
"c>@	c #682616",
"d>@	c #581409",
"e>@	c #561004",
"f>@	c #590F04",
"g>@	c #7E2720",
"h>@	c #72231C",
"i>@	c #702A20",
"j>@	c #944E46",
"k>@	c #AE605C",
"l>@	c #6A1B17",
"m>@	c #6B1C18",
"n>@	c #BF706C",
"o>@	c #A35551",
"p>@	c #7A302D",
"q>@	c #5C1F1A",
"r>@	c #57221A",
"s>@	c #592D24",
"t>@	c #4A221A",
"u>@	c #502B22",
"v>@	c #48251F",
"w>@	c #3F201E",
"x>@	c #50312E",
"y>@	c #4C2D2B",
"z>@	c #4D3430",
"A>@	c #44312D",
"B>@	c #564440",
"C>@	c #594743",
"D>@	c #42302C",
"E>@	c #5D4E49",
"F>@	c #3C352D",
"G>@	c #2F2A27",
"H>@	c #322D2A",
"I>@	c #3D3533",
"J>@	c #3E231C",
"K>@	c #51201B",
"L>@	c #561916",
"M>@	c #651919",
"N>@	c #8C4040",
"O>@	c #833B3C",
"P>@	c #733333",
"Q>@	c #1F1516",
"R>@	c #2F2526",
"S>@	c #312E29",
"T>@	c #1E201B",
"U>@	c #191B18",
"V>@	c #0F110E",
"W>@	c #210106",
"X>@	c #290509",
"Y>@	c #280408",
"Z>@	c #210303",
"`>@	c #290705",
" ,@	c #280A0A",
".,@	c #39161A",
"+,@	c #26070C",
"@,@	c #1D0407",
"#,@	c #AB291C",
"$,@	c #C32B1E",
"%,@	c #CB2114",
"&,@	c #CB1307",
"*,@	c #D10909",
"=,@	c #D0090C",
"-,@	c #D00B12",
";,@	c #CB1017",
">,@	c #BA1418",
",,@	c #B00D12",
"',@	c #BD0A10",
"),@	c #D2131B",
"!,@	c #E31720",
"~,@	c #D81D16",
"{,@	c #8F1D02",
"],@	c #8C2004",
"^,@	c #861E05",
"/,@	c #891F07",
"(,@	c #9D2610",
"_,@	c #C9180E",
":,@	c #DF181B",
"<,@	c #D41819",
"[,@	c #C81A19",
"},@	c #A81F15",
"|,@	c #962215",
"1,@	c #882414",
"2,@	c #7C2511",
"3,@	c #752711",
"4,@	c #762917",
"5,@	c #6D2819",
"6,@	c #6C2D1C",
"7,@	c #69301D",
"8,@	c #673A25",
"9,@	c #6A3D2A",
"0,@	c #693A28",
"a,@	c #663524",
"b,@	c #673222",
"c,@	c #683021",
"d,@	c #662E1F",
"e,@	c #642C1D",
"f,@	c #622A1D",
"g,@	c #531A13",
"h,@	c #50150F",
"i,@	c #521910",
"j,@	c #551C11",
"k,@	c #541A0E",
"l,@	c #54160B",
"m,@	c #541408",
"n,@	c #550C03",
"o,@	c #540A01",
"p,@	c #984743",
"q,@	c #9C4945",
"r,@	c #853632",
"s,@	c #B16661",
"t,@	c #97504C",
"u,@	c #72312D",
"v,@	c #521814",
"w,@	c #582521",
"x,@	c #53231F",
"y,@	c #512A25",
"z,@	c #4D2621",
"A,@	c #582F2D",
"B,@	c #522927",
"C,@	c #401C1E",
"D,@	c #4F2B2D",
"E,@	c #553133",
"F,@	c #523031",
"G,@	c #4B2D2D",
"H,@	c #432E2D",
"I,@	c #564140",
"J,@	c #402627",
"K,@	c #311114",
"L,@	c #401C20",
"M,@	c #522F33",
"N,@	c #503232",
"O,@	c #3F2A27",
"P,@	c #242015",
"Q,@	c #311D1E",
"R,@	c #2C1618",
"S,@	c #321E1D",
"T,@	c #4D1A16",
"U,@	c #69322D",
"V,@	c #85534C",
"W,@	c #481913",
"X,@	c #201718",
"Y,@	c #1F1617",
"Z,@	c #261E1C",
"`,@	c #1F0100",
" '@	c #1E0100",
".'@	c #1E0D03",
"+'@	c #33080F",
"@'@	c #360D15",
"#'@	c #320A13",
"$'@	c #2E0B12",
"%'@	c #260810",
"&'@	c #1D040A",
"*'@	c #160106",
"='@	c #150206",
"-'@	c #8E1E12",
";'@	c #AC2718",
">'@	c #BF2314",
",'@	c #C71A0A",
"''@	c #DA0D08",
")'@	c #D50D10",
"!'@	c #D20E12",
"~'@	c #CA121A",
"{'@	c #B2151C",
"]'@	c #A00005",
"^'@	c #B80812",
"/'@	c #D11921",
"('@	c #D92123",
"_'@	c #D4221E",
":'@	c #CB241B",
"<'@	c #B82513",
"['@	c #A4220A",
"}'@	c #8D1A00",
"|'@	c #861A00",
"1'@	c #8A2006",
"2'@	c #942410",
"3'@	c #AC2F1D",
"4'@	c #B12412",
"5'@	c #C62618",
"6'@	c #CD261D",
"7'@	c #D1241D",
"8'@	c #C41719",
"9'@	c #BD1A1B",
"0'@	c #B01C1A",
"a'@	c #8B1F15",
"b'@	c #7A2216",
"c'@	c #6F2718",
"d'@	c #67331E",
"e'@	c #672F1E",
"f'@	c #612C1C",
"g'@	c #612E1D",
"h'@	c #683B28",
"i'@	c #633A26",
"j'@	c #5C3621",
"k'@	c #583320",
"l'@	c #55301D",
"m'@	c #57321F",
"n'@	c #5F3926",
"o'@	c #693F2F",
"p'@	c #704535",
"q'@	c #714334",
"r'@	c #6B3B2D",
"s'@	c #653328",
"t'@	c #612E2A",
"u'@	c #5D2824",
"v'@	c #57251E",
"w'@	c #522015",
"x'@	c #4D1C0E",
"y'@	c #4D180A",
"z'@	c #551B0D",
"A'@	c #531508",
"B'@	c #551307",
"C'@	c #802D29",
"D'@	c #984541",
"E'@	c #9D4E4A",
"F'@	c #BF7572",
"G'@	c #8B4A46",
"H'@	c #662B27",
"I'@	c #53201C",
"J'@	c #5F2F2D",
"K'@	c #522A28",
"L'@	c #532B29",
"M'@	c #572B2A",
"N'@	c #3D1112",
"O'@	c #340A0C",
"P'@	c #4C2327",
"Q'@	c #582E32",
"R'@	c #53292D",
"S'@	c #52292D",
"T'@	c #542D30",
"U'@	c #513534",
"V'@	c #321A18",
"W'@	c #341C1C",
"X'@	c #381418",
"Y'@	c #4B2027",
"Z'@	c #542A2E",
"`'@	c #4C2528",
" )@	c #3C281F",
".)@	c #3B1918",
"+)@	c #391215",
"@)@	c #380F13",
"#)@	c #341F1E",
"$)@	c #401912",
"%)@	c #461B14",
"&)@	c #4C211A",
"*)@	c #785048",
"=)@	c #211716",
"-)@	c #28180B",
";)@	c #340B13",
">)@	c #310C14",
",)@	c #2A0B13",
"')@	c #22090F",
"))@	c #951F15",
"!)@	c #B0261B",
"~)@	c #C02417",
"{)@	c #C61A0E",
"])@	c #D6100F",
"^)@	c #CD1517",
"/)@	c #AE1517",
"()@	c #910506",
"_)@	c #BB231E",
":)@	c #C52E25",
"<)@	c #C83428",
"[)@	c #B6281A",
"})@	c #AB2313",
"|)@	c #9D1E0D",
"1)@	c #9E2313",
"2)@	c #9A2011",
"3)@	c #A82E1F",
"4)@	c #C7493B",
"5)@	c #BA3224",
"6)@	c #B42419",
"7)@	c #C02D25",
"8)@	c #BC2921",
"9)@	c #BB2723",
"0)@	c #AF1E1B",
"a)@	c #A71C19",
"b)@	c #9D1915",
"c)@	c #6E2C1E",
"d)@	c #6D3423",
"e)@	c #6F3A2A",
"f)@	c #6E3627",
"g)@	c #622E20",
"h)@	c #643525",
"i)@	c #6A3C2C",
"j)@	c #6A412F",
"k)@	c #67412E",
"l)@	c #66412F",
"m)@	c #613E2B",
"n)@	c #6A4332",
"o)@	c #6C4234",
"p)@	c #683C2F",
"q)@	c #623427",
"r)@	c #5C2C20",
"s)@	c #59271E",
"t)@	c #5F2D26",
"u)@	c #5A2723",
"v)@	c #4F1D12",
"w)@	c #4B1A0C",
"x)@	c #4E1A0C",
"y)@	c #521D0F",
"z)@	c #551D0E",
"A)@	c #541609",
"B)@	c #571509",
"C)@	c #7C2B27",
"D)@	c #9B4D49",
"E)@	c #B7706C",
"F)@	c #561C18",
"G)@	c #52211C",
"H)@	c #5B2E2B",
"I)@	c #502A27",
"J)@	c #542C2A",
"K)@	c #4D2120",
"L)@	c #502326",
"M)@	c #5C2E31",
"N)@	c #582A2D",
"O)@	c #5B2E31",
"P)@	c #5B3334",
"Q)@	c #4F2B2B",
"R)@	c #431F21",
"S)@	c #532A2E",
"T)@	c #4F2529",
"U)@	c #4A2021",
"V)@	c #4A2222",
"W)@	c #4E2624",
"X)@	c #4D261F",
"Y)@	c #461D17",
"Z)@	c #461913",
"`)@	c #4D1E18",
" !@	c #4F1917",
".!@	c #4F1416",
"+!@	c #4A090F",
"@!@	c #450209",
"#!@	c #3D0208",
"$!@	c #45302F",
"%!@	c #332121",
"&!@	c #3B140D",
"*!@	c #532B23",
"=!@	c #463C3D",
"-!@	c #3B2F31",
";!@	c #200100",
">!@	c #360F10",
",!@	c #301A0F",
"'!@	c #2E0A0E",
")!@	c #2E0B11",
"!!@	c #2C0F14",
"~!@	c #250C10",
"{!@	c #420200",
"]!@	c #961F17",
"^!@	c #AC2319",
"/!@	c #BC2419",
"(!@	c #C31F15",
"_!@	c #D2110A",
":!@	c #D5120C",
"<!@	c #CF1814",
"[!@	c #950E0B",
"}!@	c #7C0300",
"|!@	c #BB3D31",
"1!@	c #BC3329",
"2!@	c #BA2F28",
"3!@	c #A8231A",
"4!@	c #9C1E12",
"5!@	c #B2392E",
"6!@	c #E0675C",
"7!@	c #CD5147",
"8!@	c #A5261D",
"9!@	c #A2261C",
"0!@	c #A72C24",
"a!@	c #9C231B",
"b!@	c #9B261F",
"c!@	c #95261F",
"d!@	c #8B221C",
"e!@	c #7C2C23",
"f!@	c #772E25",
"g!@	c #6A2E24",
"h!@	c #673125",
"i!@	c #6E382C",
"j!@	c #642E22",
"k!@	c #592517",
"l!@	c #552517",
"m!@	c #582A1A",
"n!@	c #5E3424",
"o!@	c #744F3F",
"p!@	c #694633",
"q!@	c #684434",
"r!@	c #633E2E",
"s!@	c #562E22",
"t!@	c #491F11",
"u!@	c #43170C",
"v!@	c #47190C",
"w!@	c #55231C",
"x!@	c #54221B",
"y!@	c #53211A",
"z!@	c #532118",
"A!@	c #4F1E10",
"B!@	c #4E1A0D",
"C!@	c #501C0E",
"D!@	c #572214",
"E!@	c #501507",
"F!@	c #511306",
"G!@	c #5D170D",
"H!@	c #540500",
"I!@	c #5A0B07",
"J!@	c #7B322C",
"K!@	c #572B28",
"L!@	c #4F2926",
"M!@	c #512927",
"N!@	c #4C2321",
"O!@	c #4F1C21",
"P!@	c #522023",
"Q!@	c #542126",
"R!@	c #5F2E31",
"S!@	c #5D3033",
"T!@	c #451E1F",
"U!@	c #492728",
"V!@	c #512A2D",
"W!@	c #491F21",
"X!@	c #542827",
"Y!@	c #51201C",
"Z!@	c #521C1A",
"`!@	c #4E1714",
" ~@	c #591210",
".~@	c #6E2222",
"+~@	c #742224",
"@~@	c #701B20",
"#~@	c #6D161C",
"$~@	c #6D131C",
"%~@	c #640A13",
"&~@	c #4F040B",
"*~@	c #360E0F",
"=~@	c #3E2C2C",
"-~@	c #3B2B2B",
";~@	c #160900",
">~@	c #180E0F",
",~@	c #3F1811",
"'~@	c #302728",
")~@	c #3A3031",
"!~@	c #453B3C",
"~~@	c #2B1F21",
"{~@	c #322827",
"]~@	c #370F10",
"^~@	c #371011",
"/~@	c #270001",
"(~@	c #461C1E",
"_~@	c #461E1E",
":~@	c #280B0D",
"<~@	c #390708",
"[~@	c #450505",
"}~@	c #560804",
"|~@	c #9F2017",
"1~@	c #AD1F15",
"2~@	c #BA2014",
"3~@	c #C62014",
"4~@	c #CE1D13",
"5~@	c #D21A10",
"6~@	c #B81915",
"7~@	c #8A1005",
"8~@	c #710500",
"9~@	c #6C1301",
"0~@	c #822516",
"a~@	c #972F24",
"b~@	c #BA433D",
"c~@	c #C23E3C",
"d~@	c #C33738",
"e~@	c #C13234",
"f~@	c #AF2926",
"g~@	c #9D221B",
"h~@	c #AE3E32",
"i~@	c #D56B5E",
"j~@	c #D0635C",
"k~@	c #9F342E",
"l~@	c #932C25",
"m~@	c #8E2D26",
"n~@	c #7B291E",
"o~@	c #6F2B20",
"p~@	c #6C2E23",
"q~@	c #6C362A",
"r~@	c #673328",
"s~@	c #612C24",
"t~@	c #693329",
"u~@	c #642E24",
"v~@	c #5D291C",
"w~@	c #522216",
"x~@	c #481D0D",
"y~@	c #471D0F",
"z~@	c #512A1B",
"A~@	c #4E2A1A",
"B~@	c #482416",
"C~@	c #431D10",
"D~@	c #41190F",
"E~@	c #451D11",
"F~@	c #4D2219",
"G~@	c #53271C",
"H~@	c #5C2B24",
"I~@	c #5C2A23",
"J~@	c #5C2A1F",
"K~@	c #592518",
"L~@	c #531F11",
"M~@	c #53200F",
"N~@	c #582313",
"O~@	c #581D0D",
"P~@	c #57190A",
"Q~@	c #5A180A",
"R~@	c #5C180B",
"S~@	c #7D3C36",
"T~@	c #4D140D",
"U~@	c #5B2E29",
"V~@	c #623935",
"W~@	c #583531",
"X~@	c #4C2925",
"Y~@	c #45241F",
"Z~@	c #522C29",
"`~@	c #4C2623",
" {@	c #541D20",
".{@	c #531C21",
"+{@	c #552123",
"@{@	c #4D1C1F",
"#{@	c #472325",
"${@	c #471F20",
"%{@	c #562926",
"&{@	c #4D1A17",
"*{@	c #450B09",
"={@	c #480705",
"-{@	c #510A08",
";{@	c #61100F",
">{@	c #892024",
",{@	c #91242A",
"'{@	c #93242B",
"){@	c #92232A",
"!{@	c #95262D",
"~{@	c #962730",
"{{@	c #891B24",
"]{@	c #6A1019",
"^{@	c #322222",
"/{@	c #3D1812",
"({@	c #2F0A04",
"_{@	c #281F20",
":{@	c #403637",
"<{@	c #504647",
"[{@	c #382E2F",
"}{@	c #3C3231",
"|{@	c #310A0B",
"1{@	c #4A1C1F",
"2{@	c #4D1F22",
"3{@	c #461A1B",
"4{@	c #3C0C0C",
"5{@	c #620D08",
"6{@	c #A11D11",
"7{@	c #B52218",
"8{@	c #C42418",
"9{@	c #CE1C0E",
"0{@	c #981E13",
"a{@	c #601C09",
"b{@	c #671E0F",
"c{@	c #902825",
"d{@	c #9F282A",
"e{@	c #AE2D32",
"f{@	c #BC393E",
"g{@	c #BB4140",
"h{@	c #A73831",
"i{@	c #9B3B2D",
"j{@	c #A64D3F",
"k{@	c #A54B43",
"l{@	c #7A2721",
"m{@	c #742A21",
"n{@	c #6B281F",
"o{@	c #6A3225",
"p{@	c #633325",
"q{@	c #603626",
"r{@	c #5E3929",
"s{@	c #5E382D",
"t{@	c #62372E",
"u{@	c #653832",
"v{@	c #683933",
"w{@	c #6B3834",
"x{@	c #6A352D",
"y{@	c #6F3A32",
"z{@	c #713F34",
"A{@	c #69392F",
"B{@	c #53271A",
"C{@	c #3F170B",
"D{@	c #3A1407",
"E{@	c #3E180D",
"F{@	c #3D190B",
"G{@	c #341004",
"H{@	c #421C13",
"I{@	c #5A3429",
"J{@	c #6A423A",
"K{@	c #693E35",
"L{@	c #60342B",
"M{@	c #633126",
"N{@	c #602F20",
"O{@	c #5C281A",
"P{@	c #5B2616",
"Q{@	c #5F2718",
"R{@	c #612918",
"S{@	c #602515",
"T{@	c #5E2011",
"U{@	c #5F1D0F",
"V{@	c #661D17",
"W{@	c #43120D",
"X{@	c #5C312B",
"Y{@	c #67403B",
"Z{@	c #56332F",
"`{@	c #4D2C27",
" ]@	c #462520",
".]@	c #3E0A0C",
"+]@	c #62272B",
"@]@	c #73363B",
"#]@	c #692E32",
"$]@	c #551D20",
"%]@	c #300202",
"&]@	c #402824",
"*]@	c #421512",
"=]@	c #732123",
"-]@	c #85292C",
";]@	c #92292E",
">]@	c #9B282F",
",]@	c #992228",
"']@	c #9F232B",
")]@	c #A1232E",
"!]@	c #A22630",
"~]@	c #A52C35",
"{]@	c #A32B34",
"]]@	c #921E27",
"^]@	c #70151A",
"/]@	c #380C0B",
"(]@	c #311C19",
"_]@	c #231D1D",
":]@	c #372E2F",
"<]@	c #493F40",
"[]@	c #1F1514",
"}]@	c #2C2221",
"|]@	c #371110",
"1]@	c #2C0506",
"2]@	c #260403",
"3]@	c #42181A",
"4]@	c #4E2124",
"5]@	c #451418",
"6]@	c #2B0301",
"7]@	c #3F0909",
"8]@	c #450805",
"9]@	c #620702",
"0]@	c #790E06",
"a]@	c #B21C0E",
"b]@	c #BD1D0F",
"c]@	c #C31C13",
"d]@	c #CB221F",
"e]@	c #C52A26",
"f]@	c #872113",
"g]@	c #681B0B",
"h]@	c #5D1E0D",
"i]@	c #691513",
"j]@	c #79191B",
"k]@	c #8B2026",
"l]@	c #9E3136",
"m]@	c #A33F3D",
"n]@	c #903930",
"o]@	c #793122",
"p]@	c #773423",
"q]@	c #763026",
"r]@	c #67221B",
"s]@	c #66271E",
"t]@	c #62291E",
"u]@	c #613125",
"v]@	c #623B2C",
"w]@	c #59392A",
"x]@	c #57392E",
"y]@	c #5E3C32",
"z]@	c #633D34",
"A]@	c #653A33",
"B]@	c #663731",
"C]@	c #734339",
"D]@	c #6F4038",
"E]@	c #340E03",
"F]@	c #3A180C",
"G]@	c #633C35",
"H]@	c #623730",
"I]@	c #62332B",
"J]@	c #5D2D21",
"K]@	c #612D1F",
"L]@	c #632C18",
"M]@	c #632816",
"N]@	c #622513",
"O]@	c #622010",
"P]@	c #5F190D",
"Q]@	c #601B14",
"R]@	c #71322B",
"S]@	c #41120C",
"T]@	c #4F2620",
"U]@	c #4E2923",
"V]@	c #3D1E19",
"W]@	c #3B0505",
"X]@	c #75373A",
"Y]@	c #8E5053",
"Z]@	c #733538",
"`]@	c #511517",
" ^@	c #3B2720",
".^@	c #39211D",
"+^@	c #6A2627",
"@^@	c #863438",
"#^@	c #933239",
"$^@	c #94272D",
"%^@	c #931B25",
"&^@	c #941822",
"*^@	c #971823",
"=^@	c #981A25",
"-^@	c #9B1F29",
";^@	c #98232B",
">^@	c #932228",
",^@	c #841A1E",
"'^@	c #6B1619",
")^@	c #5C4945",
"!^@	c #421C1B",
"~^@	c #22211D",
"{^@	c #2D2926",
"]^@	c #423837",
"^^@	c #482021",
"/^@	c #310306",
"(^@	c #0F0B02",
"_^@	c #2C0300",
":^@	c #3C0405",
"<^@	c #540D11",
"[^@	c #64171D",
"}^@	c #301413",
"|^@	c #911106",
"1^@	c #B8211A",
"2^@	c #CF3432",
"3^@	c #BB3A34",
"4^@	c #8D261D",
"5^@	c #53180A",
"6^@	c #5C281D",
"7^@	c #6A332E",
"8^@	c #6C2829",
"9^@	c #73272B",
"0^@	c #731E23",
"a^@	c #701C1C",
"b^@	c #5E2713",
"c^@	c #673421",
"d^@	c #6B3529",
"e^@	c #683228",
"f^@	c #643428",
"g^@	c #5A3022",
"h^@	c #5C382A",
"i^@	c #513728",
"j^@	c #53402F",
"k^@	c #503D2C",
"l^@	c #543228",
"m^@	c #4C1D17",
"n^@	c #53221B",
"o^@	c #592A22",
"p^@	c #572B22",
"q^@	c #4B2017",
"r^@	c #3B130B",
"s^@	c #674039",
"t^@	c #663B32",
"u^@	c #623329",
"v^@	c #5D2F22",
"w^@	c #5F2F23",
"x^@	c #603121",
"y^@	c #5F2E1F",
"z^@	c #602D1C",
"A^@	c #622D1B",
"B^@	c #67301C",
"C^@	c #662917",
"D^@	c #622312",
"E^@	c #510D02",
"F^@	c #5C1911",
"G^@	c #743933",
"H^@	c #541D18",
"I^@	c #350200",
"J^@	c #441D18",
"K^@	c #401914",
"L^@	c #4E1615",
"M^@	c #8A4A4B",
"N^@	c #935354",
"O^@	c #622125",
"P^@	c #55171A",
"Q^@	c #6D2026",
"R^@	c #781E27",
"S^@	c #79141C",
"T^@	c #7A0B14",
"U^@	c #790510",
"V^@	c #7C0710",
"W^@	c #800E16",
"X^@	c #84171D",
"Y^@	c #841D21",
"Z^@	c #7E1E20",
"`^@	c #771D1D",
" /@	c #692323",
"./@	c #65524E",
"+/@	c #63514F",
"@/@	c #473835",
"#/@	c #3D2F2E",
"$/@	c #573031",
"%/@	c #4F4B48",
"&/@	c #595552",
"*/@	c #47423F",
"=/@	c #4D4543",
"-/@	c #231918",
";/@	c #332727",
">/@	c #291D1D",
",/@	c #431C1D",
"'/@	c #41191A",
")/@	c #140E02",
"!/@	c #3A0201",
"~/@	c #4D0508",
"{/@	c #6A131B",
"]/@	c #82222D",
"^/@	c #530803",
"//@	c #81100A",
"(/@	c #C1322E",
"_/@	c #B63B36",
":/@	c #A7413C",
"</@	c #7C2F25",
"[/@	c #65291F",
"}/@	c #62322E",
"|/@	c #6A3736",
"1/@	c #662E2F",
"2/@	c #662A2A",
"3/@	c #612423",
"4/@	c #562014",
"5/@	c #5E2F1D",
"6/@	c #5F3421",
"7/@	c #5B3020",
"8/@	c #5B3123",
"9/@	c #5A3324",
"0/@	c #5B3727",
"a/@	c #543928",
"b/@	c #563C2D",
"c/@	c #5B3F31",
"d/@	c #563A2C",
"e/@	c #4E3123",
"f/@	c #523024",
"g/@	c #59332A",
"h/@	c #5B2E28",
"i/@	c #3B1A13",
"j/@	c #643C32",
"k/@	c #673D31",
"l/@	c #643A2C",
"m/@	c #5F3326",
"n/@	c #5D2E1E",
"o/@	c #5D2C1D",
"p/@	c #5D2A19",
"q/@	c #5A2515",
"r/@	c #68301F",
"s/@	c #622918",
"t/@	c #5F2414",
"u/@	c #612213",
"v/@	c #5D1B0D",
"w/@	c #5A180C",
"x/@	c #5C211B",
"y/@	c #8F564F",
"z/@	c #48130D",
"A/@	c #512620",
"B/@	c #40251C",
"C/@	c #622C2A",
"D/@	c #8D4F50",
"E/@	c #7F3F40",
"F/@	c #3B2621",
"G/@	c #410308",
"H/@	c #490007",
"I/@	c #530006",
"J/@	c #570005",
"K/@	c #580001",
"L/@	c #5B0006",
"M/@	c #62090F",
"N/@	c #621014",
"O/@	c #5A0E10",
"P/@	c #561211",
"Q/@	c #662926",
"R/@	c #764642",
"S/@	c #422622",
"T/@	c #40312E",
"U/@	c #3F302D",
"V/@	c #795152",
"W/@	c #4F2829",
"X/@	c #423232",
"Y/@	c #353430",
"Z/@	c #5A5653",
"`/@	c #36322F",
" (@	c #4F4A47",
".(@	c #2F2524",
"+(@	c #0B0700",
"@(@	c #450003",
"#(@	c #681119",
"$(@	c #8B232E",
"%(@	c #932331",
"&(@	c #840A05",
"*(@	c #941A15",
"=(@	c #90251F",
"-(@	c #973C37",
";(@	c #883F39",
">(@	c #773C36",
",(@	c #542420",
"'(@	c #522829",
")(@	c #4B1B11",
"!(@	c #56261A",
"~(@	c #613222",
"{(@	c #5B301F",
"](@	c #56311F",
"^(@	c #573625",
"/(@	c #5C3B2A",
"((@	c #5D3C2B",
"_(@	c #5B3A29",
":(@	c #5A392A",
"<(@	c #5F3E2F",
"[(@	c #563627",
"}(@	c #513122",
"|(@	c #563629",
"1(@	c #5E3E31",
"2(@	c #5E4133",
"3(@	c #65483A",
"4(@	c #6E5143",
"5(@	c #735145",
"6(@	c #522720",
"7(@	c #37160D",
"8(@	c #593127",
"9(@	c #5D3529",
"0(@	c #5F3020",
"a(@	c #5E2D1E",
"b(@	c #5E2B1A",
"c(@	c #5C2715",
"d(@	c #622A19",
"e(@	c #672E1D",
"f(@	c #642919",
"g(@	c #5A1C0D",
"h(@	c #521407",
"i(@	c #56180B",
"j(@	c #50150D",
"k(@	c #6A302C",
"l(@	c #9B6660",
"m(@	c #491612",
"n(@	c #380804",
"o(@	c #4B1F1C",
"p(@	c #471411",
"q(@	c #6F3332",
"r(@	c #632727",
"s(@	c #43080A",
"t(@	c #4F1919",
"u(@	c #471717",
"v(@	c #39241F",
"w(@	c #270307",
"x(@	c #380006",
"y(@	c #3F0004",
"z(@	c #440005",
"A(@	c #460005",
"B(@	c #4A0307",
"C(@	c #4F0F10",
"D(@	c #3E2924",
"E(@	c #3A1314",
"F(@	c #7C5254",
"G(@	c #795054",
"H(@	c #43423E",
"I(@	c #625E5B",
"J(@	c #716D6A",
"K(@	c #221414",
"L(@	c #220A06",
"M(@	c #290602",
"N(@	c #4C0005",
"O(@	c #761621",
"P(@	c #972735",
"Q(@	c #9C2332",
"R(@	c #400403",
"S(@	c #480403",
"T(@	c #610900",
"U(@	c #6E2D29",
"V(@	c #723B38",
"W(@	c #5E312E",
"X(@	c #5F3634",
"Y(@	c #552F2E",
"Z(@	c #532D2C",
"`(@	c #4C211B",
" _@	c #4D1C15",
"._@	c #602A20",
"+_@	c #6C3227",
"@_@	c #5F3827",
"#_@	c #5C3B28",
"$_@	c #5D3929",
"%_@	c #5C3727",
"&_@	c #5B3626",
"*_@	c #5D3627",
"=_@	c #5B3528",
"-_@	c #664234",
";_@	c #664536",
">_@	c #664639",
",_@	c #745749",
"'_@	c #6F5345",
")_@	c #543427",
"!_@	c #4B1E18",
"~_@	c #491C16",
"{_@	c #39170D",
"]_@	c #5C3428",
"^_@	c #5D3325",
"/_@	c #5D3222",
"(_@	c #5D2818",
"__@	c #5C2415",
":_@	c #5A2213",
"<_@	c #5B2113",
"[_@	c #55190E",
"}_@	c #561C11",
"|_@	c #4A110A",
"1_@	c #753E39",
"2_@	c #A6716B",
"3_@	c #461510",
"4_@	c #390C07",
"5_@	c #351C15",
"6_@	c #532621",
"7_@	c #471F1D",
"8_@	c #190004",
"9_@	c #270005",
"0_@	c #380A0C",
"a_@	c #6B3E41",
"b_@	c #926568",
"c_@	c #43191D",
"d_@	c #2F2B28",
"e_@	c #605C59",
"f_@	c #595451",
"g_@	c #2B1D1D",
"h_@	c #2B1B1C",
"i_@	c #390102",
"j_@	c #56090F",
"k_@	c #862631",
"l_@	c #A33542",
"m_@	c #A02A3A",
"n_@	c #320C03",
"o_@	c #490B00",
"p_@	c #420701",
"q_@	c #592D2A",
"r_@	c #734B49",
"s_@	c #4F241E",
"t_@	c #582720",
"u_@	c #6A312A",
"v_@	c #74352E",
"w_@	c #6B3126",
"x_@	c #5F3C29",
"y_@	c #593623",
"z_@	c #5A3525",
"A_@	c #5E3728",
"B_@	c #583024",
"C_@	c #542E21",
"D_@	c #593328",
"E_@	c #6B493D",
"F_@	c #725245",
"G_@	c #604438",
"H_@	c #4F3327",
"I_@	c #2D0F04",
"J_@	c #542721",
"K_@	c #51261F",
"L_@	c #451A13",
"M_@	c #3D170E",
"N_@	c #4D2B21",
"O_@	c #593125",
"P_@	c #5B2D1E",
"Q_@	c #5A2B1B",
"R_@	c #531E10",
"S_@	c #4E1909",
"T_@	c #51190C",
"U_@	c #551D10",
"V_@	c #561E11",
"W_@	c #4D1409",
"X_@	c #4D160F",
"Y_@	c #733E3A",
"Z_@	c #AC7975",
"`_@	c #40281E",
" :@	c #6C4E46",
".:@	c #704741",
"+:@	c #572723",
"@:@	c #471514",
"#:@	c #511F1E",
"$:@	c #411E1C",
"%:@	c #0C0306",
"&:@	c #2A0000",
"*:@	c #552428",
"=:@	c #9C6B6F",
"-:@	c #5A2C2F",
";:@	c #39312F",
">:@	c #433E3B",
",:@	c #3A3532",
"':@	c #514947",
"):@	c #3F3A37",
"!:@	c #2D2322",
"~:@	c #291F1E",
"{:@	c #382E2D",
"]:@	c #560F15",
"^:@	c #842D36",
"/:@	c #9B3743",
"(:@	c #902634",
"_:@	c #330B01",
"::@	c #3C1408",
"<:@	c #2E0100",
"[:@	c #350805",
"}:@	c #431A14",
"|:@	c #68362F",
"1:@	c #6E352E",
"2:@	c #71352D",
"3:@	c #71362E",
"4:@	c #69392B",
"5:@	c #623828",
"6:@	c #5F3B2D",
"7:@	c #55372C",
"8:@	c #63453A",
"9:@	c #6F5348",
"0:@	c #5E4237",
"a:@	c #492D22",
"b:@	c #45291E",
"c:@	c #49281F",
"d:@	c #583229",
"e:@	c #643930",
"f:@	c #60382E",
"g:@	c #4C261B",
"h:@	c #4A281E",
"i:@	c #3F1F14",
"j:@	c #3C1E13",
"k:@	c #270C01",
"l:@	c #3D1F15",
"m:@	c #49271D",
"n:@	c #502A1F",
"o:@	c #55291C",
"p:@	c #542617",
"q:@	c #542012",
"r:@	c #501A0E",
"s:@	c #4A1408",
"t:@	c #481206",
"u:@	c #4A1609",
"v:@	c #4F1B10",
"w:@	c #4B1610",
"x:@	c #6B3632",
"y:@	c #BE8B87",
"z:@	c #63332F",
"A:@	c #390C09",
"B:@	c #584036",
"C:@	c #6A4D45",
"D:@	c #6F4D44",
"E:@	c #69423B",
"F:@	c #49201E",
"G:@	c #421A1A",
"H:@	c #130004",
"I:@	c #2D2824",
"J:@	c #322920",
"K:@	c #281C0E",
"L:@	c #271B0D",
"M:@	c #A36E74",
"N:@	c #734045",
"O:@	c #543835",
"P:@	c #4E4442",
"Q:@	c #5E5452",
"R:@	c #2A1B1E",
"S:@	c #24181A",
"T:@	c #312726",
"U:@	c #2A0001",
"V:@	c #41090C",
"W:@	c #672026",
"X:@	c #640D16",
"Y:@	c #5A2F29",
"Z:@	c #653A34",
"`:@	c #4C1F19",
" <@	c #4D201A",
".<@	c #693A32",
"+<@	c #713F36",
"@<@	c #683429",
"#<@	c #6A3A2E",
"$<@	c #6B3D30",
"%<@	c #522E20",
"&<@	c #4A2A1D",
"*<@	c #685143",
"=<@	c #755F52",
"-<@	c #6C5649",
";<@	c #573A34",
"><@	c #603F38",
",<@	c #5F3930",
"'<@	c #683D34",
")<@	c #663E34",
"!<@	c #5D352B",
"~<@	c #5B352A",
"{<@	c #623C31",
"]<@	c #5D3B31",
"^<@	c #4F3126",
"/<@	c #281205",
"(<@	c #250F02",
"_<@	c #251204",
":<@	c #1E0600",
"<<@	c #4E281D",
"[<@	c #4E2215",
"}<@	c #4C1E0F",
"|<@	c #4E1E10",
"1<@	c #4E1D0F",
"2<@	c #4C180B",
"3<@	c #481709",
"4<@	c #48160B",
"5<@	c #46140B",
"6<@	c #400E07",
"7<@	c #CC9B97",
"8<@	c #7B4B49",
"9<@	c #451815",
"0<@	c #290000",
"a<@	c #462E24",
"b<@	c #654D43",
"c<@	c #6A5248",
"d<@	c #654A41",
"e<@	c #6B4D43",
"f<@	c #623F39",
"g<@	c #19090C",
"h<@	c #180809",
"i<@	c #261D0E",
"j<@	c #261A0C",
"k<@	c #180A00",
"l<@	c #3F0D10",
"m<@	c #380106",
"n<@	c #8F585E",
"o<@	c #8F5A60",
"p<@	c #491B1E",
"q<@	c #725452",
"r<@	c #4F3733",
"s<@	c #655852",
"t<@	c #726763",
"u<@	c #574D4B",
"v<@	c #574C4A",
"w<@	c #221618",
"x<@	c #3C201D",
"y<@	c #2E0203",
"z<@	c #420E10",
"A<@	c #4A0C0F",
"B<@	c #421915",
"C<@	c #663934",
"D<@	c #754640",
"E<@	c #613029",
"F<@	c #6F3F35",
"G<@	c #63372C",
"H<@	c #542A1C",
"I<@	c #663A2D",
"J<@	c #6E382E",
"K<@	c #723932",
"L<@	c #5E332A",
"M<@	c #4D2B1F",
"N<@	c #716559",
"O<@	c #615348",
"P<@	c #583937",
"Q<@	c #633D32",
"R<@	c #603E32",
"S<@	c #482E21",
"T<@	c #3C2619",
"U<@	c #331D10",
"V<@	c #311E10",
"W<@	c #342113",
"X<@	c #2D170C",
"Y<@	c #4C281C",
"Z<@	c #4E261A",
"`<@	c #4B1F14",
" [@	c #532518",
".[@	c #4D1D11",
"+[@	c #451509",
"@[@	c #49190D",
"#[@	c #4E1E14",
"$[@	c #47170D",
"%[@	c #3B0B01",
"&[@	c #5B2824",
"*[@	c #BD8C88",
"=[@	c #6F3F3D",
"-[@	c #4F221F",
";[@	c #381916",
">[@	c #644743",
",[@	c #5B3F3B",
"'[@	c #5B4339",
")[@	c #5E463C",
"![@	c #70584C",
"~[@	c #7F675B",
"{[@	c #120003",
"][@	c #130001",
"^[@	c #1C0307",
"/[@	c #20050C",
"([@	c #22090D",
"_[@	c #251E14",
":[@	c #282117",
"<[@	c #241B0C",
"[[@	c #25190B",
"}[@	c #201408",
"|[@	c #260702",
"1[@	c #3F1111",
"2[@	c #50191E",
"3[@	c #380005",
"4[@	c #71383E",
"5[@	c #A46D72",
"6[@	c #6C3B3E",
"7[@	c #7C5D5A",
"8[@	c #684F4A",
"9[@	c #453734",
"0[@	c #4A3C3B",
"a[@	c #372728",
"b[@	c #3C1E1C",
"c[@	c #1F0200",
"d[@	c #291306",
"e[@	c #2C1609",
"f[@	c #2D1509",
"g[@	c #2B0804",
"h[@	c #6A3D37",
"i[@	c #76473F",
"j[@	c #693831",
"k[@	c #62362B",
"l[@	c #502618",
"m[@	c #472212",
"n[@	c #593525",
"o[@	c #70493A",
"p[@	c #733F34",
"q[@	c #6C362C",
"r[@	c #603026",
"s[@	c #5C3226",
"t[@	c #593829",
"u[@	c #543A2B",
"v[@	c #291D0D",
"w[@	c #513A32",
"x[@	c #482C28",
"y[@	c #5D3A36",
"z[@	c #532D22",
"A[@	c #593326",
"B[@	c #5D372A",
"C[@	c #533326",
"D[@	c #4B3327",
"E[@	c #362315",
"F[@	c #4A281F",
"G[@	c #4D271E",
"H[@	c #481D14",
"I[@	c #4B1F16",
"J[@	c #4C1D15",
"K[@	c #45160E",
"L[@	c #41120A",
"M[@	c #3E110B",
"N[@	c #552620",
"O[@	c #9F6F6B",
"P[@	c #53221E",
"Q[@	c #562423",
"R[@	c #8F746D",
"S[@	c #967F77",
"T[@	c #988479",
"U[@	c #7F6B60",
"V[@	c #705C51",
"W[@	c #69554A",
"X[@	c #463229",
"Y[@	c #260B10",
"Z[@	c #2D1418",
"`[@	c #3B2D2A",
" }@	c #2E271D",
".}@	c #241D13",
"+}@	c #1C0C00",
"@}@	c #210F01",
"#}@	c #512121",
"$}@	c #693235",
"%}@	c #4D1216",
"&}@	c #6C3133",
"*}@	c #A76F70",
"=}@	c #885554",
"-}@	c #744744",
";}@	c #8A6461",
">}@	c #482924",
",}@	c #331110",
"'}@	c #491A14",
")}@	c #291608",
"!}@	c #271507",
"~}@	c #491E18",
"{}@	c #653A31",
"]}@	c #6C4236",
"^}@	c #694233",
"/}@	c #4A2314",
"(}@	c #3F1807",
"_}@	c #734C3B",
":}@	c #724838",
"<}@	c #6B402F",
"[}@	c #663828",
"}}@	c #643626",
"|}@	c #6E4533",
"1}@	c #573220",
"2}@	c #4C2B18",
"3}@	c #604331",
"4}@	c #5E4531",
"5}@	c #5C4734",
"6}@	c #746153",
"7}@	c #6B5548",
"8}@	c #3A2216",
"9}@	c #4E2D1C",
"0}@	c #532E1C",
"a}@	c #573421",
"b}@	c #563524",
"c}@	c #533223",
"d}@	c #503023",
"e}@	c #543729",
"f}@	c #482B1D",
"g}@	c #563C2F",
"h}@	c #462E22",
"i}@	c #3A2419",
"j}@	c #462E2A",
"k}@	c #411A15",
"l}@	c #390D0A",
"m}@	c #2B0600",
"n}@	c #AE817C",
"o}@	c #703D3A",
"p}@	c #571D1C",
"q}@	c #574338",
"r}@	c #948B7C",
"s}@	c #AFA599",
"t}@	c #70665A",
"u}@	c #312E25",
"v}@	c #2D2620",
"w}@	c #342D25",
"x}@	c #1F180E",
"y}@	c #2B1508",
"z}@	c #291105",
"A}@	c #592728",
"B}@	c #8B5354",
"C}@	c #591E1A",
"D}@	c #7F4440",
"E}@	c #98615A",
"F}@	c #74423B",
"G}@	c #8E5F59",
"H}@	c #150B01",
"I}@	c #231314",
"J}@	c #251516",
"K}@	c #391715",
"L}@	c #2C1211",
"M}@	c #380C03",
"N}@	c #381408",
"O}@	c #311509",
"P}@	c #251307",
"Q}@	c #582B25",
"R}@	c #5B3329",
"S}@	c #704A3D",
"T}@	c #583424",
"U}@	c #3D1909",
"V}@	c #46210F",
"W}@	c #8A6352",
"X}@	c #916656",
"Y}@	c #603524",
"Z}@	c #69402E",
"`}@	c #542E1B",
" |@	c #5A3620",
".|@	c #5A3723",
"+|@	c #583823",
"@|@	c #593D28",
"#|@	c #4E331E",
"$|@	c #533A26",
"%|@	c #614A38",
"&|@	c #624B3B",
"*|@	c #351F11",
"=|@	c #765F51",
"-|@	c #7D6658",
";|@	c #331C0E",
">|@	c #573D2E",
",|@	c #4E2F1D",
"'|@	c #53301D",
")|@	c #55321F",
"!|@	c #563522",
"~|@	c #573623",
"{|@	c #4F3224",
"]|@	c #533628",
"^|@	c #492D21",
"/|@	c #4E3226",
"(|@	c #442C20",
"_|@	c #3D271C",
":|@	c #301B18",
"<|@	c #46201F",
"[|@	c #43191A",
"}|@	c #714C46",
"||@	c #5C3E34",
"1|@	c #543229",
"2|@	c #936862",
"3|@	c #794341",
"4|@	c #430605",
"5|@	c #4B090A",
"6|@	c #440402",
"7|@	c #6A4940",
"8|@	c #574436",
"9|@	c #746C5F",
"0|@	c #837D71",
"a|@	c #484236",
"b|@	c #352E24",
"c|@	c #2A231B",
"d|@	c #281004",
"e|@	c #511F20",
"f|@	c #955D5E",
"g|@	c #945857",
"h|@	c #430601",
"i|@	c #81453D",
"j|@	c #B77D72",
"k|@	c #71382F",
"l|@	c #845249",
"m|@	c #784943",
"n|@	c #562A27",
"o|@	c #3F1C18",
"p|@	c #312B1F",
"q|@	c #382E25",
"r|@	c #221213",
"s|@	c #40211C",
"t|@	c #3D1C17",
"u|@	c #321613",
"v|@	c #271211",
"w|@	c #440B04",
"x|@	c #44130C",
"y|@	c #3D1209",
"z|@	c #2B0F03",
"A|@	c #2B1307",
"B|@	c #271406",
"C|@	c #241206",
"D|@	c #35100A",
"E|@	c #643731",
"F|@	c #6E433C",
"G|@	c #70483E",
"H|@	c #462214",
"I|@	c #623E2E",
"J|@	c #8A6555",
"K|@	c #916759",
"L|@	c #653B2B",
"M|@	c #704636",
"N|@	c #5A3322",
"O|@	c #5A3926",
"P|@	c #513623",
"Q|@	c #5D4634",
"R|@	c #624D3C",
"S|@	c #331D0F",
"T|@	c #8C7669",
"U|@	c #51301F",
"V|@	c #513220",
"W|@	c #4F3325",
"X|@	c #4B3124",
"Y|@	c #50382C",
"Z|@	c #4A3226",
"`|@	c #3D2823",
" 1@	c #A8857F",
".1@	c #8B6A61",
"+1@	c #724D45",
"@1@	c #764944",
"#1@	c #7C4443",
"$1@	c #601E1F",
"%1@	c #4E080A",
"&1@	c #855E57",
"*1@	c #5A3F36",
"=1@	c #514A40",
"-1@	c #090200",
";1@	c #3B312F",
">1@	c #2C211F",
",1@	c #371C13",
"'1@	c #411111",
")1@	c #B07473",
"!1@	c #8B4F45",
"~1@	c #581E13",
"{1@	c #824D45",
"]1@	c #8F5E59",
"^1@	c #5F322F",
"/1@	c #211313",
"(1@	c #4F120D",
"_1@	c #521B16",
":1@	c #320A02",
"<1@	c #241005",
"[1@	c #4B221C",
"}1@	c #572A25",
"|1@	c #754842",
"11@	c #80554E",
"21@	c #815B50",
"31@	c #532F23",
"41@	c #280600",
"51@	c #704F40",
"61@	c #815D4F",
"71@	c #785044",
"81@	c #60382C",
"91@	c #5C3526",
"01@	c #603B2B",
"a1@	c #5E3A2A",
"b1@	c #533422",
"c1@	c #583D2C",
"d1@	c #5A4031",
"e1@	c #634D3F",
"f1@	c #190300",
"g1@	c #80685C",
"h1@	c #42271C",
"i1@	c #4C2F1F",
"j1@	c #4B2E1E",
"k1@	c #422C21",
"l1@	c #8C6B64",
"m1@	c #816057",
"n1@	c #6B443D",
"o1@	c #672324",
"p1@	c #6C2427",
"q1@	c #561114",
"r1@	c #672F2E",
"s1@	c #7F524F",
"t1@	c #6A3434",
"u1@	c #A56968",
"v1@	c #A86964",
"w1@	c #5A1A11",
"x1@	c #3F0300",
"y1@	c #743B34",
"z1@	c #A06D69",
"A1@	c #6E3E3C",
"B1@	c #482722",
"C1@	c #262014",
"D1@	c #312D21",
"E1@	c #0E0400",
"F1@	c #4B0C07",
"G1@	c #41100B",
"H1@	c #230F04",
"I1@	c #1F1307",
"J1@	c #211104",
"K1@	c #230B00",
"L1@	c #875A54",
"M1@	c #734B43",
"N1@	c #6E4940",
"O1@	c #5A382E",
"P1@	c #654538",
"Q1@	c #8B695D",
"R1@	c #694539",
"S1@	c #431D12",
"T1@	c #583426",
"U1@	c #502E22",
"V1@	c #4A3023",
"W1@	c #442E21",
"X1@	c #5B443C",
"Y1@	c #8C746A",
"Z1@	c #492D1F",
"`1@	c #4C2F21",
" 2@	c #4B2E20",
".2@	c #493125",
"+2@	c #4A3429",
"@2@	c #3C2821",
"#2@	c #3F2C26",
"$2@	c #3B1917",
"%2@	c #8D6C63",
"&2@	c #754E47",
"*2@	c #572622",
"=2@	c #4E1212",
"-2@	c #5E171B",
";2@	c #82353B",
">2@	c #7B3337",
",2@	c #88474B",
"'2@	c #7C484A",
")2@	c #342C2A",
"!2@	c #31160D",
"~2@	c #562322",
"{2@	c #9D6160",
"]2@	c #BF7E78",
"^2@	c #89463E",
"/2@	c #5E1B12",
"(2@	c #A5706A",
"_2@	c #231D11",
":2@	c #323023",
"<2@	c #333125",
"[2@	c #1F1111",
"}2@	c #290200",
"|2@	c #3F1A14",
"12@	c #321915",
"22@	c #420502",
"32@	c #460C08",
"42@	c #340300",
"52@	c #320D05",
"62@	c #240A00",
"72@	c #6D3E38",
"82@	c #7D524B",
"92@	c #6B433B",
"02@	c #5E3930",
"a2@	c #614136",
"b2@	c #694B40",
"c2@	c #593B30",
"d2@	c #87665D",
"e2@	c #643F36",
"f2@	c #68433A",
"g2@	c #4E2C22",
"h2@	c #4E3328",
"i2@	c #674E47",
"j2@	c #4B322B",
"k2@	c #43281D",
"l2@	c #442A1D",
"m2@	c #3A261F",
"n2@	c #87665F",
"o2@	c #704942",
"p2@	c #582723",
"q2@	c #4B0F0F",
"r2@	c #510A0E",
"s2@	c #570A10",
"t2@	c #601117",
"u2@	c #792C34",
"v2@	c #975159",
"w2@	c #90575D",
"x2@	c #2C181A",
"y2@	c #37322E",
"z2@	c #3F3333",
"A2@	c #2D0304",
"B2@	c #985C5B",
"C2@	c #B8756F",
"D2@	c #AA635D",
"E2@	c #6B251D",
"F2@	c #8B514D",
"G2@	c #95625F",
"H2@	c #5B2B29",
"I2@	c #383224",
"J2@	c #2D2B1E",
"K2@	c #1C1D0F",
"L2@	c #2C2A1E",
"M2@	c #181409",
"N2@	c #331B19",
"O2@	c #120100",
"P2@	c #824741",
"Q2@	c #490E0A",
"R2@	c #430907",
"S2@	c #210D02",
"T2@	c #260200",
"U2@	c #40180E",
"V2@	c #6A3F36",
"W2@	c #663A31",
"X2@	c #65362E",
"Y2@	c #663B34",
"Z2@	c #663E36",
"`2@	c #634138",
" 3@	c #66483E",
".3@	c #5F4439",
"+3@	c #593E33",
"@3@	c #684B43",
"#3@	c #76544B",
"$3@	c #5B3930",
"%3@	c #4B2A21",
"&3@	c #51392F",
"*3@	c #3F271D",
"=3@	c #452D21",
"-3@	c #41291F",
";3@	c #41291D",
">3@	c #3E2A21",
",3@	c #38251F",
"'3@	c #6C4F49",
")3@	c #5D3830",
"!3@	c #490004",
"~3@	c #60131D",
"{3@	c #833D47",
"]3@	c #884C54",
"^3@	c #3B0C14",
"/3@	c #240409",
"(3@	c #1D1417",
"_3@	c #362A2A",
":3@	c #322626",
"<3@	c #211215",
"[3@	c #281C1E",
"}3@	c #361D16",
"|3@	c #854948",
"13@	c #AB6862",
"23@	c #B26963",
"33@	c #4C0903",
"43@	c #9F6967",
"53@	c #6A3837",
"63@	c #4B1918",
"73@	c #382016",
"83@	c #403A2C",
"93@	c #242517",
"03@	c #121305",
"a3@	c #100E02",
"b3@	c #40332D",
"c3@	c #29060A",
"d3@	c #29040B",
"e3@	c #8A554D",
"f3@	c #824B46",
"g3@	c #2B0B00",
"h3@	c #6D4138",
"i3@	c #5E2F27",
"j3@	c #5C312A",
"k3@	c #532D24",
"l3@	c #6B4A41",
"m3@	c #74584D",
"n3@	c #75544F",
"o3@	c #6E4D46",
"p3@	c #3F241D",
"q3@	c #523E37",
"r3@	c #3B241C",
"s3@	c #381F1A",
"t3@	c #A48982",
"u3@	c #A0837B",
"v3@	c #3E0D09",
"w3@	c #561A1A",
"x3@	c #4F0A0F",
"y3@	c #530A13",
"z3@	c #500712",
"A3@	c #5E1B24",
"B3@	c #61252F",
"C3@	c #390A12",
"D3@	c #26050C",
"E3@	c #211B1F",
"F3@	c #131418",
"G3@	c #000102",
"H3@	c #2E2520",
"I3@	c #423731",
"J3@	c #403134",
"K3@	c #453538",
"L3@	c #402F35",
"M3@	c #392A2D",
"N3@	c #100509",
"O3@	c #3B0B09",
"P3@	c #703433",
"Q3@	c #9C5752",
"R3@	c #C57773",
"S3@	c #4B0400",
"T3@	c #BA8281",
"U3@	c #8A5756",
"V3@	c #421D17",
"W3@	c #252314",
"X3@	c #303123",
"Y3@	c #262719",
"Z3@	c #1A180C",
"`3@	c #151106",
" 4@	c #332620",
".4@	c #413330",
"+4@	c #433532",
"@4@	c #3E1616",
"#4@	c #3C1D1A",
"$4@	c #371B17",
"%4@	c #27070A",
"&4@	c #7A433E",
"*4@	c #632726",
"=4@	c #490C0B",
"-4@	c #4C0E0F",
";4@	c #2F0302",
">4@	c #270300",
",4@	c #2F0700",
"'4@	c #461A0F",
")4@	c #67382E",
"!4@	c #704139",
"~4@	c #58372E",
"{4@	c #523330",
"]4@	c #5F403B",
"^4@	c #4B2E2A",
"/4@	c #755D59",
"(4@	c #452D29",
"_4@	c #3E2A23",
":4@	c #3C231C",
"<4@	c #846C62",
"[4@	c #A58880",
"}4@	c #7B5852",
"|4@	c #360A07",
"14@	c #49060D",
"24@	c #520F18",
"34@	c #4C0D15",
"44@	c #571E27",
"54@	c #32030D",
"64@	c #1D0005",
"74@	c #210E14",
"84@	c #1F191D",
"94@	c #181D20",
"04@	c #302424",
"a4@	c #352629",
"b4@	c #281519",
"c4@	c #1D080F",
"d4@	c #0E0508",
"e4@	c #390B0B",
"f4@	c #A55E5A",
"g4@	c #B2635F",
"h4@	c #A6514E",
"i4@	c #450100",
"j4@	c #8C5250",
"k4@	c #4D1C18",
"l4@	c #27170A",
"m4@	c #1B190A",
"n4@	c #27281A",
"o4@	c #161709",
"p4@	c #141005",
"q4@	c #231C12",
"r4@	c #391111",
"s4@	c #360A0B",
"t4@	c #0D090A",
"u4@	c #050702",
"v4@	c #250209",
"w4@	c #391306",
"x4@	c #4E2219",
"y4@	c #6E3C35",
"z4@	c #7A403E",
"A4@	c #460607",
"B4@	c #480A0B",
"C4@	c #490D0F",
"D4@	c #450D0E",
"E4@	c #380E02",
"F4@	c #5B2C24",
"G4@	c #66372F",
"H4@	c #4B231B",
"I4@	c #532E26",
"J4@	c #492B21",
"K4@	c #462B20",
"L4@	c #3E281D",
"M4@	c #392318",
"N4@	c #40251E",
"O4@	c #3E221E",
"P4@	c #462F29",
"Q4@	c #402B26",
"R4@	c #3A2520",
"S4@	c #6F5753",
"T4@	c #472F2B",
"U4@	c #93786F",
"V4@	c #A88A82",
"W4@	c #69443E",
"X4@	c #4F1418",
"Y4@	c #44070E",
"Z4@	c #450A10",
"`4@	c #5E262F",
" 5@	c #3F111B",
".5@	c #200004",
"+5@	c #1E0B11",
"@5@	c #100A0E",
"#5@	c #060A0B",
"$5@	c #101616",
"%5@	c #190409",
"&5@	c #1B040C",
"*5@	c #20090F",
"=5@	c #230D10",
"-5@	c #3A3230",
";5@	c #8F4542",
">5@	c #B86462",
",5@	c #B35A56",
"'5@	c #713B39",
")5@	c #471713",
"!5@	c #232011",
"~5@	c #161405",
"{5@	c #252316",
"]5@	c #220308",
"^5@	c #4E2D1E",
"/5@	c #44150D",
"(5@	c #58231F",
"_5@	c #743837",
":5@	c #561617",
"<5@	c #4E1013",
"[5@	c #460B0D",
"}5@	c #330102",
"|5@	c #51261D",
"15@	c #4F231A",
"25@	c #411F16",
"35@	c #402419",
"45@	c #391A15",
"55@	c #3E221F",
"65@	c #432B27",
"75@	c #59413D",
"85@	c #29180E",
"95@	c #8D7068",
"05@	c #94736C",
"a5@	c #5A332E",
"b5@	c #3F120F",
"c5@	c #40090E",
"d5@	c #471015",
"e5@	c #653038",
"f5@	c #4B1E25",
"g5@	c #210A10",
"h5@	c #1E1317",
"i5@	c #131514",
"j5@	c #1E050B",
"k5@	c #24090E",
"l5@	c #290E13",
"m5@	c #2E1C1A",
"n5@	c #1E1516",
"o5@	c #261D1E",
"p5@	c #843936",
"q5@	c #C16968",
"r5@	c #C16361",
"s5@	c #8A2C2C",
"t5@	c #5F221F",
"u5@	c #541D1A",
"v5@	c #521F1C",
"w5@	c #2E261B",
"x5@	c #3A0E05",
"y5@	c #390602",
"z5@	c #703233",
"A5@	c #602426",
"B5@	c #3F080B",
"C5@	c #400C0E",
"D5@	c #62352F",
"E5@	c #643932",
"F5@	c #5C3027",
"G5@	c #592A24",
"H5@	c #441D16",
"I5@	c #3A1910",
"J5@	c #40231B",
"K5@	c #7B5D55",
"L5@	c #724F49",
"M5@	c #502723",
"N5@	c #441616",
"O5@	c #451115",
"P5@	c #622D33",
"Q5@	c #613238",
"R5@	c #2C050A",
"S5@	c #1F0409",
"T5@	c #140E10",
"U5@	c #141213",
"V5@	c #260F15",
"W5@	c #190001",
"X5@	c #4B322E",
"Y5@	c #634E4B",
"Z5@	c #584848",
"`5@	c #372D2B",
" 6@	c #7E302E",
".6@	c #B35959",
"+6@	c #C2605F",
"@6@	c #9B393A",
"#6@	c #832B2A",
"$6@	c #7A2C2C",
"%6@	c #551E1B",
"&6@	c #422017",
"*6@	c #140002",
"=6@	c #351405",
"-6@	c #5B2F26",
";6@	c #420D09",
">6@	c #571F1E",
",6@	c #723739",
"'6@	c #582021",
")6@	c #460E11",
"!6@	c #40090C",
"~6@	c #481816",
"{6@	c #522520",
"]6@	c #3E1D14",
"^6@	c #33180F",
"/6@	c #361E14",
"(6@	c #3D2420",
"_6@	c #2B170C",
":6@	c #56352E",
"<6@	c #5B3630",
"[6@	c #4B1B1B",
"}6@	c #4F1B1F",
"|6@	c #54272C",
"16@	c #1E0106",
"26@	c #1E0004",
"36@	c #2C080C",
"46@	c #674543",
"56@	c #5E423F",
"66@	c #211917",
"76@	c #584E4C",
"86@	c #671917",
"96@	c #963A3B",
"06@	c #BD5959",
"a6@	c #A23E40",
"b6@	c #9A4040",
"c6@	c #80302F",
"d6@	c #431C15",
"e6@	c #422118",
"f6@	c #2F1B10",
"g6@	c #482016",
"h6@	c #53241E",
"i6@	c #54211D",
"j6@	c #430D0B",
"k6@	c #4B1513",
"l6@	c #602A2A",
"m6@	c #5A2628",
"n6@	c #380607",
"o6@	c #512522",
"p6@	c #603731",
"q6@	c #623731",
"r6@	c #552823",
"s6@	c #50231E",
"t6@	c #4E231D",
"u6@	c #441F17",
"v6@	c #331F14",
"w6@	c #37201A",
"x6@	c #401D17",
"y6@	c #532A26",
"z6@	c #6A3D3A",
"A6@	c #542022",
"B6@	c #642D32",
"C6@	c #40171B",
"D6@	c #2B1517",
"E6@	c #30231D",
"F6@	c #42352D",
"G6@	c #37171A",
"H6@	c #4B2427",
"I6@	c #512325",
"J6@	c #4B191A",
"K6@	c #4C1C1A",
"L6@	c #451D1B",
"M6@	c #564C4A",
"N6@	c #530302",
"O6@	c #892B2B",
"P6@	c #C96263",
"Q6@	c #B64F50",
"R6@	c #A54747",
"S6@	c #782726",
"T6@	c #662221",
"U6@	c #5F2825",
"V6@	c #47251C",
"W6@	c #2C1A0E",
"X6@	c #180600",
"Y6@	c #190700",
"Z6@	c #362825",
"`6@	c #360A09",
" 7@	c #4F271B",
".7@	c #3D0C08",
"+7@	c #340201",
"@7@	c #562626",
"#7@	c #582F2B",
"$7@	c #673E3A",
"%7@	c #673B38",
"&7@	c #4A211D",
"*7@	c #361E12",
"=7@	c #281409",
"-7@	c #271509",
";7@	c #683B38",
">7@	c #6E3838",
",7@	c #51161A",
"'7@	c #5C2127",
")7@	c #7B444A",
"!7@	c #65373A",
"~7@	c #472023",
"{7@	c #3D1F21",
"]7@	c #2A2220",
"^7@	c #24070B",
"/7@	c #3E1B1F",
"(7@	c #51272B",
"_7@	c #572528",
":7@	c #521A1D",
"<7@	c #521415",
"[7@	c #521616",
"}7@	c #080206",
"|7@	c #8C2C2D",
"17@	c #CA6263",
"27@	c #C05859",
"37@	c #9D3F3F",
"47@	c #5A1613",
"57@	c #411911",
"67@	c #402015",
"77@	c #341E11",
"87@	c #310305",
"97@	c #340404",
"07@	c #230505",
"a7@	c #431B11",
"b7@	c #491E15",
"c7@	c #4A1D17",
"d7@	c #4B1D1D",
"e7@	c #5A2E2B",
"f7@	c #653936",
"g7@	c #49221D",
"h7@	c #331D12",
"i7@	c #341C12",
"j7@	c #330D0C",
"k7@	c #6B3938",
"l7@	c #70383B",
"m7@	c #6D3236",
"n7@	c #80454B",
"o7@	c #764246",
"p7@	c #5F2E32",
"q7@	c #53292B",
"r7@	c #423431",
"s7@	c #370E12",
"t7@	c #4B0E13",
"u7@	c #520D12",
"v7@	c #4B0F11",
"w7@	c #0D070B",
"x7@	c #882A2A",
"y7@	c #BD4F50",
"z7@	c #BE4B4E",
"A7@	c #93292B",
"B7@	c #822726",
"C7@	c #530906",
"D7@	c #511A13",
"E7@	c #3C170E",
"F7@	c #30150A",
"G7@	c #382014",
"H7@	c #4F3528",
"I7@	c #3F2117",
"J7@	c #1F0D0D",
"K7@	c #330303",
"L7@	c #451316",
"M7@	c #4C181A",
"N7@	c #633130",
"O7@	c #633331",
"P7@	c #603330",
"Q7@	c #3E1913",
"R7@	c #341B14",
"S7@	c #6C3A3B",
"T7@	c #81494C",
"U7@	c #8D5256",
"V7@	c #7A3D42",
"W7@	c #7F4448",
"X7@	c #532323",
"Y7@	c #503F37",
"Z7@	c #47332C",
"`7@	c #3B060E",
" 8@	c #4C0A14",
".8@	c #510914",
"+8@	c #4D010D",
"@8@	c #4A010C",
"#8@	c #56131C",
"$8@	c #410A0F",
"%8@	c #403436",
"&8@	c #2D1217",
"*8@	c #4A2D32",
"=8@	c #3E2427",
"-8@	c #470A05",
";8@	c #AC3539",
">8@	c #BC393F",
",8@	c #B6383C",
"'8@	c #97292A",
")8@	c #5A0701",
"!8@	c #3B1F13",
"~8@	c #362418",
"{8@	c #392618",
"]8@	c #351E10",
"^8@	c #331709",
"/8@	c #462617",
"(8@	c #5F392C",
"_8@	c #643C30",
":8@	c #290700",
"<8@	c #280E11",
"[8@	c #290F12",
"}8@	c #1E1005",
"|8@	c #1A0E00",
"18@	c #1F0D01",
"28@	c #320607",
"38@	c #230102",
"48@	c #230001",
"58@	c #250103",
"68@	c #2B0102",
"78@	c #1E0103",
"88@	c #5A352D",
"98@	c #350407",
"08@	c #521E22",
"a8@	c #663332",
"b8@	c #5C2F2C",
"c8@	c #552926",
"d8@	c #4C1C1C",
"e8@	c #6C3538",
"f8@	c #A3666B",
"g8@	c #9D5F62",
"h8@	c #7B3A3E",
"i8@	c #7D3B3F",
"j8@	c #554138",
"k8@	c #46322B",
"l8@	c #3C2722",
"m8@	c #270D0E",
"n8@	c #2D0609",
"o8@	c #3C050B",
"p8@	c #4A0812",
"q8@	c #4F0611",
"r8@	c #4B000B",
"s8@	c #4A020D",
"t8@	c #4D0C14",
"u8@	c #450E13",
"v8@	c #56282B",
"w8@	c #745050",
"x8@	c #634543",
"y8@	c #241B1E",
"z8@	c #463D40",
"A8@	c #382F32",
"B8@	c #322628",
"C8@	c #4D2E34",
"D8@	c #58343E",
"E8@	c #3C1D23",
"F8@	c #A52A2D",
"G8@	c #B42930",
"H8@	c #BC333A",
"I8@	c #A32B2D",
"J8@	c #381E11",
"K8@	c #332113",
"L8@	c #341D0F",
"M8@	c #351508",
"N8@	c #451F12",
"O8@	c #5B2F22",
"P8@	c #623425",
"Q8@	c #54281B",
"R8@	c #35170C",
"S8@	c #2C0F11",
"T8@	c #1E1003",
"U8@	c #1B0F00",
"V8@	c #1C0F00",
"W8@	c #1D0D00",
"X8@	c #200C01",
"Y8@	c #360606",
"Z8@	c #240407",
"`8@	c #280106",
" 9@	c #180002",
".9@	c #4F2821",
"+9@	c #511F22",
"@9@	c #643231",
"#9@	c #612F2E",
"$9@	c #582B28",
"%9@	c #412019",
"&9@	c #3A0A0A",
"*9@	c #5C2626",
"=9@	c #A86C6E",
"-9@	c #B27175",
";9@	c #844246",
">9@	c #743234",
",9@	c #5E2627",
"'9@	c #593630",
")9@	c #4F3832",
"!9@	c #55403B",
"~9@	c #430208",
"{9@	c #480308",
"]9@	c #420002",
"^9@	c #430508",
"/9@	c #3D0506",
"(9@	c #683E3F",
"_9@	c #967272",
":9@	c #836364",
"<9@	c #46282A",
"[9@	c #221C1E",
"}9@	c #645B5C",
"|9@	c #534A4B",
"19@	c #372325",
"29@	c #593A40",
"39@	c #54303A",
"49@	c #2E0F15",
"59@	c #1C0003",
"69@	c #220400",
"79@	c #3D0600",
"89@	c #9C2124",
"99@	c #A51A21",
"09@	c #B93037",
"a9@	c #A83032",
"b9@	c #4E1409",
"c9@	c #402418",
"d9@	c #3F1D11",
"e9@	c #582C1F",
"f9@	c #592B1E",
"g9@	c #4A1E13",
"h9@	c #401F16",
"i9@	c #2F1D1B",
"j9@	c #210F03",
"k9@	c #1F0F00",
"l9@	c #1F0D00",
"m9@	c #210305",
"n9@	c #280406",
"o9@	c #360B05",
"p9@	c #451515",
"q9@	c #592726",
"r9@	c #592927",
"s9@	c #45201A",
"t9@	c #8E5254",
"u9@	c #A8676B",
"v9@	c #914F51",
"w9@	c #7A383A",
"x9@	c #5A2221",
"y9@	c #381F18",
"z9@	c #432C26",
"A9@	c #4E3934",
"B9@	c #3C2923",
"C9@	c #402D29",
"D9@	c #3E0001",
"E9@	c #490506",
"F9@	c #4E0808",
"G9@	c #470A07",
"H9@	c #6E4C4B",
"I9@	c #634346",
"J9@	c #3C1F23",
"K9@	c #5F5657",
"L9@	c #463D3E",
"M9@	c #45242B",
"N9@	c #3C1621",
"O9@	c #1F0005",
"P9@	c #3E0500",
"Q9@	c #731B19",
"R9@	c #9F141B",
"S9@	c #B72E35",
"T9@	c #A62F31",
"U9@	c #5C0500",
"V9@	c #4C1207",
"W9@	c #3E2318",
"X9@	c #492B20",
"Y9@	c #4B271B",
"Z9@	c #50261A",
"`9@	c #633327",
" 0@	c #57291C",
".0@	c #4C2015",
"+0@	c #2E0C0D",
"@0@	c #0D0B0E",
"#0@	c #2E0501",
"$0@	c #3D1410",
"%0@	c #522522",
"&0@	c #4B221E",
"*0@	c #544039",
"=0@	c #422E27",
"-0@	c #291013",
";0@	c #440E0E",
">0@	c #75393B",
",0@	c #9D5F60",
"'0@	c #9F5F5F",
")0@	c #894748",
"!0@	c #692F2E",
"~0@	c #442824",
"{0@	c #412E2A",
"]0@	c #5F110F",
"^0@	c #490C07",
"/0@	c #360500",
"(0@	c #351B1C",
"_0@	c #0F0002",
":0@	c #3F3637",
"<0@	c #483F40",
"[0@	c #382423",
"}0@	c #311D1C",
"|0@	c #2B1114",
"10@	c #29010A",
"20@	c #1C0002",
"30@	c #721A19",
"40@	c #9F2429",
"50@	c #A1151E",
"60@	c #B62D35",
"70@	c #A32C2E",
"80@	c #4F150A",
"90@	c #411F15",
"00@	c #3D2116",
"a0@	c #4F291E",
"b0@	c #5D2D23",
"c0@	c #54251B",
"d0@	c #3C241A",
"e0@	c #350600",
"f0@	c #360602",
"g0@	c #300E0F",
"h0@	c #100C0D",
"i0@	c #461D19",
"j0@	c #210E10",
"k0@	c #6C3231",
"l0@	c #9F6261",
"m0@	c #A66666",
"n0@	c #8B4B4B",
"o0@	c #743A39",
"p0@	c #49342F",
"q0@	c #402D27",
"r0@	c #4C3C3C",
"s0@	c #4C3E3D",
"t0@	c #4A0D0C",
"u0@	c #7D201B",
"v0@	c #544B4C",
"w0@	c #4E3A39",
"x0@	c #463130",
"y0@	c #280008",
"z0@	c #240009",
"A0@	c #9D2129",
"B0@	c #A51922",
"C0@	c #B42D34",
"D0@	c #A22B2F",
"E0@	c #571D12",
"F0@	c #431E15",
"G0@	c #402218",
"H0@	c #4E2921",
"I0@	c #512921",
"J0@	c #613127",
"K0@	c #4D2118",
"L0@	c #451F16",
"M0@	c #35130A",
"N0@	c #260E04",
"O0@	c #2C0A00",
"P0@	c #3B0401",
"Q0@	c #3C0606",
"R0@	c #3A080B",
"S0@	c #30090E",
"T0@	c #2E0E13",
"U0@	c #2D0D12",
"V0@	c #290C10",
"W0@	c #411814",
"X0@	c #220E10",
"Y0@	c #210C11",
"Z0@	c #1D0D10",
"`0@	c #9A5E5D",
" a@	c #A86868",
".a@	c #894947",
"+a@	c #733937",
"@a@	c #3C1A18",
"#a@	c #46312C",
"$a@	c #46332D",
"%a@	c #706261",
"&a@	c #4C4040",
"*a@	c #271E1F",
"=a@	c #453535",
"-a@	c #311C1B",
";a@	c #861817",
">a@	c #931D1D",
",a@	c #901C1C",
"'a@	c #801713",
")a@	c #670E0A",
"!a@	c #57120D",
"~a@	c #501F1B",
"{a@	c #422623",
"]a@	c #181818",
"^a@	c #4F4745",
"/a@	c #534948",
"(a@	c #2B2120",
"_a@	c #412C29",
":a@	c #3B2321",
"<a@	c #2A020A",
"[a@	c #2D020C",
"}a@	c #29010C",
"|a@	c #25040B",
"1a@	c #5F0608",
"2a@	c #971B23",
"3a@	c #A51C26",
"4a@	c #B02A31",
"5a@	c #9D2A2D",
"6a@	c #49241B",
"7a@	c #48271E",
"8a@	c #66352E",
"9a@	c #5F2E27",
"0a@	c #51221A",
"aa@	c #472219",
"ba@	c #412319",
"ca@	c #371108",
"da@	c #290B00",
"ea@	c #2E0900",
"fa@	c #310900",
"ga@	c #3E0402",
"ha@	c #400203",
"ia@	c #3B090C",
"ja@	c #35070A",
"ka@	c #2F080D",
"la@	c #2D0A10",
"ma@	c #280B10",
"na@	c #441211",
"oa@	c #461916",
"pa@	c #551D1C",
"qa@	c #8E5452",
"ra@	c #AB6E6D",
"sa@	c #8D504D",
"ta@	c #6F3835",
"ua@	c #7C7271",
"va@	c #413736",
"wa@	c #493433",
"xa@	c #3B2120",
"ya@	c #470C06",
"za@	c #550A05",
"Aa@	c #630805",
"Ba@	c #941A19",
"Ca@	c #73110E",
"Da@	c #631A14",
"Ea@	c #5E2B28",
"Fa@	c #412522",
"Ga@	c #060C0C",
"Ha@	c #000908",
"Ia@	c #5A504F",
"Ja@	c #453939",
"Ka@	c #2C030B",
"La@	c #250008",
"Ma@	c #210007",
"Na@	c #570104",
"Oa@	c #901720",
"Pa@	c #A41C26",
"Qa@	c #AA2830",
"Ra@	c #982A2B",
"Sa@	c #63140D",
"Ta@	c #582216",
"Ua@	c #4B261D",
"Va@	c #4A2920",
"Wa@	c #60332D",
"Xa@	c #49241C",
"Ya@	c #42251D",
"Za@	c #3D100A",
"`a@	c #2A0E02",
" b@	c #2F0900",
".b@	c #440204",
"+b@	c #410507",
"@b@	c #3C080C",
"#b@	c #3A090D",
"$b@	c #27080E",
"%b@	c #1D060C",
"&b@	c #0E0001",
"*b@	c #100900",
"=b@	c #3A0A08",
"-b@	c #52201F",
";b@	c #1D0A10",
">b@	c #5E2826",
",b@	c #87504D",
"'b@	c #B77B7A",
")b@	c #834844",
"!b@	c #76413D",
"~b@	c #351210",
"{b@	c #3B1C19",
"]b@	c #40231F",
"^b@	c #4B3832",
"/b@	c #43312D",
"(b@	c #5B5351",
"_b@	c #291514",
":b@	c #371F1D",
"<b@	c #4B2D2B",
"[b@	c #3C0100",
"}b@	c #4E0401",
"|b@	c #952121",
"1b@	c #A52526",
"2b@	c #A92425",
"3b@	c #AD2D2E",
"4b@	c #872524",
"5b@	c #722825",
"6b@	c #572421",
"7b@	c #0B0C0E",
"8b@	c #605654",
"9b@	c #5C5250",
"0b@	c #281614",
"ab@	c #4C3732",
"bb@	c #331515",
"cb@	c #2C0611",
"db@	c #580608",
"eb@	c #8C1720",
"fb@	c #A21E29",
"gb@	c #A2252B",
"hb@	c #891F1F",
"ib@	c #562517",
"jb@	c #452319",
"kb@	c #43251B",
"lb@	c #45231A",
"mb@	c #4F2920",
"nb@	c #5B3029",
"ob@	c #3A140B",
"pb@	c #391308",
"qb@	c #3B0C04",
"rb@	c #300E04",
"sb@	c #2F0D01",
"tb@	c #330800",
"ub@	c #350400",
"vb@	c #460106",
"wb@	c #460408",
"xb@	c #440609",
"yb@	c #3E070C",
"zb@	c #390C11",
"Ab@	c #20070B",
"Bb@	c #0A0002",
"Cb@	c #5A2726",
"Db@	c #60302E",
"Eb@	c #1E0D13",
"Fb@	c #532120",
"Gb@	c #784240",
"Hb@	c #A66F6C",
"Ib@	c #7E4744",
"Jb@	c #74433F",
"Kb@	c #572F2D",
"Lb@	c #4C302C",
"Mb@	c #4B4643",
"Nb@	c #34201F",
"Ob@	c #351B1A",
"Pb@	c #3C0502",
"Qb@	c #590D0D",
"Rb@	c #670D0D",
"Sb@	c #6F0D0E",
"Tb@	c #941D1F",
"Ub@	c #9B2022",
"Vb@	c #9D2322",
"Wb@	c #A02E2D",
"Xb@	c #99332F",
"Yb@	c #502320",
"Zb@	c #391B1B",
"`b@	c #191516",
" c@	c #4B4341",
".c@	c #504543",
"+c@	c #4D262B",
"@c@	c #411721",
"#c@	c #300C16",
"$c@	c #21030B",
"%c@	c #520306",
"&c@	c #85131D",
"*c@	c #9A1C27",
"=c@	c #9A2128",
"-c@	c #4F2112",
";c@	c #43271C",
">c@	c #44231A",
",c@	c #573128",
"'c@	c #49221B",
")c@	c #2B2318",
"!c@	c #3F140B",
"~c@	c #350900",
"{c@	c #470509",
"]c@	c #46030A",
"^c@	c #420409",
"/c@	c #3A0D12",
"(c@	c #350E13",
"_c@	c #1A0105",
":c@	c #150005",
"<c@	c #42100F",
"[c@	c #642E2E",
"}c@	c #653332",
"|c@	c #6E3C3B",
"1c@	c #9A6764",
"2c@	c #75423F",
"3c@	c #5E312C",
"4c@	c #623F3B",
"5c@	c #472B28",
"6c@	c #462D29",
"7c@	c #432E29",
"8c@	c #4B4642",
"9c@	c #403B37",
"0c@	c #3F2322",
"ac@	c #600105",
"bc@	c #710409",
"cc@	c #790B0E",
"dc@	c #851418",
"ec@	c #8E1D1F",
"fc@	c #821614",
"gc@	c #4F130B",
"hc@	c #451610",
"ic@	c #3F1916",
"jc@	c #2C171E",
"kc@	c #4B383C",
"lc@	c #5F5150",
"mc@	c #270B0A",
"nc@	c #4F3330",
"oc@	c #553135",
"pc@	c #3D151E",
"qc@	c #26050E",
"rc@	c #7A0F17",
"sc@	c #941B24",
"tc@	c #942126",
"uc@	c #7F201E",
"vc@	c #581A0D",
"wc@	c #4C2514",
"xc@	c #47291F",
"yc@	c #512F26",
"zc@	c #46241B",
"Ac@	c #3D2219",
"Bc@	c #411009",
"Cc@	c #3C0B04",
"Dc@	c #3A0B01",
"Ec@	c #3E0E04",
"Fc@	c #3C0C02",
"Gc@	c #360600",
"Hc@	c #350500",
"Ic@	c #3D0301",
"Jc@	c #430506",
"Kc@	c #45070A",
"Lc@	c #47090E",
"Mc@	c #40070D",
"Nc@	c #410C12",
"Oc@	c #431216",
"Pc@	c #3C1216",
"Qc@	c #100901",
"Rc@	c #250D01",
"Sc@	c #6B3334",
"Tc@	c #673433",
"Uc@	c #4A1E1B",
"Vc@	c #1E0C02",
"Wc@	c #471B1A",
"Xc@	c #6C3E3E",
"Yc@	c #926260",
"Zc@	c #6A3A38",
"`c@	c #613F3D",
" d@	c #381C19",
".d@	c #524B45",
"+d@	c #4E4643",
"@d@	c #4D4341",
"#d@	c #352A28",
"$d@	c #3C0200",
"%d@	c #490907",
"&d@	c #560504",
"*d@	c #6E0309",
"=d@	c #7F0710",
"-d@	c #861318",
";d@	c #8F2124",
">d@	c #90292A",
",d@	c #4C0B05",
"'d@	c #330B03",
")d@	c #492B33",
"!d@	c #5C4146",
"~d@	c #3F2D2D",
"{d@	c #250D0D",
"]d@	c #48282B",
"^d@	c #320F16",
"/d@	c #20020A",
"(d@	c #190208",
"_d@	c #480105",
":d@	c #7D151E",
"<d@	c #97232C",
"[d@	c #92252A",
"}d@	c #482716",
"|d@	c #412C1B",
"1d@	c #2F291D",
"2d@	c #2B2819",
"3d@	c #262314",
"4d@	c #42110A",
"5d@	c #3D0800",
"6d@	c #420B04",
"7d@	c #410801",
"8d@	c #3D0200",
"9d@	c #400300",
"0d@	c #430206",
"ad@	c #440307",
"bd@	c #44060B",
"cd@	c #431015",
"dd@	c #3F161A",
"ed@	c #351115",
"fd@	c #271104",
"gd@	c #753A3C",
"hd@	c #693333",
"id@	c #572524",
"jd@	c #4D201D",
"kd@	c #451E19",
"ld@	c #7D4F4F",
"md@	c #653938",
"nd@	c #4B443E",
"od@	c #625D57",
"pd@	c #4B3736",
"qd@	c #411013",
"rd@	c #470F10",
"sd@	c #5B0A09",
"td@	c #67090A",
"ud@	c #831218",
"vd@	c #871016",
"wd@	c #841319",
"xd@	c #872023",
"yd@	c #852B2B",
"zd@	c #6D221F",
"Ad@	c #40272A",
"Bd@	c #482B30",
"Cd@	c #43262A",
"Dd@	c #311917",
"Ed@	c #2C0508",
"Fd@	c #250C12",
"Gd@	c #4C0C0D",
"Hd@	c #84232A",
"Id@	c #9E3137",
"Jd@	c #8F282B",
"Kd@	c #4E1D0E",
"Ld@	c #3F2411",
"Md@	c #42271E",
"Nd@	c #3E261C",
"Od@	c #2E2B1C",
"Pd@	c #360F08",
"Qd@	c #3D0601",
"Rd@	c #470100",
"Sd@	c #4A0404",
"Td@	c #4B0507",
"Ud@	c #490407",
"Vd@	c #4A050A",
"Wd@	c #460910",
"Xd@	c #410E15",
"Yd@	c #3F1219",
"Zd@	c #3E131A",
"`d@	c #3A1318",
" e@	c #2F0F12",
".e@	c #2A0F04",
"+e@	c #300500",
"@e@	c #4F1718",
"#e@	c #804446",
"$e@	c #6D3536",
"%e@	c #5F2C2B",
"&e@	c #4E2425",
"*e@	c #613738",
"=e@	c #6A4041",
"-e@	c #432724",
";e@	c #5C4A46",
">e@	c #504943",
",e@	c #66615B",
"'e@	c #402C2B",
")e@	c #513738",
"!e@	c #3B1D1F",
"~e@	c #38070A",
"{e@	c #4D0B0D",
"]e@	c #54080A",
"^e@	c #5A0508",
"/e@	c #63090B",
"(e@	c #710A0D",
"_e@	c #7E0D11",
":e@	c #812F31",
"<e@	c #682627",
"[e@	c #481713",
"}e@	c #3D2922",
"|e@	c #3C2C2C",
"1e@	c #3D2729",
"2e@	c #3F2727",
"3e@	c #340B0F",
"4e@	c #32080C",
"5e@	c #330508",
"6e@	c #16070C",
"7e@	c #862B30",
"8e@	c #A43B40",
"9e@	c #8C2A2B",
"0e@	c #6D2018",
"ae@	c #4F2111",
"be@	c #412B16",
"ce@	c #362F1D",
"de@	c #3D291E",
"ee@	c #2C2A1B",
"fe@	c #2B291A",
"ge@	c #242112",
"he@	c #221E12",
"ie@	c #241E12",
"je@	c #470300",
"ke@	c #510303",
"le@	c #530407",
"me@	c #53070B",
"ne@	c #53080D",
"oe@	c #51080F",
"pe@	c #500911",
"qe@	c #500A14",
"re@	c #4B0E16",
"se@	c #3E1118",
"te@	c #361118",
"ue@	c #300D13",
"ve@	c #2B1005",
"we@	c #2F0400",
"xe@	c #501819",
"ye@	c #713638",
"ze@	c #481C19",
"Ae@	c #523934",
"Be@	c #421B1C",
"Ce@	c #482122",
"De@	c #552D2E",
"Ee@	c #754D4E",
"Fe@	c #6D4B4A",
"Ge@	c #583F3B",
"He@	c #3E2B25",
"Ie@	c #6E5F5A",
"Je@	c #4E4943",
"Ke@	c #3F2725",
"Le@	c #340307",
"Me@	c #48060A",
"Ne@	c #610A10",
"Oe@	c #7C1519",
"Pe@	c #80161A",
"Qe@	c #760C0E",
"Re@	c #7B1415",
"Se@	c #6B100F",
"Te@	c #782424",
"Ue@	c #803637",
"Ve@	c #682A2B",
"We@	c #441618",
"Xe@	c #321311",
"Ye@	c #20211B",
"Ze@	c #301011",
"`e@	c #3C0E10",
" f@	c #201406",
".f@	c #15090D",
"+f@	c #3E0305",
"@f@	c #893034",
"#f@	c #A94448",
"$f@	c #4E2513",
"%f@	c #44321C",
"&f@	c #38321C",
"*f@	c #34311E",
"=f@	c #33301D",
"-f@	c #2A2819",
";f@	c #420605",
">f@	c #5D080D",
",f@	c #5E090E",
"'f@	c #5D0B11",
")f@	c #590A10",
"!f@	c #540910",
"~f@	c #4F060F",
"{f@	c #4C0610",
"]f@	c #450913",
"^f@	c #330A12",
"/f@	c #1D0207",
"(f@	c #160001",
"_f@	c #320300",
":f@	c #501413",
"<f@	c #733635",
"[f@	c #703635",
"}f@	c #552420",
"|f@	c #543B36",
"1f@	c #170500",
"2f@	c #5A3334",
"3f@	c #7C5556",
"4f@	c #755352",
"5f@	c #725A56",
"6f@	c #61544C",
"7f@	c #4E413B",
"8f@	c #3B1F1E",
"9f@	c #3F080D",
"0f@	c #3E0003",
"af@	c #590A0D",
"bf@	c #640E11",
"cf@	c #892428",
"df@	c #8B2427",
"ef@	c #751314",
"ff@	c #6C1816",
"gf@	c #520E0D",
"hf@	c #5D2322",
"if@	c #360206",
"jf@	c #390207",
"kf@	c #3F0B0F",
"lf@	c #400A0A",
"mf@	c #8D3C42",
"nf@	c #A94E53",
"of@	c #812D2D",
"pf@	c #451E0D",
"qf@	c #3F2D17",
"rf@	c #3A3320",
"sf@	c #343321",
"tf@	c #352F1F",
"uf@	c #2A2718",
"vf@	c #282617",
"wf@	c #292617",
"xf@	c #272317",
"yf@	c #4B0001",
"zf@	c #630E15",
"Af@	c #610F15",
"Bf@	c #5C0F15",
"Cf@	c #550C13",
"Df@	c #200106",
"Ef@	c #150002",
"Ff@	c #924B45",
"Gf@	c #78352F",
"Hf@	c #6D302B",
"If@	c #531E18",
"Jf@	c #433836",
"Kf@	c #543435",
"Lf@	c #5E3A3C",
"Mf@	c #694547",
"Nf@	c #825B5E",
"Of@	c #6D5450",
"Pf@	c #4E3B34",
"Qf@	c #461C1D",
"Rf@	c #581011",
"Sf@	c #600F0E",
"Tf@	c #802C2C",
"Uf@	c #421212",
"Vf@	c #3D1314",
"Wf@	c #320001",
"Xf@	c #380104",
"Yf@	c #3C0407",
"Zf@	c #3D0206",
"`f@	c #44090F",
" g@	c #4E1319",
".g@	c #3E090F",
"+g@	c #150001",
"@g@	c #141206",
"#g@	c #141108",
"$g@	c #9B595D",
"%g@	c #954F51",
"&g@	c #632220",
"*g@	c #5B241D",
"=g@	c #43190B",
"-g@	c #302D1E",
";g@	c #363322",
">g@	c #353223",
",g@	c #282214",
"'g@	c #31291C",
")g@	c #2B2517",
"!g@	c #4A0406",
"~g@	c #52060A",
"{g@	c #56050C",
"]g@	c #54070F",
"^g@	c #50090F",
"/g@	c #4A0C11",
"(g@	c #430C11",
"_g@	c #3F0805",
":g@	c #5F1812",
"<g@	c #934842",
"[g@	c #70312A",
"}g@	c #582218",
"|g@	c #544947",
"1g@	c #624243",
"2g@	c #664445",
"3g@	c #6C484A",
"4g@	c #855E61",
"5g@	c #795758",
"6g@	c #715551",
"7g@	c #5F5049",
"8g@	c #470A09",
"9g@	c #4E0D0B",
"0g@	c #500A08",
"ag@	c #5C1614",
"bg@	c #692C2B",
"cg@	c #491D1E",
"dg@	c #3B191A",
"eg@	c #321615",
"fg@	c #380202",
"gg@	c #3B0006",
"hg@	c #43060D",
"ig@	c #4F1018",
"jg@	c #430C12",
"kg@	c #2B0208",
"lg@	c #140001",
"mg@	c #141007",
"ng@	c #11120A",
"og@	c #3B080D",
"pg@	c #955D60",
"qg@	c #935B5C",
"rg@	c #5A2924",
"sg@	c #4C281A",
"tg@	c #322F20",
"ug@	c #373425",
"vg@	c #333021",
"wg@	c #3C0905",
"xg@	c #410403",
"yg@	c #470506",
"zg@	c #4D060A",
"Ag@	c #50070E",
"Bg@	c #520C14",
"Cg@	c #470A11",
"Dg@	c #39070A",
"Eg@	c #3F0503",
"Fg@	c #91423D",
"Gg@	c #7E352E",
"Hg@	c #72312B",
"Ig@	c #5C261C",
"Jg@	c #4B1C14",
"Kg@	c #423735",
"Lg@	c #674949",
"Mg@	c #654143",
"Ng@	c #7C5558",
"Og@	c #6E4A4C",
"Pg@	c #6D4E4B",
"Qg@	c #553935",
"Rg@	c #43322B",
"Sg@	c #4D3833",
"Tg@	c #442C28",
"Ug@	c #4B2524",
"Vg@	c #4C1A19",
"Wg@	c #471111",
"Xg@	c #511918",
"Yg@	c #541C1B",
"Zg@	c #4D1311",
"`g@	c #3F0501",
" h@	c #4F1E1A",
".h@	c #5F3839",
"+h@	c #4E3032",
"@h@	c #402325",
"#h@	c #361C1D",
"$h@	c #2C1716",
"%h@	c #380408",
"&h@	c #350003",
"*h@	c #3C0309",
"=h@	c #460D14",
"-h@	c #4A1118",
";h@	c #440F17",
">h@	c #2D040A",
",h@	c #190002",
"'h@	c #240608",
")h@	c #2E070A",
"!h@	c #340609",
"~h@	c #835353",
"{h@	c #825552",
"]h@	c #553528",
"^h@	c #403A2A",
"/h@	c #353324",
"(h@	c #373526",
"_h@	c #312F20",
":h@	c #480B10",
"<h@	c #2C0203",
"[h@	c #3F0302",
"}h@	c #6A1C18",
"|h@	c #903F3B",
"1h@	c #833832",
"2h@	c #712E28",
"3h@	c #471810",
"4h@	c #3D180F",
"5h@	c #5B3D3D",
"6h@	c #4D2D2E",
"7h@	c #745052",
"8h@	c #60393A",
"9h@	c #603E3C",
"0h@	c #533431",
"ah@	c #482020",
"bh@	c #4A1E1F",
"ch@	c #845656",
"dh@	c #491B1B",
"eh@	c #2E0300",
"fh@	c #3C1C1D",
"gh@	c #3F0A10",
"hh@	c #441116",
"ih@	c #441319",
"jh@	c #270209",
"kh@	c #1A0104",
"lh@	c #240004",
"mh@	c #431A1E",
"nh@	c #754D4D",
"oh@	c #3F2318",
"ph@	c #473A29",
"qh@	c #3D3C2A",
"rh@	c #373828",
"sh@	c #2F2D1E",
"th@	c #232112",
"uh@	c #431112",
"vh@	c #0A0500",
"wh@	c #410401",
"xh@	c #943F3C",
"yh@	c #8E413B",
"zh@	c #5B2219",
"Ah@	c #382624",
"Bh@	c #432422",
"Ch@	c #684444",
"Dh@	c #785454",
"Eh@	c #583132",
"Fh@	c #4A2725",
"Gh@	c #542B2F",
"Hh@	c #573335",
"Ih@	c #371516",
"Jh@	c #200202",
"Kh@	c #8D6364",
"Lh@	c #2C0004",
"Mh@	c #2E0106",
"Nh@	c #36070D",
"Oh@	c #3D1015",
"Ph@	c #21080C",
"Qh@	c #6B494A",
"Rh@	c #755654",
"Sh@	c #492D29",
"Th@	c #363521",
"Uh@	c #2E2F1D",
"Vh@	c #393C2B",
"Wh@	c #383A2C",
"Xh@	c #36382A",
"Yh@	c #2C2D1F",
"Zh@	c #212214",
"`h@	c #232416",
" i@	c #2B2C1E",
".i@	c #2F2D20",
"+i@	c #2C2A1D",
"@i@	c #2E2A1E",
"#i@	c #73221F",
"$i@	c #9E4644",
"%i@	c #A0514C",
"&i@	c #351309",
"*i@	c #442626",
"=i@	c #694545",
"-i@	c #6E4A4A",
";i@	c #3F1819",
">i@	c #370D0F",
",i@	c #340A0E",
"'i@	c #50262A",
")i@	c #4A2125",
"!i@	c #684647",
"~i@	c #502A29",
"{i@	c #492121",
"]i@	c #3F1717",
"^i@	c #876160",
"/i@	c #633D3C",
"(i@	c #401C1C",
"_i@	c #2B1919",
":i@	c #3E1116",
"<i@	c #2B0005",
"[i@	c #1E0E0F",
"}i@	c #24070C",
"|i@	c #795C5E",
"1i@	c #694F4E",
"2i@	c #403D2E",
"3i@	c #323625",
"4i@	c #333A28",
"5i@	c #35392A",
"6i@	c #333527",
"7i@	c #292B1D",
"8i@	c #252618",
"9i@	c #2F3022",
"0i@	c #2E2C1F",
"ai@	c #302C20",
"bi@	c #782422",
"ci@	c #AA504F",
"di@	c #B66561",
"ei@	c #461A11",
"fi@	c #553131",
"gi@	c #543030",
"hi@	c #441A1C",
"ii@	c #471D21",
"ji@	c #3A1115",
"ki@	c #482627",
"li@	c #9E7C7D",
"mi@	c #472523",
"ni@	c #6A4847",
"oi@	c #714F4E",
"pi@	c #442B27",
"qi@	c #370409",
"ri@	c #310005",
"si@	c #210002",
"ti@	c #190003",
"ui@	c #130409",
"vi@	c #14050A",
"wi@	c #1B0B0E",
"xi@	c #1A0A0D",
"yi@	c #1C090D",
"zi@	c #1E090E",
"Ai@	c #270A0F",
"Bi@	c #280B0F",
"Ci@	c #684E4F",
"Di@	c #513C39",
"Ei@	c #423930",
"Fi@	c #3A3B2D",
"Gi@	c #353C2C",
"Hi@	c #37402F",
"Ii@	c #303425",
"Ji@	c #35372A",
"Ki@	c #2E3023",
"Li@	c #26281B",
"Mi@	c #2B2B1F",
"Ni@	c #2F2F23",
"Oi@	c #302E22",
"Pi@	c #322E23",
"Qi@	c #221407",
"Ri@	c #241407",
"Si@	c #772623",
"Ti@	c #B15756",
"Ui@	c #C57470",
"Vi@	c #87403C",
"Wi@	c #693027",
"Xi@	c #37170C",
"Yi@	c #441D1E",
"Zi@	c #461E1F",
"`i@	c #2E0408",
" j@	c #360C10",
".j@	c #360F12",
"+j@	c #411F20",
"@j@	c #907272",
"#j@	c #624642",
"$j@	c #7E625F",
"%j@	c #452926",
"&j@	c #40050B",
"*j@	c #3A0005",
"=j@	c #1B080C",
"-j@	c #1F080E",
";j@	c #230A0E",
">j@	c #2A0D11",
",j@	c #321519",
"'j@	c #594141",
")j@	c #43302C",
"!j@	c #363428",
"~j@	c #373B2C",
"{j@	c #333A2A",
"]j@	c #323427",
"^j@	c #2B2D20",
"/j@	c #282A1D",
"(j@	c #312F23",
"_j@	c #332F24",
":j@	c #160600",
"<j@	c #340E0D",
"[j@	c #3A0D10",
"}j@	c #602320",
"|j@	c #8F3E3B",
"1j@	c #8B3331",
"2j@	c #7D3833",
"3j@	c #4F2928",
"4j@	c #3D1716",
"5j@	c #613A3D",
"6j@	c #4A2829",
"7j@	c #533E39",
"8j@	c #56413C",
"9j@	c #370100",
"0j@	c #310101",
"aj@	c #450E11",
"bj@	c #1A0E12",
"cj@	c #1B0C11",
"dj@	c #1E0F14",
"ej@	c #1C1014",
"fj@	c #1A0407",
"gj@	c #2A0A0D",
"hj@	c #66484A",
"ij@	c #8E7473",
"jj@	c #3D362C",
"kj@	c #38382C",
"lj@	c #434337",
"mj@	c #414135",
"nj@	c #2A2A1E",
"oj@	c #1F1F13",
"pj@	c #37372B",
"qj@	c #313125",
"rj@	c #3C352B",
"sj@	c #20050A",
"tj@	c #201A1A",
"uj@	c #3D0A0F",
"vj@	c #421013",
"wj@	c #431215",
"xj@	c #471612",
"yj@	c #6F3430",
"zj@	c #8D3F3B",
"Aj@	c #7F2C28",
"Bj@	c #6F221C",
"Cj@	c #682F26",
"Dj@	c #0E0100",
"Ej@	c #5F3938",
"Fj@	c #4B2C29",
"Gj@	c #634142",
"Hj@	c #927273",
"Ij@	c #624444",
"Jj@	c #3A2C2B",
"Kj@	c #370802",
"Lj@	c #350201",
"Mj@	c #570F12",
"Nj@	c #51090D",
"Oj@	c #46080B",
"Pj@	c #400E0F",
"Qj@	c #25161B",
"Rj@	c #2B1F23",
"Sj@	c #281C20",
"Tj@	c #603E3D",
"Uj@	c #917371",
"Vj@	c #664E4A",
"Wj@	c #463D34",
"Xj@	c #272016",
"Yj@	c #4B473C",
"Zj@	c #444236",
"`j@	c #302E21",
" k@	c #29271B",
".k@	c #373528",
"+k@	c #39372B",
"@k@	c #312F22",
"#k@	c #432A26",
"$k@	c #130002",
"%k@	c #4D161B",
"&k@	c #4A0D12",
"*k@	c #450A0E",
"=k@	c #4E1619",
"-k@	c #3D0B0A",
";k@	c #571D1B",
">k@	c #652C23",
",k@	c #482219",
"'k@	c #654341",
")k@	c #653F3E",
"!k@	c #80635F",
"~k@	c #806762",
"{k@	c #6B4D4D",
"]k@	c #6B4F4E",
"^k@	c #513F3D",
"/k@	c #350501",
"(k@	c #3B0302",
"_k@	c #370403",
":k@	c #340203",
"<k@	c #510D0A",
"[k@	c #5D1312",
"}k@	c #5B0B0E",
"|k@	c #231417",
"1k@	c #5B3A35",
"2k@	c #6B5049",
"3k@	c #5E4A43",
"4k@	c #282516",
"5k@	c #373125",
"6k@	c #150004",
"7k@	c #140004",
"8k@	c #4B0D12",
"9k@	c #520F16",
"0k@	c #571119",
"ak@	c #4D0C12",
"bk@	c #501217",
"ck@	c #4A0F13",
"dk@	c #520E05",
"ek@	c #56130A",
"fk@	c #50251E",
"gk@	c #684644",
"hk@	c #684241",
"ik@	c #583231",
"jk@	c #7F5D5B",
"kk@	c #664D48",
"lk@	c #664C4B",
"mk@	c #492F2E",
"nk@	c #5D4B49",
"ok@	c #2C1C1D",
"pk@	c #370401",
"qk@	c #340306",
"rk@	c #410100",
"sk@	c #4A0402",
"tk@	c #560B06",
"uk@	c #690F0F",
"vk@	c #630A0C",
"wk@	c #570B0B",
"xk@	c #511111",
"yk@	c #2E1F22",
"zk@	c #3D2018",
"Ak@	c #584237",
"Bk@	c #685449",
"Ck@	c #241D0D",
"Dk@	c #373020",
"Ek@	c #130306",
"Fk@	c #47060A",
"Gk@	c #5A0D15",
"Hk@	c #5F121A",
"Ik@	c #570E15",
"Jk@	c #540F14",
"Kk@	c #420407",
"Lk@	c #480A00",
"Mk@	c #501409",
"Nk@	c #3D110E",
"Ok@	c #704A49",
"Pk@	c #6C4645",
"Qk@	c #795654",
"Rk@	c #6A4B48",
"Sk@	c #4A2E2A",
"Tk@	c #4F3735",
"Uk@	c #5E4B47",
"Vk@	c #54413D",
"Wk@	c #3A0608",
"Xk@	c #330001",
"Yk@	c #3A0001",
"Zk@	c #6E0F0B",
"`k@	c #342425",
" l@	c #380703",
".l@	c #420A09",
"+l@	c #490F0D",
"@l@	c #491410",
"#l@	c #54251F",
"$l@	c #3A2315",
"%l@	c #624F41",
"&l@	c #302414",
"*l@	c #3A3120",
"=l@	c #342818",
"-l@	c #1B0205",
";l@	c #480B0A",
">l@	c #550D10",
",l@	c #620F17",
"'l@	c #5F0C14",
")l@	c #58090F",
"!l@	c #591017",
"~l@	c #4F0E12",
"{l@	c #450A0C",
"]l@	c #410B00",
"^l@	c #602B25",
"/l@	c #4E1D18",
"(l@	c #3E0E0C",
"_l@	c #643E3D",
":l@	c #724A4A",
"<l@	c #4E2B29",
"[l@	c #4E3632",
"}l@	c #442F2C",
"|l@	c #4D3835",
"1l@	c #30211E",
"2l@	c #351C18",
"3l@	c #371917",
"4l@	c #400406",
"5l@	c #390507",
"6l@	c #360407",
"7l@	c #410102",
"8l@	c #4E0607",
"9l@	c #4B110F",
"0l@	c #51110F",
"al@	c #4C110B",
"bl@	c #40180C",
"cl@	c #3D2010",
"dl@	c #2E1707",
"el@	c #402A1D",
"fl@	c #571312",
"gl@	c #641518",
"hl@	c #6A151C",
"il@	c #670D16",
"jl@	c #5E040E",
"kl@	c #55020A",
"ll@	c #5A0D13",
"ml@	c #561116",
"nl@	c #4A1316",
"ol@	c #3E0E0E",
"pl@	c #431204",
"ql@	c #400C00",
"rl@	c #6F392F",
"sl@	c #6C3731",
"tl@	c #4E1C1B",
"ul@	c #6B4341",
"vl@	c #774F4F",
"wl@	c #4C332F",
"xl@	c #361E1C",
"yl@	c #452D2B",
"zl@	c #3D0007",
"Al@	c #3E0106",
"Bl@	c #42050A",
"Cl@	c #40080B",
"Dl@	c #340205",
"El@	c #7A0903",
"Fl@	c #790601",
"Gl@	c #551412",
"Hl@	c #4F1009",
"Il@	c #521E13",
"Jl@	c #2D1000",
"Kl@	c #2F1A07",
"Ll@	c #2C1B09",
"Ml@	c #2A1D0C",
"Nl@	c #281B0A",
"Ol@	c #2A1A0A",
"Pl@	c #2E1D0D",
"Ql@	c #251203",
"Rl@	c #3A2919",
"Sl@	c #0C0D08",
"Tl@	c #671B1B",
"Ul@	c #68181B",
"Vl@	c #641216",
"Wl@	c #540309",
"Xl@	c #52070C",
"Yl@	c #4C070A",
"Zl@	c #3C100F",
"`l@	c #4B201A",
" m@	c #461207",
".m@	c #440B00",
"+m@	c #4E150A",
"@m@	c #652A22",
"#m@	c #723731",
"$m@	c #6C312D",
"%m@	c #5F2726",
"&m@	c #5B2525",
"*m@	c #421615",
"=m@	c #6E4847",
"-m@	c #77514E",
";m@	c #53302C",
">m@	c #311716",
",m@	c #432E2B",
"'m@	c #3C0A0D",
")m@	c #3C050A",
"!m@	c #42070B",
"~m@	c #3A0002",
"{m@	c #3C0004",
"]m@	c #43060B",
"^m@	c #410A0D",
"/m@	c #3C080A",
"(m@	c #3E0202",
"_m@	c #5A0C0C",
":m@	c #761413",
"<m@	c #7B120F",
"[m@	c #740806",
"}m@	c #690706",
"|m@	c #42130D",
"1m@	c #48110C",
"2m@	c #590F0E",
"3m@	c #56110A",
"4m@	c #440800",
"5m@	c #3F0E00",
"6m@	c #452614",
"7m@	c #2C1201",
"8m@	c #3C2714",
"9m@	c #261100",
"0m@	c #291204",
"am@	c #260C00",
"bm@	c #361C0F",
"cm@	c #432C1E",
"dm@	c #620D10",
"em@	c #510F10",
"fm@	c #460C0A",
"gm@	c #3B120E",
"hm@	c #540E0C",
"im@	c #6F2927",
"jm@	c #7D3737",
"km@	c #722C2C",
"lm@	c #6B292A",
"mm@	c #662829",
"nm@	c #531D1D",
"om@	c #513430",
"pm@	c #331D1F",
"qm@	c #3A2826",
"rm@	c #3B2927",
"sm@	c #400308",
"tm@	c #43060E",
"um@	c #420B11",
"vm@	c #3C0500",
"wm@	c #480701",
"xm@	c #660C0B",
"ym@	c #720C0A",
"zm@	c #810D0E",
"Am@	c #780A0B",
"Bm@	c #6A0A0C",
"Cm@	c #470707",
"Dm@	c #47100B",
"Em@	c #4E0F08",
"Fm@	c #580E0B",
"Gm@	c #5D0F0D",
"Hm@	c #5C0D09",
"Im@	c #590B07",
"Jm@	c #421103",
"Km@	c #3E1205",
"Lm@	c #40190A",
"Mm@	c #3E1D0C",
"Nm@	c #381708",
"Om@	c #2F0B00",
"Pm@	c #401B12",
"Qm@	c #432118",
"Rm@	c #110509",
"Sm@	c #600A0D",
"Tm@	c #540808",
"Um@	c #590F10",
"Vm@	c #772D2E",
"Wm@	c #7E3435",
"Xm@	c #732B2E",
"Ym@	c #672728",
"Zm@	c #54191B",
"`m@	c #1C0100",
" n@	c #210D0E",
".n@	c #61493D",
"+n@	c #3A2218",
"@n@	c #362223",
"#n@	c #463636",
"$n@	c #493733",
"%n@	c #5D4A44",
"&n@	c #440206",
"*n@	c #440405",
"=n@	c #410304",
"-n@	c #3F0303",
";n@	c #3C030C",
">n@	c #3D0510",
",n@	c #3A070C",
"'n@	c #3C0701",
")n@	c #470801",
"!n@	c #530802",
"~n@	c #77090A",
"{n@	c #7C090C",
"]n@	c #780A0D",
"^n@	c #72080A",
"/n@	c #6B090A",
"(n@	c #5D0B0D",
"_n@	c #530B0E",
":n@	c #49090A",
"<n@	c #2E0702",
"[n@	c #540B05",
"}n@	c #5B0A07",
"|n@	c #570603",
"1n@	c #500701",
"2n@	c #490D05",
"3n@	c #491508",
"4n@	c #4B1B0F",
"5n@	c #441A0C",
"6n@	c #350E00",
"7n@	c #14080C",
"8n@	c #180C10",
"9n@	c #170B0F",
"0n@	c #11040B",
"an@	c #5A080A",
"bn@	c #410602",
"cn@	c #56100E",
"dn@	c #782E2D",
"en@	c #8C4243",
"fn@	c #893D3F",
"gn@	c #7D3538",
"hn@	c #712D2E",
"in@	c #4E1D19",
"jn@	c #1C0600",
"kn@	c #200C0D",
"ln@	c #33211F",
"mn@	c #54433C",
"nn@	c #523F39",
"on@	c #420608",
"pn@	c #470207",
"qn@	c #470507",
"rn@	c #430304",
"sn@	c #400001",
"tn@	c #390002",
"un@	c #330007",
"vn@	c #300109",
"wn@	c #600B08",
"xn@	c #6E0C0B",
"yn@	c #73090B",
"zn@	c #76080B",
"An@	c #77090C",
"Bn@	c #730B0C",
"Cn@	c #6A0A0B",
"Dn@	c #620807",
"En@	c #580807",
"Fn@	c #4C0807",
"Gn@	c #420807",
"Hn@	c #390603",
"In@	c #4D1611",
"Jn@	c #50110A",
"Kn@	c #510E06",
"Ln@	c #540904",
"Mn@	c #540906",
"Nn@	c #510A06",
"On@	c #502117",
"Pn@	c #3E160A",
"Qn@	c #2C0400",
"Rn@	c #570909",
"Sn@	c #4F0909",
"Tn@	c #3C0F0C",
"Un@	c #651F1D",
"Vn@	c #7D3332",
"Wn@	c #843838",
"Xn@	c #742E2E",
"Yn@	c #692929",
"Zn@	c #491C17",
"`n@	c #432622",
" o@	c #583936",
".o@	c #42261B",
"+o@	c #493735",
"@o@	c #3E2C28",
"#o@	c #4E3F3A",
"$o@	c #75645D",
"%o@	c #4F3E37",
"&o@	c #430709",
"*o@	c #450408",
"=o@	c #490208",
"-o@	c #480107",
";o@	c #4B0408",
">o@	c #450909",
",o@	c #550F0F",
"'o@	c #6B0B0D",
")o@	c #71070B",
"!o@	c #730A0E",
"~o@	c #690D0E",
"{o@	c #5E0D0A",
"]o@	c #43110A",
"^o@	c #4C150E",
"/o@	c #4F1309",
"(o@	c #501007",
"_o@	c #4F0C04",
":o@	c #500903",
"<o@	c #540A07",
"[o@	c #530F0C",
"}o@	c #56241D",
"|o@	c #51090A",
"1o@	c #712623",
"2o@	c #702424",
"3o@	c #681E1D",
"4o@	c #64201F",
"5o@	c #1B0B00",
"6o@	c #411F1D",
"7o@	c #4D2B22",
"8o@	c #513027",
"9o@	c #6E5046",
"0o@	c #331B11",
"ao@	c #3A261B",
"bo@	c #4D3A34",
"co@	c #73605A",
"do@	c #7B6A63",
"eo@	c #635049",
"fo@	c #3E0403",
"go@	c #460104",
"ho@	c #4A0206",
"io@	c #4E060A",
"jo@	c #4C0408",
"ko@	c #4C030A",
"lo@	c #4B040A",
"mo@	c #490409",
"no@	c #450307",
"oo@	c #420105",
"po@	c #3B0306",
"qo@	c #4D0B0C",
"ro@	c #601011",
"so@	c #6D0E12",
"to@	c #73080E",
"uo@	c #79060D",
"vo@	c #770A0F",
"wo@	c #6D0D0F",
"xo@	c #5F0F0E",
"yo@	c #3B0902",
"zo@	c #3D0E06",
"Ao@	c #420D05",
"Bo@	c #50140A",
"Co@	c #4B0F04",
"Do@	c #490D02",
"Eo@	c #490A01",
"Fo@	c #4D0A04",
"Go@	c #520D08",
"Ho@	c #530D0B",
"Io@	c #501B17",
"Jo@	c #0D0001",
"Ko@	c #3A0C0C",
"Lo@	c #400B03",
"Mo@	c #410800",
"No@	c #6C1E1C",
"Oo@	c #5E211C",
"Po@	c #4F1D16",
"Qo@	c #230C00",
"Ro@	c #190900",
"So@	c #6B4940",
"To@	c #3F2B20",
"Uo@	c #69544F",
"Vo@	c #7E6761",
"Wo@	c #624E47",
"Xo@	c #3D0504",
"Yo@	c #4C0809",
"Zo@	c #4B0609",
"`o@	c #490206",
" p@	c #50080C",
".p@	c #4F080C",
"+p@	c #530D0F",
"@p@	c #671114",
"#p@	c #720D13",
"$p@	c #76070E",
"%p@	c #7C0811",
"&p@	c #7A0810",
"*p@	c #720B0F",
"=p@	c #650C0E",
"-p@	c #2C0600",
";p@	c #440B02",
">p@	c #480C02",
",p@	c #420800",
"'p@	c #430700",
")p@	c #4D0E09",
"!p@	c #4B0E0B",
"~p@	c #420C00",
"{p@	c #5B1810",
"]p@	c #7A2C28",
"^p@	c #41190D",
"/p@	c #341407",
"(p@	c #281103",
"_p@	c #1A0D00",
":p@	c #2A0C04",
"<p@	c #5F3831",
"[p@	c #6D463F",
"}p@	c #7E5951",
"|p@	c #5D3B32",
"1p@	c #4E3227",
"2p@	c #440808",
"3p@	c #450304",
"4p@	c #500E10",
"5p@	c #480A0D",
"6p@	c #5B0F11",
"7p@	c #6C1116",
"8p@	c #750D14",
"9p@	c #76090F",
"0p@	c #780910",
"ap@	c #72070F",
"bp@	c #340702",
"cp@	c #2C0402",
"dp@	c #470B00",
"ep@	c #4A0C00",
"fp@	c #470C00",
"gp@	c #400B00",
"hp@	c #3D0900",
"ip@	c #470E07",
"jp@	c #3F100A",
"kp@	c #370700",
"lp@	c #390800",
"mp@	c #410700",
"np@	c #8A413A",
"op@	c #893C36",
"pp@	c #4A140A",
"qp@	c #3C1204",
"rp@	c #311102",
"sp@	c #231606",
"tp@	c #211306",
"up@	c #845B55",
"vp@	c #825B54",
"wp@	c #4E2C23",
"xp@	c #401D1B",
"yp@	c #2D0100",
"zp@	c #440404",
"Ap@	c #4B0B0B",
"Bp@	c #4D0F10",
"Cp@	c #4E1413",
"Dp@	c #4B1314",
"Ep@	c #6D1315",
"Fp@	c #740F13",
"Gp@	c #740B10",
"Hp@	c #6F070E",
"Ip@	c #66060A",
"Jp@	c #580205",
"Kp@	c #490104",
"Lp@	c #410703",
"Mp@	c #450901",
"Np@	c #490E00",
"Op@	c #480D00",
"Pp@	c #450D00",
"Qp@	c #3E0D00",
"Rp@	c #3C0C00",
"Sp@	c #3D0B00",
"Tp@	c #400E05",
"Up@	c #160305",
"Vp@	c #450C01",
"Wp@	c #66261D",
"Xp@	c #934D45",
"Yp@	c #994E48",
"Zp@	c #4D170B",
"`p@	c #361506",
" q@	c #2D1304",
".q@	c #2C190A",
"+q@	c #835A56",
"@q@	c #8E6561",
"#q@	c #502D27",
"$q@	c #432620",
"%q@	c #411411",
"&q@	c #4D0506",
"*q@	c #5E0C0E",
"=q@	c #670E10",
"-q@	c #690B0C",
";q@	c #660809",
">q@	c #610506",
",q@	c #570102",
"'q@	c #370003",
")q@	c #410505",
"!q@	c #450900",
"~q@	c #440C00",
"{q@	c #3C0E01",
"]q@	c #3B0F04",
"^q@	c #3D1106",
"/q@	c #1E0508",
"(q@	c #330A04",
"_q@	c #3D0E04",
":q@	c #8E4840",
"<q@	c #A35852",
"[q@	c #90463D",
"}q@	c #752F25",
"|q@	c #56180D",
"1q@	c #450F03",
"2q@	c #3A0E01",
"3q@	c #321102",
"4q@	c #2B1102",
"5q@	c #2A180A",
"6q@	c #46201D",
"7q@	c #946B67",
"8q@	c #946B69",
"9q@	c #553E36",
"0q@	c #462923",
"aq@	c #3E0C0F",
"bq@	c #3D0B0E",
"cq@	c #3D090D",
"dq@	c #620A09",
"eq@	c #5D0907",
"fq@	c #340005",
"gq@	c #360005",
"hq@	c #460509",
"iq@	c #480608",
"jq@	c #4C0A0B",
"kq@	c #480904",
"lq@	c #440901",
"mq@	c #430D03",
"nq@	c #420E01",
"oq@	c #371009",
"pq@	c #31181B",
"qq@	c #381F22",
"rq@	c #2A1416",
"sq@	c #330603",
"tq@	c #390706",
"uq@	c #77332A",
"vq@	c #934A43",
"wq@	c #924940",
"xq@	c #7B372C",
"yq@	c #53170C",
"zq@	c #370D00",
"Aq@	c #310F03",
"Bq@	c #A17977",
"Cq@	c #916969",
"Dq@	c #4E2B27",
"Eq@	c #59423C",
"Fq@	c #5E423E",
"Gq@	c #410F10",
"Hq@	c #3B0F10",
"Iq@	c #3C0E11",
"Jq@	c #3A0C0F",
"Kq@	c #39080C",
"Lq@	c #4B0304",
"Mq@	c #570B0D",
"Nq@	c #631113",
"Oq@	c #681211",
"Pq@	c #5F0C08",
"Qq@	c #5B0E08",
"Rq@	c #4B0C14",
"Sq@	c #4A0911",
"Tq@	c #490810",
"Uq@	c #4C0910",
"Vq@	c #4D0B0F",
"Wq@	c #430E08",
"Xq@	c #2C1213",
"Yq@	c #4F3536",
"Zq@	c #593F40",
"`q@	c #402828",
" r@	c #6E2A21",
".r@	c #7E3A2F",
"+r@	c #79392D",
"@r@	c #5D2317",
"#r@	c #361206",
"$r@	c #381A10",
"%r@	c #553332",
"&r@	c #9C7675",
"*r@	c #795253",
"=r@	c #452321",
"-r@	c #4B3730",
";r@	c #533F38",
">r@	c #563A36",
",r@	c #492A27",
"'r@	c #2D0307",
")r@	c #2C0206",
"!r@	c #640A09",
"~r@	c #610905",
"{r@	c #5C0F07",
"]r@	c #510B03",
"^r@	c #460500",
"/r@	c #420300",
"(r@	c #531218",
"_r@	c #66232A",
":r@	c #5E1820",
"<r@	c #540E16",
"[r@	c #500B10",
"}r@	c #4E090C",
"|r@	c #4A0A0A",
"1r@	c #241012",
"2r@	c #1F0B0D",
"3r@	c #53393A",
"4r@	c #3B2122",
"5r@	c #3A0904",
"6r@	c #4E130D",
"7r@	c #6A2A1E",
"8r@	c #723729",
"9r@	c #632E20",
"0r@	c #3D1607",
"ar@	c #614142",
"br@	c #836160",
"cr@	c #492B29",
"dr@	c #4A322E",
"er@	c #4C3734",
"fr@	c #594642",
"gr@	c #57423D",
"hr@	c #543B37",
"ir@	c #3E1416",
"jr@	c #3D0F12",
"kr@	c #3B0A0D",
"lr@	c #23060B",
"mr@	c #490502",
"nr@	c #5D0909",
"or@	c #600605",
"pr@	c #650803",
"qr@	c #4E0A01",
"rr@	c #4D0C08",
"sr@	c #591419",
"tr@	c #672529",
"ur@	c #5D1B1F",
"vr@	c #531115",
"wr@	c #4B0B0C",
"xr@	c #460908",
"yr@	c #440A08",
"zr@	c #430C09",
"Ar@	c #591910",
"Br@	c #451A0A",
"Cr@	c #381303",
"Dr@	c #130006",
"Er@	c #401A0D",
"Fr@	c #43140C",
"Gr@	c #46140D",
"Hr@	c #44110D",
"Ir@	c #684849",
"Jr@	c #432324",
"Kr@	c #46312E",
"Lr@	c #53403C",
"Mr@	c #62504C",
"Nr@	c #53413D",
"Or@	c #543F3C",
"Pr@	c #3D1516",
"Qr@	c #431619",
"Rr@	c #1F060C",
"Sr@	c #1E040D",
"Tr@	c #1B040A",
"Ur@	c #230500",
"Vr@	c #2A0300",
"Wr@	c #660202",
"Xr@	c #600701",
"Yr@	c #54100D",
"Zr@	c #4F0A0D",
"`r@	c #4A0C0D",
" s@	c #4A100E",
".s@	c #1E0002",
"+s@	c #5B1E1B",
"@s@	c #5B1C17",
"#s@	c #5B1A14",
"$s@	c #602419",
"%s@	c #693426",
"&s@	c #532515",
"*s@	c #3D1305",
"=s@	c #320E00",
"-s@	c #150009",
";s@	c #1D080D",
">s@	c #3E1C12",
",s@	c #411709",
"'s@	c #441609",
")s@	c #47120C",
"!s@	c #533938",
"~s@	c #644749",
"{s@	c #57393B",
"]s@	c #432527",
"^s@	c #503637",
"/s@	c #493131",
"(s@	c #3D2928",
"_s@	c #483936",
":s@	c #554643",
"<s@	c #52403E",
"[s@	c #473332",
"}s@	c #3B1115",
"|s@	c #3B0C12",
"1s@	c #170209",
"2s@	c #18030C",
"3s@	c #18050B",
"4s@	c #16050B",
"5s@	c #6B0101",
"6s@	c #710503",
"7s@	c #670C07",
"8s@	c #500C09",
"9s@	c #3B1009",
"0s@	c #1E0005",
"as@	c #321414",
"bs@	c #652F2D",
"cs@	c #6C3532",
"ds@	c #581E1A",
"es@	c #511811",
"fs@	c #561D14",
"gs@	c #602C21",
"hs@	c #6F3F33",
"is@	c #4B2113",
"js@	c #361003",
"ks@	c #341409",
"ls@	c #401C10",
"ms@	c #47150A",
"ns@	c #481409",
"os@	c #461109",
"ps@	c #66514E",
"qs@	c #5C4444",
"rs@	c #482E2F",
"ss@	c #473231",
"ts@	c #443530",
"us@	c #423330",
"vs@	c #4F3D39",
"ws@	c #3C2724",
"xs@	c #110004",
"ys@	c #15040C",
"zs@	c #490E06",
"As@	c #630505",
"Bs@	c #670303",
"Cs@	c #6A0606",
"Ds@	c #6D0F0F",
"Es@	c #530E09",
"Fs@	c #440C0B",
"Gs@	c #1D0209",
"Hs@	c #1A0107",
"Is@	c #4D221B",
"Js@	c #4B2019",
"Ks@	c #502820",
"Ls@	c #2C0E04",
"Ms@	c #331A16",
"Ns@	c #310F05",
"Os@	c #3E1207",
"Ps@	c #3E0E02",
"Qs@	c #451104",
"Rs@	c #615049",
"Ss@	c #5D4B47",
"Ts@	c #4B3935",
"Us@	c #513E3A",
"Vs@	c #4F3A35",
"Ws@	c #4A0F11",
"Xs@	c #570D0A",
"Ys@	c #5B0D0B",
"Zs@	c #5B090B",
"`s@	c #5B0707",
" t@	c #5C0609",
".t@	c #5D0B0F",
"+t@	c #580C10",
"@t@	c #50090D",
"#t@	c #460809",
"$t@	c #602322",
"%t@	c #340902",
"&t@	c #2C0700",
"*t@	c #2B0400",
"=t@	c #3B1910",
"-t@	c #2C1106",
";t@	c #2F0A01",
">t@	c #42170E",
",t@	c #45150B",
"'t@	c #49150A",
")t@	c #431108",
"!t@	c #524139",
"~t@	c #52433C",
"{t@	c #4E1214",
"]t@	c #521115",
"^t@	c #57080B",
"/t@	c #560A0C",
"(t@	c #520B0F",
"_t@	c #4E0C10",
":t@	c #330205",
"<t@	c #463432",
"[t@	c #362221",
"}t@	c #43130F",
"|t@	c #270200",
"1t@	c #260100",
"2t@	c #44261E",
"3t@	c #411208",
"4t@	c #431309",
"5t@	c #471306",
"6t@	c #4A180D",
"7t@	c #400F08",
"8t@	c #331E1B",
"9t@	c #501414",
"0t@	c #4B090B",
"at@	c #520A0B",
"bt@	c #4F0D0E",
"ct@	c #4B0D0E",
"dt@	c #450B0A",
"et@	c #1D0003",
"ft@	c #210408",
"gt@	c #56201E",
"ht@	c #210300",
"it@	c #432A25",
"jt@	c #461409",
"kt@	c #4F4842",
"lt@	c #3B150C",
"mt@	c #41160D",
"nt@	c #501C11",
"ot@	c #441408",
"pt@	c #47100D",
"qt@	c #4D1110",
"rt@	c #4E211E",
"st@	c #37302A",
"tt@	c #45130A",
"ut@	c #4F1A12",
"vt@	c #501A10",
"wt@	c #411306",
"xt@	c #3F1308",
"yt@	c #370F07",
"zt@	c #350F06",
"At@	c #450908",
"Bt@	c #480808",
"Ct@	c #480C0C",
"Dt@	c #522625",
"Et@	c #4B2522",
"Ft@	c #483F3A",
"Gt@	c #471C15",
"Ht@	c #4B160E",
"It@	c #401409",
"Jt@	c #3E1408",
"Kt@	c #3D1307",
"Lt@	c #540E0E",
"Mt@	c #4F0B0A",
"Nt@	c #4D0C0A",
"Ot@	c #4D0D0D",
"Pt@	c #463B37",
"Qt@	c #4A1B13",
"Rt@	c #45140D",
"St@	c #441209",
"Tt@	c #41170B",
"Ut@	c #3D1509",
"Vt@	c #371209",
"Wt@	c #2A0800",
"Xt@	c #371A12",
"Yt@	c #4E0609",
"Zt@	c #6C2022",
"`t@	c #6B1F21",
" u@	c #4C0606",
".u@	c #591514",
"+u@	c #5E1E1E",
"@u@	c #070C05",
"#u@	c #321817",
"$u@	c #614843",
"%u@	c #977E79",
"&u@	c #7A635D",
"*u@	c #43120B",
"=u@	c #47150E",
"-u@	c #391507",
";u@	c #5C0D10",
">u@	c #712122",
",u@	c #610F11",
"'u@	c #661619",
")u@	c #621618",
"!u@	c #500809",
"~u@	c #621E1D",
"{u@	c #723232",
"]u@	c #58201F",
"^u@	c #10130A",
"/u@	c #0D120B",
"(u@	c #523B35",
"_u@	c #3E130C",
":u@	c #3C180C",
"<u@	c #371607",
"[u@	c #331105",
"}u@	c #692124",
"|u@	c #752629",
"1u@	c #400D0C",
"2u@	c #290102",
"3u@	c #17130A",
"4u@	c #3E1911",
"5u@	c #38180B",
"6u@	c #331608",
"7u@	c #311406",
"8u@	c #331306",
"9u@	c #47261D",
"0u@	c #3F1E15",
"au@	c #4E2523",
"bu@	c #5D2B2C",
"cu@	c #642C2B",
"du@	c #682829",
"eu@	c #601114",
"fu@	c #4C100F",
"gu@	c #5E3933",
"hu@	c #4D2A24",
"iu@	c #3C1613",
"ju@	c #391E15",
"ku@	c #653C3A",
"lu@	c #724444",
"mu@	c #5B2120",
"nu@	c #521212",
"ou@	c #5A1615",
"pu@	c #31170A",
"qu@	c #32180B",
"ru@	c #32160A",
"su@	c #3C2116",
"tu@	c #391E13",
"uu@	c #521B18",
"vu@	c #390905",
"wu@	c #2C1507",
"xu@	c #30190B",
"yu@	c #351B0E",
"zu@	c #361A0E",
"Au@	c #381D12",
"Bu@	c #431D14",
"Cu@	c #38241D",
"Du@	c #331E19",
"Eu@	c #2D1608",
"Fu@	c #311A0C",
"Gu@	c #371D10",
"Hu@	c #391F12",
"Iu@	c #45271C",
"Ju@	c #351A0F",
"Ku@	c #441711",
"Lu@	c #311B0E",
"Mu@	c #3B1D12",
"Nu@	c #34180D",
"Ou@	c #35190E",
"Pu@	c #403231",
"Qu@	c #471B0E",
"Ru@	c #481C13",
"Su@	c #461B15",
"Tu@	c #472019",
"Uu@	c #411E18",
"Vu@	c #43261E",
"Wu@	c #4E332A",
"Xu@	c #280E01",
"Yu@	c #301607",
"Zu@	c #2E1407",
"`u@	c #290F00",
" v@	c #290F02",
".v@	c #200600",
"+v@	c #3E2119",
"@v@	c #3B1E16",
"#v@	c #523632",
"$v@	c #322320",
"%v@	c #362828",
"&v@	c #413333",
"*v@	c #3F3131",
"=v@	c #130003",
"-v@	c #562A1D",
";v@	c #4F2316",
">v@	c #4A1B11",
",v@	c #4D1E14",
"'v@	c #341A09",
")v@	c #341908",
"!v@	c #2F1403",
"~v@	c #321706",
"{v@	c #301504",
"]v@	c #321507",
"^v@	c #381B0D",
"/v@	c #422215",
"(v@	c #401E15",
"_v@	c #452A23",
":v@	c #422720",
"<v@	c #513833",
"[v@	c #2D1207",
"}v@	c #180205",
"|v@	c #382A2A",
"1v@	c #4B3D3D",
"2v@	c #312225",
"3v@	c #291A1D",
"4v@	c #190D11",
"5v@	c #23181C",
"6v@	c #2B2225",
"7v@	c #131112",
"8v@	c #200C0E",
"9v@	c #170006",
"0v@	c #130208",
"av@	c #4D2116",
"bv@	c #4C2017",
"cv@	c #3A1E12",
"dv@	c #3C2110",
"ev@	c #371C0B",
"fv@	c #351A09",
"gv@	c #3C1F0F",
"hv@	c #381B0B",
"iv@	c #2E1103",
"jv@	c #371A0C",
"kv@	c #3A1C11",
"lv@	c #411C13",
"mv@	c #45241B",
"nv@	c #412017",
"ov@	c #31150A",
"pv@	c #472C23",
"qv@	c #402720",
"rv@	c #331716",
"sv@	c #3C2C2D",
"tv@	c #544445",
"uv@	c #241B1C",
"vv@	c #22080B",
"wv@	c #250A0F",
"xv@	c #52251F",
"yv@	c #441B15",
"zv@	c #431A16",
"Av@	c #37190E",
"Bv@	c #3E2111",
"Cv@	c #321505",
"Dv@	c #381809",
"Ev@	c #422515",
"Fv@	c #472A1C",
"Gv@	c #44261B",
"Hv@	c #4A251C",
"Iv@	c #3E1C13",
"Jv@	c #5B4037",
"Kv@	c #352323",
"Lv@	c #341A19",
"Mv@	c #433032",
"Nv@	c #080100",
"Ov@	c #2C0F13",
"Pv@	c #160307",
"Qv@	c #592E25",
"Rv@	c #532821",
"Sv@	c #562B24",
"Tv@	c #582D27",
"Uv@	c #3C1C11",
"Vv@	c #3E1E0F",
"Wv@	c #432314",
"Xv@	c #452516",
"Yv@	c #3D1C0D",
"Zv@	c #3D1D0E",
"`v@	c #39190C",
" w@	c #432316",
".w@	c #6B493F",
"+w@	c #664138",
"@w@	c #58362D",
"#w@	c #49271E",
"$w@	c #3C1E16",
"%w@	c #32170C",
"&w@	c #472C21",
"*w@	c #583D32",
"=w@	c #41241C",
"-w@	c #42302E",
";w@	c #483435",
">w@	c #2D1314",
",w@	c #37191B",
"'w@	c #301315",
")w@	c #5E362E",
"!w@	c #673F37",
"~w@	c #5E332D",
"{w@	c #4D211E",
"]w@	c #401816",
"^w@	c #462118",
"/w@	c #462216",
"(w@	c #401F10",
"_w@	c #3F1E0F",
":w@	c #492819",
"<w@	c #462516",
"[w@	c #472519",
"}w@	c #58382D",
"|w@	c #89695E",
"1w@	c #A48278",
"2w@	c #755349",
"3w@	c #4D2C23",
"4w@	c #472921",
"5w@	c #4E3129",
"6w@	c #3E231A",
"7w@	c #3C2827",
"8w@	c #4F2F32",
"9w@	c #603932",
"0w@	c #572E2A",
"aw@	c #2C0500",
"bw@	c #492318",
"cw@	c #442012",
"dw@	c #492517",
"ew@	c #543024",
"fw@	c #4E2A1E",
"gw@	c #401E14",
"hw@	c #523026",
"iw@	c #533128",
"jw@	c #502F26",
"kw@	c #6F544D",
"lw@	c #432A23",
"mw@	c #432B1F",
"nw@	c #462627",
"ow@	c #402224",
"pw@	c #4C251E",
"qw@	c #512A23",
"rw@	c #4E2720",
"sw@	c #49201C",
"tw@	c #4D271A",
"uw@	c #532D20",
"vw@	c #532F21",
"ww@	c #452113",
"xw@	c #3B170B",
"yw@	c #67453C",
"zw@	c #3D1B12",
"Aw@	c #836861",
"Bw@	c #775C55",
"Cw@	c #2E180D",
"Dw@	c #351D11",
"Ew@	c #3A1A1B",
"Fw@	c #4C2C2D",
"Gw@	c #3B1E20",
"Hw@	c #5A3228",
"Iw@	c #421C0F",
"Jw@	c #3E1A0E",
"Kw@	c #5D3C33",
"Lw@	c #54332C",
"Mw@	c #431B0F",
"Nw@	c #411B0E",
"Ow@	c #492519",
"Pw@	c #4E2D26",
"Qw@	c #42211A",
"Rw@	c #392115",
"Sw@	c #46170F",
"Tw@	c #491A12",
"Uw@	c #421A0E",
"Vw@	c #3B1307",
"Ww@	c #472317",
"Xw@	c #4A3228",
"Yw@	c #462921",
"Zw@	c #4A2D25",
"`w@	c #451E17",
" x@	c #462418",
".x@	c #40221A",
"+x@	c #46281D",
"@x@	c #43251A",
"#x@	c #442419",
"$x@	c #422016",
"%x@	c #462017",
"&x@	c #4F221C",
"*x@	c #4A1912",
"=x@	c #412821",
"-x@	c #482C29",
";x@	c #60433F",
">x@	c #604441",
",x@	c #4C2C21",
"'x@	c #54281F",
")x@	c #562520",
"!x@	c #56271F",
"~x@	c #4F2519",
"{x@	c #50281C",
"]x@	c #3E251E",
"^x@	c #412A24",
"/x@	c #4F362F",
"(x@	c #442B26",
"_x@	c #3B241E",
":x@	c #563935",
"<x@	c #4C3022",
"[x@	c #452115",
"}x@	c #55291E",
"|x@	c #57271D",
"1x@	c #5B2A23",
"2x@	c #5A2B23",
"3x@	c #592D22",
"4x@	c #4A281C",
"5x@	c #47271A",
"6x@	c #41251A",
"7x@	c #573C35",
"8x@	c #322016",
"9x@	c #43221B",
"0x@	c #44231C",
"ax@	c #3D1A14",
"bx@	c #4D3229",
"cx@	c #472823",
"dx@	c #3E1C1A",
"ex@	c #342623",
"fx@	c #2C191B",
"gx@	c #151112",
"hx@	c #141011",
"ix@	c #150F11",
"jx@	c #170C10",
"kx@	c #55241D",
"lx@	c #53241C",
"mx@	c #582C23",
"nx@	c #552A21",
"ox@	c #51291D",
"px@	c #512B20",
"qx@	c #512F23",
"rx@	c #513126",
"sx@	c #42241C",
"tx@	c #46251E",
"ux@	c #482720",
"vx@	c #45241D",
"wx@	c #3C281D",
"xx@	c #3F291E",
"yx@	c #472A24",
"zx@	c #41201B",
"Ax@	c #422924",
"Bx@	c #2C1D1A",
"Cx@	c #322223",
"Dx@	c #59342C",
"Ex@	c #542E25",
"Fx@	c #5A322A",
"Gx@	c #673C35",
"Hx@	c #683B35",
"Ix@	c #4D2D22",
"Jx@	c #452822",
"Kx@	c #492821",
"Lx@	c #4C2923",
"Mx@	c #4B2822",
"Nx@	c #492620",
"Ox@	c #47241E",
"Px@	c #44261C",
"Qx@	c #3D211D",
"Rx@	c #482624",
"Sx@	c #492823",
"Tx@	c #492725",
"Ux@	c #4A2924",
"Vx@	c #39251C",
"Wx@	c #542E2B",
"Xx@	c #512C26",
"Yx@	c #4B2C27",
"Zx@	c #493B38",
"`x@	c #4F2A24",
" y@	c #502B23",
".y@	c #4B241D",
"+y@	c #502A21",
"@y@	c #512B22",
"#y@	c #5C362D",
"$y@	c #623A32",
"%y@	c #5B332B",
"&y@	c #5B352C",
"*y@	c #49291E",
"=y@	c #421F19",
"-y@	c #4B2826",
";y@	c #4B2824",
">y@	c #3B1F14",
",y@	c #55322E",
"'y@	c #573430",
")y@	c #5C3633",
"!y@	c #5B3532",
"~y@	c #5A3431",
"{y@	c #4E2D28",
"]y@	c #4D2E29",
"^y@	c #4C2D28",
"/y@	c #4D2A28",
"(y@	c #512B2A",
"_y@	c #522C2B",
":y@	c #46251C",
"<y@	c #502F2A",
"[y@	c #53322D",
"}y@	c #51302B",
"|y@	c #54312D",
"1y@	c #4D2726",
"2y@	c #502D29",
"3y@	c #4A2C24",
"4y@	c #372928",
"5y@	c #3C2014",
"6y@	c #3A150C",
"7y@	c #3D1D12",
"8y@	c #432117",
"9y@	c #3E1B17",
"0y@	c #452018",
"ay@	c #4D322B",
"by@	c #54372F",
"cy@	c #52352D",
"dy@	c #342625",
"ey@	c #352724",
"fy@	c #3A2B28",
"gy@	c #3C2D2A",
"hy@	c #3E2417",
"iy@	c #3D2217",
"jy@	c #3F1A11",
"ky@	c #401B13",
"ly@	c #563933",
"my@	c #322421",
"ny@	c #423433",
"oy@	c #413332",
"py@	c #402416",
"qy@	c #42261A",
"ry@	c #36180D",
"sy@	c #411D11",
"ty@	c #3C1A10",
"uy@	c #431E18",
"vy@	c #3E1F1C",
"wy@	c #371815",
"xy@	c #452925",
"yy@	c #382926",
"zy@	c #433534",
"Ay@	c #372727",
"By@	c #422217",
"Cy@	c #402217",
"Dy@	c #371816",
"Ey@	c #432219",
"Fy@	c #3D201C",
"Gy@	c #422521",
"Hy@	c #482926",
"Iy@	c #3D2F2C",
"Jy@	c #433333",
"Ky@	c #3C2E2D",
"Ly@	c #3D1919",
"My@	c #47221C",
"Ny@	c #4A2826",
"Oy@	c #4C2A28",
"Py@	c #4D2B29",
"Qy@	c #442522",
"Ry@	c #462724",
"Sy@	c #4C2D2A",
"Ty@	c #342218",
"Uy@	c #322424",
"Vy@	c #312323",
"Wy@	c #49241E",
"Xy@	c #462A26",
"Yy@	c #4B2F2B",
"Zy@	c #52302E",
"`y@	c #583634",
" z@	c #593735",
".z@	c #573835",
"+z@	c #51322F",
"@z@	c #481F19",
"#z@	c #461F1A",
"$z@	c #421A18",
"%z@	c #3F2524",
"&z@	c #4A2C2A",
"*z@	c #472826",
"=z@	c #492A28",
"-z@	c #4A2B29",
";z@	c #4D2B2A",
">z@	c #502E2D",
",z@	c #533130",
"'z@	c #512F2E",
")z@	c #543533",
"!z@	c #533432",
"~z@	c #4F312F",
"{z@	c #3F2320",
"]z@	c #3B2D2D",
"^z@	c #5E3732",
"/z@	c #5C3530",
"(z@	c #462725",
"_z@	c #442523",
":z@	c #301B1A",
"<z@	c #442220",
"[z@	c #371E1A",
"}z@	c #3F211F",
"|z@	c #412321",
"1z@	c #4D2F2D",
"2z@	c #4D2E2C",
"3z@	c #4A2E2B",
"4z@	c #3E2622",
"5z@	c #413131",
"6z@	c #473737",
"7z@	c #483838",
"8z@	c #4E3E3E",
"9z@	c #4F3F3F",
"0z@	c #504040",
"az@	c #514141",
"bz@	c #4A3A3A",
"cz@	c #3D2F2F",
"dz@	c #372929",
"ez@	c #724C49",
"fz@	c #6F4946",
"gz@	c #6C4643",
"hz@	c #65443F",
"iz@	c #63423D",
"jz@	c #583B37",
"kz@	c #553834",
"lz@	c #492320",
"mz@	c #412925",
"nz@	c #462A27",
"oz@	c #281C1C",
"pz@	c #3C2E2E",
"qz@	c #433535",
"rz@	c #453737",
"sz@	c #453536",
"tz@	c #483839",
"uz@	c #4A3A3B",
"vz@	c #4C3C3D",
"wz@	c #4D3D3E",
"xz@	c #4E3E3F",
"yz@	c #504041",
"zz@	c #49393A",
"Az@	c #463637",
"Bz@	c #423233",
"Cz@	c #39292A",
"Dz@	c #332525",
"Ez@	c #451F1C",
"Fz@	c #47211E",
"Gz@	c #332324",
"Hz@	c #352526",
"Iz@	c #3B1816",
"Jz@	c #381211",
"Kz@	c #331618",
"Lz@	c #443232",
"Mz@	c #493737",
"Nz@	c #524040",
"Oz@	c #665454",
"Pz@	c #695757",
"Qz@	c #645252",
"Rz@	c #5A4848",
"Sz@	c #4F3D3D",
"Tz@	c #473535",
"Uz@	c #2C1819",
"Vz@	c #241113",
"Wz@	c #241011",
"Xz@	c #372525",
"Yz@	c #5D494A",
"Zz@	c #635151",
"`z@	c #675555",
" A@	c #6D5B5B",
".A@	c #72605E",
"+A@	c #786465",
"@A@	c #856F71",
"#A@	c #877173",
"$A@	c #8C7678",
"%A@	c #907A7C",
"&A@	c #877374",
"*A@	c #756162",
"=A@	c #614F4F",
"-A@	c #564444",
";A@	c #261213",
">A@	c #241518",
",A@	c #251518",
"'A@	c #241417",
")A@	c #2A1617",
"!A@	c #3F2B2C",
"~A@	c #423030",
"{A@	c #493939",
"]A@	c #4E403F",
"^A@	c #4D3F3E",
"/A@	c #473938",
"   .  +  @  #  $  %  &  *  =  -  ;  >  ,  '  )  !  ~  {  ]  ^  /  (  _  :  <  [  }  +  |  1  2  3  4  5  6  7  8  9  9  0  a  b  c  d  e  f  g  g  h  h  i  i  j  k  l  m  n  o  p  q  r  s  t  u  v  w  x  y  z  A  B  C  D  E  F  G  H  I  J  K  L  M  N  O  P  Q  R  S  T  U  V  W  X  Y  Z  `   . .. +. @. @. #. $. %. &. *. =. -. ;. >. ,. '. ). !. ~. {. ]. ^. /. (. _. :. <. [. }. |. 1. 1. 2. 3. 4. 5. 6. 6. 7. 7. 8. 9. 9. 0. a. b. c. d. e. f. g. h. i. j. k. l. m. n. o. p. q. r. s. t. u. v. w. x. y. z. A. B. C. D. E. F. G. H. I. J. K. L. M. N. O. P. Q. R. S. T. U. V. W. X. X. Y. Z. `.  + .+ ++ @+ #+ $+ %+ &+ *+ =+ -+ ;+ >+ >+ ,+ '+ )+ !+ ~+ ~+ {+ ]+ ^+ ^+ /+ ,+ (+ (+ (+ _+ _+ :+ <+ <+ [+ }+ |+ |+ |+ |+ 1+ 1+ 2+ 3+ 4+ 5+ 6+ 7+ 8+ 9+ 0+ a+ b+ c+ d+ e+ f+ g+ h+ i+ j+ k+ l+ m+ n+ o+ p+ q+ r+ s+ t+ u+ v+ w+ i+ x+ y+ z+ A+ B+ C+ D+ E+ F+ F+ G+ H+ H+ I+ J+ K+ L+ M+ N+ O+ P+ Q+ R+ S+ T+ U+ V+ W+ X+ Y+ Z+ ",
"`+  @ .@ +@ @@ #@ $@ %@ &@ *@ =@ -@ ;@ >@ ,@ '@ )@ !@ ~@ {@ {@ {@ ]@ ^@ /@ (@ _@ :@ <@ [@ [@ 2  3  }@ |@ 1@ 2@ 3@ 4@ 4@ 5@ 6@ 7@ 8@ c  9@ 0@ a@ a@ b@ c@ d@ e@ f@ g@ h@ i@ j@ k@ o  l@ m@ n@ o@ p@ q@ r@ s@ t@ u@ v@ w@ x@ y@ z@ A@ B@ C@ D@ E@ F@ G@ M  N  O  P  Q  R  H@ T  I@ J@ W  X  Y  Z  `   . .. +. @. K@ L@ M@ %. &. N@ O@ P@ Q@ R@ S@ T@ U@ V@ W@ X@ Y@ Z@ `@  # .# +# @# ## $# %# &# &# 2. 2. *# 4. =# =# =# -# -# -# ;# ># 0. ,# '# )# !# ~# {# j. ]# ^# /# (# _# :# o. <# [# }# |# 1# 2# 3# 4# 5# 6# 7# 8# 9# 0# a# b# c# d# e# f# g# h# i# j# k# l# m# n# o# p# q# r# s# t# u# 3# v# w# x# y# x+ z# A# B# C# D# 5+ E# F# -+ ;+ >+ >+ ,+ '+ )+ G# H# I# {+ ]+ ^+ ^+ /+ ,+ J# J# K# L# L# _+ _+ _+ M# N# N# N# O# O# P# P# Q# R# S# T# U# V# W# X# Y# Z# `#  $ .$ +$ @$ #$ $$ A# %$ &$ &$ *$ =$ -$ ;$ >$ ,$ '$ )$ !$ ~$ {$ ]$ ^$ /$ ($ _$ :$ <$ [$ }$ |$ 1$ 1$ 2$ 2$ 3$ 4$ 5$ 6$ 2$ 7$ 8$ 9$ 0$ a$ i+ b$ c$ d$ e$ f$ Y+ g$ ",
"h$ i$ j$ @@ k$ :. l$ m$ n$ o$ p$ q$ r$ s$ t$ u$ M. v$ w$ x$ y$ z$ y$ A$ B$ B$ C$ D$ 1  [@ E$ F$ |. h@ G$ H$ I$ J$ K$ L$ L$ M$ N$ O$ P$ Q$ R$ R$ R$ N. N. N. S$ T$ U$ V$ W$ X$ X$ Y$ Z$ `$  % .% +% @% #% $% %% &% *% M. =% -% ;% >% ,% '% )% !% ~% {% ]% L  ^% P  Q  /% (% _% I@ J@ W  X  Y  Z  `   . .. +. @. :% L@ <% %. [% }% |% 1% 2% 3% 4% 5% 6% 7% 8% 9% 0% a% b% c% d% e% @# ## f% g% h% &# i% 2. *# *# 5. =# =# =# -# ;# ;# ;# j% k% 0. l% m% n% o% p% q% r% s% t% u% v% w% <# x% y% z% A% W. B% C% C% D% E% F% G% H% I% J% K% L% M% N% O% P% Q% 9@ k# R% m# S% T% >  U% V% W% X% Y% Z% 8$ `%  & .& +& @& 7+ #& $& %& && && *& =& -& >+ >+ ,+ ;& '+ )+ I# I# {+ ]+ ^+ ^+ >& /+ >+ >+ L# L# L# ,& '& '& M# M# M# M# O# )& O# P# !& ~& {& ]& ^& /& (& _& :& Z# <& [& }& |& @$ 1& 2& 3& 4& 5& 4& 6& C# 7& 8& 9& 0& 0& 9& a& b& c& ^& d& e& f& g& h& i& j& k& l& m& m& n& 7$ o& p& q& r& s& r& t& u& v& Z# w& x& y& z& A& f$ Y+ Z+ ",
"B& $  @@ k$ C& D& E& F& G& H& I& J& K& L& M& N& O& P& Q& R& S& T& U& V& W& X& Y& Z& `&  *  * .* l  +* @* #* K$ $* %* &* ** =* =* -* ;* t  >* ,* ,* '* )* )* !* ~* {* ]* ^* /* (* _* :* <* [* }* |* 1* 2* 3* `# 4* 5* '@ 6* 7* 8* 9* 0* a* b* K  c* {% ]% L  d* e* Q  f* g* h* i* J@ j* X  Y  Z  `   . .. +. @. k* L@ l* %. [% }% m* n* o* p* q* r* s* t* u* v* w* x* y* z* d% A* B* C* D* %  h% h% i% 2.  * *# 5. 5. E* E* E* E* E* F* G* H* j% -# 7. 7. I* J* K* L* M* N* O* P* P* Q* R* m# S* T* U* V* W* W* X* Y* Z* `*  = .= += @= #= $= %= &= *= Q% == -= ;= >= T% ,= '= )= L$ != X% ~= {= ]= ^= /= *$ (= _= $& := <= F# *& [= }= K# -& J# >+ ,+ ,+ ,+ |= 1= 1= 1= 1= 1= ^+ ^+ 2= >+ 3= 3= 3= ,& 4= 4= 4= ,& ,& 5= 5= M# 5= M# N# 6= 7= 8= 9= 0= a= b= c= d= e= f= g= h= i= j= k= l= 7= m= n= o= p= 8= e$ q= X+ r= Y+ s= t= u= v= a& w= x= y= z= A= B= C= D= E= F= F= G= n& o& o& O+ H= I= H= J= K= L= M= N= n+ O= P= v= Q= )& R= ",
"S= @@ T= U= V= W= X= Y= Y$ H& Z= `=  - .- +- @- #- $- '  %- &- w$ *- =- -- ;- h% >- ,- '- F$ )- !- ~- {- ]- ^- v. /- (- u# _- :- <- -* t. [- [- P$ }- |- 1- 2- 3- 4- 5- 6- 7- 8- 9- 0-  + a- b- c- d- e- f- g- h- i- -  j- k- l- m- n- o- p- q- c* r- ]% s- d* t- u- v- w- x- i* J@ y- X  Y  Z  `   . .. +. @. k* L@ l* %. [% }% m* z- A- B- C- D- E- F- G- H- I- J- K- z* L- M- N- %@ O- %  >- h% i% i%  *  * 5. 5. 4. E* E* F* F* F* _# P- Q- R- @  4. S- T-  * U- N* V- W- X- X- Y- R* Z- `-  ; .; +; @; #; $; %; &; *; =; -; ;; >; ,; '; ); !; ~; @* {; ]; ^; T% ~* /; (; _; :; <; [; v# }; |; 1; *$ (= 2; 3; 4; 5; 6; 7; 8; }= 9; >+ 0; J# J# ,+ /+ /+ >& >& ^+ 1= |= |= 1= a; a; /+ 3= 3= b; 4= 4= 4= 4= ,& ,& 5= 5= 5= 5= 5= N# c; 8= T# d; e; a= (& f; g; h; i; a$ j; k; l; m; 8= 3+ n; o; o; p; q; 1+ }= r; s; t; M# O# F# u; Q= v; w; x; y; z; A; B; C; D; E; E; .; G= Z. F; G; B+ B+ B+ H; I; J; K; L; M; N; O; u= Q= )& R= ",
"_. T= P; Q; R; S; T; U; Y$ V; W; X; Y; Z; `;  > .> +> A% @> #> $> %> &> g% h% *> @@ => -> ;> >> ,> '> )> !> ~> {> ]> ]> ^> /> (> _> :> <> [> }> |> 1> 2> 3> p& 4> 5> 6> 7> 8> 9> 0> b+ a> b> c> d> e> f> g> h> i> j> T% k> l> m> n> o> o- p> q> r> s> t> u> v> w> x> v- v- y> z> V  A> X  B> C> D> E> E> K@ #. F> K@ .. G> H> 5% |% I> J> K> L> M> N> O> P> Q> R> S> T> U> V> f% W> X> Y> %  Z> `> #  i%  ,  ,  * *# *# *# E$ <@ <@ <@ <@ ., +, #  #  i% '- @, #, $, $, %, &, *, *, =, -, ;, >, ,, ', ), @; !, ~, {, ], ^, -; /, (, _, :, :, <, [, ~; }, |, 1, ~* 2, 3, 4, 5, _- ~> 6, 7, 8, b+ 9, 0, a, b, c, O# )& 5= 5= ,& ,& '& '& 3= 3= 3= 3= 3= 3= 3= 3= 3= /+ /+ /+ 1= 1= 1= /+ /+ 3= 3= 3= 3= 3= ,& ,& ,& ,& ,& ,& 5= d, d, <+ 3+ {& {& ]& e, 0= a= b= f, g; N= g, h, i, j, k, E# *& l, l, m, m, n, N# K# o, p, q, 4= M# n, r, s, t, u, v, w, x, y, z, D; E; A, A, 3# 3# B, F; G; C, D, E, F, G, H, I, 1; J, K, P= c; L, O# )& ",
"M, N, O, P, Q, R, S, T, U, V, W, X, ]- Y, Z, W* `, B%  ' .' +' @' #' $' O- O- %' &' l$ *' =' -' ;' >' ,' '' )' !' ~' {' ]' ^' &% Z. J+ /' 1- (' 2> _' `. :' `# <' [' }' |' 1' f+ 2' 3' 4' 5' 6' 7' g> 8' 9' h> ~, 0' a' b' c' d' e' f' g' h' i' j' k' s- k' l' m' e* n' o' p' q' j* r' s' t' u' `  E>  . :% +. L> +. .. G> v' w' m* x' y' z' l* M> A' B' C' D' E' F' G' H' I' Y> *  J' Y> %  Z> Z> #  i%  ,  ,  *  * *# E$ <@ <@ <@ <@ F$ +, +, K' K' L' M' N' O' P' P' Q' Q' R' S' T' U' V' S* T* Y. W' :' ]= 4> X' Y' Z' `'  ) .) +) Y$ @) W$ #) ~; m@ ;  $) %) &) *) =) -) ;) ;) w# >) [& ,) ') )) !) 3; ~) {) ]) q, q, p, p, ,& '& 3= 3= 3= 3= 3= 3= 3= 3= 3= 3= /+ /+ 1= 1= 1= 1= /+ 3= /+ 3= /+ 3= ,& ,& ,& ,& ,& ,& 5= d, d, <+ 4+ S# S# ^) /) () _) :) <) M; X# X# &$ ^$ @& U# [) 7; }) }) |) |) '& ,& K# 1) p, p, 2) ,& n, 3) O# 4) u, 5) 6) 7) 8) [* 9) 0) W. W. a) (- b) c) d) e) D, E, %% f) g) h) i) *$ j) 9= c; L, O# )& ",
"k) l) m) n) o) p) q) r) s) t) u) v) w) t& x) x) y) z) A) (> B) C) D) E) F) F) G) H) I) J) K) L) M) N) O) P) Q) R) S) T) U) V) Z, W) }; X) Y) Z. Z) >) `)  ! .! +! @! #! $! %! &! &! *! 4' =! -! ;! >! 9' ,! '! )! !! ~! {! ]! ^! /! (! _! :! <! [! }! |! s- 1! 2! t- o' o' 3! 4! 5! 6! 7! 8! 9! 0!  .  . L> K@ +. +. E> a! %. b! c! d! y' e! f! g! N> h! i! j! k! l! m! n! o! p! v$ q! &> r! Z> Z> #  #   ,  ,  *  * 2. 2. F$ 2  2  2  ,- K' K' K' M' s! t! u! v! w! w! x! |@ y! z! A! a@ j# )* B! A, A) C! t& D! X% E! F! G! W$ H! l@ I! I! W$ #) H$ I$ J! K! L! M! Z. d) h- N! O! y# .$ P! Q! R! S! T! U! V! 5= q, p, p, W! W! 3= 3= 3= 3= 3= 3= W! W! W! W! W! W! 3= /+ 1= 1= {+ 1= X! /+ X! /+ 1= /+ /+ /+ '& '& ,& ,& ,& L# d, <+ Y! Z! Z! E# e$ `! e,  ~ .~ +~ @~ @~ #~ $~ 3& 7= *& %~ &~ <+ <+ <+ '& ,& K# 1) W! W! *~ 3= {+ =~ P# Q= V+ c$ -~ a$ ;~ n& >~ t# ,~ '~ a) (- )~ 4# !~ ~~ {~ ]~ W) ^~ /~ (~ %$ O= _~ :~ <~ L, 3) N# ",
"[~ }~ F& |~ 1~ 2~ 3~ 4~ 5~ 6~ 7~ 7~ 8~ 9~ 0~ a~ b~ c~ d~ p& >~ e~ f~ g~ h~ i~ j~ k~ l~ m~ n~ o~ p~ q~ r~ s~ t~ u~ v~ w~ x~ y~ z~ e+ A~ W* B~ C~ c+ D~ E~ F~ G~ H~ I~ I~ J~ K~ K~ L~ M~ N~ O~ S) P~ c+ Q~ R~ S~ T~ U~ V~ {! W~ X~ Y~ Z~ `~  { .{ +{ @{ #{ M  ${ 2! t- %{ %{ &{ *{ ={ -{ ;{ 7! 9! 0!  .  . L> +. #. @. E> >{ ,{ }% '{ ){ !{ ~{ {{ G> ]{ ^{ /{ ({ _{ :{ <{ [{ }{ |{ 1{ 1{ &> r! 2{ Z> 3{ #  4{  ,  , i% i% +, 5{ 5{ Y& 5{ ,- ,- K' 6{ 7{ t! u! v! w! i@ x! 8{ 9{ 0{ a{ b{ c{ V' )* U. d{ z  e{ f{ N) 8~ -; g{ <, h{ 6  i{ j{ I! +) [, {- k{ l{ m{ n{ o{ p{ q{ P~ r{ s{ t{ Q! M~ u{ v{ w{ 3; 5; t; q, q, p, p, W! W! 3= 3= 3= 3= 3= 3= W! W! W! W! W! W! 3= 3= 1= 1= {+ {+ {+ X! {+ X! 1= 1= 1= /+ '& '& '& ,& ,& L# d, _+ x{ Y! y{ F# q= z{ u= A{ 5) B{ C{ 5& j) D{ n= E{ 8; F{ &~ &~ <+ <+ '& ,& K# 1) W! W! *~ /+ {+ =~ L, z{ G{ (= H{ I{ J{ 6$ :- ** K{ ,~ a) /- L{ ]> M{ !~ N{ ]~ H, O{ P{ Q{ K, R{ S{ ~& <~ L, 3) N# ",
"T{ U{ V{ W{ X{ Y{ Z{ `{  ] .] +] @] #] $] %] &] r{ *] =] -] I= ;] m{ !> >] ,] N) '] )] !] ~] ,! {] ]] ^] /] (] _] :] <] [] [] }] |] 1] 2] 3] 4] 5] 6] 7] 8] 9] 0] a] b] J~ K~ c] d] e] f] Q) g] h] i] j] k] l] m] n] =@ /@ W~ o] p] q] r] s] t] u] v] G@ w] d* x] y] z] A] B] C] D] E] N@ 7! 9! 0!  .  . :% @. L@ #. .. F] G] H] '{ I] !{ J] K] F] L] M] N] O] P] Q] R] S] T] U] V] W] X] r! 2{ Z> 3{ #  #  #  '- '- '- K' &# &# 3  &# ,- @, 6{ 6{ 7{ Y] o  q  Z] l@ h{ `] U$ ;= >= m#  ^ l# .^ +^ @^ #^ $^ %^ &^ *^ =^ -^ G& ;^ >^ ,^ '^ )^ W$ G! #* (; m{ Y. `; a- ^~ !^ 3' ~^ {^ ]^ m; J~ _= ^^ ^) q= N# 5= p, p, W! W! W! W! 3= 3= /+ /+ 3= 3= W! W! W! W! W! W! 3= 3= 1= 1= {+ {+ {+ {+ /^ {+ {+ {+ {+ 1= 1= 1= (^ '& '& _+ _+ _+ {+ {+ |= :+ <+ P# L, u= &+ b] %+ _^ p= :^ <^ l, [^ }^ |^ |^ <+ <+ M# 5= K# 1) W! W! b; 1= /^ 1^ r, e$ &+ 2^ 3^ 4^ 8$ 5^ 6^ =* &* 7^ 8^ {> ]> 9^ 0^ u@ a^ :' [& !^ #$ b^ c^ d^ c; <~ e^ }) 3) }+ ",
"f^ '; g^ h^ i^ j^ k^ l^ m^ m^ n^ o^ p^ q^ r^ t~ s^ t^ u^ v^ w^ N{ x^ X) y^ z^ W* A^ B^ *! C^ D^ E^ F^ G^ H^ I^ I^ J^ K^ L^ M^ N^ O^ P^ Q^ 1] R^ }] S^ T^ U^ V^ W^ X^ Y^ a, Z^ `^  / ./ +/ @/ #/ $/ %/ &/ */ =/ -/ ;/ >/ ,/ '/ )/ !/ ~/ {/ ]/ ^/ E@ // (/ w] d* _/ 2! :/ </ [/ }/ |/ 1/ I> 8! 9! 2/ 3/ 3/ :% @. #. #. 4/ 5/ G] H] c! 6/ 7/ 8/ 9/ <% 0/ a/ b/ c/ d/ e/ f/ g/ h/ i/ j/ V] k/ l/ 2{ 2{ B& 3{ #  #  '- '- K' K' &# 3  3  &# ,- @, 6{ m/ n/ o/ @# p/ q/ H! r/ Q% i# s/ s/ S% t/ R% u/ ~* (; K! v/ w/ +] ;; x/ y/ ;^ N- z/ A/ p/ )^ .) ); B/ K{ U* V* C/ D/ E/ i, F/ k= G/ H/ _= ^^ I/ A& L, J/ K/ L/ p, p, W! W! W! W! 3= 3= /+ /+ 3= 3= W! W! W! W! W! W! 3= 3= /+ 1= {+ {+ /^ /^ /^ /^ /^ {+ {+ {+ {+ 1= (^ (^ '& _+ _+ ,+ X! X! /+ 3= '& M# 3) M/ 5+ N/ X^ D# O/ P/ =+ *& t; t; |^ Q/ }) }) N# M# K# 1) W! 3= >& {+ R/ S/ e^ := #& y& T/ U/ t& X' 6^ <- 5, V/ )~ 4# W/ W/ X/ ^> Y/ :' g) ./ Z/ `/ 9= u= M/ q= }) }) 3) }+ ",
" ( (* Y; .( +( @( #( N) $( %( a) 7^ &( *( =( -( s{ ;( >( w& ,( '( a- !, !] )( !( ~( m; w{ {( ]( D# O^ ^( /( /( (( _( :( <( [( }( S/ p; _^ |( 1( 2( 3( ^( 4( 5( 6( a] 9] &! 7( 8( 9( D/ 0( a( b( c( d( e( =/ f( g( h( >/ i( j( k( l( m( n( o( p( q( r( s( t( ${ _/ x] u( v( w( x( y( 1/ H] 8! z( Z  M@ <% k* +. +. #. A( B( G] }% m* C( D( E( F( G( H( I( J( K( L( M( N( O( P( Q( R( S( k/ l/ T( 2{ B& B& U( +@ '- '- K' K' &# 3  3  3  2. @, 6{ => :. l$ E& m$ +) V( 2@ W( |# X( Y( o# Z( 0{ `( ;   _ L$ K$ J$ ._ +_ @_ #_ i@ z/ z/ $_ p/ )^ .) g{ %_ &_ .> *_ =] =_ -_ 8+ B# ;_ N^ >_ ,_ c, <= L, O# '_ 5= 5= p, p, W! W! 3= 3= /+ /+ /+ /+ 3= 3= W! W! W! W! W! W! W! 3= /+ 1= {+ {+ /^ )_ )_ /^ /^ /^ /^ {+ {+ {+ 1= 1= (^ :+ _+ ,+ !_ !_ 3= W! ,& 5= M# P# := ^) O/ <^ }( ~_ y{ {_ t; ]_ |^ Q/ ^_ ^_ N# M# K# 1) p, ,& ^+ /^ /_ S/ e^ <= #& y& i) (_ H; X' :- <- __ u# B, :_ <_ }; [_ u# {= :' }_ |_ %! 1_ /) z{ q= 5; 8; }) 3) 2_ ",
"3_ )> .( 4_ '' 5_ 6_ p~ 7_ 8_ 3# [; f{ 9_ 0_ &] a_ b_ g+ c_ k; g> d_ ;( e_ G~ f_ g_ h_ i_ [) <= j_ S/ k_ l_ m_ n_ o_ p_ p_ q_ r_ 4( m= s_ t_ u_ v_ w_ x_ y_ s_ z_ A_ +! B_ C_ D_ E_ N{ F_ G_ B. H_ I_ J_ K_ L_ M_ N_ =@ O_ P_ Q_ R_ m( S_ T_ U_ V_ W_ X_ ]% Y_ ${ Z_ Z_ v( `_  : |/ 1/ .: 8! +: C> @: #: F> K@ :% @. $: %: &: N@ |% C( *: =: -: ;: >: M> ,: ': ): !: ~: {: 7* ]: ^: /: (: T( _: :: :: B& S= $  +@ $  $  h% h% g% g% h% ,- ,- h% <: [: C* }: n$ .) |: 1: 2: 3: 4: 5: [- ;= S$ 6: 7: ;' 8: b  9: !; 8  0: a: b: h@ x! x! c: X$ <, d: e: f: g: h: 5' >( i: K, j: a] k: l: m: 5; }) <+ M# M# 5= L# p, p, W! W! 3= 3= 3= /+ /+ /+ 3= 3= W! W! W! W! W! W! W! 3= /+ /+ 1= {+ /^ )_ )_ )_ )_ )_ R/ R/ /^ /^ /^ {+ {+ I# |= |= n: o: p: 0; W! p, L# &~ 3) j_ j_ 1^ m, |) |= _+ 7; 7; <+ <+ }) }) (^ '& K# 1) W! 3= ^+ {+ /_ S/ l, := #& y& c_ q: x# r: 5^ s: [; t: Y/ u: v: v: w: x: 6> ++ y: z: b] $& M/ P# <+ 7; 7; <+ (^ }+ ",
"A: B: C: D: E: F: G: H: Z, I: J: K: L: M: N: t^ O: !( P: Q: R: S: T: U: T^ V: W: }( S/ X: F# F# Y: {_ :+ :+ |) m, Z: `:  < .< +< @< #< $< %< &< {^ {^ {^ *< 1' =< r{ U) i> -< ;< a) >< ,< '< )< !< ~< {< ]< ^< /< (< _< :< << [< }< |< 1< 2< 3< 4< 5< 6< 7< 8< 9< Y_ Y_ w] 0< a< b< c< d< e< .: D] f< g< G( h< i< i< j< k< l< x' m< n< o< p< q< r< s< d! t< u< v< w< x< y< z< A< B< C< D< E< F< G< S= S= H< I< H< -> J< #@ #@ @@ @@ h% g% K< K< L< M< N< O< 6: P< h# Q< R< `$ S< T< U< V< W< X< X< -' Y< h{ Z< `< `< N- `< Z< h{  [  [ +) #) +_ ]* .[ +[ @[ #[ B^ +! $[ %[ &[ o= *[ =[ 1^ (^ (^ (^ '& '& ,& 3= 3= 3= W! W! W! W! W! 3= 3= 3= 3= 3= 3= 3= W! W! W! W! W! W! 3= 3= 3= /+ {+ /^ /^ )_ )_ /_ /_ /_ -[ /_ ;[ /_ )_ >[ ,[ '[ )[ -& -& -& -& -& -& K# L# _+ _+ ,+ ,+ >+ >+ >+ ^+ ]+ ![ ![ >& >& b; b; -& 0; p: ~[ /+ X! ]+ {[ 3+ {& ][ B{ ^$ ^[ f= /[ {~ C! {= x: ([ _[ :[ <[ [[ }[ |[ 1[ z_ 2[ 3[ Y! (^ '& ,& ,& ,& ,& 3= ,& ",
"4[ 5[ 6[ d{ 7[ 8[ 9[ 0[ a[ b[ c[ d[ e[ f[ g[ h[ i[ !( z# j[ k[ l[ m[ n[ r_ o[ p[ q[ /^ r[ r[ y{ Y: {_ _+ :+ |) s[ t[ u[ .< v[ w[ x[ y[ z[ A[ B[ ]] C[ {] D[ E[ F[ X* G[ '] H[ ,' I[ J[ K[ L[ M[ N[ O[ P[ Q[ R[ S[ T[ >' U[ V[ W[ X[ Y[ Z[ `[ 3<  } .} +} @} #} $} |! Y_ w] %} &} *} =} d< e< -} ;} >} g< ,} '} )} !} ~} {} ]} ^} /} (} _} :} <} [} }} |} 1} 2} 3} 4} 5} 6} 7} 8} 9} 0} a} b} F< G< H< -> -> I< -> c} d} <: #@ => => e} f} g} h} i} j} k} 6: =@ l} U% O$ m} n} o} *) p} q} h# r} s} Y< t} >^ x! u} u} `< v} .) _, G! +_ w} x} y} z} ~> Y/ O! A} B} #! C} D} o= m= 6( 3[ /^ 1= 1= 1= /+ /+ 3= 3= 3= 3= W! W! W! W! W! W! 3= 3= 3= 3= 3= 3= W! W! W! W! W! W! W! W! W! 3= /+ 1= {+ {+ /^ /^ )_ )_ /_ ;[ )_ )_ /^ ,[ ,[ E} J# -& -& J# J# J# J# J# >+ >+ >+ >+ 0; 0; 0; >+ {+ /^ F} X! /+ 3= 3= W! ~[ ~[ 3= 3= /+ ^+ ]+ {[ j_ E{ ]& G} y& H} I} J} v^ 4^ U/ U/ y# K} L} M} N} O} P} Q} R} S} T} I# /+ 3= W! W! W! W! W! W! ",
"U} U} V} W} X} Y} Z} `}  | .| +| @| #| $| %| &| &| *| #$ =| -| ;| >| ,| q_ m_ p[ '| )| !| r[ ~| y{ x{ x{ 1^ S/ {| ]| ^| +< /| (| _| :| <| [| }| || 1| 2| R) 3| 4| w: 5| 6| 7| z} 8| ^* 9| 0| y. i] a| %< /| b| c| d| e| f| g| h| i| j| k| l| m| n| .} o| p| q| 8< |! r| t( s| t| *} =} d< /} .: ;} u| v| ,} G( )} !} w| {} x| y| 6! I] z| A| B| C| D| E| P@ F| G| H| I| J| K| L| M| N| F< O| _: T( I< c} c} c} %  ;> D* D* D* f% f% P| h} Q| R| S| T| ]; V~ l} $) U| u. ** t# V| (> :- W| k{ X| -@ J) Y| Z| `|  1  1 .1 +1 Z$ >; `' /* .] @1 #1 $1 #| %1 &1 P: 7] *1 *[ =1 -1 3[ 3[ S/ {+ 1= /+ /+ /+ /+ 3= 3= 3= 3= W! W! W! W! W! W! W! W! W! W! W! W! W! W! W! W! W! W! W! W! W! W! ,& ,& ,& ,& /+ /+ /+ /+ /+ /+ /+ /+ /+ !_ !_ ~[ >+ L# L# _+ _+ _+ :+ :+ (^ (^ '& '& ,& ,& p, 3= {+ /^ /^ {+ {+ 1= /+ 3= /+ /+ /+ ^+ ]+ ;1 {[ >1 }+ L, z{ `! ,1 '1 )1 !1 ~1 f; {1 ]1 ^1 /1 (1 _1 :1 <1 [1 (( }1 |1 {[ |= 3= W! W! W! W! W! 3= 3= ",
"11 21 M) W} 31 41 51  | c~ 61 Y, 71 81 h= 91 01 a1 b1 c1 d1 e1 f1 s_ ,| g1 h1 i1 '| )| !| !| r[ Y! k_ }( j1 V: k1 l1 m1 n1 o1 p1 q1 r1 s1 t1 u1 v1 w1 x1 y1 z1 A1 B1 ], C1 .[ D1 E1 i^ _* F1 G1 H1 I1 J1 K1 L1 M1 N1 7| O1 P1 Q1 R1 S1 (! l| T1 U1 5< V1 W1 X1 #{ Y1 r| 1! Z1 `1  2 .2 d! e< .: ;} +2 @2 ,} ,} i< h< f!  :  : #2 $2 1% %2 &2 *2 =2 -2 ;2 >2 ,2 '2 )2 !2 ~2 {2 ]2 ^2 /2 _: l/ l/ l/ (2 (2 c} %  ;> ;> $@ P| P| >> >> _2 R| :2 <2 s  [2 }2 l} 4[ |2 12 '~ 22 W. 32 Y) >~ 42 =* 52 62 72 82 92 02 a2 /, J[ b2 b2 -; c2 d2 e2 f2 g2 h2 i2 j2 ~^ k= P^ k2 p; q; l2 >1 =~ =~ 1= 1= /+ /+ /+ /+ 3= 3= 3= 3= W! W! W! W! W! W! W! W! W! W! W! W! W! W! W! W! W! W! W! W! W! W! p, q, p, p, p, p, W! W! W! W! W! W! W! p: p: 0; L# L# _+ _+ :+ :+ |) |) ;1 ;1 ;1 m2 n2 4= 4= n2 {+ /^ /^ {+ {+ 1= /+ /+ >& >& ^+ ^+ >1 >1 l2 >1 [+ )& ^_ o2 9& p2 q2 r2 s2 t2 u2 _) v2 w2 x2 6( ,| /( _( o_ -[ T} ^+ /+ 3= W! W! W! W! W! 3= 3= ",
"!> >] y2 w. ]> z2 %1 A2 B2 ]= t& C2 N[ D2 E2 F2 G2 c1 H2 I2 (& J2 K2 ^( L2 M2 N2 '| q[ r[ r[ O2 [( W: ^( P2 Q2 m1 @< R2 S2 T2 q1 U2 V2 V2 W2 X2 Y2 Z2 `2  3 .3 +3 @3 #3 $3 %3 &3 l^  = *3 =3 -3 ;3 F^ >3 ,3 '3 )3 !3 ~3 {3 ]3 ^3 /3 (3 _3 :3 T1 <3 [3 }3 |3 13 #{ Y1 r| 1! 23 33  2 43 53 e< 63 D] u| @2 ,} 73 h< h< f! k< {} 83 ={ 93 z- 03 a3 s< %2 b3 z' c3 d3 e3 f3 g3 h3 i3 j3 k3 l/ l3 l3 m3 n3 o3 %  %  p3 K< P| >> _2 q3 r  r3 <2 s  [2 s3 t3 u3 ;@ v3 u. ,~ 22 32 ;] .; v# ;< 5^ =) X% w3 x3 8| y3 ]- z3 A3 i^ :* j^ B3 C3 D3 {, X* E3 F3 x~ {^ G3 H3 :^ 3+ >1 m2 >& >& /+ /+ /+ /+ /+ /+ /+ /+ 3= 3= 3= 3= W! W! W! W! W! W! W! W! W! W! W! W! W! W! W! W! W! W! W! W! W! W! q, ]) q, q, q, q, p, p, W! W! W! W! W! p: p: 0; L# &~ <+ <+ }) }) e^ e^ 2_ }+ }+ [+ [+ K/ K/ K/ ;1 ;1 ;1 m2 m2 m2 n2 n2 n2 n2 m2 m2 >1 =~ 1^ =~ K/ {) [^ ~) 0& I3 J3 K3 L3 L3 M3 w= N3 O3 o2 && [( m_ o[ P3 )| 1= /+ b; W! W! W! W! 3= 3= /+ /+ ",
"7| e2 Q3 R3 S3 Y* T3 U3 %1 V3 x: +| W3 3' X3 Y3 ]^ k= R! Z3 `3  4 .4 r_ L2 M2 +4 P3 m, Y! ~_ [( g1 @4 #4 $4 %4 &4 *4 =4 -4 ;4 >4 ,4 '4 )4 !4 ~4 {4 ]4 ^4 /4 (4 #1 _4 :4 &3 <4 [4 }4 |4 A. 14 24 34 ;| 44 54 64 74 84 z. 94 04 a4 b4 c4 d4 e4 T1 f4 g4 h4 i4 j4 #{ r| ${ 1! 23 33 k4 l4 $2 6! -{ m4 u| @2 ,} 73 '} !} ~} {{ n4 o4 p4 m* q4 r4 z( s4 t4 u4 v4 w4 x4 y4 z4 A4 B4 C4 D4 k3 E4 F4 l3 G4 ;> %  g% g% 3  H4 I4 _2 q3 r3 J4 s} [2 s3 K4 @> L4 U% r# M4 N4 t# O4 Y) 2$ n& P4 y^ Q4 L{ )~ R4 ], S4 .[ k^ T4 U4 U4 #3 V4 /4 W4 X4 3| Y4 Z4 y: `4 H~  5 h_ 4+ 3) '& 4= *~ W! W! 0; 3= /+ /+ /+ /+ /+ 3= 3= 3= 3= W! W! W! W! W! W! W! W! W! W! W! W! W! W! W! W! W! W! W! W! W! W! ,& 5= 5= 5= ,& '& '& /+ /+ /+ /+ 3= 3= ~[ ~[ >+ L# &~ &~ &~ <+ }) }) }) r, 3) 3) N# N# M# M# M# m2 m2 n2 n2 n2 n2 n2 4= '& '& '& (^ (^ |) I# |) '& d, 7; .5 +5 W+ @5 #5 a& $5 N3 O3 P# Q/ 6; %5 y{ q[ /^ {+ |= ,+ 3= b; W! W! W! W! 3= /+ /+ /+ ",
"&5 *5 =5 -5 ;5 >5 ,5 r~ '5 )5 9~ y1 S~ !5 D^ ~5 G/ t_ {5 T^ ]5 ^5 /5 r_ <( [( }( k_ ~_ k_ <^ (5 _5 F^ :5 <5 [5 }5 |5 15 25 35 35 45 55 !4 65 75 85 W4 95 05 C3 a5 a5 b5 c5 V4 d5 z. e5 f5 g5 h5 i5 ^| j5 k5 l5 74 m5 n5 o5 p5 q5 r5 s5 d4 t5 u5 v5 w5 x5 y5 j4 #{ r| 1! z5 23 33 A5 B5 C5 $2 x' -} f< @2 ,} ,} 73 !} D5 n4 E5 F5 G5 '{ H5 I5 ;{ H> J5 w4 K5 L5 M5 N5 O5 P5 Q5 R5 S5 T5 U5 V5 l3 W5 g% &# &# &# X5 %# $# z/ r  r3 s} W< W< |, t3 L4 ;  U% Y5 _; =* t# O4 Z5 Z% Z. y^ Q4 `5  6 .6 +6 @6 *5 #6 $6 $6 /4 V4 9- %6 &6 *6 =6 -6 f+ ;6 >6 ,6 '6 )6 n; x{ :+ 3= W! W! W! p: p: 3= 3= 3= 3= 3= 3= 3= 3= 3= 3= 3= 3= 3= 3= 3= 3= W! W! W! W! W! W! W! W! W! W! W! W! W! W! W! 3= /+ (^ n, n, {+ /^ /^ /^ /^ /^ /^ {+ F} '[ E} !_ 3= ,& ,& ,& '& '& (^ (^ |) :+ :+ _+ _+ L# L# L# L# L# L# L# L# L# >+ 0; 3= >+ >+ >+ J# J# o: ;& !6 {_ Y: ~| =+ Z! S# n; *+ ^) E{ <~ j_ r, e^ }) {_ '& n2 4= L# L# p, b; p, p, p, p, ,& '& (^ (^ ",
"~6 -/ {6 ]6 ^6 q^ &/ Q) /6 /6 (6 (6 _6 :6 t_ 9] <6 <6 [6 }6 |6 16 26 j1 [( Z: 36 }( +4 o; :^ |6 46 56 66 76 86 96 06 /< a6 b6 c6 d6 55 65 e6 f6 g6 h6 i6 j6 05 a5 H% k6 W4 -/ l6 H_ m6 n6 o6 p6 i5 q6 r6 s6 t6 u6 v6 w6 x6 y6 z6 A6 B6 C6 t5 D6 E6 F6 x5 G6 H6 |! Y_ z5 z5 23 I6 J6  2 ={ $2 x' .: |/ v| G( ,} K6 h< D5 n4 {{ L6 M6 J( N6 O6 J( z( P6 Q6 R6 S6 T6 U6 V6 W6 X6 Y6 Z6 `6  7 .7 l/ +7 &# ,- K' &# 1. |. $# z/ r  r3 s} W< W< |, |, t3 ;  @7 )= (; N4 2# O4 >~ 5^ #7 ^> 31 $7 %7 .6 +6 &7 *7 z. 9# 8# 9# =3 ]4 =7 =7 6# -7 z~ ;7 >7 ,7 '7 )7 l: Z! x{ :+ /+ 3= W! W! p: p: 3= 3= 3= 3= 3= 3= 3= 3= 3= 3= 3= 3= 3= 3= 3= 3= W! W! W! W! W! W! W! W! W! W! W! W! W! W! W! 3= /+ X! {+ {+ /^ )_ /_ /_ -[ -[ /_ /_ ;[ >[ >[ !7 '& ,& ,& ,& '& '& n, n, |) |) :+ :+ :+ _+ _+ L# =& =& =& =& =& =& ~7 ~7 >+ >+ >+ -& o: {7 {7 ]7 '+ ^7 ~+ ~+ '| p[ l_ l_ [( +4 }( S/ T} T} {[ ]+ _+ 4= b; b; p, 1) p, b; p, p, p, ,& '& (^ n, n, ",
"=7 /7 {4 (7 _7 :7 <7 <7 [7 }7 |7 }| 17 27 _5 }6 37 37 O^ O^ 47 r_ j1 j1 57 57 }( +4 [( 67 *[ S^ 77 87 97 07 a7 b7 c7 d7 e7 f7 g7 f5 f5 h7 75 i7 f6 j7 k7 l7 m7 n7 o7 p7 h7 q7 r7 =/ s7 t7 u7 v7 w7 x7 y7 z7 A7 B7 C7 D7 E7 F7 G7 H7 I7 J7 K7 L7 M7 p- N7 O7 P7 Q7 Y_ z5 O  R7 S7 T7  2 U7 V7 53 x' 4% @2 73 W7 K6 73 f! {} {{ L6 X7 Y7 Z7 `7 J( 9! @2  8 .8 +8 @8 #8 $8 %8 &8 *8 =8 -8 ;8 >8 j$ j$ $  ,- ,- >- I< |. }. ,8 '8 ~- )8 !8 s} {; {; |, ~8 {8 k{ ]8 ^8 /8 &* __ _- u# (- [_ (8 (8 _8 C2 7# F% -/ :8 :8 a( <8 [8 }8 |8 |8 <[ 18 :6 >7 G/ >| 28 47 38 l2 ;1 ^+ >& b; b; *~ *~ 3= 3= 3= 3= 3= 3= 3= 3= 3= 3= 3= 3= 3= 3= 3= 3= W! W! W! W! W! W! W! W! b; W! J# >+ b; b; 3= ]7 48 58 >& X! '[ /^ )_ 68 78 S} 88 98 08 a8 a8 b8 :+ &~ 7; 8; *& *& =+ =+ 2+ j_ j_ e^ F# [= [= c8 <+ &~ &~ &~ 7; 7; (+ (+ d8 -+ e8 f8 e8 J# >+ 3= |= |= !7 ,[ ,[ >[ g8 g8 h8 |1 i8 i8 j8 j8 k8 l8 /+ p, p, p, p, p, p, p, p, p, ,& ,& '& (^ n, n, ",
"m8 m8 n8 o8 :7 X2 p8 q8 r8 |7 s8 t8 u8 u_ k: O^ 3( v8 (5 O/ w8 W: Z: Z: Z: [( M2 x8 {| k: y8 z8 A8 B8 C8 D8 g7 E8 F8 F8 G8 H8 I8 J8 e6 D. F% 85 85 85 g( =3 ]4 K8 <8 L8 M8 W2 N8 O8 P8 Q8 R8 S8 T8 T8 U8 V8 W8 X8 Y8 Z8 `8 e@  9 .9 +9 J7 K7 L7 @9 #9 $9 %9 &9 *9 ${ =9 O  R7 S7 T7 k4 V7 e< ){ d< s< v| ,} -9 -9 ,} ;9 >9 n4 o4 X7 ,9 Z7 '9 c! -} )9 !9 ~9 {9 @8 ]9 ^9 /9 (9 _9 :9 <9 [9 F< 2. 3. }9 #, 1. %  p3 |9 19 |@ 29 ,> 39 49 59 69 W< =@ 79 _< X| )= (; l{ 89 &* 7^ a) 99 w. _8 +6 +6 _8 7# 09 l6 a9 /7 b( !4 )4 b9 c9 o8 d9 e9 c1 k[ |] S^ }6 O^ 67 }( m, )| |= E} !_ ~[ ~[ 3= 3= 3= 3= 3= 3= 3= 3= 3= 3= 3= 3= 3= 3= 3= 3= W! W! W! W! W! W! W! W! *~ 3= J# ,+ >& >& /+ J# o: o: f9 f9 E} ,[ g9 h9 i9 j9 k9 L^ @4 l9 l9 |6 m9 n9 ,_ $& ^^ &+ U# C# o9 o9 o9 p9 q9 q9 b, N/ {( r9 s9 $& $& $& *+ 5+ t9 u9 v9 3+ 4+ l, Y! F# x{ x{ y{ ~+ w9 x9 g9 y9 z9 A9 A9 x9 ,[ ,[ /^ {+ 3= p, p, p, p, p, p, p, ,& ,& ,& '& (^ (^ n, n, ",
"V2 B9 C9 D9 E9 C9 |5 :| F9 G9 H9 {^ I9 28 g1 q_ t[ J9 Z: [( K9 }( }( +4 +4 J9 x8 L9 M9 N9 >7 u8 O9 P9 O8 Q9 R9 S9 T9 U9 V9 o7 W9 X9 e6 Y9 Z9 j7 `9 e5  0 X9 Q9 @/ r7 15 15 07 07 86 .0 +0 @0 #0 $0 %0 &0 *0 =0 -0 ;0 d| >0 ,0 '0 )0 !0 ~0 K7 L7 @9 {0 ]0 ^0 /0 *9 ${ =9 (0 _0 I6 :0 <0 [0 }0 6/ I] |0 g< G( 10 10 ,} w| {{ E5 o4 20 30 ,: s' }0 40 50 60 70 80 90 00 <! a0 b0 c0 d0 e0 f0 g0 h0  , K' 1. i0 j0 k0 g@ l0 m0 t} &@ n0 39 6: r} o0 p0 q0 {8 B/ r0 s0 t0 89 %* u0 v0 v0 w. B1 )' w0 C2 x0 {, y0 G1 Y2 z0 */ A0 B0 C0 [7 D0 E0 #$ =| F/ Z3 F0 _^ p= 67 P/ ~_ y{ ~+ H# !6 ,+ 3= W! W! W! W! W! 3= 3= 3= 3= /+ /+ /+ /+ /+ 3= p, p, p, p, p, p, ,& ,& ,& _+ (+ :+ (^ m2 (^ ,+ G0 H0 I0 J0 ![ /^ l_ K0 N^ >| L0 ]^ c1 #$ M0 e] N0 N0 N0 O0 P0 Q0 R0 S0 T0 T0 T0 T0 T0 U0 U0 V0 W0 X0 V0 Y0 Z0 `0  a .a +a @a #a &! %! $a %a &a *a =a E{ P/ Z! ~_ p[ g9 -a ;a >a ,a E} E} !_ !_ ,& 5= 5= 5= 5= 5= 5= 5= M# M# M# N# N# 3) 3) 3) ",
"'a )a _| !a *0 -4 ~a 76 {a ]a i5 ^a )7 K0 Z: [( x8 /a ~_ ~_ s[ N2 N2 +4 O2 M2 J9 {| (a _a :a 17 <a [a }a /7 |a 1a m7 T[ T[ A. 2a d| Z8 W4 95 W4 3a  3 m] q7 r7 W2 4a 07 5a 6a 6a 6a 7a 8a 9a 0a aa ba K} -7 ca da !3 ea fa ga ha ia ja ~0 ka la ma na oa pa c* qa d* ra O  _0 _0 sa J6 }0 [0 ){ 6/ ta +2 G( 73 73 ,} w| E5 E5 L6 }/ p4 +: -} =} ua va wa xa ya _} za Aa Ba Ca Da Ea Fa Ga Ha Ia F< Ja Ka La Ma Na Oa 49 Pa ~- O< Qa r3 W< Ra O% I$ #*  _  _ L$ .( 89 &_ m~ N) 6| w. Sa Ta )' +6 {, x0 #| Ua 0( g] '5 t1 [a || Va Wa Xa @$ g+ Ya j[ Za `a F0  b .b 67 +4 k_ q[ )| I# ,+ 3= W! W! W! W! W! 3= 3= 3= 3= /+ /+ /+ /+ /+ /+ ,& p, p, p, p, ,& ,& '& _+ :+ :+ |) n, >1 =~ n, |= !_ X! ]+ l2 p; ;_ +b @b #b $b %b &b *b =b -b ;b >b ,b ,b 'b 'b )b )b !b ~b {b {b ]b ^b /b /b (b (b _b :b <b [b }b |b 1b 2b 3b 4b 5b 6b 7b 8b 9b 0b ab bb cb db W^ 4( 3[ eb T} fb ]+ X! !_ ,+ '& M# M# M# M# M# N# N# N# N# N# 3) 3) 3) 3) 3) ",
"gb hb ib jb kb _| _| lb mb nb ob 28 l: M2 o[ l_ pb qb r[ r[ rb !| r[ N2 +4 Z: Z: W: }6 sb 17 A[ t~ tb z2 ub *6 vb wb wb xb yb 2a d| vb b5 zb j6 d5 :8 y0 Ab Bb Cb Cb 5a 7a Db S[ Eb Fb Gb Hb Ib s^ Jb Kb Lb Mb 7a Nb J_ Ob Pb Qb Rb Sb Tb S_ Ub Vb Wb Xb pa r> (/ Yb (0 ^% _0 _0 sa J6 /} V7 -{ ){ Zb >} ,} 73 73 ,} w| E5 E5 `b }/ #2  c .c +c @c #c $c %c &c *c U6 =c -c ;c >c ,c 'c )c !c 4{ Z> Ka ~c {c [2 ]c ^c /c =@ (c J4 O< J4 _c _< X| J! B: :c e: <c [c }c v0 f2 '] +[ {> b) L{ |c 1c 2c 3c 4c 5c 6c '! A^ 7c s^ =< |' |' 1' 8c 9c 0c ac ^$ bc 5& R{ p= cc p; q; 1^ =~ n, (^ 3= W! W! W! W! W! 3= 3= 3= 3= /+ /+ /+ /+ 1= /+ ,& ,& ,& ,& ,& '& '& (^ :+ n, n, =~ =~ m, 1^ 1^ 2+ 4+ dc >_ ec fc gc %b hc ic jc kc lc mc nc oc pc pc qc rc sc tc uc vc wc xc xc yc yc zc zc Ac Bc Bc Bc Cc Ac Dc Ec Fc Gc Hc Ic Jc Kc Lc Mc Nc Oc Pc Qc Rc Sc Tc Uc 1& +b ;_ W^ o; n; j_ r, }) r, r, r, r, r, r, 3) 3) 3) 3) 3) 3) 3) 3) 3) 3) ",
"Vc Wc Xc ib ib kb kb Yc Zc `c  d .d 4+ l_ P3 p[ +d @d #d ~| $d !| r[ ~_ k_ 3[ 3[ %d &d nb *d =d -d v1 9~ ;d e6 >d ,d yb 'd 'd 2a p7 l7 )d !d ~d {d 9# E. ]d ^d /d ~a 5a 7a !3 (d _d :d Cb }| *d d+ <d [d Lb M8 P8 }d |d g: 1d 2d 3d 4d 5d 6d ,% 7d Wb 8d 9d j' 0d ad ^% bd cd R7 sa J6 $2 U7 m4 d< dd f< ,} 10 73 73 ;9 ed E5 fd }/ gd hd id jd kd |3 ld md nd od pd qd rd sd td ud vd wd !c U- xd yd zd Ad Bd Cd Cd Dd Ed V< `( s} r} -@ B: Y5 52 6[ /8 [c __ }c /- Fd +[ Gd 4# Hd Id 4# Jd 2c 3c Kd Ld Md Nd D~ ,) Od 1' Pd Qd Rd Sd Td Td i, ac ac 8+ $~ Ud _~ Vd Wd !& Xd ;1 n, (^ 3= W! W! W! W! W! 3= 3= 3= 3= /+ /+ /+ /+ 1= 1= '& ,& ,& ,& '& '& (^ n, n, >1 >1 l2 m, ~_ k_ o; k2 a, Yd .a e> Zd `d  e .e +e @e #e $e %e &e *e =e =e -e ;e >e ,e 'e )e !e !e ~e {e ]e ^e /e (e _e :e <e <e [e }e |e 1e 2e 3e 4e 5e 6e 7e 8e 9e 0e ae be ce de ee fe ge he %| ie je o9 N/ $& v= <~ 3+ 3+ 3+ 3+ j_ j_ j_ j_ r, r, r, 3) 3) 3) 3) ",
"ke le me ne b| jb oe pe qe re 3( Z! r, p[ P3 i1 se se te ~| ue ~| r[ k_ S/ 3[ 3[ 4( T^ ve || -d we xe }a q7 ye ze Z8 C. Ae p7 d| Be m7 Ce De Ee Fe Ge H_ */ xe He Ie Je n6 Ke Le Me Ne Oe Wa aa Pe ++ O! 0( l] Qe Re Se Te Ue Ve We Xe Ye Ze `e  f na .f r> 9d s( +f @f #f $f R7 :0 <0 $2 p4 ;} d< %f 4% 73 -9 73 10 f! E5 n4 x( 20 x( &f *f =f -f ;f >f ,f 'f k4 )f !f ~f {f ]f ^f /f (f _f +, :f <f .^ [f }f |f 1f #- 2f $) L4 {; Ra  _ L$ W% =* 89 __ 3f =) [; X) 4f 4# Y/ 5f t& 6f o& &% 7f ~~ 8f #; 9f 0f af bf J, cf 8+ df ef ff gf hf H{ -~ -~ if jf kf v2 lf mf nf of 3) <+ _+ 3= W! W! W! W! W! 3= 3= 3= 3= /+ /+ 1= 1= 1= 1= '& '& '& '& (^ (^ n, n, >1 Xd pf qf ~_ O2 +4 O^ M0 $b rf sf tf uf vf wf xf yf zf Af Bf Cf Df Ef Ff Gf Hf If Jf Kf Lf Mf Nf Of Pf Qf Rf Sf Tf Tf Uf Uf Uf Vf Wf Xf Yf Zf `f  g .g +g @g #g [e $g %g &g *g =g -g ;g >g ,g 'g )g !g ~g {g ]g ^g /g 8= n; n; n; n; n; n; 3+ 3+ j_ r, r, 3) 3) N# N# ",
"(g _g :g <g [g [g }g @< |g 1g 67 l, 2_ m, /_ w9 se 2g 3g 4g ue y{ Y! }( 57 r_ 5g 6g 7g 8g -3 q8 9g <7 0g #/ m6 ag bg cg cg I8 dg eg T[ fg gg hg ig <8 jg kg lg o6 mg ng !3 og pg qg rg sg [[ s{ 9, tg ug vg wg P9 xg yg f) zg Ag Bg Cg Dg Eg Fg Gg na Hg Ig Jg Kg Lg Mg Mg Ng cd Og U7 6! p4 ;} ){ Pg a3 @2 g< v| g< f! E5 n4 gd #2 Qg &f *f Rg jd y5 Sg Tg %} Ug Vg !f Wg Xg Yg td Zg `g  h .h +h ]; U% @h #h $h %h &h &) *h =h -h p0 J. N4 K{ ,~ &_ }c V/ s: X' D! ;) 5f w# H; ;h >h J{ ,h {~ ]~ Z, c~ ~] 'h w& )h Q: !h A# ~h (& {h M; ]h Q: i, -~ ^h df `3 _) /h (h _h 1+ 3) 8; :h 5= q, q, p, ,& '& '& 1= /+ /+ /+ /+ /+ /+ /+ /+ /+ (^ (^ n, =~ S/ n; o; =[ S{ O; <h [h }h |h 1h 2h 3h 4h 5h 6h 7h 8h 9h 0h ah bh ch dh eh fh gh hh ih hh jh kh lh lh mh nh oh oh ph qh rh sh th uh vh wh wh xh yh zh Ah Bh Ch Dh Eh Fh Gh R1 Hh Ih Jh Kh Lh Mh Nh Oh Ph Qh Rh Sh Th Uh Vh Wh Xh Yh %! %! $a k, b] &+ 8= {& <~ j_ r, r, n, n, n, ",
"Zh `h  i k5 .i +i @i #i N^ .b o; 4+ $i s[ N2 Y! ~| %i 9; :+ ;1 x{ ~_ <( n[ &i *i m1 =i tb -i _7 #/ r7 Ab ;i 55 N1 J8 >i >i ,i Le 'i )i !i ~i yb f5 t7 {i b| (g ]i ^i /i ;0 >i (i d7 =3 #/ R) <' _i i= :i <i [i P[ }i #+ |i 1i 2i 3i |e 4i 5i 6i Gg 7i 8i 9i 0i ai bi ci di ei fi gi hi V7 ii <0 ji ki li ;2 mi E5 Qg ni }} oi pi qi qi ri si ti ui vi wi xi yi zi Ai Bi Ci Di Ei Fi Gi Hi Ii Ji Ki Li Mi Ni Oi Pi =* Qi Ri Si Ti  ) Ui o5 Vi ** 2# &* Wi Xi Yi .3 6, Zi 81 `i  j C, .j +j @j W) y) #j !] A^ b~ $j x+ %j |' y: Pd &j P: *j =j Qd Rd ac *$ -j `3 y= ;j d$ ,_ m: 5; 8; >j g$ ,j ,j g$ X+ q= l, m, )| |= /+ 'j 'j f9 H0 )j !_ {+ T} eb r_ |6 !j ~j {j z; ]j ^j /j (j _j :j <j [j }j |j 1j 2j 3j 4j 5j 6j 7j 8j 9j 0j aj bj cj dj ej fj fj gj gj gj hj ij ij ij ij jj jj kj lj mj nj oj pj qj rj sj tj uj d/ vj wj xj yj zj zj Aj Bj Cj Dj Ej Fj Gj Hj Ij Jj Kj Lj Mj Nj Oj Pj Uh Qj Rj Sj X0 y; Tj b& Uj E# j_ 1^ )| {[ Vj ",
"Wj  i Xj Yj Zj `j `: r_ 67 .d P/ 38  k /a K9 N2 !| #d 4g y{ m, N2 L2 n[ J^ |g .k +k @k W2 q7 q7 !4 !4 ea N1 N1 (d (d #k #k $k %k %k &k *k vb ;i g5 hb =k me -k ;k >k -0 ,k (d 'k R9 )k !k ~k b~ i= ./ {k .! e9 ]k ^k /k ]h (k _k :k <k [k }k |k 1k 2k 8i C( 3k ai 4k 5k 6k 7k 8k C] 9k ji 0k J6 ii pd ak  2 bk ck xi ni }} dk pi qi ek &f fk &f gk Zb  c hk ik jk kk lk mk nk ok pk qk rk sk tk uk $) Oi vk *3 wk L$ Ri xk yk Li  ) ); Y5 V. K{ [c zk Ak #3 Bk 8- Ck 6, Id p& B+ Dk Ek Fk Gk Hk q{ Ik !] A^ P~ b~ A~ 7c Jk s^ e+ Kk Lk Mk Qd Rd ^1 Nk Ok -j Pk Qk Rk Sk ,_ && 5; 8; >j ,j Tk Uk Vk Wk e$ := 4+ =~ |= !_ f9 f9 'j Xk ![ ^+ n, k_ .b Yk ^k .! Zk rf `k  l .l +l @l #l $l %l &l *l =l Lf -l ;l >l ,l 'l )l !l ~l {l ]l ^l /l (l _l _l :l :l <l <l <l <l [l }l |l 1l 2l 3l 4l 5l 5l 5l 5l 5l 6l 6l 7l 8l 9l 0l al bl cl dl el fl gl aj ij hl il jl kl ll ml nl ol pl &e ql rl sl tl ul vl wl xl yl zl Al Bl 8& u9 q; l2 pf ",
"Cl Dl El Fl Gl k9 V: 4( <( M2 O2 Hl Il Jl /a K9 s[ Kl Kl O2 [( Ll M^ Ml Nl Ol Pl Ql Rl 7a D8 ;i 55 N1 Sl (d (d Tl Tl Tl Tl Ul Vl Vl Wl Xl Yl Nb 9a Zl `l  m .m +m @m #m Db !3 N1 ea !4 }a $m ,) >( |_ {k P! %m &m d1 Za *m =m -m Qh <k ;m }k |k 1k >m 8i ,m 'm )m !m ci ~m !m {m 20 ]m 0k <0 T7 <0 ^m /m l4 (m _m xi :m }} dk Qg qi <m [m }m [m |m 1/ 1m 1m C5 2m 3m 4m 5m 6m 7m 8m 9m 0m am bm cm dm em fm E! gm N$ hm im jm B: a2 I& km ^8 >] >] e| ^, T4 +( [4 lm R4 B, v# mm nm om pm ^~ qm Hk ug c+ A^ c+ rm sm O[ tm tm x~ v~ um vm wm %$ &$ &$ Ok xm ym Tj zm 2; Am [) 8; (+ d, Bm g$ Y+ f$ W+ := 4+ l, n, ,+ J# o: Cm {+ {[ fb [+ f$ T! Dm G2 Em Fm Gm Hm Im Jm Km Lm Mm Nm Om Pm Qm Rm Sm Tm Um Vm Wm Xm Ym Zm `m  n .n +n @n #n $n %n &n *n =n -n -n ;n >n -n ,n 'n )n !n ~n {n ]n ]n ]n ^n /n (n _n 6l 7l :n <n [n }n }n |n 1n 2n 3n 4n 5n 9j hj 6n 7n 8n 9n 0n an bn cn dn en fn gn hn in jn kn ln mn nn on pn qn rn sn tn ",
"un vn wn xn yn zn An -1 W: [( [( x8 Bn Jl x8 M2 M2 t[ t[ Cn n[ Dn l1 En Fn Gn Hn In Jn 7a 25 55 f5 Ke og 'i 'i %k Kn Ln Mn Nn Nn On Pn Qn Rn 9a Sn Tn Un Vn Wn .m Xn Yn Je 7a Nb Ab N8 v1 E[ E0 Zn `n  o f+ .o +o _1 -| 0c @o #o $o %o &o *o =o -o ;o >o ,o 'o )o !o ci ~o bd {o 20 ]o J6 J6 T7 T7 Ug pd 40  2 a< xi Qg }} }} Qg ek od si &f &f |m hd s< ^o /o (o _o :o <o [o }o {f |o 1o Jf 2o 3o 4o 5o 6o h^ 7o V% 8o 9o 0o J. ao `= bo 21 l~ co do eo fo B3 go ho ], )~ 4f y^ io F, ^~ jo ;! ^~ Y4 P~ ko A^ rm R~ _6 N~ O[ C[ lo um mo no oo <) <) {h T+ c] po qo s9 && F# 8; L# L# &~ &~ }) e^ l, l, l, }) <+ (+ (+ {_ Y! S# q_ D# ro )$ so V0 to uo vo wo xo yo zo Ao Bo Co Do Eo Fo Go Ho Io Jo Ko Lo Mo No Oo Po Po Qo Qo Ro So To Uo Vo Wo Xo Yo Yo Zo `o `o `o  p .p +p +p @p #p ]n $p %p &p *p =p =p ^n -p ;p >p ,p 'p )p !p ~p {p {p ]p ^p /p (p _p :p <p [p }p |p 1p 2p 3p m> 4p 5p 6p 7p 8p 9p 0p ap bp cp dp ep fp gp hp ",
"ip jp kp lp mp np An 88 op o_ op p_ pp qp t[ g1 ^( n[ L^ &i H^ m1 .k Pl M} [[ rp sp tp up da S[ ,k Tl Kn vp wp xp yp zp Nn Ap X8 Bp >k R[ Hb Cp Dp Ep *i Fp Gp Hp Ip Xn p1 /d /d s1 lg Jp d+ Kp G2 +a Lp 2' Mp O} Np H~ #$ Op Pp Qp Rp Sp *o Tp -o Up >o Vp ki Wp +f Xp Yp Zp `p  q 2/ :0 J6 J6 T7 0k ^m .2 43 (m .q Qg pi pi Qg qi od id |m si si |/ hd s4 +q @q #q $q %q &q *q =q -q ;q >q ,q 'q )q !q p$ g~ ~q $) {q ]q ^q /q (q _q :q <q [q L% }q |q |q fo #1 @( ho 8^ b) P4 1q 2q 6' #b B^ [' A} A~ Q~ h> rm R~ 3q 4q *d 5q lo um 6q Za e1 df 7q y& L~ 8q !) {( ,_ [) }) _+ >+ >+ I# )| m, m, m, l, }) <+ 9q [^ ^_ e$ ^^ 0q ~j aq bq cq dq eq fq gq hq iq jq kq lq mq nq oq pq qq rq sq tq uq vq wq xq yq zq zq Aq Bq Oo No Cq Dq Eq Fq Gq Hq Hq Hq Iq Jq Kq Kq Kq Kq Lq Lq Lq Lq Mq Nq Oq Pq Qq Qq Pq Pq Rq Sq Tq Uq Vq Wq Wq Xq Yq Zq `q  r .r +r @r #r $r %r &r Lo *r =r 8j -r ;r >r ,r 'r Hi )r !r ~r {r ]r ^r /r (r _r :r <r ",
"jp [r }r |r 1r 2r 3r 98 4r 4r }1 o_ 5r qp 6r ^( 5g #i l1 7r %4 8r 9r In 0r ar D9 ng >4 B9 br cr dr Tl er wp fr gr hr ir Ap jr kr lr mr nr or pr qr J^ Ml rr sr tr Hp ur pe vr wr @k xr yr v~ ;7 ie ie zr B} ;6 Ar Br U: zr Cr Dr Er Fr Gr Hr Tp Ir Up >o Jr Kr Lr 2k Mr Nr O  Or #2 2/ (m <0 0k T7 J6 Pr .2 =} A5 (m Qg Qg Qg Qg ni od ri si Qr Qr >} f< Rr I] ak Sr Tr %q Ur Vr Wr -q Xr Yr Zr `r  s .s +s @s #s $s N& ^q %s o^ #= &s *s L% =s =s += -s ;s  = >s ,s #( 's t: Y/ 9^ )s :i Uc !s ~s x+ }& D~ h> R~ f] %] {s ]s ]] ^s /s j[ N; 7q jf (s _s :s <s [s }s i_ F# :+ _+ >+ ,+ ,[ >[ g8 q[ m, x{ }) Q/ |s 1s 2s r+ y; V0 3s 4s 5s 6s 7s 8s 9s 0s as bs cs ds es fs gs hs is js ks ls ms ns os ps qs rs qs ss ts us vs ws xs ys zs As Bs Cs Ds Es Ds Fs Gs Gs Hs Hs Is Js Ks Ls Ms Ns Os Os Os Os Ps Qs Rs Ss Ts Rq Us Vs Us Ws Xs Ys Zs `s  t .t +t +t @t J  #t $t %t &t *t =t -t @n ;t >t ,t 't )t !t ~t {t ]t ^t /t (t _t :t ",
"<t [t }t |t 2r 1t 2t 4r 08 3t 4t 5t 6t 7t Ll n[ #i 8t Ep 9t 0t at bt D9 b9 ct dt Db et =0 ft gt Vl ht hr gr it jt kt lt mt nt ot pt qt rt st tt 2( 5g ut 6g &i .< vt qe wt xt yt zt At u~ /s Bt Ct #a M~ Q! *< Ar Dt Et R^ Ft }b Gt Ht It Jt Kt Ir Lt >o e! wi Mt Nt Ot Pt O  Qt #2 2/ (m 0k ji J6 T7 ji 40 ki B5 Rt Qg Qg Qg pi :m <m si [m }m fk u| u| a3 63 St Tt Ut Vt Wt Xt Yt Zt `t  u .u +u @u #u $u %u &u *u *h =u -u ,] ;u >u c2 ,u .= 'u 'u )u #1 *; &5 !u 's ~u Z2 {u )! ]u B_ zr ') (~ ^u /~ 7c d+ &] sm /u (u ]s ]] ^s ;3 _u (s (s V# c$ :u <u [u }u |u 1u *& :+ '& >+ !_ '[ ,[ >[ )| x{ }) ^_ f$ Wk 2u 3u 4u 5u 6u 7u 8u 9u 0u au bu cu du eu fu gu hu iu ju ku lu mu nu ou pu qu ru su tu uu vu tu wu xu yu zu Au Bu Cu $p Du Eu Fu Gu Hu Hu Gu Iu Iu Iu Ju Ju Ku Ku Ku Lu Mu Nu Nu Ou Ou Pu Qu Pu Rs Ru Su Tu Uu Su Vu Wu Xu Yu Zu `u `u  v Jg .v +v @v Vs #v $v qs ss %t %v *t *t &v *v =v -v ;v >v ,v 'v )v !v ~v {v ",
"]v }t ^v /v (v _v 2t :v <v [v 5t }v |v 1v 2v M^ K^ l1 +< Tn 3v p1 q1 B9 4v 5v Fb !3 6v 7v 8v 9v ir 0v hr av bv cv dv ev fv gv hv iv jv kv lv mv 47 j1 nv r_ y_ ^| Ep ov n1 /] pv qv rv #< |[ d1 z: z: #! *< sv |g tv &i $! uv vv wv xv yv zv Av Bv Cv >o Dv *c @{ Aa Ev Pt ${ Fv Gv 2/ (m ii Ug <0 T7 0k 43 =} l4 Hv Qg :m Qg pi Qg <m &f }m Iv fk f< f< l< -} St Jv Kv Lv Mv Nv Ov Fi J7 Pv Qv Rv Sv Tv Uv Vv Wv Xv Yv Zv G. H[ `v }q j^ go  w .w +w @w &5 !u #w $w Z2 4| 61 A2 i2 %w M0 M~ l; &w @+ D2 s{ d+ 7c D[ *w ]] ]] =w /s -w O= V# ;w c$ U+ _= w{ >w ,w 'w 1u *& :+ '& ,+ ,+ '[ '[ ,[ )| x{ <= e$ ro )w !w ~w {w ]w ^w /w (w _w :w <w [w }w |w 1w 2w 3w To To 4w 5w 6w 7w 8w 9w 0w aw bw cw uu dw ew uu uu fw gw 6l hw iw jw kw lw mw nw ow pw pw Iu Ju Ku Ku Ku qw qw qw rw sw tw uw uw vw ww xw yw xw zw Aw Bw Bw Cw Cw Tu Vu Dw Ew @v Fw Tu Tu Gw Hw Iw Jw Ig Kw Lw Mw Nw Ow Pw Qw Rw Sw Au Tw Uw /l Vw qh Ww Xw !t Yw Gf ",
"]v Zw `w  x .x 2t +x <v 4r 4t @x #x 6t 1v $x %x &x +i *x =x pe -x ;x B9 ng Db et >x /i 7v ,x 'x )x !x ~x cv {x ]x ^x /x (x _x :x <x [x n[ 67 <^ S# 4+ S# :^ k2 f1 }x |x |[ $< 1x Ol 2x 3x 4x d1 z: z: 5x 6x 3x _] Q2 J^ I2 7x 8x 9x 0x ax c4 bx cx +t dx ;2 ex Lr fx Ev gx 1! hx Gv Z  A5 T7 J6 ii 0k J6 |} ki 43 A5 :m :m ek <m ek ni Qr [m fk }m +2 +2 hk Gv J6 ix jx kx D@ lx Gg mx nx ox px qx rx sx tx ux vx wx L) xx yx lm F1 zx c5 Ge Ge ^4 ^4  3 Ax 6# G1 0( )5 Bx T) N~ Cx e9 1& Z/ 5x Dx %m t{ s^ Jk lo lo w~ a| ve $< 4x Ex 6&  ~ c^ w2 #& h_ Fx Gx Hx 1u x{ =~ |) {_ Ix Jx ^+ 1= Y: l, c; A{ Kx Lx Mx Nx Ox Px pc Qx Rx Sx Tx Ux Vx Ko $n Wx Xx Yx Zx `x 9w  y yq yq yq us 8w 8w .y +y @y #y $y %y %y &y Rq 5< *y =y -y ;y >y ,y 'y Mu Mu uw )y )y tw ww ww ww ww ww sw sw !y ~y {y ]y ^y /y (y _y :y <y Bw [y }y |y 1y 2y 3y 4y 5y 6y /y 7y zw xw 8y 8y 9y 0y ,y ay by cy dy ey fy ;p gy hy iy Nq jy ky ly my ny oy py qy ",
"ry sy ty uy vy <v wy wy xy yy zy Ay By Jl qp 2v `j Dn Cy Dy wt S2 Ey Fy Gy tp ,4 84 Pn X8 Hy ev Iy Jy Ky Ky Ly My u6 Ny Cl Oy Py xn zn <( P/ 4+ l, l, := {& k2 Qy A_ Ry 1x 1x 1x +o Sy 3x 4x }x A_ d1 &m 3x 3x Ty Uy #i C} >( Vy Wy Xy Yy Zy `y  z .z +z ;2 Vp Lr Aa @z Zp ra #z #2 ]m J6 T7 J6 ii 0k J6 B5 40 .2 B5 qi :m qi <m <m qi $z Qr fk }m +2 +2 hk hk k4 %z &z *z =z I  -z ;z >z ,z 'z )z !z ~z {z ]z ^z /z (z p^ +6  3 a5 Fe ^4 a9 _z m] :z T~ y1 9~ <z R) 1| [z s{ e9 }z +! bc |z F/ @! B} 1z z~ e+ v~ v~ ;3 2z 3z 4z 5z %[ b] #& 9= S{ :~ o; 6z 7z 8z X: l2 9z x{ 0z ~| F# }) 2_ az bz cz dz ez fz gz hz iz jz kz lz mz nz oz pz qz rz pu sz tz uz vz wz aw .y .y xz xz xz 7w yz 7w zz Az Bz Cz $y Dz @v Ez Fz Gz Hz Iz Jz Kz Lz Qs Qs Lz 'y Mz Mz tw tw ww ww ww ww ww ww vw ~y Nz ]y xw yw 6y Oz Pz Qz E( Rz Sz Tz Uz Vz Wz Xz Xz Yz Zz Zz `z ~y  A .A +A @A #A $A %A &A *A *A =A .} Lz Ou Ju Iu Hs -A ;A >A ,A 'A )A !A ",
"~A {A ]A ^A vy wy /A (A _A (A :A <A [A M2 M2 <( `: l9 J^ *i }A Tn ur *4 |A 1A )a 2A 3A 4A 5A 6A 7v ft 7A 8A 9A 0A [g  i aA bA cA j9 <( ~_ Y! e^ e^ q= := {& dA %a #! ;6 6x |[ eA fA gA hA 3x 1[ d1 iA ;6 qv qv jA Fp k1 |( {k kA lA mA nA oA pA qA rA sA A5 |} Lr )o tA #f =9 uA }/ ]m T7 :0 J6 ii ii <0 k4 |} li S@ <m :m :m ek <m ek $z vA =2 wA +2 +2 +2 hk |} T7 xA yA zA AA BA a0 CA DA EA }< FA GA HA IA JA KA LA MA NA _z {d $6 a( _7 )4 M8 OA 9_ g] PA $m F3 s^ t{ ;3 I1 QA RA #~ Za F/ @! Q! 5] um SA /s ;3 |x }x TA T^ 0] W^ >_ ]( ~& UA VA WA qf 1^ XA Y! YA !& 4+ i_ P/ E{ ZA `A  B dz .B +B @B #B $B %B &B *B =B -B ;B >B ,B 'B )B !B ~B {B ]B ^B /B {B vu (B (B _B sz :B 6w <B [B }B |B 1B Lv 2B Ew 3B 4B 5B Fu Gu Ks 6B Os 7B 8B 7B 9B h4 }3 }3 0B 0B aB aB bB bB bB /y xw cB dB eB fB 8y gB hB iB gB jB kB lB mB Uz nB oB pB qB qB `z rB sB tB uB vB wB xB yB jw zB AB BB CB 9y Nz DB EB FB GB HB Gu IB JB KB LB MB NB ",
"OB ~A {A PB QB #x RB SB TB TB UB VB WB +4 +4 Z: j1 r_ ,| K^ XB YB ZB `B Zc w[  C R8 .C +C 5A @C X8 #C ke (g :g $C Xj %C k1 k9 K0 <( +4 Y! Y: }) }) q= e$ G{ b] ~5 c1 ;3 /s ve H9 }A ov qv &C fA Ar 3z |[ +k *C =C -C ;C Yk >C ,C 'C Ve )C !C ~C {C ]C ^C 0k Rt X_ =c /C 7k Pt (C _C :C sa :0 <0 ii ii 0k A5 A5 ki 40 b< Qg pi :m ek qi <C $z =2 wA +2 +2 +2 [C wi 0k }C ai 0w *A U1 |C 1C 2C k! 3C 4C 5C 6C 7C 8C 9C 0C 9# @/ c( xb n7 aC bC 15 cC Rn dC i] 0> eC s^ fC ~^ 6] gC G^ TA `a hC $[ Bt 1] B} iC 6x 2z &m }x z_ K2 jC :^ <^ P/ S# R# |1 WA Xd T} 1^ r[ k_ 3+ R# ~& Uj G{ Sk t+ kC lC mC nC oC pC qC rC sC tC uC vC wC xC yC zC AC BC CC DC EC FC FC GC HC IC JC KC LC MC NC Tw *t OC %t PC QC RC SC TC UC VC Rs WC XC YC ZC `C x5  D  D h4 .D .D .D .D aB aB aB aB bB /y /y dB cB cB +D 6y @D #D $D %D &D *D *D jB jB =D Rz -D ;D ;D >D ,D 'D )D >y !D ~D {D ]D ^D /D /D (D _D :D <D [D }D |D }D 1D `z Gu 2D 3D 4D 5D tj uj ",
"6D 7D 8D 9D 0D aD bD [A cD dD eD qb ~_ ~_ ~_ k_ S/ }( [( L2 fD `j 44 gD ZB hD iD jD kD lD mD X8 nD hb oD pD Ty Fl &i n[ .b [( P/ Z! =+ Y: {_ <+ }) q= e$ &+ `/ Yd @b E~ =w qD ]a rD sD tD uD @< sv H9 ve vD wD xD vn yD N9 1& zD AD BD CD DD ED FD GD HD ID JD Kg KD LD MD Zp ND [/ :C sa T7 <0 0k ii ii k4 E| 40 40 OD :m PD pi ni :m $z vA =2 wA +2 +2 +2 hk QD RD Wp +f SD TD UD VD WD XD YD ZD `D  E .E +E @E #E $E 9# m6 q7 'd M_ %E 15 86 Rn &E =( j] *E =E y~ -E 34 ;E re ^| U: >E R! R^ @! ,E ;6 ;6 ;6 3z }x 'E V^ )E R# =~ x{ Xd WA WA Xd T} q[ x9 w9 i8 k_ .d T# d^ !E ;j so ~E {E ]E ^E /E 9p (E _E :E <E [E }E |E 1E 2E 3E 4E 5E 6E 7E 8E 9E 0E aE uu bE cE dE eE fE gE hE iE jE Tw Au kE #t Uq TC lE mE Ss nE WC oE `z {y 4y .v +v +v .v pE pE qE qE rE rE rE rE rE sE sE Wz dB xw +D tE Ig uE ^0 vE wE xE yE zE zE AE zE BE 8y CE DE EE FE GE HE IE JE KE LE ME NE ^D OE :D PE QE RE SE TE UE VE Nz Mz by WE XE YE ZE `E ",
"Vn 6D  F .F 0D aD +F @F N2 ~_ !| r[ 1^ Y! Y! Y! y{ y{ y{ r[ N2 Z: g1 L^ j5 #F v[ U8  C $F %F My &F Xc $C *F =F @4 (5 <^ n; 3+ l, l, F# Y: {_ <+ ^_ q= I/ -F $a ;F !( fC tm h5 >F hD ,F .m :g 'F `B ]a 66 )F !F ~F {F ]F ^F @! /F (F _F :F <F [F }F |F 1F 2F 3F fx 4F LD 5F !m 6F 7F 8F sa T7 <0 <0 ii Pr B5 E| |} 40 9F qi PD pi Qg }} vA =2 C| wA +2 +2 u| ]} b< ak 0F aF bF cy hw cF dF eF fF gF hF iF jF kF lF mF @= B. nF oF W9 pF qF ng ng g5 &E =( j] rF =E y~ sF 34 tF re ^| ;| 27 ~j H2 Bt &m ;6 ;6 &m 4z uF K2 )E Q# 2_ m2 (^ vF Vj pf {[ ,[ wF xF yF i8 }( l: D# ][ zF AF BF CF DF EF FF GF HF IF JF KF LF MF NF OF PF QF RF zq SF Az @y TF UF aE VF WF XF YF ZF zs `F  G .G +G @G #G $G %G 6l ^n &G *G UC Kw =G uw !y Iu !y bB Tu Su Tu qE BE rE -G rE sE sE sE ;G ;G E( ;G VE eB yw >G #D ,G j' [! 'G )G !G ~G ~G xE {G ]G ^G Lr }! u> /G /G (G P7 _G :G GE <G [G !D }G }G CE Qz |G 1G (y 2G 3G iB Jw #D O7 ~% i' 4G .{ 5G ",
"6G Xj 7G 8G 9G 0G 7t K9 q; 2+ F# aG 0z m, Y! y{ Y: {_ (+ _+ :+ =~ 36 r_ l9 bG cG hD dG eG fG gG hb hG iG Q2 jG W: n; j_ 1+ 1+ L, q= 5; 8; {_ <+ ^_ <= $& &a %! 0, .! C[ N~ Sn kG ,F /| Ny Zl lG hD mG nG b| b| oG pG qG rG #! sG tG uG vG wG xG yG zG AG BG Fv CG Cv DG EG MD 8k B] FG :0 J6 <0 J6 ji ^m l4 A5 A5 40 Q@ ;2 Qg :m Qg PD =2 C| wA wA +2 u| >} GG od RD HG =c IG JG 7l KG LG MG NG OG PG QG RG SG TG UG VG B. Mb b9 X9 b7 S[ WG WG Nb XG Rn j] d9 eC C[ -E *< 1[ YG ZG 8t E^ R! gC ^k ,E &m mo `G  H T^ 6( R# >1 m2 58 2= l8 {[ /^ ,[ .H >a +H xF i1 Z: )6 dA K~ @H #H $H %H &H *H =H -H ;H >H ,H 'H )H !H QF ~H :B {H (B vu uu ]H ^H FC FC %y Kv /H (H _H :H <H [H }H |H 1H 2H 2H 3H 4H hy 5H 7B 7B 9B 0B .D `C uw Gu !y 7y Aw Aw Hw -G Bw Bw 6H Bw Rz Rz 7H E( 8H 9H 0H VE Wz +D >G $D uE j' aH bH cH `u Jg  v dH eH fH ID gH hH hH sA iH s( jH /0 kH lH mH nH oH pH qH ~% &z rH sH c* sH tH Mt uH vH wH xH yH jd zH %c ",
"AH BH CH DH EH 0G Jl 6z pf of U! FH FH 3+ 4+ =+ F# *& <+ (^ m2 y{ k_ j1 V: K^ j5 CH GH HH IH kD JH kG Dp {^ }] 9] b] ]& =a KH Q= o2 5; {_ Y: x{ l, *+ _= I~ M~ j= 3' y~ tm LH >F MH NH t6 OH Wj PH QH RH SH TH hv UH VH kv 5x WH XH Oj YH ZH `H  I .I +I @I #I $I %I &I *I =I -I ;I >I ,I 'I )I 'I %z RD ^m  2 Hv 40 ,o  c ni  q .q {{ qi [C wA +2 +2 >} f< od Rt !I Wp !% ~I {I 7l ]I ^I /I (I _I :I <I [I }I |I 1I 2I )< 3I 4I f5 ;i n6 up bC 7a Rn 5I +/ [d 6I sm 7I ;6 (1 8I 9I P2 %[ H~ }] k[ k[ @! Ex 0I *1 p= o; j_ n, n2 a; aI !6 H# H# bI Cm ,a ,a .H cI W: _~ dI eI fI gI hI iI jI kI lI mI nI oI pI qI rI sI tI uI vI wI xI yI zI AI BI CI GC ew DI EI FI _H GI HI II JI }H KI LI MI As NI NI OI PI QI Rq RI RI Os Kz SI .A ^y 6H 6H TI Bw Bw 6H Cw UI UI Rz 7H E( 0H 0H VI (y 8y fB >G ^0 %9 j' !% r( //  v v] ^G WI 8i <0 'I A> Jv XI YI ix ZI `I  J .J +J iB Qz |G @J mH #J $J =c =c %J =c Wp }! &J @c xH *J =J -J ;J >J ",
"Dy vt x7 ,J &x Ll O2 4+ r, L, Q= O3 N3 'J G{ Fx )J !J := Q# ~J {J ]J ^J /J (J _J :J <J [J }J |J >F *d Nd 1J $% b> e> 2J 3J 4J `! 5J |+ I# ,[ o[ q_ _5 ^a 6J 7J *| 8J !5 9J 0J aJ v[ bJ cJ (x Xc (| dJ eJ b| fJ pt gJ hJ iJ B} jJ kJ lJ mJ nJ oJ pJ qJ rJ sJ tJ uJ vJ wJ Wg 1F xJ yJ zJ AJ BJ CJ DJ EJ FJ GJ e< y| m4 x' HJ d< 9k IJ JJ #2 `  {} hk KJ GG ek LJ 'f {% }C MJ IG NJ OJ PJ QJ RJ SJ ;z TJ UJ VJ WJ XJ YJ ZJ `J  K {6 .K +K 5a 9g q8 k] |d |d (6 U3 E3 T) s^ ;6 I2 U^ =[ O/ (5 g_ @K <6 #K @& 2& J~ 6+ $& <= e^ x{ I# ,[ !7 {_ (+ _+ ,+ !_ !_ X! {[ p[ k: $K %K &K *K =K -K ;K >K ,K 'K )K !K ~K {K ]K ^K /K (K LC eE NC _B _K :K <K nE [K }K |K bE Tq 1K 2K 3K 4K 5K 6K 6K 7K Fq 8K 9K #p 0K aK 5H bK hy cK 9B 0B dK dK >G 7y ^y fB 3G fB zw eK fK dB gK hK hK gK dB Wz fB 9y iK jK kK kK kK Ig Ig lK mK ZI fH nK  2 l4 40 43 ki oK pK qK rK sK tK uK wH vK wK wK +J xK yK kH kH kH /0 /0 zK AK AK BK BK CK jd DK EK FK EK ",
"tF 7r YB GK  < M9 J9 4+ j_ M/ e$ I/ HK Bl q9 _= 6+ b, h_ dc dc <( <( i9 i9 _( IK JK KK LK MK .< NK Cx OK PK QK RK SK TK UK VK d$ z{ }) bI x9 h9 k9 ^| WK XK YK ZK ZK 7J `K :a aJ sD  L  m .L Ny w[ +L eJ @L .L #L $L %L &L 2z  o *L =L -L ;L >L ,L 'L )L !L ~L {L {L ]L ~f Vt ^L S  /L n' (L -I _L :L <L [L m< Gv }L m4 7! 8! |L 1L 2L 3L 4L 5L `  ]} <m R@ 6L #{ G@ 7L 8L p- 9L 0L aL Kq wB bL cL dL eL RG fL gL hL iL jL kL lL 6a }5 k] '5 '5 mL mL S~ h] nL ~k oL 7c ;3 C} l= *+ pL dc qL mv g_ I~ rL <h sL HK W+ ^_ |) I# ,[ >[ ,[ (^ %~ -+ d8 1= tL {[ P3 6r uL vL wL xL yL zL AL BL CL DL EL ;r |l Wo FL GL HL IL JL KL NC LL ML NL OL _K PL QL }K RL RL *G SL NI TL UL `F VL {K WL XL 3K YL %G 5l ]n ZL hy &p ay h4 `L Kw .v $D nH fB  M AI fK Pu zw 7y zw 6y .M mH fB ^y xw 5B `C +M 0y Fz jK Fz uE O7 vH @M #M >o 9F Jr Q@ Q@ ex ex $M %M &M &M nd nd wK *M *M wK vK =M yK -M uH AK AK AK AK |3 -f -f ;M ;M >M CK CK :y :y :y ",
"P2 8t j5 Dn 6g ,M qL <^ n; {& s9 {( p9 'M [6 _^ a] >_ )M !M dc dc l: 6r Cn M^ u[ yD .F Gl &i Nl 2z ~M {M %% ]M ^M /M _$ (M L~ &+ := y{ _M A9 :M 0D GK <M [M }M }M }M |M 1M 2M bJ 3M _x 4M 5M 6M 7M 8M S8 `h 9M 0M aM bM cM `c fc N0 dM eM fM gM hM iM jM kM lM mM nM oM pM qM mk rM sM tM uM vM wM xM yM N5 FJ <0 T7 <0 6! [0 zM gi [/ AM BM CM L6 ni qi DM EM FM r| GM 8L p- #9 HM IM %A JM KM LM MM NM OM PM QM RM SM TM UM VM _z r7 W2 A0 WM XM t1 -d -3 -3 -3 -d YM ZM 7g }6 l: `M O2  N .N +N @N C# dA N/ e$ q= <+ :+ |= E} ,[ ,[ m2 9q #N #d T} $N 78 M^ >E %N &N *N =N -N ;N >N ,N 6} 'N yC )N !N ~N {N ]N ^N /N (N _N :N QF <N [N LC _K }N |N Mw &y Lw 1N 1N iy TL ;A 2N 3N 4N 5N @p 6N 5l aK #p &p 7N 8N 9N 4B `L 0N >G &D aN eK xw 8y fB +D 8y +D zw zw fB CE 6y yw xw 3G ;f bN iK }3 0B 0B }3 tE cN dN eN fN +c $M x4 gN $M hN $M iN iN jN nd &M &M kN *M vK wH @c lN mN nN |3 |3 |3 oN oN oN ;M ;M -M -f >M CK :y pN qN qN ",
"r_ @4 ^F  < 0] )7 v8 (5 O/ rN >_ sN [6 {5 >E N9 tN uN vN <^ wN p; <^ L2 K0 M^ 1g @i @i k1 J^  H 6] xN =! yN zN AN BN CN 1& DN EN n; R/ .H FN yy JK GN x7 HN IN JN `B v[ IN KN LN MN NN ON PN QN RN SN TN MH UN UH VN WN XN YN ZN Z^ `N  O .O +O @O t5 #O ^L $O %O &O *O =O -O ;O >O ,O 'O )O 4k !O Cv xM sA ~O {O Og <0 ]O FJ ^O EJ *{ /O (O F5 `b pi pi EM _O FM 9< :O <O IG {0 [O 9L }O |O UD LM ,% 1O 2O 3O 4O 5O 6O 7O 8O 9O  K @6 !4 0O &E aO 0_ [a [a bO <| F9 0a H9 [] 1g cO  N +4 O2 t[ v8 O^ cc 8= ^) q= <+ &~ L# ,+ !_ '[ !7 :+ }= ~| k_ nv V: Et dO t^ eO fO gO hO iO jO kO lO mO nO oO pO qO rO sO tO (N uO vO wO xO ns yO NI zO PL _K |N AO &y mE BO 1N iy NI CO DO VL EO FO GO HO IO 0K bK &p PI JO Kz VC KO 3y 5B LO MO NO nH OO PO QO CE +D zw fB xw /y yw 3G nH 3G 4y .A CB V1 Fz RO SO TO @M dN UO za nd x4 VO x4 $M %M ex iN ,o WO XO WO &M =M @c lN mN YO ZO ZO ZO oN oN oN oN oN oN ;M ;M -f -f >M CK `O pN qN  P ",
"S/ v8 x_ N9 s_ '6 a] a] .P sN sN 9] S^ }x z8 +P @P #P v8 UA ~J VA n; dc 47 37 1( Yk Yk $P #i %P gC }z +$ q: &P *P =P -P R! }6 4( h8 k8 x9 z9 ;P >P ,P 'P )P !P ~P {P Dl ]P ^P /P (P _P kp :P <P [P Dy H9 .k }P |P 1P 2P 3P 4P |6 b] 5P 6P 7P 8P 9P 1O 0P aP bP cP dP eP fP gP hP iP jP kP lP mP nP oP Cv Lg aF pP _0 qP rP ,. sP tP uP C] }/ x( x( vP _m DM wP |! 9< M  N  xP yP zP HM )% AP BP nk CP DP EP FP EA GP HP IP JP KP LP MP i7 NP OP PP QP {a RP RH SP w[ }g 9t Cy @i n[ <( o[ k_ +4 Z: j1 p; R# j_ <+ L# L# 0; ~[ ~[ E} E} TP Y: qf nv _5 >7 UP a> VP WP XP YP ZP `P ^!  Q .Q +Q ou @Q #Q $Q %Q &Q *Q %Q =Q #Q -Q ou ;Q XL NC >Q sz sz |N Mw BO *G BO 1N NI NC ,Q 'Q `F )Q !Q ~Q {H OI =p Oq {Q dK 0B Rs ]Q ^Q BE BE /Q gB PO (Q PO mH /y ^y xw /y 3G 6y 6y _Q .M _Q ^y :Q 0N 4B +} <Q X1 j4 [Q dN }Q tK &M %M $M ,o c< s4 ex $M %M hN gN $M |Q +c 1Q 1Q ZO #c #c ZO nN mN |3 |3 |3 |3 |3 oN ;M ;M 2Q BK :y `O `O pN pN pN ",
"Xd (5  d G/ H~ H~ Qy *1 Y^ 3Q <6 1g ,6 7r cG  F 4Q n[ nv 5Q 4+ YA 4+ 6z 6Q +N [6 t_ t_ 7Q 5g N9 G/ c1 j= 8Q 9Q bf Sd R^ !j ,| }1 i8 j8 0Q aQ bQ cQ dQ eQ Oy Dl Ty fQ pG gQ hQ iQ jQ kQ lp lQ <1 En $< v~ %0 qv mQ nQ oQ pQ np qQ O^ rQ sQ tQ uQ vQ wQ xQ yQ zQ AQ BQ CQ [o DQ EQ FQ GQ HQ IQ *O JQ &I KQ 5G LQ +f LQ N  MQ NQ OQ NQ NQ PQ M6 #2 gd a< _m 6L QQ #{ FM t( d* RQ SQ TQ KQ UQ VQ WQ ;O XQ YQ ZQ `Q  R .R +R @R #R $R %R &R *R =R s7 -R ;R Sn >R ,R ,R 'R `B vt bG @i n[ j1 /_ R/ /_ 36 5Q qf l2 ;1 L# 1) 0; 0; p: ~[ !_ E} G# y{ ]J '6 >7 t^ )R !R ~R {R ]R ^R /R (R _R :R <R [R }R |R 1R 2R 3R tI 4R 5R 6R wO 7R QF Wx 8R 9R uI 0R sz Mw aR 1N *G BO OI bR Yx ,Q cR Iq dR eR fR gR by {Q xI hR `L 0N ^Q 5B lH iB /Q iR jR kR lR xw mR eK ^y xw /y fB fB +D ^y Pu zw fB nR oR pR pR pR [Q |3 }Q vH rK qR rR gN ex Q@ s4 s4 ex %M hN %M Vp wi sR tR uR uR #c ZO nN vR @c wR AK AK |3 |3 oN oN 2Q 2Q xR xR `O `O pN pN pN pN ",
"$N m= 8] Bt Ya yR Q^ zR AR 9] <6 N9 Dn Xj BR -C CR (( j1 +4 !| 2_ e^ i_ T! b, b] DR DR 2[ q_ 37 Y^ %a )) ER FR GR %! 1( N^ op -[ y9 z9 aQ HR IR JR KR LR MR NR OR PR QR RR SR TR UR VR WR >P XR YR xg ZR `R RP  S .S +S IR @S #S 2v $S %S &S *S =S -S ;S H| >S ,S 'S )S !S `E =q qA ~S {S ]S ^S s] /S (S 9L Ot t] _S Ev :S Cv <S [S }S |S PQ 1S 2S .q .q _O 'f _O t| M  ${ ${ ^% yP 3S 4S 5S =O 6S 7S 8S 9S 0S dL aS bS cS dS eS fS gS hS iS jS WM {a >F kS )P &L k5 El lS mS cA j9 n_ >[ /^ R/ /_ /_ R/ {+ >& >+ 0; p: p: p: ~[ E} I# =~ 4+ 3( 27 nS oS pS qS rS sS tS uS vS wS xS yS Ts BI zS AS BS CS DS ES FS GS 9R 7R XL XL HS IS JS Yx fR OI 5H 5H OI KS OI OI bR LS MS HO #p iy gR 7B dK RI Ss NS Rs LO Iw OS ;M PS :y >M pN QS RS Gw SS TS US US rE rE -G Gw VS WS VS Iw ;M XS 7< YS [Q ZS %D $D ]G `S  T .T hN %M +T @T @T #T $T dd $T .c =2 %T =2 &T *T *T *T =T -T xH ;T =M @M @M &J >T eN ,T ZO #c ZO ZO 'T 'T 'T 'T 'T %c ",
")T 4& Dx D2 !T ~T {T M0 F/ #K <6 lv MK ]T ^T /T (T k9 _T K9 m, 2_ q= Am $& 9=  ~ :T Ud .b w8 .b #& U# <T [T }T G} dA rN W: -[ |T z9 1T /v 2T 3T 4T 5T 6T 7T kp [t 8T 9T 0T aT bT cT dT eT fT gT hT iT jT kT lT mT nT oT pT JK qT rT 8+ sT tT uT ZH vT wT xT yT zT AT BT 6m `E CT DT EP :3 Ub ET FT GT HT HM Wb t] IT Pt Pt bd JT .z KT LT PQ MT `_ (m Hv _O DM _O t| |! r| 1! ra Ev t] 4S nP mk NT OT PT QT RT ST n- TT UT VT WT XT YT ZT `T  U 5I .U v7 +U @U #U %C $U %U cA &U *U o[ .H !7 /^ q[ q[ H# |= 3= 0; 0; p: p: ~[ !_ !7 q[ =U EN -U ;U >U ,U 'U )U !U ~U {U ]U ^U xS /U zA mE (U _U :U <U [U }U |U 1U 2U @Q 3U 4U 8K 5U 6U 7U NI 7N *p *p 8U KS fR KS OI 9U 0U aU ]n #p eR =G bU cU dU eU #D i4 ZS 2Q PS xR PS fU gU hU xK VS iU Hw +J iB Gw Hw hB -G Hw rE OS jU jR kU ;M lH lU TO TO mU `S nU oU XO jN Jr Q@ #T %2 +T #T 1/ .c hd v| pU ~} =2 Dv qU qU ~{ ~{ -T xH xH @c lN &J >T eN rU sU tU uU ZO ZO =f 'T %c %c vU vU ",
"%[ wU xU yU zU Ek AU BU CU DU &[ 2( EU QN bM QN VH LK |v L9 /a 7z E# ,_ N/ 1_ G} FU 8q w8 .d dc Uj /) GU HU 2s `! =a 6= qf /_ |T z9 IU }t JU KU LU MU nQ NU OU |t PU QU RU SU TU 0T UU VU WU XU YU ZU *h I. -u $] `U  V .V +V @V #V DU $V %V &V *V =V -V ;V >V ,V 'V )V 6m _!  z !V {C  z Ub ~V FT {V f4 ]V ]V Wb na 5G ^V /V (V _V :V <V 2F ID Og t| [V EM 6L >o 33 9< t( }V |V ra 1V 2V *I 3V 4V 5V 6V 7V 8V 9V _! 0V aV bV cV dV eV fV gV %^ hV iV jV kV +P lV mV nV @S 3t h9 l_ '| .H !7 ,[ /^ /^ E} !_ I0 {7 I0 p: ~[ ,+ I# p[ M2 EN oV pV 9[ qV rV sV tV uV vV Mf wV xV yV zV AV BV CV DV EV FV GV HV IV JV KV LV 3U qO MV rO NV JM OV PV IO :N :N MS aK MS MS dE QV OI 5H 8U 8U }K RV Tu {G RS ZO #c mN wR YO p| SV  P TV D( ;G Gw -G rE rE Gw Gw Gw -G BE UV -f xR BK -f VV yK y5 mU TO TO vH WV vK !{ ua Q@ XV vi %2 @T YV ZV @2 u| f< +2 ;9 f! $z e! Dv e! qU ui `V `V ui ua lN &J &J >T ,T sU uU  W uU #c =f 'T .W +W .W %c ",
"2' a> @W #W $W %W &W *W =W pV k= -W ;W >W ,W 'W )W !W ~W {W ]W ^W h_ 9= U# `/ FU /W 8q (W ]J o; E{ KH v; _W :W <W v; [W 3+ l_ }W |W (v {A 1W 2W 3W 4W 5W 6W 7W .x 8W 9W 0W aW bW cW dW eW fW gW hW Q$ iW jW $s kW lW mW nW oW pW #V qW rW sW tW uW vW wW xW yW zW AW BW CW DW EW FW GW  z HW IW JW KW LW UQ ]V {0 #9 TQ _S MW /V NW OW qd PW jk %z t| &} 6L 6L _O QW #{ r| N  RW @f Zp SW %q TW UW c/ c/ VW WW XW YW ZW `W  X .X +X @X #X $X %X &X *X =X -X ;X >X ,X #S 'X a8 )X !X ~X ~+ !7 ,[ /^ /^ E} ~[ I0 p: p: o: ;& )| }( r_ '6 {X ]X ^X /X (X _X :X <X [X Lf }X |X 1X 2X 3X 4X 5X 6X 7X 8X 9X 9X 0X aX bX KV cX xO dX eX fX Nq #p (n IO MS 7U aK aK 7U MS IO QV ~Q gX eR hy Rq mK hX {G }Q YO YO YO uU tU uU kU BK iX jX 6H kX US BE -G Aw Gw US iR ;M kU p| SV lX BK yK +J iB AK mU tE #D mX vH jN jN nX rR oX +T @T $T ZV $. j< f! v| v| @2 g< pX qX Dv e! ~{ ui ui ui ~{ za vR &J >T eN ,T sU tU uU #c YO jd zH %c .W vU %c ",
"rX sX tX uX vX wX xX yX &K zX a1 AX BX CX DX EX FX GX HX IX JX KX !j 2& LX MX NX C^ OX *[ q_ l: m9 Am PX :W QX RX SX 5J 6= 57 #S TX ]A UX )W VX WX XX YX 3T pQ ZX `X  Y }W _T .Y +Y @Y #Y $Y %Y &Y *Y =Y -Y ;Y >Y ,Y 'Y )Y GK @4 !Y ~Y {Y ]Y ^Y /Y (Y _Y :Y <Y [Y }Y |Y 1Y T_ 2Y 3Y 4Y  z 5Y 6Y 7Y 8Y 9Y [O #9 7i 7i 5G yP Mg #f bi bd 0Y aY bY cY dY t| _O QW DM 'f dY eY fY gY MQ hY Zp iY jY 3V kY yQ lY mY nY oY pY cL qY rY sY tY uY vY wY xY yY zY AY $K (a Ll BY CY DY +d EY ~X ~+ )| q[ /^ /^ !7 !_ o: W! ~[ ;& H# +4 O^ S^ >6 FY ge GY HY IY JY KY LY MY NY OY PY QY RY SY TY UY VY WY XY YY ZY `Y  Z .Z +Z @Z @Q IO $p #Z $Z ML %Z 7R ~H jy @p QJ &Z 'Q 7U *Z QV fw fw *G =Z -Z ;Z >Z ,Z QQ U6 ,Z 'f md va mN 'Z )Z !Z VS iU ~Z *D zE !Z {Z *M lN tU YO #c #c nN @c wH wH =M |3 y5 ]Z ~Z wK =M nd WO ^Z /Z @T $T (Z _Z :Z :% .. E> w| f! v| >} s< *2 <Z Dv e! qX ~{ ~{ ~{ +c [Z U6 U6 ,Z #M >o uR sR fN 1Q *T }Z |Z 1Z 1Z 1Z ",
"2Z 3Z 4Z 5Z 6Z 7Z 8Z 9Z 0Z aZ bZ cZ dZ eZ fZ gZ hZ hZ hZ iZ jZ T8 sF kZ lZ mZ nZ a1 H2 oZ EH pZ qZ rZ sZ RX RX tZ uZ vZ wZ xZ l9 yZ <J zZ AZ BZ CZ DZ EZ FZ +V GZ Ay HZ `:  d IZ T: %w JZ s3 KZ LZ MZ NZ OZ PZ QZ 0o RZ SZ _a ]5 o= TZ bb UZ VZ WZ XZ YZ ZZ `Z  ` .` +` @` Di #` 4Y 4Y $` %` !S &`  { *` Wb 5G =` -` @z !o ;` ;` !o Mg >` ,` '` '` )` dY _O wP !` 'f &} ~` {` ,` ]` xM @f :S ^` /` (` _` H| :` <` nY &I VQ [` }` |` 1` 2` 3` 4` 5` 6` 7` d- +a ec v8 L2 8` DY +d !X y{ Y! m, q[ R/ )_ ,[ E} )[ ~[ ,+ I# ~_ k: t_ 9` 9' 0` a` b` c` d` 3` e` f` g` h` i` j` k` l` m` n` o` p` q` r` Dq s` t` +Q cX -Q -Q u` PV v` w` ]n x` y` @Q pu 9K jy z` &Z 'Q MS 7U QV SL #v A` B` C` D` pK #M 'f wP QQ 'f Sg >T wK E` {Z yE -G Gw F` !Z {Z G` *D ~Z kN wK *D ~Z *M wK wK vK =M kd mU ZS wK wK vK vK  T H` I` Dv 4% u| J` k* +. #.  . E> j< ;9 g< >} |/ 4% &T pX K` *c *T =T qU ~{ L` U6 U6 U6 ,Z #M 1Q fN sR uR |Z |Z M` M` 1Z 1Z ",
"N` O` P` Q` R` S` T` U` V` W` X` Y` Z` ``   .. .+ .@ .# .$ .% .& .* .= .- .; .> ., .' .) .! .~ .tN { .] .^ ./ .( ._ .: .K~ K, iA aJ < .! .[ .} .fT | .1 .2 .yZ 3 .4 .5 .R! 6 .FY =X 7 .8 .9 .0 .a .b .c .d .e .f .g .h .i .DU D} .P j .b& k .l .m .+O n .o .p .q .r .s .t .SF u .v .w .x .y .z .JQ A ./V IT xP Hg >m Lg +f Lg wM B .$I ad ^% sA C .`I !I 6L !` wP DM [V `1 qP cd D .gY }C E .3S F .G .,O H .I .J .K .L .{0 {0 M .N .O .P .Q .R .S .T .U .V .W .C^ S! v8 {| Hl qb s[ Y! ~_ 4+ k_ S/ /_ q[ !7 Cm '+ H# k_ (5 {5 F~ X .Y .+> Z .` . .....+..@..#..$..%..&..*..=..-..;..>..,..'..)..!..~..{..]..^..MV rO eX QJ /..(.._..2K :..<..ou os 4U Fq [..+G CO MS MS dE SL #v }..|..1..+q .: E| .q a< Hv 43 rK 2..3..4..5..~G xE xE 6..F` {Z *D *D G` {Z zE *D ]Z vK 'Z vK wK vK 'Z Iw hB vK wK  T 7..8..9..vA wA ,} h< K@ +. +. @. :% K@ :% F> K6 y( y( y( W7 W7 Qr si ri 0..a..b..[Z c..c..c..c..U6 L` L` fN uR M` M` M` |Z |Z |Z ",
"d..e..f..g..h..i..j..k..l..m..n..o..p..q..r..s..t..u..v..w..x..y..z..ag A..B..C..D..E..F..|J x7 ^a k, G..)$ H..I..J..K..}h Sd E0 Ib mG L..M..oW N..O..P..Q..q6 q6 4z Dx {T R..S..T..U..V..W..X..Y..Z..`.. +..+.++.@+.#+.$+.%+.P= b, &+.*+.=+.-+.;+.>+.,+.'+.)+.!+.~+.{+.]+.^+./+.(+._+.:+.z .<+.[+.NW /V }+.ad Nt Nt ;o >m xM |+.1+.2+.Lg ^% fY 3+.2..;. QW QW 6L 4+.`1 5+.6+.Z1 _0 7+./G 8+.9+.;O 0+.a+.b+.c+.d+.lY .z e+.f+._G _G g+.h+.i+.j+.k+.l+.m+.n+.o+.p+.q+.r+..N 7t @F Hl K9 Z! 4+ k_ S/ /_ P3 ,[ ~+ ~X r[ dc Y^ R^ 2] Nd E: s+.t+.u+.v+.w+.x+.y+.z+.A+.B+.C+.D+.E+.F+.G+.WL H+.I+.J+.K+.WL L+.M+.N+.O+.P+.As w` Q+.R+.S+.T+.:..<..ou ou qO ^..U+.+G cR IO MS xu V+.bE $y W+.X+.D] x( }L A5 E| 43 Y+.Z+.`+.4..4.. @..@.~G ~G E` *D )Z ~Z )Z ~Z ]Z *M *M 'Z wR =M vK ]Z ~Z ~Z rE /Q ~Z *D +@.7..ui pX vA C| -9 ,} L> :% :% :% +. +. :% J` W7 @@.@@.@@.-9 -9 fk Qr |m gk #@.b..za $@.$@.$@.$@.UO +c [Z +c 1Q M` 1Z 1Z |Z |Z |Z ",
"%@.&@.Ht *@.=@.-@.;@.>@.,@.'@.)@.!@.~@.{@.Q8 ]@.^@./@.(@._@.:@.<@.[@.}@.|@.1@.2@.3@.4@.5@.6@.7M &< u{ Tj 7@.s+ 8@.9@.0b 0@.=P h> a@.b@.JX #P c@.Zj kv q6 .< cG d@.e@.9' f@.g@.h@.i@.j@.k@.l@.m@.n@.o@.p@.q@.r@.s@.t@.u@.v@.#H ,1 Uj A& q= :s w@.x@.y@.z@.A@.B@.C@.D@.E@.F@.G@.H@.xW _+.I@.J@.=O <+.iY K@.^% @f N  fY rP ,` hH |+.DJ Ng L@.+f M@.N@.^G  J #M _O 4+.6L O@.P@.qP 23 Q@.qP X1 R@.9+.S@.T@.U@.V@.W@.X@.Y@.Z@.bH `@.uH 2Q  #..#.+#.Dg @#.*e ##.$#.%#.&#.*#.-W =#..N -#.qp x8 P/ ^) S# n; 36 k_ q[ '| '| O2 v8 !j ~^ D~ ;#.L! >#.,#.'#.)#.!#.fu ~#.{#.]#.^#./#.(#._#.L+.:#.<#.[#.}#.|#.1#.2#.3#.4#.5#.6#.7#.8#.9#.0#.a#.C+. Z KV KV <R b#.c#.d#.[..e#.CO 7U aK f#.g#.bE h#.i#.:0 ik _C 30 }0 GJ 3k @q j#.k#.l#.!G !G Jg  v m#..J wH =M wH 'Z wH wR kd wK 'Z =M 'Z ]Z G` {Z G` {Z G` *D *D 7..nd K` C| <C 4% @@.n#.:Z k* o#.o#.K@ L> J` p#.q#.r#.n#.n#.W7 W7 [m &f |m id #@.qX jN tK tK tK s#.$@.za za |Q L` t#.u#.u#.v#.w#.w#.",
"B) x#.y#.z#.A#.B#.C#.D#.E#.F#.G#.H#.I#.J#.K#.L#.M#.N#.O#.P#.Q#.R#.S#.T#.U#.V#.W#.X#.A0 Y#.Z#.`#. $..$.a, 7@.8@.+$.@$.#$.$$.&P z) %$.&$.*$.=$.-$.;$.qr i5 0J 17 >$.,$.'$.)$.!$.~$.{$.]$.^$./$.($._$.:$.<$.[$.e` }$.|$.1$.2$.3$.4$.{( 5$.6$.7$.8$.9$.0$.a$.b$.c$.d$.e$.f$.g$.h$.i$.j$.k$.l$.m$.n$.wJ nP K@.o$.#f p$.q$.MQ 0Y ^C xM r$.1+._/ ;o Nt *9 0d s$.t$.QW DM QQ 5+.t| ~` S7 Fv 23 u$.v$.w$.x$.y$.T@.z$.A$.B$.C$.D$.&z G6 -M `O PS E$.F$.G$.H$.I$.J$.K$.L$.M$.N$.O$.C^ P$.cO t[ O2 Z! l, 4+ S/ S/ q[ >[ '| o[ l: Q$.R$.S$.`, pS T$.U$.V$.W$.X$.Y$.Z$.`$. %..%.+%.@%.#%.$%.%%.&%.*%.=%.-%.;%.>%.]K ,%.'%.)%.!%.MC Hz ~%.{%.]%.^%./%.(%.D+._%.:%.<%.[%.`F 'Q }%.bR 5H eR (B #v &z {` |%.IJ G5 V7 /o 1%.2%.'m -Z 3%.Mt 4%.Mt HG 5%.}! @M >T ,T ,T >T @M }Q }Q }Q dN }Q mX )Z 3..F` 5..yE ~G hX qR tK 43 OD a3 l< l< hd 6%.#: 7%.8%.9%.k* :Z q#.r#.0%.p#.10 -9 @@.@@.@@.si |m *c 0..e! nd a%.a%.a%.tK s#.ua za jN 1Q v#.b%.c%.b%.b%.b%.",
"d%.e%.f%.g%.h%.i%.j%.k%.RM l%.m%.n%.o%.p%.q%.r%.D) s%.t%.u%.v%.w%.x%.y%.z%.Mi A%.B%.C%.D%.E%.F%.G%.H%.I%.J%.K%.L%.M%.N%.O%.sf P%.Q%.R%.S%.T%.nb U%.5] .! V%.W%.X%.Y%.Z%.`%. &..&.+&.@&.#&.$&.%&.&&.:$.*&.=&.-&.;&.>&.,&.'&.)&.!&.~&.{( {&.]&.^&./&.(&._&.:&.<&.[&.}&.|&.1&.2&.3&.4&.5&.6&.7&.8&.)2 9&.7&.0&.a&.b&.c&.d&.e&.e3 f&.=I g&.q$.sA h&.{O qP +z i&.9i 8i fH fH 5+.&} %} ~` `1 |! r| Yb !o nP j&.k&.k&.mk *I l&.M@.xA m&.@M AK n&.o&.p&.q&.(3 r&.s&.t&.u&.v&.w&.x&.6) @N L9 y&.z&.d8 '& ^+ X! !7 ,a x9 h1 0] ;7 ^X A&.i@.B&.C&.D&.E&.F&.G&.H&.I&.J&.K&.L&.M&.N&.O&.P&.Q&.R&.2w S&.7K T&.U&.$Q PL CS V&.W&.%9 X&.!% Y&.Z&.`&.b#.<R ]..T&.8K CO aK  *.0U .*.0R +*.@*.$A f+.#*.$*.%*..q 43 oK Y+.Y+.&*.qK qK **.mX ^G vH Mt }Q Mt Mt Mt Lr Lr 5%.=*.=*.m&.=*.5%.5%.Lr uK ^G mX m#.gY qd -*.;*.rP EJ )I 20 20 2/ >{ >*.,*.'*.)*.!*.~*.{*.]*.^*./*./*.p#.p#.(*._*.ZV .c .c 1m |/ ek >o U6 s#.:*.qR **.!{ XO &M +c 1Z u#.<*.[*.}*.pU ",
"|*.1*.2*.3*.4*.5*.6*.7*.8*.9*.0*.mz a*.b*.c*.d*.e*.f*.g*.h*.i*.j*.k*.KA l*.m*.n*.o*.p*.q*.r*.s*.t*.~j [h u*.v*.zl w*.x*.y*.z*.A*.B*.C*.D*.E*.F*.G*.H*.I*.J*.K*.V` L*.M*.N*.O*.P*.Q*.R*.uS S*.T*.U*.V*.W*.X*.Y*.Z*.`*. =..=.+=.@=.#=.k2 $=.%=.&=.*=.==.-=.;=.>=.,=.'=.)=.!=.V@ ~=.9R {=.Mr ]=.^=./=.9&.(=._=.:=.<=.[=.b&.TW }=.e&.!O B .>` ]` i&.|=.{O 1=.7+.N5 )` ;. WI 2=.'f EM 4+.EM |! r| r| pP 2k Cv 4F lk lk 3=.ai Up aF 4=.u> [Q 5=.6=.o&.7=.8=.9=.0=.a=.b=.c=.d=.e=./F zr Y^ dc f=.c8 (+ ,+ )[ Cm Cm >[ p_ f1 b_ S..g=.h=.i=.j=.k=.l=.m=.n=.o=.p=.q=.r=.s=.t=. %.u=.v=.w=.x=.y=.z=.Fq A=.fR AO B=.C=.D=.k#.E=.xA F=.[U G=.x` H=.b#.I=.^..J=.0U bR [N sz _K K=.L=.Pq M=.E$.N=.O=.!I .2 oK P=.Q=.R=.oU S=.qK **.mX .J vH uK }Q Mt 0F HG HG 4%.X_ X_ Wp Wp jH jH =*.5%.5%.Lr Mt HG OQ T=.Bi U=.V=.W=.A> X=.Y=.:C Z=.`=. -. -. -..-.+-.@-.]*.#-.#-.#-.p#.#: $. @: (*.6%.KJ GG ]} qi E| $-.,Z UO s#.a%.WO !{ .T nd =T t#.50 [*.}*.~} ",
"U. %-.&-.*-.=-.8n Ww --.;-.>-.,-.'-.)-.!-.~-.{-.]-.^-./-.(-._-.:-.<-.[-.}-.|-.1-.2-.3-.4-.5-.6-.b[ 7-.8-.9-.0-.a-.b-.c-.d-.e-.f-.g-.h-.i-.j-.k-.l-.m-.n-.o-.p-.q-.r-.s-.t-.u-.v-.w-.x-.y-.z-.A-.B-.C-.D-.d .E-.F-.G-.H-.I-.J-.K-.tt L-.M-.N-.O-.P-.Q-.R-.S-.T-.U-.V-.W-.X-.Y-.Z-.-Q `-.4S uM d&.UW 9&. ;.[=.(=..;.[=.uJ 7&.+;.@;.#;.2+.xM $;.,. gY |=.1=.>. 6+.;. WI E=.WI 2=.O@.DM %;.|! Y_ Y_ Yb +f 1V 4m 4F Cv 3=.KD Lt &;.Y1 G@ P7 *;.=;.-;.;;.>;.,;.';.);.!;.~;.{;.];.^;./;.g> #! I%.n9 E# =+ %i '+ Cm /^ Z: (;._;.hc :;.<;.0x ;@.[;.};.|;.1;.2;.3;.4;.5;.L&.N&.6;.7;.{#.8;.9;.0;.a;.b;.c;.eR Ts B=.d;.e;.u> {% Wp VF f;.}U g;.h;.LV ou pu ML 0U fR sz i;.3R cU 4B j;.k;.l;.m;.n;.`I 3k o;.@q p;.q;.r;.2..s;.-Z s$.dH  J  J @{ @{ 0F 0F 0F HG HG 4%.4%.X_ 4%.HG 0F sH dH dH ^G sH t;.u;.y4 ^C W=.v;.w;.zM 9k x;.y;.Z=.z;.z;.z;.A;.#-.#-.:Z :Z :Z #: #: $. v|  :  :  : :m :m .q .q (m A5 |} |} B5 |} Q@ ex gN $M b..pX %T }*.~} ~} ",
"o@ B;.C;.XJ D;.E;.F;.G;.H;.I;.J;.K;.L;.M;.N;.O;.P;.Q;.R;.R5 S;.T;.U;.V;.W;.TG X;.Y;.Z;.`;. >..>.+>.@>.#>.$>.%>.&>.*>.=>.->.;>.>>.,>.'>.)>.!>.~>.{>.]>.^>./>.(>._>.:>.<>.[>.IF e` r@.}>.|>.1>.2>.3>.4>.5>.6O 6>.7>.lA 8>.9>.NX -W ^F q_ [) 0>./W Zd a>.9s b>.c>.d>.e>.f>.g>.h>.i>.j>.-p k>.l>.uM +;.9&.m>.n>.<=.<=.n>.7&.u- ei o>.p>.|+.q>.rP r>.,. cY iH {` I6 2=.)` ;. eH E=.2=.QW %;.]% FM s>.t( Yb +f ;o l&.1V 4m t>.Lt Lg pP N  u>.v>.w>.x>.y>.z>.A>.B>.C>.D>.E>.F>.G>.H>.I>.P%.S..J>.}h a, 6+ %& =+ x{ j_ T# T+ x&.K>.Lc L>.M>.N>.O>.P>.Q>.R>.S>.T>.U>.V>.W>.X>.Y>.Z>.`>. ,. ,..,.^..NC +,.@,.|K Lw #,.wE s>.$,.Jg 4X %,.&,.%Z *,.2U =,.:N -,.{H wI i;.;,.;,.0y >,.,,.k;.',.i' // ),.p;.@q p;.q;.!,.r;.r;.s;.-Z m#.dH ^G  J  J  J ~,.~,.~,.0F 0F 0F HG HG 0F sH {,.)G vE vE mK )G NQ ],.MQ MQ W=.|S r' ^,.9k x;.y;.Z=.z;.z;./,.(,._,.$. p#.M@ M@ #: $. [C  : x| x| :m :m xi a< a< (m k4 l4 B5 E| Rt ;2 wi Kr Kr *c vA K] pU D5 ~} ",
":,.<,.[,.},.|,.1,.2,.3,.4,.5,.6,.7,.8,.9,.0,.a,.b,.c,.d,.e,.f,.&&.g,.B4 h,.i,.j,.k,.l,.m,.n,.o,.p,.q,.r,.s,.t,.u,.v,.w,.x,.y,.z,.A,.B,.C,.D,.E,.F,.i%.G,.H,.I,.J,.K,.L,.M,.N,.O,.P,.qx Q,.R,.S,.4p T,.U,.V,.W,.X,.Y,.Z,.`,.OX v_  '..'.X: +'.ec @'.J*.#'.$'.%'.&'.*'.='.-'.HD w$.;'.>'.,'.''.]=.c&.)'.UW !'._=.7&.a&.]=.u- vM U=.0Y MQ q>.sA gY LT LT $;.+z >. >. {O 8i WI t$.WI 5+.`1 ~'.9< v$.{'.z5 @f +f 2k JT 1V l&.Cv l&.>m +f pP 13 j4 ]'.^'./'.(S ZW ('._'.:'.@R <'.++.['.}'.|'.1'.2'.3'.N0 4'.2; A& `! 5'.6'.7'.8'.9'.0'.a'.x-.b'.c'.d'.e'.f'.g'.;%.h'.i'.j'.k'.!N Vo .,.l'.U+.m'.n'.o'.8B bU p'.q'.Q7 r'.G6 |K s'.G=.}U %Z =,.y` t'.-,.aw u'.v'.w'.]H x'.(G >f u> #J 'G cH y'.z'.A'.A'.B'.C'.C'.D'.z'.E'.E'.v] {,.'G sH sH sH sH sH sH sH ~,.~,.~,.~,.0F ~,.'G 'G 'G ~,.0F 4%.y4 tP F'.tP |S G'.X=.C] Y=.:C Z=.H'.I'.I'./,.J'.K'.hk +2 x| x| x| [C (m (m Rt E| wP !` 33 &} ~` .q A5 l4 |} E| (m ek ;2 ek <m =2 )9 kR pU ~} }*.",
"L'.M'.N'.O'./3 P'.Q'.R'.S'.T'.8n U'.V'.W'.X'.Y'.Z'.`'.q@. )..).+).@).#).$).%).&).*).9*.=).-).;).>).,).').)).!).~).{).]).^).},./).()._).:).<).Eh [).}).|).1).2).3).4).5).6).7).8).9).0).a).b).c).d).e).f).g).h).i).j).k).l).m).n).o).p)./a `M r+.@b wL q).r).s).t).u).v).2+.w).x).y).PJ z).A).c&.c&.)'.7V B).<=.b&.uJ u- P  C).wM tP ^C yM sA $;.-*.D).E).cY 7+.qP {` 5+.)` E=.E=.)` !I s> ~'.v$.r'.w] d* pP +f OW :S OW l&.4m 4m JT +f t( >f F).AK zK G).H).'% I).J).K).L).M).N).O).P).Q).$>.Y,.R).S).T).U).V).Lx W).X).Y).Z).`).mz  !..!.+!.@!.#!.$!.%!.&!.*!.Vo k'.=!.ky -!.;!.>!.,!.[N AO Kw +} SO '!.)!.Tg H6 !!.~!.{!.&,.&,.g;.]!.rs qs f#.aw v'.^!./!.Fw (!.#{ $,. J !G ),.jx _!.:!.:!.:!.<!.[!.[!.bY ),.E'.E'.)G {,.{,.'G 'G 'G 'G 'G 'G 'G 'G 'G 'G 'G {,.'G 'G ~,.4%.jH 0d aF ]` MQ MQ ]` <L uP gi }!.3L 3L Z=.Z=.I'.I'.z;.|!.G> hk [C [C [C #2 (m (m Rt E| $-.8i dx 5+.dY t| a< Rt B5 |} k4 E| od ;2 :m :m %T 1!.K] }*.K] -2 ",
"2!.3!.4!.5!.6!.7!.8!.9!.0!.0!.a!.b!.c!.Z'.d!.e!.f!.g!.h!.i!.j!.k!.l!.m!.n!.o!.p!.q!.r!.s!.t!.t!.j,.u!.v!.X~ w!.x!.b).y!.z!.A!.B!.;B C!.D!.E!.F!.G!.H!.I!.J!.K!.L!.^U M!.N!.O!.P!.Q!.R!.S!.T!.U!.V!.W!.X!.Y!.Z!.`!. ~..~.#a Et @i +~.@~.6t nv #~.I9 u^ $~._F %~.&~.*~.HQ OW =~.MJ y).-~.;~.*I ^` >~.m$.,~.'~.)~.!~.~~.{~.K@.bd ^% CG %J ai Up Kg &z bH ]~.N@.Kg G@ *9 4=.0d m&.5%.5%.5%.sU ^~.$} v$.w] d* pP +f Mg ;` MD /~./~./~.MD MD L@.pP t> ^~.tU YO [Q (~.M .a0 rY _~.:~.<~.[~.}~.|~.1~.2~.3~.4~.5~.bq 6~.7~.8~.9~.0~.a~.b~.c~.d~.e~.f~.g~.h~.i~.&!.*!.a;.j~.ms ms iE k~.eX l~.m~.Ps p'.uH |3 pE n~.o~.CM ]0 JC p~.ES FS y` 7R y` t'.@y q~.r~.vu s~.m#.t~.u~.$-.3%.2..D'.v~.D'.<!.w~.x~.x~.PW Vg y~.3+.z~.aY D).cH bH w).w).w).{,.'G dH s$.s$.s$.s$.{,.{,.{,.'G ~,.HG Wp s( fx M@.rP yM yM iH zi Qt _C }/ A~.AM y;.y;.B~.C~.I'.`=. q D~.(m Rt Rt Rt QW dY 33 E~.k' F~.u> }C (/ 5+.D~.Rt A5 k4 k4 A5 ;2 ;2 <m qi %T )9 )9 1!.-2 K] ",
"G~.H~.I~.J~.K~.L~.M~.N~..).O~.P~.Q~.R~.S~.T~.U~.V~.W~.X~.Y~.Z~.`~. {..{.+{.@{.#{.${.%{.&{.M,.*{.M~.={.-{.8!.;{.>{.,{.'{.Ww ){.4,.!{.6j ~{.{{.]{.^{./{.({._{.:{.<{.[{.}{.|{.1{.2{.3{.4{.5{.6{.7{.8{.9{.0{.a{.b{.c{.dM d{.e{.f{.g{.h{.EZ Gl i{.fD x_ cf j{.k{.l{.m{.n{.o{.p{.7i xP (S q{.r{.Ci ,~.m$.3V '~.'O s{.>~.~~.Yp SW #f =9 RW &z KD Up fx =c ]~.N@.Nt fx qa 4=.(/ }C t~.=*.Mt  J >T t{.~'.9< 9< Y1 *9 CG ^% ;` l&.2V MD iY ^` %q u{.:S v> F5 $c %c -T kd x'.v{.w{.I).DA x{.y{.z{.A{.B{.C{.D{.E{.F{.G{.H{.I{.J{.K{.L{.M{.N{.O{.P{.Q{.R{.i~.S{.&!.T{.a;.ky j~.is js U{.&Z KL V{.W{.Aw 'Z X{.&D Y{.Z{.zK `{.Rq g#.ES  ]..].=,.7R *,.+].@].r~.tu #].!G k' $].6L s#.k#.j#.o;.v~.%].[!.Tt &].&].*].x~.BG 3+.z~.aY D).cH bH bH w).w).v] s$.s$.s$.s$.s$.m#.v] v] 4%.X_ Wp s( xA xA Nt Nt yM >. 6+.>. Qt =].IJ }/ A~.AM y;.-].;].B~.I'.>].x( .q (m Rt Hv Hv E~.dY `1 33 t> {% (/ 0d xA 7+.k4 A5 E| E| Hv Hv <m <m *} <m wA %T %T )9 }*.pU ",
"Q~ ,].'].)].!].~].{].]].^]./].(]._].:].<].[].}].|].1].2].3].4].5].6].7].8].9].0].a].b].c].d].e].f].g].5).h].i].j].rh k].l].m].n].lh o].p].q].r].s].t].u].v].w].x].y].z].A].B].Sm C].D].E].F].G].H].I].J].K].L].M].N].O].P].UP Lk &C Q].bG ^F R].)7 B# gc S].T].U].V].W].H  p{.X].HT Y].Z].F .`].'~.'~. ^. ^..^.+^.3V @^.SW #f O  Yb CG t>.KD KD $J KD ai Kg Aa aF &;.qa (/ s( 4%.0F  J eN ,T $,.Q7 #{ r| L  RW ad !o JT D$.2V ^` ^` %q TW l>.#^.$^.[V %^.M` &^.mN *^.F6 =^.-^.;^.>^.,^.'^.)^.!^.~^.{^.]^.^^./^.(^._^.:^.<^.[^.}^.|^.1^.2^.3^.4^.5^.6^.5^.Fq 7^.8^.is 9^.R+.NL 0^.a^.QE b^.<*.c^.d^.e^.f^.9< g^.{Q +,.h^.A=.@Q -Q -Q %Z i^.j^.k^.l^.m^.*9 %} 6L #M qK n^.q;.2%.o^.p^.:!.B'.%].%].%].B'.C'.0i i#.bY 0i Jg  v v] {,.'G sH @{ mX `S .J ^G m#.s$.@{ 0F 0d &;.fx Kg Aa aF &;.>. P@.O@.E~.:0 q^._C ik 2/ 2/ Z=.Z=.C~.C~.I'.H'.gd Rt E| Hv .q a< t| 33 5+.!I k' Q7 Y1 L  4=.iH E| y| y| y| }L Gv hk [C hk x| v| v| v| v| @2 f! ",
"~M Ob r^.s^.OZ t^.u^.v^.l=.w^.x^.y^.z^.A^.B^.C^.D^.E^.F^.G^.H^.I^.J^.K^.L^.B].M^.N^.O^.P^.Q^.R^.S^.oh ph T^.U^.V^.W^.k].X^.Y^.Z^.`^. /../.+/.@/.#/.$/.%/.&/.|{.A].A].*/.=/.-/.;/.>/.,/.'/.)/.L;.!/.~/.{/.]/.^/.//.(/._/.&K f) :/.</.[/.A8 }/.9G |/._^ zr 1/.2/.3/.4/.5/.6/.nk n$.[o 7/.8/. ^.9/.0/.a/.y$.8S 8S xQ `].8&.jY K@.gx O  ad Lt )m ai t>.t>.ai Aa Nt aF aF 4=.qa qa (/ jH 4%.Mt 5%.}! k' s- |! Y1 L  CG O  =9 #f /~.b/.jM c/.^=.d/.f&.^C iH !` e/.%^.ZO >T #J q( f/.LM 5Y g/.h/.i/.j/.k/.l/.m/.n/.o/.p/.q/.r/.z< s/.t/.u/.v/.S&.w/.t=.x/.y/.6^.Fq z/.A/.B/.C/.D/.4B E/.F/.G/.H/.gk I/.J/.7/ vR ]'.]0 fR K/.;..L/.7R xO @Q ]!.M/.N/.O/.P/.sH #{ %;._O >Z Q/.R/.R=.o;.@q C'.jk :!.C'.C'.:!.[!.[!.bY ),.bY 0i  v {,.sH 0F HG Lr vH mX mX vH  J ^G  J Lr jH 4=.RW aF fx aF RW RW O@.E~.E~.dY sa 1S _C ik 2/ 2/ Z=.Z=.C~.C~.I'.H'.gd Rt E| Hv .q xi DM 33 O@.O@.t> #{ |! r| *9 !I A5 ;} y| }L Gv  q  : k< x|  : @2 @2 v| v| @2 ;9 ",
"~M S/.P& b' T/.U/.V;.V/.X$.W/.X/.Y/.Z/.`/. (..(.+(.@(.#(.$(.%(.&(.*(.=(.-(.;(.>(.,(.'(.P^.)(.!(.!(.~(.{(.m].nh ](.g].}E ^(.e]./(..{.}p ((._(.:(.<(.[(.}(.|(.1(.2(.,(.3(.4(.5(.6(.7(.8(.x+.9(.0(.a(.b(.c(.8p d(.e(.f(.2i g(.h(.mm W/ i(.j(.9` m[ lv }6 k= ,C /&.k(.[e l(.m(.n(.EQ }o o(.p(.q(.r(.I@.s(.t(.u(.v(.w(.x(.[+.y(.Mr z(.ra }+.-` tA .{ <! <! <! A(..{ MJ MJ E .B(.:O :O 8+.G).HG 4%.X_ xA 4=.G@ G@ G@ RW ra C(.D(.E(.%I %q %q m>.m>.l>.e3 OQ ]` {` %} $,.jH &z F(.G(.V6 q{.L7 H(.I(.J(.K(.L(.M(.N(.O(.P(.Q(.R(.S(.T(.U(.K+.V(.W(.X(.Y(.5^.Z(.>!.'Q Fq `(. _.._.+_.zK -T @_.#_.$_.%_.&_.*_.~} =_.-_.7B +,.A=.U&.qO 8K 5U ;_.7R &,.DC >_.q> *9 |! Sg >T ,_.'_.)_.!_.o^.p;.3k X+.'m 2%.@q ~_.o;.3k `I {_.-Z `I ^G Mt 5%.=*.=*.=*..J 'Z WV uK dN dN =*.t~.(/ *9 &;.M@.2k L@.@f RW 33 _O _O 6L .q .q x( x( 2/ 2/ Z=.Z=.C~.C~.I'.H'.>{ hk GG ]} [C x( .q (m E| E| 'f 33 `1 33 O@.5+.A5 ;} y| Gv  q 83 >9 {{ {} >9 w| ;9 f! @2 f! ;9 ",
"S$.]_.^_./_.(_.__.:_.<_.[_.}_.|_.Y/.1_.2_.3_.4_.5_.6_.7_.8_.9_.0_.a_.b_.c_.d_.e_.f_.g_.h_.i_.j_.h_.k_.}(.l_.m_.n_.o_.g_.p_.q_.r_.s_.t_.u_.v_.w_.x_.y_.z_.A_.B_.C_.D_.E_.F_.G_.H_.I_.J_.x+.9(.K_.L_.LY M_.7p N_.O_.P_.Q_.R_.S_.T_.U_.I*.V_.f+ k[ W_.>| $! =W X_.Y_.Z_.`_. :..:.+:.@:.#:.$:.%:.&:.*:.=:.*:.&:.-:.;:.>:.,:.':.6&.Nr Pt ):.IT yP =` w$.<! <! w$.A(.x).Hg E .!:.u>.u>.GM 8+.fx Kg =c 4%.Wp xA (/ 4=.1! d* RW Lg Mg bi %I <o }=.ei ~:.{:.p>.]:.HD Lt Lt KD [S ^:./:.)L (:._:.::.<:.y{.[:.}:.|:.1:.<X 2:.3:.4:.5:.6:.7:.8:.+Z 9:.S&.0:.6^.a:.rI eX b:.c:.d:.e:.f:.UO id g:.h:.i:.j:.k:.l:.m:.n:.-_.o:.p:.L/.T&.^..qO 6U q:.b#.&,.r~.W_ u>.r'.t> vH nU zE +@.r:.)_.!_.q;.!,.2%.s:.t:.oK X+.C( d3 s#.E=.a%.t$.dN =*.&J =*.@M dN wR wR }Q @M >T ,T F~.k' *9 qa aF Nt 2k @f LQ RW t| DM EM EM xi xi x( gd 2/ 2/ Z=.Z=.C~.C~.I'.H'.>{ hk >} ]} [C x| [C (m (m (m D~.DM EM t| 33 :0 Gv Gv #2  q x( fd {{ n4 n4 E5 ~} j< w| ;9 ;9 w| ",
"u:.I>.v:.w:.x:.y:.z:.A:.n@.B:.C:.D:.E:.F:.G:.H:.J- I:.J:.K:.L:.M:.N:.O:.P:.Q:.R:.R:.S:.T:.U:.M^.V:.W:.X:.Y:.Z:.`:. <..<.+<..<.@<.#<.$<.%<.ds &<.*<.=<.-<.;<.><.,<.'<.)<.!<.~<.{<.]<.^<./<.(<._<.:<.<<.[<.}<.|<.1<.a'.2<.3<.4<.5<.6<.7<.S..jo !5 8<.I9 Q^ 9<.2b 0<.a<.b<.c<.d<.GW e<.f<.:+.g<.iP h<.i<.j<.k<.l<.m<.n<.o<.8/.A .p<.Mr Ot Ot ^V TQ q<.<! 4G 4G <! r<.Hg E .MJ x).x).7L B(.L@.;o KD ]~.]~.N@.xA }C Y1 pP aF ;o :S !m iY s<.)m ;o Lg OW D$.<o 5m t<.u<.v<.w<.;~.)L 3S x<.y<.z<.g/.A<.2p B<.C<.W!.D<.E<.F<.G<.H<.I<.J<.K<..Z L<.M<.&%.N<.DO >!.O<.P<.Q<.R<.S<.T<.S@ U<.V<.W<.X<.Y<.Z<.`<. [.G` .[.+[.@[.b:.h'.T{.X>. %.#[.XL dE $[.%[.&[.*[.6< %D *D kN ~Z zE Q/.S=.:*.9i =[.oK 40 ek xi od 40 &M qR WO sK =M }Q @c }Q @c wR lN vR mN nN rU r- Q7 t> *9 4=.Nt Aa 2k ^% Zp N  &} -[.-[.-[.a< xi gd  q 2/ 2/ Z=.Z=.C~.C~.I'.z;.;[.$. q#.@: @: $. $. hk  : k< >9 dk PD _m _m vP 83 `  `  `  D> 4L %: >[.,[.mi A( 4/ E>  .  . E> ",
"'[.)[.![.j..~[.{[.R(.][.^[./[.([._[.:[.<[.[[.b_.}[.|[.1[.2[.3[.4[.5[.&(.6[.7[.8[.#<.`:.9[.0[.a[.b[.c[.d[.e[.f[.g[.h[.i[.j[.k[.l[.m[.n[.o[.U~.p[.q[.r[.s[.t[.u[.v[.v[.w[.x[.y[.z[.A[.B[.C[.D[.E[.F[..<.G[.H[.I[.J[.K[.uY L[.M[.N[.O[.P[.Q[.R[.S[.T[.U[.c1 9<.V[.W[.X[.Y[.Z[.`[. }..}.+}.k<.@}.wT #}.$}.$}.%}.&}.i<.m<.n<.*}.=}.A .MW /V ):.IT yP tA A(.<! 4G e+.-}.Hg E .x).i' i' ',.RQ !o JT 3=.;}.>}.N@.s( xA jH *9 Y_ RW Lt l&.;` bd jH m&.Kg )m lk ,}.;O '}.w(.BT )}.!}.~}.zP _S {}.~V ]}.Xr ^}./}.(}._}.:}.<}.[}.}}.2;.|}.1}.2}.3}.vq 4}.5}.6}.DO x/.7}.8}.9}./'.CG 1S &: 0}.a}.b}.c}.d}.e}.f}.fk zE :Q g}.rO b:.h'.T{.*!.h}.-!.[%./n *G 9B i}.,G +v Gw BE US zE !Z ]Z @M nK 8i UO *} od <m OD ,o rR j}.7..7.. T *M vK wH wR kd lN YO #c #c ZO sU Sg Q7 {% }C 0d Kg N@.;o LQ Pt (0 EM -[.k}.k}.vP xi gd  q 2/ 2/ Z=.Z=.C~.C~.I'.z;.;[./*.0%.q#.q#.@: @: $. u| x| k< k< pi pi vP `b 5L l}.l}.m}.m}.m}.>[.>[.mi mi $: A( .. E> E> .. ",
"n}.o}.p}.q}.r}.s}.t}.u}.v}.w}.x}./].y}.z}.A}.B}.C}.D}.E}.F}.G}.H}.I}.J}.K}.k[.L}.M}.N}.O}.N}.P}.Q}.R}.S}.T}.U}.V}.W}.X}.Y}.Z}.`}. |..|.+|.@|.#|.$|.6[.%|.&|.*|.=|.-|.;|.>|.,|.'|.)|.!|.~|.{|.h!.f` ]|.^|./|.(|._|.:|.<|.#&.[|.}|.||.1|.2|.3|.V%.4|.;7 5|.6|.7|.8|.9|.0|.a|.b|.c|.d|.e|.h<.f|.@}.g|.h|.i|.@}.j|.k|.l|.YQ m|.JQ =}.A .Mr n|.):.IT yP tA X].4G e+.<! A(.MJ x).-}.r<.E .SQ !m 7k 1V Lt Kg N@.HG  J dH (/ Y_ pP )m 4F OW LQ t{.tU t~.)o o|.!}.}o p|.$` q|.ST fP Nv r|.Ot *` s|.t|.u|.v|.Lf Q,.w|.p[.x|.y|.z|.A|.B|.C|.D|.So E|.F|.G|.H|.I|.J|.K|.5R L|.M|.23 p4 N|.O|.P|.Q|.R|.S|.T|.U|.V|.jB W|.X|.Y|.b;.Z|.i'.d#.`|. 1.jy aU OI Ts 8B .1..1.7y -G rE Aw BE vR +1.s> $,.$-.;2 e! oX ^Z @1.^Z #1.9..9..9..$1.%1.&1.xH yH zH #c uU tU YO ,T t{.$,.u> HG HG ]~.*1.KD +f Zp (0 DM %^.-[.k}.}} Qg gd #2 2/ 2/ Z=.Z=.C~.C~.I'.z;.#-.^*.=1.-1.;1.;1.q#.$. >1.(*.$. #: x|  : {} {{ CM ,1.,1.5L 5L 5L '1.'1.,[.mi $: A( .. E> .. .. ",
")1.!1.~1.^e {1.]1.^1.{|.E]./1.(1.W'.W'.%<._1.:1.<1.[1.}1.|1.11.21.31.41.51.61.71.71.81.91.01.a1.b1.R}.c1.d1.e1.f1.g1.h1.i1.j1.k1.l1.+|.m1.n1.o1.p1.q1.r1.*(.s1.t1.u1.v1.h!.w1.x1.y1.z1.A1.B1.C1.D1.E1.F1.G1.H1.(|.e!.I1.J1.l%.K1.L1.M1.N1.uo O1.P1.Z,  | Q1.R1.S1.T1.U1.V1.W1.X1.K7 Y1.Z1.`1.4Y 3Y  2..2.+2.@2.#2.$2.%2.x(.&2.*2.6&.=2.p<.n|.):.IT yP t] w$.4G w$.w$.Hg Hg MJ =` -` yP K@.K@.Mg +f M@.=c m#.-2.s$.=*.(/ }C fx ;o Up Kg ~'.8< s- M@.)L ;2.>2.,2.7m @:.'2.Xt )2.*` h'  { !2.~2.{2.]2.^2./2.(2._2.:2.<2.[2.}2.|2.C|.12.22.32.42.52.62.dX 72.82.92.x'.5%.l4 02.a2.b2.c2.d2.e2.f2.g2.h2.i2.F` }R j2.Xx k2.a;.d#.`|.l2.m2.k~.NC *G 9B Kw Kw bB xw rE rE -G iB n:.k}.Sg eN >o .T nX n2.VO ex iN o2.8..~{ ui &^.&^.xH yH 'T vU #c Sg uU eN >T u> u> Wp  v z~.`u p2.q2.tP Ng _0 6L :m -[.}} -2 )9 [C hk a! a! G> J'.J'.Z=.r2.r2.#-.^*.^*.=1.;1.;1.q#.0%.@: M@ 3/  . ;9 {{ pU s2.mi mi ,[.,[.,[.,[.mi mi ,[.mi A( 4/ .. E> .. 4/ ",
"t2.u2.v2.w2.x2.y2.z2.A2.B2.C2.D2.E2.F2.G2.H2.$|.I2.J2.K2.L2.M2.N2.O2.P2.Q2.R2.S2.T2.U2.V2.W2.X2.Y2.Z2.`2./}.Q}. 3..3.+3.@3.#3.$3.%3.&3.*3.=3.-3.;3.>3.,3.'3.)3.C}.!3.~3.o[.{3.]3.^3.^3./3.(3.J}._3.:3.<3.[3.}3.|3.9(.}3.^3.13.23.33.43.53.63.73.83.[f 93.03.a3.b3.c3.*H d3.e3.f3.g3.g' {S n( 6d h3.i3.j3.k3.EP 0* p|.nk &q oY r{.jY 6&.l3.m3.m3.n3.Wb #9 8L E .o3.Hg >m Up ai <S 4F 2V iY SW Mg L@.CG Nt m&.=*.Lr mK s$.0d G@ fx %J >}.pP RW Ev Ot 4S DG u<.<+.p3.pY q3.r3.s3.t3.u3.m| i3.v3.w3.x3.y3.,z z3.A3.B3.C3.D3.E3.F3.B+.G3.H3.I3.J3.K3.L3.M3.N3.D=.{_.S@ O3.P3.Q3.R3.S3.T3.U3.V3.W3.X3.Y3.Z3.`3.g}.L/. 4.h}..4.+4.+G )Q @4.Kq bK Rq VC Fw &D /Q -G Bw #4.xH gU $4.nN S=.r:.%4.;Z oU **.tK a%.qR XO |Q za L` L` +c [Z uR 1Z fN sU t~.eN F~.P@.7+.E'.&4.*4.Vg ,` =4.D .uA |V -4.xi j< ~} @2 K6 10 ;4.>4.>4.,4.W7 q#.@: a! M@ M@ F> F> q#.'4.q#.:% k* )4.r#.:% L> J` :% .. L> A( $: $: $: $: $: $: $: $: !4.~4.$: ~4.{4.{4.~4.$: ",
"]4.^4./4.(4._4.:4.<4.[4.}4.|4.14.24.34.44.I1.54.64.74.84.94.04.a4.b4.c4.d4.e4.f4.g4.h4.i4.j4.k4.k4.l4.m4.m4.n4.o4.p4.q4.r4.s4.t4.@3.u4.*3.v4.-3.w4.x4.94.y4.z4.A4.B4.C4.D4.E4.E4.E4.F4.G4.H4.A4.I4.41.J4.K4.L4.M4.{3.N4.O4.P4.Q4.R4.S4.++.]3 T4.U4.V4.W4.X4.Y4.Z4.`4. 5..5.+5.@5.#5.$5.%5.6/.&5.*5.=5.-5.;5.>5.,5.=q '5.lx Mv p( )5.!5.9Y 9Y r|.r|.~5.na 7i E .x).Hg Up Lt 4m 4F D$.D$.MD 7k #f ^% N  aF jH 5%. J mK m#.4%.Wp %J =c ;o :S l&.tA n|.{5./V L ./:.]5.^5.HM UQ /5.u3./5.ZW (5._5.:5.7j <5.[5.}5.|5.15.25.ks F3.35.45.55.65.75.85.95.wu 05.a5.WI b5.[C >1.c5.d5.e5.f5.g5.h5.i5.j5.k5.3% 9..l5.+[.A=.4U d#..4.m5.;A `F n5.o5.{Q 9B .v .v Aw WS 6H 2G EK p5.q5.jd  T r5.Q/.%4.s;.2..2..`I rK qK qK rK +c 1Q fN L` 1Q s5.1Z uR t5.Q7 u> 5%.u5.),.v5.w5.x5.G'.'I y5.Og z5.A5.}/ >9 pU pU ,} >4.;4.B- B5.B5.C5.>4.>4.-9 v| @2 f! L@ 0%._Z J` K@ k* :Z J` q#.k* p#.)4.:Z k* k* +. #. #. #. #. #. #. #. #. 8%.~4.$: ~4.~4.{4.~4.D| ",
"R` D5.E5.F5.G5.H5.I5.J5.5].'/.:].K5.L5.M5.}].)3.N5.O5.31.21.P5.Q5.R5.__.S5.T5.U5.V5.W5.X5.Y5.Z5.`5. 6..6.+6.@6.#6.$6.%6.&6.*6.=6.-6.;6.>6.,6.'6.>3.)6.!6.~6.{6.]6.^6.^6./6.(6.(6.(6.'c G4._6.:6.<6.[6.}6.}6.|6.16.26.36.46.56.66.76.86.V[ 96.06.a6.b6.c6.$o d6.e6.f6.g6.h6.i6.j6.k6.l6.m6.m6.f' n6.NM .:.9m o6.,5.p6.Bv q6.%` r6.T_ !S s6.HT UQ {}.t6.t6.xP 8L Hg o3.ai ai 4m 4m D$.s<.%q iY bd Zp ^% CG Wp ~,.!G !G v] 0F sH cH >}.2k !o l&.4m OW K@.!m _V oP KQ (:.]V UQ Wb ~5.9L u6.v6.w6.x6.y6.z6.A6.B6.C6.D6.k'.E6.!N F6. Z  Z G6.~B H6.I6.bw J6.~O 33 C( =_.K6.L6.M6.N6.O6.P6.Q6.R6.S6.T6.U6.V6.W6.X6.Y6.k~.Fq U+.m2.Z6.`F 3H TL 8B !!.p'.`6.WS  7.kB -T .7.+7.~{ @7.H` #7.>Z qK {_.i#.r;.s;.{_.{_.`I `I c..#M >o >o uR s5.sR fN r- F~.;. 9i r;.$7.C` %7.^m Fv %} &7.*7.=7.yi -7.{{ ~} h< 73 >4.;7.B5.B5.B- B- ;4.;7.73 ,} ;9 w| >7.k* L@ +. :Z q#.0%.:Z p#.k* r#.U<.p#.k* L> +. ,7.,7.,7.,7.,7.,7.,7.#. 9%.'7.#. #. '7.'7.#. L@ ",
")7.!7.~7.{7.]7.^7./7.(7._7.:7.<7.[7.}7.|7.17.27.N5.z4.37.47.57.O2.67.S5.77.87.97.07.a7.b7.c7.d7.e7.$<.f7.g7.k_.h7.i7.j7.k7.m_.l7.m7.n7.o7.p7.q7.r7.s7.{6.t7.u7.v7.F4.E4./6.(6.w7.w7.x7.y7.z7.A7.B7.C7.D7.D7.E7.F7.G7.H7.I7.J7.76.K7.L7.M7.N7.O7.P7.Q7.R7.S7.T7.U7.V7.W7.X7.Y7.Z7.`7. 8..8.+8.k| @8.#8.$8.%8.Eg &8.*8.=8.`e `e -8.B@ p|.o( U_ )2.{}.u3.u3.@z 8L MJ r<.KD KD 4F 4m s<.;8.5F nP SW bd #f 2k N@.sH >8.l#.'G =c ]~.,8.q2.KD 4F l&.JT 1V s<.;8.KQ ^/ KQ KQ ^5.HM 9L 9L '8.u6.)8.!8.~8.{8.]8.^8./8.(8._8.z=.i'.:8.S+.]%.nu <8.[8.}8.|8.y'.s~.eH _m =_.18.28.38.48.58.68.78.88.98.08.a8.b8.c8.d8.e8.wI ML zs m2.[..DO EO Kq %p x5 mE ]H f8.US iR jd .W b^.g8.h8.#1.!{ !{ qR -Z C .C .`I 9i 3%.ZI t$.E=.c..,Z >o nK sR sR uR #M }! =*.eH 3%.{_.`I 9i 3%.'o S@ Hv D~.fd CM i8.b5.@2 @2 10 K6 j8.,4.C5.C5.k8.k8.l8.;4.73 G( w| E> k* 0%.r#.J` :% F> >7.m8.:Z L> 0%.)4.k* +. K@ #. ,7.,7.,7.,7.,7.,7.,7.,7.n8.'7.,7.#. o8.'7.,7.L@ ",
"p8.dS q8.r8.s8.t8.u8.v8.w8.x8.y8.z8.A8.B8.C8.D8.E8.O5.F8.y@ G8.H8.I8.J8.K8.L8.M8.N8.O8.P8.Q8.R8.S8.T8.U8.V8.W8.X8.l].Y8.Z8.Z8.`8. 9..9.+9.@9.#9.$9.%9.&9.*9.=9.-9./6.;9.(6.x7.>9.,9.'9.)9.!9.~9.g/ {9.]9.21.^9./9.(9.E8._9.J1.:9.<9.L7.[9.}9.|9.19.29.39.49.59.69.79.89.99.09.a9.b9.c9.d9..8.@8.@8.@8.e9.f' f9.K7 n( r] p6.g9.n(.h9.0* ET s6.HT 9Y i9.j9.SQ =` =` w$.KD $J <S 3=.;8.k9.EG b/.jM 7k Mg ad 2k Nt l9.w).&z $J ;}.[S m9.[S n9.o9.#^.$I 1V 3=.:o p9.q9.r9.r9.9+.'8.'8.'8.z .s9.<I t9.u9.v9.w9.x9.y9.z9.;_.k~.xO A9.B9.C9.;p D9.E9.F9.ZI P@.D| <m G9.H9.I9.J9.K9.L9.W<.M9.N9.O9.P9.Q9.R9.S9.mB T9.U9.c;.0K V9.Gq Xx Gq W9.NI h4 =Z Fw Ig lN nN zH =f X9.Y9.Z9.h8..T 7..oU r;.0i LT ~O ~O `9.'` i&.h&.)` 2=.dx 5+.wP $-.nK nK 8i ;. t$.ZI a%.a%.C( oK  0.nX .0.+0.Zb hd +2 g< $. @: r#.q#.q* @0.#0.$0.%0.%0.C- &0.F> k*  . E> @. *0.*0.o#.=0.-0.H( o#.-1.;0.>0.*0.9%.L@ 9%.'7.,7.,0.,0.,0.,0.,0.,0.,0.'0.,7.)0.,7.!0.o8.,0.~0.",
"{0.]0.^0./0.*).(0._0.`:.:0.<0.[0.}0.C8.|0.E<.10.20.I4.F8.30.F}.40.40.50.60.70.80.90.00.a0.b0.c0.S8.T8.d0.e0.f0.g0.h0.i0.i0.j0.k0.l0.m0.n0.o0.R8.p0.q0.r0.s0.s0.t0.u0.v0.G4.w0.x0.y0.z0.A0.E&.B0.C0.D0.E0.F0.G0.37.{[.H0.I0.)6.J0.K0.L0.M0.N0.O0.P0.Q0.R0.N'.S0.T0.U0.V0.W0.X0.Y7.Y0.Z0.`0. a..a.@8.+a.@a.#a.#a.K7 n( $a.n(.%a.h9.&5.&a.T1 _:.]/ *a.m3.m3.^V -` @z 7i )m KD :V :V k9.k>.wJ wJ EG nP bi Zp ^% @f RW Up $J p9.p9.p9.:o :o }S =a.-a.]:.4F l&.3=.+t ;a.>a.,a./C NJ '8.NJ o( 'a.)a.!a.~a.{a.]a.^a./a.T&.7U #p (a._a.+].:a.<a.[a.}a.|a.E| D~.b< 1a.2a.3a.4a.5a.6a.7a.8a.9a.0a.aa.ba.ca.a8.da.ea.<y fa.ga.@[.ha.Jq Hq ia.IB 4H cK @v x'.*^.=M )Z ja.jB ka.X9.&c #1.j}.r5.Q/.k#.C .gY |=.cY la.T<.ma.N5 !I dx !I O@.!` QQ $-.wP fH eH 3%.9i sK sK x4 nX na.na.oa.pa.qa.ra.sa.ta.)4.>1._Z p#.C- ua.%0.va.wa.wa.%0.C- k* L> E> .. >0.r< =_.H( xa.ya.#-.~*.za.>0.;0.~*.'7.'7.;0.n8.,0.,0.,0.,0.,0.,0.,0.,0.!0.,0.Aa.)0.Ba.,0.Aa.Ca.",
"2e :>.Da.Ea.*).mI Fa.Ga.Ha.Ia.e7.$|.3:.Ja.Ka.La.Ma.~].Na.Oa.Pa.Qa.Ra.Sa.Ta.Ua.Va.Va.Wa.Xa.&9.Ya.Za.`a. b..b.+b.@b.#b.$b.%b.%b.&b.*b.=b.-b.;b.>b.,b.'b.o0.)b.*9.!b.~b.{b.z7.]b.^b./b.(b._b.:b.O( <b.[b.}b.}b.}b.F0.47.{9.|b.1b.Ao 2b.3b.4b.5b.6b.7b.8b.9b.0b.ab.bb.cb.db.eb.fb.gb.hb.ib.oA jb.kb..8.lb.mb.nb.nb.ob.:3 o> pb.Tp qb.rb.#a.la o( ]/ 9Y *` *` IT ^V sb.}+.+f Lt <S :o tb.u{.k&.ub.k&.%q SW bi !o OW ra @f ;o <S :V ;8.;8.;8.f&.vb.-a.wb.p2.NQ tP ^C >}.;}.ai 2k 5G t] _V xb.yb.zb.Ab.Bb.Cb.Db.Eb.Fb.TL 4H iy Gb.m` Hb.1N VF Ib.Jb.Kb.{{ Lb.Mb.Nb.Ob.T6 Pb.{9 Qb.Rb.Sb.Tb.Ub.Vb.Wb.Xb.Yb.Zb.`b.Y9.TS  c..c.+c.Nq %p TL TL bK Ts @c.wE vE {Z #c.d8.$c.%c.&c.]9 #1.*c.=c.-c.2%.;c.=4.gH Jv Vg >c.]O ,c.PQ ID Ug 0k 0k Ug Ug 0k eH eH s#.s#.iN iN I` I` (Z 'c.ra.ra.)c.!c.h2.h2.~c.{c.~c.p#.]c.va.^c./c.(c.va.va.]c.L> :% +. +. _c.>0.:c.<c.[c.r< >0.}c.|c.>0.8%.~*.8%.o#.;0.o8.,0.Ba.Ba.Ba.Ba.Ba.Ba.Ba.1c.Ba.2c.Aa.3c.Ba.2c.4c.",
"5c.6c.7c.8c.9c.0c.ac.bc.cc.h3 dc.ec.fc.gc.E8.E8.~].hc.ic.~9.jc.jc.kc.lc.mc.nc.oc.pc.nc..|.qc.l[.rc.sc.q_.tc.uc.vc.wc.xc.yc.zc.Ac.Ac.Bc.Cc.Dc.Ec.Fc.o0.Gc.Hc.Ic.Jc.Kc.~9.jc.Lc.Mc.:_.Nc.Oc.Pc.Qc.Rc.11.Sc.Tc.Tc.Uc.Vc.Wc.Xc.Yc.Zc.9h `c. d..d.+d.9h @d.#d.~U $d.%d.&d.*d.=d.-d.;d.>d.,d.Z0.'d.)d.!d.~d.{d.z<.z<.]d.2< ^d.6/./d.+#.=o n- HW T_ Y].]/ (d.r|.IT ):.=9 ra LQ 2k 3=.:o tb.;8.j&.+^.k&.Ci MD %I 3=.p9.O  O  #f :S /~.D$.lk o>._d.-'.wM u;.p2.:d.,. $;.>}.%J fx LQ Ot 5G _V ':.<d.[d.}d.|d.1d.2d.3d.J=.4d.X|.5d.6d.DS 7d.8d.9d.0d.ad.Pg >2 bd.cd.dd.qa.ed.fd.~9 gd.hd.id.jd.kd.ld.md.nd.od.R9.pd.qd.rd.Uu sd.td.eR 8U Zx Yx &p ]0 @v ud.vd.wd.{Z kB $1.xd.yd.zd.&c  0.Ad.Bd.p;.Cd.EJ G'.>c.Dd.<L )I Og %z Ed.RD Pr Ug RD ^m ji )` dx QQ nK Kr Kr K` &f Fd.A| Gd.Hd.Id.Id.Jd.Kd.Ld.Md.>: Nd.wa.wa.Od.(c.Pd./c.Qd.Qd.Rd.+. @. #. -1.Sd.Td.Ud.-1.Vd.Sd.Wd.|c.~*.9%.;0.o#.;0.o#.Xd.,0.Ba.Ba.Ba.Ba.Ba.Ba.Ba.Yd.3c.2c.2c.3c.3c.2c.Zd.",
"`d. e..e.+e.@e.#e.$e.2>.Ga.%e.&e.*e.=e.-e.;e.gc.gc.:3.3:.bs >e..|.,e.Qc.'e.)e.!e.mc.~e.{e.]e.^e./e.5{.(e.j!._e.:e.<e.[e.}e.wS |e.wS 1e.e_.2e.3e.4e.5e.6e.7e.8e.9e.0e.ae.+|.!6.41.be.ce.>9.de.ee.ae.fe.ge.he.ie.je.ke.le.me.ne.7b.oe.pe.qe.re.Z_.se.te.ue.lz ve.we.xe.ye.ze.Ae.:^.q/.Be.Ce.De.Ee.Fe.Ge.He.Ie.Je.Ke.Le.nb.6/.|k Me.Ne.Oe.Ub r6.z .U_ y<.*` Ot Ot ~I C(.ad 2k gx :S +t k>.mk Pe.]L m$./~.lk 4F l&.+f +f !o #f MD u{.k>.''.vb.Qe.Re.Re.Se.Vg Te.;c.qP $^.Ue.Ve.gx D(.We.!~.Xe.Ye.Ze.`e. f..f.+f.{Q @f.K=.)y #f.$f.%f.&f.*f.=f.-f.P3.;f.>f.,f.u4 'f.)f.!f.~f.{f.]f.^f./f.(f._f.:f.<f.[f.}f.|f.1f.2f.vK y5 x'.N7 3f.OI eR 4f.3B >8.5f.6f.~Z kN ]9 7f.&c.8f.@1.9f.0f.gN (m T7 )f PW af.Cd.'I PQ %z zi 0k ji Pr Ug  2  2 l4 40 E| A5 ;2 b< pX K` bf.z' sa.!c.cf.cf.df.ef.ff.gf.hf.if.jf.kf.lf.mf.nf.4c.of.pf.qf.rf.^*.~0.L@ *0.Wd.<c.:c.#. ~*.sf.tf.o#.L@ #. '7.9%.9%.9%.'7.,7.'0.1c.1c.Ba.Ba.Ba.3c.3c.uf.Zd.vf.vf.wf.uf.uf.uf.",
"]).xf.yf.zf.Af.Bf.Cf.Df.Ef.Ff.Co Gf.Hf.If.Jf.Kf.Lf._3.lq )3.qc.Mf.27.Nf.Of.Pf..|.Qf.Rf.74.Sf.Tf.Uf.Vf.m4.Wf.%6.Xf.Yf.Zf.`f. g.e]..g.-/.+g.@g.#g.$g.%g.&g.*g.=g.@|.-g.;g.>g.!6.,g.'g.)g.!g.~g.{g.]g.^g./g.(g.(g._g.r/.:g.<g.f).[g.}g.|g.1g.2g.3g.4g.5g.6g.7g.8g.9g.0g.ag.bg.cg.dg.eg.fg.gg.hg.<F ig.5i jg.p&.kg.H  lg.nb.mg.ng.|k og.pg.qg.rg.o(.!S _:.*a.p<.Pt sg.sg.L@.Lg Mg OW <S k9.rA Pe.Ci nP 2V ;8.4F OW )m Up +f bd !o D$.u{.''.tg.ug.vg.r$.wg.|S ;c.]O >. >. Z1 (C ra Pt o$.7V xg.yg.zg.Ag.Bg.Cg.Dg.Ss Eg.W|.Fg.Gg.(U Hg.Ig.Jg.Kg.Lg.Mg.Ng.Og.,f.Pg.;4.Qg.Rg.Sg.{9 Tg.Ug.Vg.Wg.Xg.Yg.Zg.`g. h.T6.!f..h.c%.YO E` }K Mw Sq &p +h.UC B`  @.5f.!Z F` @h.@h.8f.#h.$h.%h.Q@ ek Hv ak v~.&h.Cd.Fv Og %z zi :0 Pr Pr Ug k4 Hv (m (m Rt A5 b< b< b< pX pX ta.bf.K> *h.=h.-h.;h.>h.,h.'h.o8.'7.n8.)h.!h.mf.~h.{h.1c.Ba.of.]h.o8.Xd.if.Sd.^h./h.*0./*.-1.o#.8%.-1.#. #. #. '7.'7.'7.#. ,7.!0.Ba.Ba.Ba.Ba.Ba.Yd.Yd.Yd.2c.(h.uf.uf.(h._h._h.",
":h.<h.[h.}h.|h.1h.2h.@e.3h.4h.5h.6h.7h.8h.9h.0h.0h.7{.ah.k[.bh.ch.dh.17.eh.fh.gh.hh.ih.RM jh.kh.lh.an mh.nh.Sf oh.ph.qh.6,.rh.rh.sh.th.uh.vh.7e.wh.J7.!/.xh.yh.zh.Ah.Bh.Ch.cu Dh.Eh.Fh.D-.Gh.Hh.IF Ih.W!.Jh.Kh.Lh.Mh.Nh.Oh.Ph.Qh.Rh.Sh.Th.Uh.Vh.Wh.Xh.Yh.5g.Zh.`h. i..i.+i.@i.#i.$i.%i.&i.*i.=i.t).-i.;i.::.>i.lg.la l| K7 6/.,i.pg.%5.qg.HQ #:.!S U_ /S MW 'i.)i.}+.LQ ^% Mg Mg Mg /~.XW ,}.b/.jM 2V 3=.)m Lg &z t>.+f Zp bd JT 4m @;.vb.!i.~i.{i.W  zM ^m Pr Ug )I #z v( _/ ]i.~:.^i./i.(i._i.:i.<i.[i.|K }i.|i.1i.2i.3i.4i.5i.6i.7i.8i.9i.0i.ai.bi.ci.b3 di. 8 V|.ei.fi.gi.{9 hi.ii.ji.ki.li.mi.ni.oi.g:.r< *c WO 5..ud.Lw !!.7B Ts pi.s~.qi.%7.#8 '_.ri.si.ti.ui.vi.$z hk O3.+q Kg.^m ^m RD ^m ii J6 ii 40 k4 E| Hv <m od ;2 ;2 od *} pX pX pX wi.wi.wi.wi.xi.yi.zi.Ai.Bi.Ci.Di.lf.)h.o#.)h.Ei.mf.Fi.Gi.Hi.2c.~h.Ii.Ji.Xd.)h.ya.<c.Ki.Li.Mi.Ni.Ni._c.Oi.Pi.Mi.Mi.Qi.Qi.Qi.Qi.Mi.Mi.,7.,0.)0.)0.)0.,0.1c.1c.Gi.2c.uf.uf._h.Ri.Si._h.",
"Cg Ti.Ui.Vi.Wi.Xi.Yi.Zi.`i. j..j.+j.@j.#j.$j.%j.&j.*j.=j.-j.;j.rc.>j.,j.'j.)j.!j.~j.{j.]j.^j.Q_ /j.(j._j.~|.Lf :j.<j.[j.}j.|j.5]. !.1j.2j.T,.k,.3j.4j.5j.6j.7j.5j.8j.9j.0j.aj.bj.cj.dj.ej.fj.gj.hj.Cg ij.jj.Mh kj.5c.|e lj.mj.nj.%~.oj.pj.Wh.qj.rj.Xh.sj.tj.qe.uj.vj.wj.xj.yj.zj.Aj.Bj.Cj.Dj.Ej.Fj.Gj.Hj.Ij.Jj.Kj.Lj.Mj.Mj.Mj.#a.Nj.%5.qg.Oj.Pj.T_ [o q{.Qj.MW ):.=` LQ =9 #f Zp Rj.7k b/.*I *I 2V l&.Lt Lt M@.&z )o RW O  ^% !o OW Sj.Tj.Uj.Vj.Wj.A> r' Pr ji ^m 0k hx Or x] Xj.!O Yj.Zj.`j. k..k.+k.@k.#k.$k.%k.&k.*k.=k.-k.;k.>k.>k.,k.'k.)k.!k.~k.Og.{k.,f.]k.^k.Qg./k.(k._k.:k.<k.[k.}k.|k.1k.2k.3k.K> bf.4k.5k.6k.7k.4..Lw cK Lw 8k.9k.qi.$7.+@.#8 0k.7f.ak.bk.)9 pU (} ck.dk.+q ek.RD pd pd A5 vP xi B5 k4 od <m ;2 QD Kr e! Dv *c K` K` pX wi.P6 P6 @@.xi.fk.gk.hk.ik.jk.kk.lk.mk.=0.kf.nk.ok.pk.Gi.Yd.Yd.qk.{h.nf.!h.rk.sk.tk.Qi.uk.Pi.=_.Oi.vk.vk.Qi.wk.xk.Mi.Qi.Qi.Mi.xk.xk.o8.o8.,7.)0.)0.)0.Aa.Aa.3c.2c.yk.wf.zk.zk._h.(h.",
"Ak.=e.nl Bk.Ck.Dk.}e Ek.Fk.Gk.Hk.Ik.Jk.Kk.Lk.ax Mk.Nk.Ok.Pk.bc.Qk.Rk.z{.j%.Sk.Tk.=l Uk.Vk.Wk.Xk.Yk.Zk.`k. l..l.+l.@l.#l.w!.L;.L;.$l.%l.&l.*l.=l.-l.;l.>l.,l.C,.nA _&.hj.'l.)l.!l.~l.{l.+9 ]l.Sb ^l.Kk./l.uQ (l._l.:l.<l.[l.}l.|l.1l.2l.Vh.3l.4l.5l.6l.7l.3g.8l.9l.0l.al.bl.cl.dl.el.fl.gl.hl.il.jl.kl.ll.ml.nl.ol.pl.ql.rl.rl.Mj.Lj.{S e|.sl.Pj.T_ [o q{.Qj.(V t] r9.L@.=9 @f ra tl.!m @^.b/.k9.4F JT >m Aa jH Wp }C G@ Yb N  ad ad C).ul.vl.wl.xl.yl.zl.30 m4 63 hi Fv y5.{o Al.Bl.Cl.Dl.El.Fl.Gl.Hl.Il.Jl.Kl.Ll.Ml.Nl.Ol.Pl.Ql.s:.Rl. 0.Sl.Tl.Ul.G9.Vl.Wl.28.Xl.@@.Yl.'f.Gd.Zl.`l. m.~9 +8 .m.+m.@m.#m.$m.%m.&m.*m.=c.=m.d;.f8. D pa #].-m.Z+.r;.r5.;m.>m.,m.id &f @2 *2 Lb.'m.)m.){ 6/ Gv F5 #2 c< +0.Pg Pg Pg $T *2 |0 *2 *2 z' wi.id id bf.ta.wi.P6 @@.@@.q#.)4._Z !m.kf.=1.rk.mk.kf.=1.nk.nk.~m.ok.{m.Gi.3c.Yd.1c.1c.]h.kf.{*.Xd.Ni.Ni.]m.Pi.]m.wk.xk.Ni.^m.Ni.wk.Mi.Mi.xk.xk.wk.8%.9%.'7.~0.Xd./m.(m.(m.Ba.nf.qk.qk.wf.yk.yk._m.",
":m.<m.[m.Ck.}m.Zh.|m.|h.1m.5h.2m.3m.4m.5m.6m.7m.8m.(0.9m.0m.am.am.bm.am.cm.dm.em.fm.4/.gm.hm.im.ax 4/.jm.km.lm.mm.nm.om.pm.qm.rm.sm.tm.um.vm.wm./g.xm.ym.zm.Yi.Am.Bm.Cm.Dm.Em.Fm.Gm.Hm.Im.]l.Jm.Km.Lm.Mm.Nm.Om.Pm.Qm.Rm.Sm.Tm.Um.Vm.*e Wm.}e Xm.Ym.Y[.Zm.`m. n..n.+n.@n.#n.fl.$n.%n._;.&n.*n.=n.-n.;n.>n.,n.'n.)n.!n.~n.{n.]n.^n.K7 EW /n.(n.Oj.Y1.T_ U_ y(.(V X].X].L@.ra (0 )i.tl.z(.We.MD <S 4F ;o fx Wp 4%.0d qa G@ qa 4=.pP d* 2! _n.vl.:n.<n.[n.}n.#2 }L y| }L sa |n.{o 1n.vb.2n.3n.4n.$O 5n.Hl.6n.7n.RV d8.8n.9n.0n.an.bn.cn.dn.S@ n2.en.fn.9f.gn.hn.in.jn.ci.;7.sa.kn.ln.Q6 mn.Rg.nn.on.pn.qn.rn.sn.tn.un.vn.wn.xn.6f.yn.x5 !!.ew zn.An.%7.Bn.Cn./Z pX Dn.si dd En.Fn.Gn.63 x' D] KJ Rr .0.*m.Hn.*m.In.@T %f $T di.(Z z' ta.P6 gk id bf.ta.wi.P6 @@.y( p#.)4.>7.)4.#-.+-.-1.za.jf.rk.Jn.Kn.Ln.ok.{m.Mn.Zd.Hi.{h.nf.'0.'0.n8.,7.Nn.wk.xk.Ni.wk.Qi.xk.Pi.Ni.Ni.wk.xk.xk.Mi.xk.xk.8%.9%.#. L@ Xd./m.(m.(m.~h.~h.Hi.2c.(h.yk.On.Pn.",
"Qn.Rn.Sn.Tn.Lm ~;.Un.M_.Vn.Wn.Xn.Ff Yn.Zn.`n.ib. o..o.,N +o.@o.#o.#o.$o.%o.&o.*o.=o.-o.;o.>o.>o.hj.,o.'o.)o.!o.~o.{o.{o.]o.^o./o.(o._o.:o.<o.[o.}o.`d.|o.]).R .1o.2o.3o.4o.5o.6o.7o.8o.9o.0o.ao.(0.bo.co.do.eo.fo.go.ho.io.jo.ko.lo.mo.no.oo.po.qo.ro.so.to.uo.vo.wo.xo.yo.zo.Ao.Bo.q+.Co.Do.Eo.Fo.Go.Ho.Io.Jo.c|.Ko.Lo.Mo.No.Oo.pl.Po.Qo.Ro.So.HQ o(.To.Uo.L .q<.yP Lg +f O  (0 gx tl.Nr SW 1V Up Kg =c HG 5%.t~.{% Q7 }C 0d RW ${ _/ Vo.Wo.Xo.Yo.[n.Zo.0! `o.>9 x( }/  p.</ .p._d.+p.@p.#p.$p.%p.&p.*p.=p.-p.;p.>p.,p.'p.xn.)m.)p.GJ !p.~p.{p.]p.0f.^p./p.(p._p.oa.:p.rn.<p.[p.$m.'f.nn.}p.j8.|p.tn.1p.sf.2p.P3.3p.Ad.n^.-2.yn..1.HC 4p.D'.5p.6p.7p.XO vA K] 8p.a..dd %f n< a3 #2 -} Pg c3 9p.0p.ap.+T $T di.di.'c.'c.bp.sa.sa.cp.bp.sa.sa.bf.ta.wi.P6 _Z _Z 6%.>1.dp.ep.fp.fp.ep.gp.hp.ip.jp.kp.lp.mp.np.op.pp.qp.rp.sp.tp.up.vp.wp.=_.]m.^m._c.=_.Nn.uk.wk.xk.xk.xk.xk.Mi.Qi.Oi.Oi.$: $: D| xp.=_.=_.~0.~0.'0.1c.Zd.Zd.3c.{m.yp.zp.",
"Ap.Bp.Cp.Dp.Ep.Fp.Gp.Lh.Hp.Ip.Jp.3j Kp.Lp.Mp.Np.Op.Pp.Qp.Rp.Sp.Tp.Tp.Up.Vp.Wp.Xp.Yp.em.Zp.`p. q..q.+q.@q.#q.L).It $q.%q.&q.*q.=q.-q.;q.>q.,q.'q.)q.B,.!q.~q.{q.]q.^q./q.(q._q.:q.<q.[q.}q.|q.1q.2q.3q.4q.5q.6q.7q.8q.9q.Ym.0q.aq.bq.mo.cq.dq.eq.fq.gq.eb.hq.iq.jq.kq.lq.mq../ $~ O/ nq.kC oq.pq.qq.rC rq.sq. :.tq.uq.vq.wq.xq.yq.zq.3Y Aq.@2.Po.d|..}.Bq.Cq.Dq.Eq.y(.s<.tb.2k M@.Nt 1! ra ^% RW M@.=c 'G ~,.m&.m&.(/ 4=.xA xA RW ${ _/ Fq.Gq.Xo.Hq.Iq.Jq.Kq.5L b5.IJ ik Lq.uA ND Mq.Nq.Oq.Pq.Qq.Rq.Sq.a5.xE Tq.Uq.Vq.;m.'_.Wq.Xq.zM [/ ~p.Yq.Zq.`q. r.0f.4k..r.ta.m8.+r.@r.r#.0%.~c.-9 -2 =T #r.@1.$r.18.En.%r.&r.*r.]p.6k.=r.-r.0N ;r.~G j#.5p.Q/.[Z %^.Dv $h.>r.,r.'r.%f )r.!r.Kg.~r.{r.En.18.]r.z' 'c.Fd.bp.bp.^r.ra.bp.pn.Y3.sa.^r./r.h2.pn.(r.K> gk.yi.yi.>7.)4.;1.;1.;1._r.ep.if.jf.:r.nk.<r.[r.}r.|r.rp.rp.pf.pf.1r.2r.3r.4r.5r.6r.wk.wp.Nn.7r.wk.5r.=_.4r.Qi.vp.Mi.4r.Oi./m.r< _c._c._c.=_.Xd.~0.,7.!0.(m.pf.pf.Yd.8r.9r.0r.ar.",
"br.1j cr.dr.er.fr.gr.hr.cq._}.b4 ir.jr.kr.lr.mr.nr.or.pr.qr.rr.sr.'K tr.ur.Qp.&o.vr.wr.xr.yr.zr.Ar.Br.Cr.Dr.Er.Fr.~o.Gr.Hr.Ir.)g.Jr.Kr.Lr.Mr.Nr.Or.Pr.Qr.d).Rr.Qm Rm C].Tm Sr.Tr.Ur.Vr.Wr.Xr.Yr.Zr.`r. s..s.+s.Xm.@s.#s.$s.%s.&s.*s.=s.-s.;s.>s.,s.'s.)s.!s.~s.{s.]s.^s./s.@! 3Q !M I/ (s._s.:s.<s.[s.f .}s.|s.1s.6i 2s.7d 2Y 3s.4s.o .5s.6s.7s.8s.9s.0s.as.bs.cs.ds.8&.7k )o ^G #M bk ~` ~` [V `1 P@.7+.~O ma.i&.,` yM es.tP MQ 1+.m' fs.;I gs.q' hs.yl.is.js.FG ks.A5.ls.ms.S7 C .ns.os.#y ps.qs.rs.4i.ss.ts.us.vs.ws.xs.~p.ek.ys.ix zs.As.Zq.Bs.Cs.'r.1p.Ds.Es.Ud.Fs.Gs.Hs.Is.hk pi U6 nU Js.RV 7k.7k.5..=r.{Z Gw Hw Hw Hw 0N  M nE Ks.Ls.Y+.OD :m Kr Ad.Sl.Ms.Ns.)r.Os.Os.)r.Ps.Qs.%2 Rs.b3 pn.K> Y3.Zl.Gd.Ss.Hd.!c./r.cp.bp.z' K> Ts.Us.gf.Vs.Ws.Xs.Ys.Zs.Ai.`s. t. t.zi.`s.Ai..t.jk.+t. t.V<.V<.mf.1r.@t.#t.$t.%t.&t.*t.=t.-t.;t.(m.wp.2r.>t.up.vp.,t.(m.tp.vp.up.5r.up.5r.up.,t.up.tp.@t.qf.qf.'t.)t.[r.mp.!t.pf.|r.~t.{t.]t.sp.",
"^t./t.(t._t.:t.<t.[t.}t.|t.1t.2t.3t.4t.5t.Kp.6t.7t.Kp.Zp.8m.8t.9t.0t.at._0.bt.ct.dt.et.ft.gt.CL q!.ht.it.7*.|,.bh K;.jt.kt.2t.L;.lt.;e.mt.7p 86.|h.Gj kO nt.ot.pt.qt.-l rt.~(.st.tt.ut.vt.wt.D;.xt.or.6m.yt.zt.At.Bt.Ct.Dt.1l.Et.2l.Ft.Nh Rp Oh Gt.)s.Ht.It.Jt.Kt.Lt.Mt.O: Nt.g_ 38 <= Ot.Pt.Qt.Rt.St.Tt.Ut.Vt.Wt.Xt.Yt.Zt. f sl.rl.`t. u..u..u.hF +u.@u.#u.$u.%u.&u..^.@^.&;.F~.*u.=u.$4.4+.EM DM t| 33 1=.7+.$;.,` hH tP tP #^.C).-u.6F ;u.;I gs.>u.>u.,u.'u.)u.!u.~u.{u.yi E~.wE d;.@c.!!./!.HC Tq.Tq.]u.^u./u.(u.XO !` 4+.%*.]O _u.:u.-k.Ol.fn.18.<u.Td.[u.}u.xa.|u.Hs.1u.x( `b ,m mK Fw f8.`6.Fw bU Su Su bB 3y 7y 7y 7y 7y zw Hw ;m.hN <m QD 2u.Ad.3u.Ad.4u.5u.Ps.ck.ck.Lb.6u.+T 7u.7u.qa.8u.Zl.9u.Id.0u.h:.au.bu.cu.du.K> sa.eu.Us.fu.fu.fu.fu.9r.gu.hu.iu.ju.ku.=h.=h.=h.=h.-h.hk.Ai.zi. t.nk.rf.lu.4r.%t.$t.mu.nu.ou.pu.qu.ru.@t.'t.'t.,t.Ca.,t.,t.Ca.@t.tp.tp.tp.,t.up.Ca.Ca.!t.rp.rp.sp.}r.su.su.[r.rp.tu.lp.uu.lp.[r.[r.vu.",
"wu.Ut.xu.yu.zu.Au.Bu.Cu.Mr.Du.0j.Eu.ah Fu.Gu.Hu.Iu.Ju.Ku.Lu.Mu.8t.Nu.Ou.Pu.Qu.Ru.Su.Tu.Uu.Vu.Wu.Xu.Yu.Zu.`u.WJ MY  v..v.an +v.@v.;H #v.$v.hb.%v.D,.>o.&v.*v.=v.}4.qt.-v. {.F;.;v.>v.,v.'v.)v.4j _0.!v.~v.{v.]v.^v./v.;K (v._v.:v.<v.[v.}v.|v.1v.2v.3v.4v.5v.6v.7v.8v.9v.nZ G/ 3( O2 M/ 0v.av.bv.Co.cv.dv.ev.fv.gv.hv.iv.jv.kv.Kj.lv.mv.OG nv.ov.pv.qv.rv.sv.tv.uv.vv.0/.jY ad Y_ 8< X{.%;.EM 6L EM %} 0< eY 6+.iH hH ]` y4 ^C es.Ng x] wv.wv.xv.yv.zv.Iq.Av.Bv.ks.=7.%*.%*.%*.!I ~G ud.@c.pi./!.o~.Cv.Dv.AE Ev.vU Fv.tR u~.DM 8i Gv.Hv.Iv.Jv.Kv.Jr w| 3/ tk.Lv.Mv.Nv.Ov.4/ mi D~.=} C` wE +v +v ^0 ^0 +v qE &D LO qE rE -G Gw Hw Hw Gw +@.Jr wi VO Pv.Qv.En.Rv.Sv.Tv.Uv.En.+T $r.Vv.ci.Md.Wv.Xv.Yv.Jd.Zv.Zv.`v. w.df.ff.-h..t.fk.xi..w.Xs.+w.+w.0r.@w.#w.$w.%w.&w.*w.=w.;h.-w.-h.=h.-h.Ai.`s.Kn.Jn.lk.nk.;w.vp./m./m.$t.>w.,w.'w.)w.ru.@t.,t.,t.'t.tp.Ca.(m.up.1r.!w.2r.!w.tp.Ca.(m.(m.~w.~w.{w.}r.]w.^w./w.tu.4c.}r./w.]t.mp.(w.mp.su.",
"_w.:w.<w.[w.}w.|w.1w.2w.3w.4w.5w.6w.7w.8w.9w.0w.aw.bw.cw.dw.ew.fw.gw.hw.iw.jw.kw.lw.mw.nw.ow.pw.qw.rw.sw.tw.uw.vw.r!.ww.xw.yw.zw.dm.Aw.Bw.Cw.Dw.Ew.Fw.Gw.Hw.Iw.Jw.Kw.Lw.Mw.Nw.Ow.Pw.Qw.Rw.Sp.Sw.Tw.Uw.Vw.Ww.Xw.Yw.Zw.`w. x..x.+x.@x.#x.$x.%x.Ph &x.*x.=x.-x.;x.>x.,x.'x.]^ T^ )6 +4 l, )x.!x.t+ ~x.{x.]x.^x.}m./x.(x._x.:x.%5.Le.<x.[x.}x.zq.|x.1x.2x.3x.3x.4x.W@.5x.6x.#O OW Yb Y_ s- DM 6L DM u~.0< 0< 7x.23 qP 1=.]` gY ,` es.>` Ng 8x.8x.Lq.7F 9x.zv.Av.0x.1L =7.yi %*.0< )` 5f.d;.mE UC ]H ax.W6.VS ^u.bx.Fv.cx.$: !p.'f 5+.T<.[a.dx.ex.li #2 `o.#: =0.|c.fx.gx.hx.ix..q **.jx.vE uE %9 ^0 %9 %9 ^0 pE pE qE &D Iw ]Z BE {Z {Z {Z b< 9F x4 *r.kx.lx.ap.mx.Tv.Tv.nx.ox.,f.bi.px.Pg.qx.rx.Xv.Jd.`v.`v.sx.tx.ux.vx.wx.xx.Ci.yx.zx.Ax.78.+w.+w.Bx.#w.Mn.Cx.&w.%w.xx.;h.ff.-w.ku.=h.-h.=h.`s.Kn.Jn.lk.Kn.7r.6r./m.(m.$t.;t.)w.qu.Dx.mu.qf.qf.tp.)t.!w.(m.qf.@t.Ex.Fx.Fx.2r.@t.(m.qf.Ca.~w.4c.{w.mp./w.Gx.vu.rp.{w.{w.(w.}r.Hx.su.Hx.vu.",
"Ix.Jx.Kx.Lx.Mx.Nx.Ox.Px.Qx.Ao Rx.Sx.!r Tx.Ux.Vx.Wx.Xx.Yx.Zx.`x. y..y.+y.@y.#y.$y.%y.&y.*y.=y.-y.;y.>y.,y.'y.)y.!y.~y.{y.]y.^y./y.Ar.(y._y.:y.<y.[y.}y.|y.1y.2y.3y.4y.5y.6y.7y.8y.5/.9y.Rw.0y.ay.by.cy.dy.Ww.ey.fy.gy.2g.hy.iy.jy.ky.ly.my.ny.oy.py.qy.ry.sy.ty.WH uy.]^ *1 o= j1 i1 r[ <= vy.wy.xy.yy.zy.Ay.By./t.Zp.Cy.Dy.NG ,% q6.ST Po.Ey.Fy.4Y Gy.Hy.Iy.Jy.Ky.k<.Ly.)~.iY ;` @f L  33 &} %} 0< %} ~` s| %} Z1 {` |=.N5 7+.yM D .yM `p Q@.My.My.FG 8F 8F AM }n.JJ %*.Ny.4+.s#.5.. @.=Z mE {B EC BI  7.ts.]u.bx.&1.va .J Oy.5p.E'.E'.Py./} y| +: &. a!  . $. Hs.bd.Qy.Ry.rK nU .v KO 4B 0B dK dK =G }3 qE Uu {G nU )Z #7.)Z 7..XO ex Qg KJ ta +T En.4k.Sy.Ty.Uy.Vy.Wy.Xy.Yy.px.Q6 Zy.`y. z..z.+z.@z.#z.$z.%z.&z.*z.zp.=z.-z.;z.>z.Us.,h.,z.=w.xx.%w.&w.'z.%w.=w.>h.;h.>h.,h.xx.,h.-h.)z.Zs.Ln.Ln.Ex.<r.!z.1r./m./m.$t.;t.>w.>w.~z.mu.qf.Ca.1r.2r.'t.qf.@t.Fx.{z.]z.Fx.!w.up.qf.(m.up.!t.!t.sp.tu.mp.^z.rp.~w.sp./z.pf.rp.su.(z.su.tu.",
"_z.:z.<z.[z.}z.|z.1z.2z.3z.4z.@d.~U 5z.6z.7z.8z.9z.0z.az.bz.cz.dz.ez.fz.gz.hz.iz.jz.kz.lz.mz.nz.oz.pz.qz.rz.sz.tz.uz.Wu.vz.wz.xz.yz.zz.Az.Bz.Cz.Dz.Ez.Fz.Gz.Hz.Iz.Jz.Kz.Lz.Mz.Dh A<.Nz.Oz.Pz.a$.Qz.bo.dy.b<.Rz.Sz.Tz.Uz.to.iy.hy.Vz.Wz.Xz.F-.@i.Yz.Zz.`z. A..A.+A.@A.P$.k: W: +4 b8 EY l, #A.$A.%A.&A.*A.=A.-A.;A.>A.,A.'A.FP )A.`E !A.Qo._I ~A.{A.]A.^A./A./A.(A._A.:A.<A.)O !m !o L@.S7 ~` yi %*.s| [V s| Ny.7x.I6 {O +z +z +z sA hH Og Qt }!.My.}!.8F AM AM Kq.*7.0< %} _O rK =r..@.,G [A.EC HC Dv.Dv.d8.Ev.^u.xH ZO {G }A.|A.&4.<!.1A./} }% 2A.v' >[.xp.<% 3A.4A.=c.ua uK tE .D 5A.6A.'y RI RI .D Fz #D E` `S >Z 6k.r5.j}.,o OD GG KJ ix.7A.@T En.Uv.8A.Sy.9A.0A.u4 aA.bA.Ss.cA.6a.dA..z.eA.fA.gA.hA.&z.iA.jA.kA.lA.W3.mA.nA.ar.Us.oA.xx.,h.,z.,z.=w.ff.pA.df.ef.>h.,z.,h.,h.,z.9r.Ys.Di.Ln.~m.<r.)t.qA.tp./m.r< %t.;t.;t.;t.~z.;t.@t.@t.tp.,t.(m.up.Fx.rA.sA.tA.)t.tp.Ca.(m.Ca.up.sp.sp.|r.|r.rp.4c.~w.rp.rp.{w.rp.^z.[r.lp.vu.mp.",
"uA.vA.wA.xA.yA.zA.AA.BA.CA.DA.EA.FA.GA.HA.'v IA.JA.KA.LA.MA.NA.OA.PA.QA.RA.SA.TA.UA.VA.WA.Xp.mz.XA.YA.S'.ZA.`0.`A. B..B.+B.@B.#B.$B.%B.&B.*B.=B.-B.;B.>B.,B.'B.)B.#{.!B.~B.{B.]B.J| ^B.5,./B.Sf ]7.(B._B.:B.<B.[B.}B.|B.1B.2B.to.3B.4B.5B.6B.7B.8B.9B.0B.aB.bB.cB.[u qL x8 K9 i1 dB.!X ~| aG u; eB.fB.gB.hB.iB.jB.kB.lB.at.mB.Kt 5Y Yt :3 t5 MM nB.oB.Po.pB.|n qB.rB.%2.p(.sB.~m 4k bi Yb M  {'.tB.7x.t( t( w] M  r| L  *9 qa 4=.}C iH <0 T7 1S ik ik _C A~.A~.ik *7.%} JD QQ hX uB.+v 0y 8B xI xI %k.%k.vB.#4.wB.rd.xB.yB.FC zB.AB.;c.U7 BB.CB.5% [% >{ #: DB.@T @1.r5.*M 4y Ps Hz EB.'y FB.,y FB.V1 kK GB.nU ]G S=.+@.VO iN  c l< a3 Zb +T In.HB.IB.Vv.px.JB.KB.LB.MB.NB.OB..8 PB.QB.RB.+z.SB.TB.UB.$z.VB.WB.XB.YB.ZB.N9.SB.+w.fu.Bx.-w.-h.-h.-w.Ci.cf.`B.`B. C.0r.@w.gu.9r.Bx..C.@w.Ys.su.Hx.Hx.lp.}r.tp.(m.Ca.up.4r.4r.5r.5r.;t.>w.@t.rp.!t./z.!t.vu.+C.@C.]t.mp.rp./z.4c.~w.~w.4c.rp.{w.rp.sp.{w./z.!t.|r.{w.^z.[r.[r.}r.tu.[r.Hx.",
"#C.$C.%C.&C.*C.=C.-C.;C.>C.,C.'C.)C.!C.~C.{C.]C.^C./C.(C._C.:C.<C.[C.}C.|C.1C.2C.2C.3C.4C.5C.]y.6C.p] 7C.8C.1o f3.9C.0C.aC.bC.cC.dC.eC.fC.gC.hC.iC.jC.kC.lC.mC.nC.oC.pC.qC.rC.sC.tC.uC.vC.wC.Z~.Jw.xC.Hf yC.zC.AC.ey.4l.BC.CC.DC.EC.FC.GC.HC.IC.JC.N].KC.LC.MC.[s NC.N2 s[ i1 '| x9 ~X )+ |) 3) q= ZA OC.kC PC.QC.RC.SC.TC.UC.VC.WC.XC.,5.YC.S_ ZC.oB.`C.Qo. D.-:..D.+D.%2.0/.<A.sB.@D.@f N  d* 1! z5 z5 ${ r| Y1 r| r| Y1 L  qa 4=.(/ 5+.T7 1S `_ w( ik }n.}n.w( *7.%} &} u> .@.#D.+v Rq Ts hR xI CI CI $D.%D.;p.bx.&D.*D.=D.-D.&4.Ed.}/ ;{ ;D.>D.,D.5/ E> w| 'D.j}.~Z qE SI )D.Es Iz Lz !D.~D.Fz 4B %9 xE r:.oU Y+.x4 ^o GG K'.%. z- @T #T En.Tv.ox.Vy.0A.px.)f.fi.{D.Qb.]D.^D.hi./D.(D._D.@z.:D.<D.[D.}D.|D.98.%z.1D.2D.yp.+w.+w.Us.Ci.hk.ku.Ai.-w.Bi.Bi.>h.3D.fu.4D.gu.0r.ar.5D.6D.7D.su.su.su.Hx.}r.up.qf.up.,t.4r.4r.5r.5r.>w.8D./z.!t.!t.!t.mp.+C.{t.+C.mp.rp.pf.pf.4c.{w.~w.pf.!t./z./z.{w.{w.~w.{w.^z.sp.^z.[r.[r.[r.[r.lp.uu.",
"9D.$C.0D.aD.bD.cD.0~.dD.eD.fD.gD.K].hD.*e iD.jD.kD.lD.+s.mD.nD.oD.pD.qD.[C.cz.rD.sD.tD.uD.vD.wD.xD.yD.{B.Dh zD.AD.BD.CD.DD.ED.FD.GD.HD.ID.JD.KD.LD._5.MD.ND.OD.PD.nC.QD.RD.SD.T'.TD.}E UD.m_.VD.ph.Yf WD.XD.YD.Mm.ZD.`D.At. E..E.+E.[v.@E.#E.$E.%E.&E.*E.=E.2; |u X: Y! '| !X -E.-E.te ^7 ^7 '+ 8; 5; ;E.OC.>E.,E.'E.)E.!E.~E.{E.]E.^E./E.1O (E._E.K7 :E.<E.[E.rg.+}.;:.}E.|E.>:.CQ xb.iY @f O  (0 ^% @f LQ d* N  1! M  Y1 L  Y1 t> $,.5+.P@.sa MT Ny.Ny.-7.IJ Ny.20 yi %} 5%.1E.2E.UC JC Mw 3E.cU 4E.5E.6E.7E.8E.%D.9E.0E.yB.=p.ew z'.r' aE.bE.7! C> cE.dE.[C eE.fE.iU Rs tB gE.Cs hE.'y Fz kK 4B 4B `@.iE.r:.Q/.,m ;2 ]}  c jE.1u.kE.lE.vn.mE.tn.nE.oE.pE.Xy.qE.rE.sE.tE.uE.vE.vE.wE.xE.yE.zE.eA.SB.AE.S6.R6.BE.CE.&z.:D. C.>z.DE.EE.zx.bp./r.Y3.du.FE..w.Jd.GE.HE.DE.DE.IE.JE.KE.LE.ME.NE.KE.OE.}r.~w./z.!t.,t.Ca.Ca.up./m.(m.(m.vp.!t.rp./z.^z.PE.P6.]w.pf.!t.!t.4c.pf./z.{w.{w./z.4c./z.~w.sp.rp.~w.rp.}r.!t.|r.Hx.]w.Gx.]w.]t.su.",
"QE.RE.SE.TE.UE.VE.WE.XE.YE.ZE.`E. F..F.+F.@F.#F.$F.%F.&F.*F.=F.-F.;F.>F.,F.'F.)F.!F.~F.{F.]F.^F./F.s8.(F._F.:F.]B.<F.VJ [F.}F.|F. 8.1F.2F.3F.4F.5F.6F.7F.8F.9F.0F.Vf Kz.aF.bF.cF.dF.)K >B eF.fF.--.gF.hF.iF.jF.kF.lF.mF.nF.oF.pF.Wm.qF.rF.sF.tF.uF.vF.wF.bB.xF.E# l, =~ /^ )| ~+ ~+ )| bI bI |= ,+ _+ O# PX !$ yF.zF.AF.BF.CF.DF.EF.FF.GF.i3.GW 1O 6d HF.IF.JF.@:.Pj.$:.KF.LF.MF.n<.NF.jY %I D$.MD K@.z(.Pt ^% @f 1! 1! r| Y1 Y_ #{ {% O@.E~.q^.`_ %} -7.w( _C G5 Qt %} Z1 ~,.OF.=Z =Z AO cK 3E.;,.5E.uz 6E.7E.8E.6E.Tq.FC yB.zB.UF *4.PF.QF.RF.c! 2/ 5L mi 9F Cn.SF.[K TF.UF.8#.VF.WF.6A..v jK tH ,G XF.!_.YF.oK pK Rr KJ ZF.`F. G..G.+G.&m.mE.nE.tn.@G.#G.$G.%G.%G.qE.&G.*G.=G.-G.qE.;G.>G.,G.'G.Zv.=z.)G.5D.!G.hA.`v.3D.Ts.~G.ik.fk.{G.bf.'c.]G.&2 ra.[p.ik.^G./G.(G._G.:G.:G.JE.OE.<G.[G.}G.|G./w.]w.lp.tu.!w.'t.tp.tp.vp./m./m.,t.pf.rp.tu.(z.1G.@C.mp.~w.rp.rp.~w.pf./z.!t.~w.pf.4c./z.!t.sp.rp.~w.!t.(w.^z.}r.vu.lp.Hx.su./w.]w.",
"QE.2G.3G.4G.5G.6G.7G.0x 8G.9G.0G.aG.bG.cG.dG.eG.fG.gG.hG.iG.jG.kG.lG.mG.nG.oG.pG.qG.rG.sG.tG.uG.4q.vG.wG.xG.yG.zG.Wf AG.BG.CG.DG.EG.PM pC.FG.GG.HG.IG.IG.JG.KG.LG.MG.NG.'K OG.PG.QG.RG.SG.TG.UG.E;.VG.WG.XG.YG.pr.ZG.+O `G.8P TC. H..H.+H.@H.Ht.#H.$H.%H.&H.*H.5+ 4+ l2 l2 =~ x{ |) n, I# I# X! /+ /+ '& }+ @5 =H.-H.;H.>H.,H.'H.)H.!H.~H.~8.{H.]H.h3.Ze e4 ob.HQ ^H./H.Pj.;:.Cq.m<.$:.(H._H.:H.[+.*2.E6 p<.Ot IT ~I sg.<H.<H.[H.}H.Y1 S7 I6 eY 3F |H.|H.My.C] ID v( 23 _0 `u TC [3 1H.KC o'._K i;.5E.4E.2H.3H.4H.6E.^B ^H #D.EC 5H.-m.C'.6H.7H.GJ 83 i8.oi nX xs.xB.#D.<K )D.Ds 8H.Bs 0y -2.,G  J mK 5p.~p.R=.pK 63 l< c< 9H.0H.9H.1u.aH.Td.^h.bH.mE.cH.Uy.Uy.dH.eH.fH.gH.hH.iH.jH.kH.7u.lH.mH.Ld.nH.Kd.9u.Ws.Id.cf.!c.jk.pn.oH.z' |0 s< K` Dv b..$T (Z r#.ua.pH.=1.qH.rH.{z.rH.sH.tH.uH.vH.wH.xH.yH.zH.~t.[r.[r.|r.tp.'t.AH.)0.Ca.)0./z.BH.Q6.CH.DH.EH.FH.GH.GH.GH.qp.HH.HH.pp.FH.HH./z./z.!t.rp.rp.~w.~w.{w.}r.[r.vu.vu.vu.vu.Hx.su.",
"IH.JH.KH.LH.53.MH.NH.OH.PH.QH.->.RH.SH.TH.UH.0G.VH.WH.XH.YH.ZH.`H.L(. I..I.+I.@I.#I.$I.%I.&I.*I.=I.-I.;I.`2.>I.,I.'I.)I.!I.~I.{I.]I.{y.^I./I.Wu.(I._I.:I.<I.[I.}I.|I.gL 1I.2I.P}.3I.;B dh TG.qy ){.4I.5I.Tp.tr.6I.7I./x.8I.Yy 9I.0I.}e |g.@H.!s.aI.#+.Sc bI.cI.dI.dc }( S/ m, y{ Y: |) |) I# !7 X! /+ /+ 1= r, V+ eI.fI.gI.hI.8l.iI.Fj.jI.kI.d>.lI.mI.FW S_ !2.[E.nI.oI.pI.qI.s(.rI.sI.kP tI.uI.vI.wI._H.y(.(V (V Ot n|.sg.ra xI.xI.yI.Y_ Z1 Z1 23 3F =].[/ zI.wg.AI.q>.BI.CI.DI.EI.gw @*.L=.}N }N NO AI FI.3H.GI.%D.]B W&.#D.EC HI.9k.),.A'.Py.m< vP s2.pi fE.!Z !Z nE <K II.-A JI.Bs O7 9i -Z j#.j#.2%.R/.KI.LI.L6 x| Gn.%. [% MI.NI.Lv.OI.PI.QI.RI.SI.Sy.TI.UI.,m.0k.0k.us.0k.VI.c^.Jr Rr .c $T WI.WI.XI.YI.^r.^r.^r.'c.ta ta ^o ^o |} A5 Rt Rt KJ KJ #: 3/ {4.;0.]m.lu.6r.lu.ZI.#t.`I.[G. J..J.+J.@J.su.^z.}r.rp.,t.@t.'0.)0.Ca.)0.#J.KE.$J.$J.Q6.%J.HH.np.%J.op.qp.HH.HH.pp.pp.HH./z./z.4c.~w.!t.!t.{w.sp.tu.[r.Hx.uu.lp.}r.|r.(w.",
"&J.*J.49.=J.C{.YP -J.;J.>J.,J.'J.)J.!J.~J.{J.]J.^J./J.(J._J.:J.<J.xe.[J.<X }J.Wi.|J.1J.2J.3J.4J.5J.6J.7J.8J.9J.0J.aJ.bJ.jD.cJ.dJ.eJ.s).fJ.gJ.lm.2m.Fa.hJ.Xn.5t.iJ.jJ.kJ.lJ.mJ.nJ.oJ.pJ.qJ.rJ.pz.sJ.tw.tJ.<I.uJ.D>.vJ..q.wJ.xJ.K(.K(.yJ.Ft.zJ.AJ.BJ.CJ.7|.DJ.C^ P$.k: W: }( 4+ F# }) 3) x{ )| ,[ .H ,a ,a Cm H# := x; EJ.FJ.GJ.HJ.IJ.s).JJ.KJ.LJ.MJ.NJ.i3.Z[ OJ.PJ.QJ.o(.#:.^H./H.RJ.+}.SJ.&:.$:.I@.NF.CQ TJ.&2.UJ.NW MW n|.ra ra ra xI.1! l' Ue.Z_ z5.(C VJ.yv.CJ AI.WJ.2+.XJ.YJ.ZJ.`J.{H KC PL PL  K..K.+K.@K.#K.$K.]B W&.#D.EC ^!.%f.y'._!.D'.RD u~.b5.%K.fE.{Z zE nE &K.*K.-A JI.4d.~G 'm t:.o^.=K.-K.;K.>K.,K.d< O3.s4 Rr O3..0.K6.'K.)K.!K.~K.mE.{K.mx.!k.Cs.]K.;m.#8 kN wR >T ,Z RD Pr S@ =} ,o I` ^K.bk./K.lx.lx.gN C( li ek.RD Pr <0 q^.q^.y| ^} ,D.,{ r2.|u.)*.wk.(K._K.S3.:K.<K.[K.}K.|K..J.1K.LE.#J.(w.!t.4c.Ba.'0.!0.2K.!h.3K.4K.JE.5K.GH.FH.FH.GH.pp.%J.qp.HH.HH.pp.qp.pp./z./z.pf.pf.~w.sp.^z.}r.[r.lp.Hx.vu.tu.sp.~w.4c.",
"6K.7K.8K.1v.:z.9K.0K.P1 >J.aK.bK.cK.dK.eK.ry.fK.gK.hK.iK.jK.kK.lK.mK.nK.oK.pK.qK.rK.sK.tK.uK.vK.wK.xK.yK.zK.AK.Ck.BK.CK.DK.EK.FK.GK.HK.IK.JK.;n.2h.KK.7m.Vn.BL LK.MK.NK.OK.PK.QK.RK.SK.-v.TK.UK.VK.`u.WK.XK.Cr.YK.vJ. q.`p.ZK.`K.K(. L..L.+L.0l.@L.#L.=b $L.E2 G/ _5 V: =[ 3+ M/ P# |+ e^ x{ x9 x9 x9 .H >a _M ~| /) %L.&L.*L.=L.-L.Zw.;L.>L.,L.'L.)L.!L.GW e4 Kj.D6 ~L.{L.]L.RJ.oI.#` <d.^L./L.(L.t(._L.eP :L.JQ Qj.*2.Mr 'i.~I ~I ra ${ l' Ue.R7 `p <L.[L.;u.A] }L.|L.{:.1L.2L.3L.4L.hy gR 92.5L. K.6L.7L.8L.9L.+K.]B ^H MO EC vu =Z F=.F=.>8.|=.s| !p.e/.#8 !Z 5..nE Qs .*.Lq n5.&p $7.0L.Xq.1%.aL.bL.cL.dL.x' eL.*m.]} 5u.fL.Pg ap.gL.hL.iL.gL.jL.mE.kL.lL.mL.KI.)_.rK }! $,.}! ~,.|=.]O ;c.ak li ,m %M hN %M gN rR pK 3k &h.jk >c.[L |S Cd.,c.zM V7 B> nL.oL.pL.qL.rL.sL.tL.uL.vL.wL.xL.yL.zL.AL.xH.LE.LE.sp.{w.Ba.nf.AH.Ji.BL.CL.-z.CH.ME.HH.HH.qp.qp.%J.FH.%J.qp.DL.HH.pp.%J.qp.4c.4c./z./z.{w.}r.vu.[r.uu.lp.}r.rp.4c./z.4c.!t.",
"EL.FL.GL.HL.IL.!U JL.KL.LL.ML.NL.3~.OL.PL.QL.RL.SL.TL.UL.VL.WL.XL.YL.ZL.M>.`L. M.O0..M.+M.@M.#M.$M.%M. I.&M.*M.%e =M.-M.;M.>M.,M.'M.)M.Vm.!M.~M.{M.]M.^M./M.(M._M.jo.:M.<M.&F.[M.}M.|M.1M.2M.3M.4M.5M.>v [I.6M.D>.(0. q.7M.8M.Lm.9M.0M.aM.bM.cM.dM.eM.fM.gM.hM.G~ !j |6 )6 S# <= P# |+ r, 1^ g8 g8 |T x9 iM.,a I# E# }T jM.kM.lM.mM.nM.oM.pM.qM.rM.sM. I !V tM.qg.uM.vM.~L.ET 6Y nI.wM.xM.yM.zM.AM.$2.BM.qI.*}.TJ.[+.Qj.MW ):.IT IT n|.^% =9 _/ 1+.DJ wv.ND z] }L.CM.DM.EM.FM.GM.HM.#t *p {Q IM._K 6L.JM.7L.KM.LM.FI.%k.MM.^H NM.vu Vu OM.h#.PM.}C QM.v$.t{.RM.Js.SM.eU Os kw Ns o5.&p j#.TM.UM.VM.RF.WM.XM.YM.){ ZM.ck.O3.rR `M.*c. N..N.a}.+N.iL.@N.#N.0i.0i.$N.Y+.$@.fH Wp 4%.#J l9.D .;*.LT ~O h&.E=.tK s#.QQ !I 2=.h&.cY ;*.;*.OQ ;*.y4 =4.wg.%N.&N.*N.3L =N.-N.;N.'*.>N.,N.'N.)N.!N.~N.{N.]N.^N.[G./N.xH.(w.sp.~h.~h.Qd.wa..t.(N._N.:N.np.HH.qp.op.pp.qp.FH.op.op.DL.HH.DL.pp.pp.4c.!t.{w.{w.^z.lp.lp.}r.mp.tu.sp.4c.pf.pf.4c.!t.",
"<N.6B.[N.}N.|N.1N.[N.2N.3N.4N.5N.6N.7N.8N.9N.0N.$H.aN.-+.bN.cN.dN.eN.fN.gN.hN.iN.jN.kN.lN.mN.nN.oN.pN.u2.qN.rN.sN.tN.uN.[w.vN.wN.xN.yN.zN.pN.AN.BN.CN.$v.DN.EN.FN.GN.HN.IN.JN.KN.LN.MN.NN.Nf Qf ON.WJ PN.z!.QN.RN.1>.SN.TN.UN.VN.WN.AK.9g.XN.YN.ZN.`N. O..O..a *#.+O.~5 je o9 w{ ,_ <= q; 5Q 78 n_ @O.|T '[ E} aI $d #O.$O.]j %O.&O.*O.=O.-O.;O.oC.>O.,O.tM.'O.e<.sl.)O.r(.Pj.oI.!O.nI.~O.{O.]O.^O./L.SJ.q(.)O.8/./O.p( (O./V _S ^V ):.D(._O.x] |+.:O.u( 6F (L Al.UW <O.wJ [O.}O.|O.1O.2O.*G |N 3O.vz 5E.4O.5O.+K.vB.BI CI /B dU {B Vu 9d B` %f.(/ F5 FM @M 6O.7O.7O.^H 0N 4B Os IM.Kw pK 8O.Qs.9O.)r.H> ,{ ,D.!r.s4 ~r.Ps. c .0.en.0O.aO.bO.cO.dO.PI.eO.fO.!r.X+.1=.q$.l&.~f gO.hO.iO.TJ.)}.<` %q D(.LQ R7 Z1 &} &} [V Z1 23 Z_ q$.q$.q$.{o 8x.<L.[L.jO.zv.kO.|L lO.mO.nO.oO.pO.qO.rO.sO.tO.uO.vO.wO.ME.xO.5K.Gi.Gi.Od.Od.2K.va.ln.yO.DE.5K.DL.pp.|G.GH.HH.qp.qp.sp.sp.4c.pf.pf.4c.4c.Ca.tp.1r.qA.zO.uu.lp.|r.!t.{w.op.{w.4c./z./z./z.",
"AO.BO.CO.DO.EO.FO.GO.HO.IO.G-.JO.KO.K>.LO.MO.NO.OO.6u PO.QO.RO.SO.2~.TO.UO.VO.WO.XO.YO.ZO.`O. P..P.+P.@P.Et.gG.sN.#P.$P.%P.&P.*P.=P.sl -P.;P.>P.-=.,P.:h.$v.'P.)P.!P.~P.{P.]P.^P./P.(P.6p _P.3t.:P.<P. +.f/ 44.}0.Eh.[P.}P.|P.AN.Qh.Vh.1P.2P.M1.3P.4P.5P.6P.7P.8P.9P.0P.aP.>( bP.cP.<u g_ 37 |6 4( S} Xd ![ /+ 48 (+ f=.$& (= dP.$L.eP.fP.gP.hP.iP.jP.kP.=q *q KF.lP.mP.nP.oP.pP.qP.#:.rP.:E.sP.tP.]p uP.vP.Y1.o( wP.(O.r{.KQ zP ^V :S t- xP.C).<L.F'.2+.{:.yP.zP..r AP.BP.J@.9V /:.CP.DP.EP.Ut TF UF -D.FP.GP.W6.W6.CI ]B HP.'!.2E.`6.XF.IP.r;.fH JP.bk %4.KP.LP.fE.MP.Ll.jB 8/ $c.NP.]k.Q6 OP.PP.QP.;7.{G.RP.pa.pa.Es.P3.P3.SP.#T TP.UP.VP.WP.XP.YP.aH.CB.30 ZP.`P.7S  Q..Q.+Q.u).v6.Y[ @Q.#Q.$Q.JF.J@.%I aF +z P@.sa 2S 23 _0 1+.xM %Q.&Q.7F *Q.yv.q' =Q.~i.-Q.;Q.>Q.,Q.'Q.HJ u' E> )Q.!Q.~Q.{Q.]Q.^Q./Q.(Q._Q.:Q.<Q.[Q.}Q.}Q.|Q.1Q.2Q.op.HH.HH.{w.sp.rp.rp.!t.<r.3Q.!w.up.@t.wp.]m.4Q.5Q.uk.^m.7r.zO.|r.pf.FH.FH.6Q.FH.FH.FH.FH.FH.",
"7Q.8Q.9Q.0Q.aQ.bQ.cQ.5h dQ.eQ.fQ.gQ.hQ.iQ.jQ.kQ.lQ.mQ.nQ.oQ.pQ.qQ.rQ.TE.sQ.tQ.l% uQ.vQ.wQ.xQ.yQ.zQ.AQ.BQ.CQ.DQ.EQ.FQ.Kx.GQ.HQ.IQ.JQ.KQ.LQ.MQ.NQ.OQ.PQ.QQ.nl Go.RQ.SQ.TQ.UQ.VQ.WQ.XQ.YQ.CN.ZQ.2t.`Q. R.~g..R.+R.@R.A6 #R.A{.@d.$R.a~.rC %R.&R.*R.=R.-R.;R.>R.,R.'R.)R.!R.~R.{R.]R.^R./R.*1 *1 '6 W^ 57 l2 ^+ b; W! >+ _+ r, :~ D} $! TK (R._R.:R.nA K).<R.[R.'5.}R.`Z |R.1R.nP.2R.s(.vI.3R.2R.4R.5R.6R.7R.0l 8R.9R.7/.)5.Qj.(:._V 5G 7k c&.0R.$I aR.Ng -u.~:.Q  bR.cR.dR.eR.o<.;2.fR.Tr gR.hR.iR.jR.kR.|a.lR.mR.9E.Tq.%k.%k./B Ru p'.0E C` C` `I dx !p.EM !_.nR.Cn.,_.oR.7f.pR.qR.rR.sR.tR.{9 .8 Sg.uR.vR.Zl.wR.xR.yR.zR.nE.AR.Ov.lE.BR.CR.DR.ER.,N.FR.GR.s' {i.HR.GD IR.4s.JR.KR.LR.MR.NR.OR.PR.QR.RR.SR.k>.tP {` q^.xi a< `1 {O ]` Jv zM ^,.TR.*{ V  UR.VR.WR.XR.YR.ZR.`R. S.M6 y| E] .S.+S.@S.#S.$S.%S.&S.*S.%S.=S.-S.;S.>S.}Q.nn.C5.{h.qp.pp.op.rp.!t.!t.rp.tA.rH.,S.'S.7r.)S.vk.5Q.!S. -.A;.A;.7r.6r.rp.sp.FH.6Q.6Q.6Q.FH.FH.FH.FH.",
"~S.{S.]S.^S./S.(S._S.:S.<S.[S.}S.|S.1S.2S.3S.4S.5S.6S.7S.8S.9S.0S.X,.7>.aS.bS.cS.dS.eS.fS.gS.hS.iS.jS.Vm.kS.DQ.lS.mS.nS.oS.pS.qS.rS.sS.tS.q}.uS.vS.-e.wS.xS.yS.zS.1B.AS.BS.CS.DS.ES.FS.^).Bm.jt.GS.d' HS.IS.JS.KS.LS.MS.NS.OS.PS.QS.RS.SS.TS.US.VS.WS.j& XS.#$.YS.ZS.`S. T..T.+T.$$ j) @T.j: *[ (5 Z: 1^ ^+ 58 0; b; 2= r, 5+ .P B# #T.$T.%T.&T..d.*T.{. =T.`e u .-T.;T.>T.mP.,T.'T.:E.k<.*:.)T.pP.:+.;S !T.`e.~T.{T.:H.JQ 5S ~}.^/ bi c&.]T.B .w> x] m' 7k 8V ^T./T.(T._T.hP :T.<T.*z Wu &p.[T.}T.Gv.|T.1T.SM.&D.2T.]B %k.Ru GB.uE 0E 3T.1..4T.ii ,f D~.5T.6T.*r.n2.'D.G9.Vl.b..7T.]k.ed.8T.fd.fi.on.l8.qa.PP.9T.sn.0T.&m.aT.K6.M> bT.cT.dT.eT.N|.`  G5 #I l>.fT.$}.gF gT.hT.iT.jT.kT.lT.@/.mT.nT.oT.F .$I ,I 0< F5 ed o4 JD )I G'.Jv U7 p4 p4 pT.%N.4! qT.&{ &{ rT.^O sT.tT.uT.}0 n4 vT.wT.xT.yT.zT.AT.BT.CT.=S.BT.DT.ET.;S.FT.^k.GT./z.pp.GH.np.sp.{w.^z.uu.HT.rH.IT.JT.'S.JT.JT.vk.A;.KT.LT.)*.6r.r< !t.(w.FH.FH.6Q.6Q.FH.FH.4c.4c.",
"MT.NT.yo.{b OT.PT.QT.@n.RT.Jt.ST.Dr TT.UT.VT.WT.XT.YT.ZT.hI `T. U..U.#'.cm  ..+U.@U.#U.$U.%U.&U.*U.=U.-U.:R.Gp.;U.>U.,U.'U.)U.!U.~U.{U.]U.oe.Nr.^U./U.(U.ax _U.:U.<U.re.EK.t&.[U.pl Sx }U.ah |U.1U.2U.3U.4U.Df.5U.5p 6U.7U.8U.9U.-U.(t.0U.aU.bU.cU.dU.eU.fU.gU.hU.iU.jU.kU.lU.mU.+& nU.D} l= W^ O/ }( 1^ ]+ >& 3= 58 a; x{ `M )M sN oU.pU.qU.rU.sU.tU.2m.uU.vU.,% n<.wU.xU.xW yU.zU.AU.%}.%:.k$.BU.pP.$:.CU.DU.EU.ey 9V [+.5S Uo.r{.di di FU.2+.2! BI.$I /~.m$..^.GU.HU.IU.SR.gO.JU.2B KU.LU.MU.a5.NU.OU.(U 0E.MP.PU.QU.[K Su uE ,G  @.3T.RU.s:.Pr ,f a< *c.`M.2u.=c.,m.SU.oX oX TU.7T.UU.VU.WU.XU./m.-9 'f.YU.ZU.`U.SP. V..V.YV +V._,.if.oH.DB.K'.gd Or $I oM 3R.@V.#V.$V.%V.&V.*V.=V.-V.;V.>V.sP.,V.Xj.AI.'V.CM mi ed n4 fd 20 'I X=.x( 83 83 _C }!.7F Lq.)V.xv.[L.&Q.j* PF.!V.~V.x( [m {V.)f.MB.]V.^V./V.-S.(V.-S._V.:V.<V.[V.p* g:.Ba.qp.%J.GH.(w.}r.Gx.68.}V.Fx.;w.JT.IT.7r.7r.vk.|V.1V.)*.Oi.r< ,t.{w.4c.FH.FH.6Q.6Q.FH.FH.4c.4c.",
"2V.3V.4V.5V.6V.7V.8V.bl.9V.0V.aV.bV.bV.cV.dV.WT.eV.fV.gV.hV.]w iV.jV.Q-.kV.lV.mV.nV.oV.4` pV.qV.rV.sV.Gp.Gp.tV.uV.Ae.0'.vV.wV.xV.yV.vA.M>.zV.OQ.AV.BV.yv ax CV.DV.EV.FV.GV.@P.HV.D#.IV.JV.Kp.Cf 4t.mm.KV.ac..j.*e.Vn.LV.MV.6g.NV.OV.PV.QV.RV.<N.SV.TV.UV.VV.WV.XV.YV.ZV.`V. W..W.+W.rL <u w{ T# o; S/ 1^ {+ |= ^+ ^+ (^ x{ =+ NC.}u @W.#W.$W.%W.&W.*W.ue.iP.=W.+#.+}.CU.}R.-W.;W.>W.,W.'W.v(.)W.)O.!W.~W.{W.]W.^W./W.(W._W.[+.<+.=O b/.^` +;.C).C).L@.Cv nP s{.:W.<W.[W.}W.+D.|W.1W.*z VF 2W.W+.3W.4W.5W.7k.*D.6W.7W./B $D $D -r.`6.~G Z+.xn.8W.=} ck bk VO =c.Ry.9W.0W.aW.^Z Pv.'D.^K.bW.ak.sa.-9 W7 *2 pa.18.SP. V.<u.&: r2.r2.cW.gp.)4.P6 |/ :m `_ Ue.Yp _L.dW.eW.fW.gW.hW.iW.jW.kW.lW.mW.nW.{W.oW.}L.A5.4L ,[.pW.3/ `o.0! Kq.ik }n.5/ B( %: m}.D> }n.qW.rW.sW.9x.tW.9x.qW.uW.vW.wW.c< v| W7 ta.;7.k8.xW.yW.zW.2k.yW.$_.AW.BW.C5.wa.~h.{w.!t.(w.}r.Hx.sA.a}.3Q.zO.zO.3Q.CW.)S.JT.DW.EW.FW.GW.HW.vp.1r.sp.pf.FH.FH.FH.FH.FH.FH.4c.4c.",
">C {T TK =m IW.JW.KW.LW.MW.NW.OW.PW.QW.RW.SW.TW.UW.VW.WW.XW.YW.ZW.`W. X..X.+X.@X.#X.$X.%X.&X.*d.*X.=X.-X.;X.&i.>X.,X.'X.)X.!X.~X.{X.]X.^X./X.(X._X.:X.<X.[X.}X.|X.1X.2X..L.3X.7b.4X.5X.6X.7X.8X.y-.9X.0X.aX.bX.cX.dX.eX.Sm.GV.fX.ky.gX.hX.iX.<N.jX.kX.lX.fM.mX.nX.e=.WS.oX.F= pX.91 4'.[u #O.5+ E{ 2+ =~ I# I# ]+ I# Y: n, of of m: qX.rX.sX.tX.uX.vX.wX.xX.yX.zX.n- +}.AX.BX.>T.CX.DX.EX.FX.u(.)O.vI.]W.{W.,V.s{.GX.S@.;O :H.<+.pM HX.EG e&.C).$I @f l&.IX.JX.KX.LX.w< 5E MX.NX.1B OX.$y PX.QX.RX.RX.SX.iE.FC 7O.Kl.MM.tH G6 ]H vu %f.**.Q=.Y+.ki bk _m VO 5k.5T.Sl.TX.9W.UX.gn.VX./Z I` vA G( >} dd 3A.+T 7A.6%.WX.&: >{ XX.>*.YX.gp.'4.v4 -9 }*.,f }V Nr ZX.Aq.`X. Y..Y.+Y.@Y.#Y.$Y.tv.0/.%Y.&Y.*Y.jO.4L =Y.xp.rL.pW.7%.XX.m}.,1.Tg E> 4/ $: mi '1.m}.Zo.qW.1L -Y.Jq.|L 1L Y7 ;Y.>Y.~V.;} D| u| wi.,Y.on.2k.xW.$_.yW.$_.xW.'Y.B5.va.of.rp.rp.}r.Hx.lp.Ex.Fx.qA.2r.Ex.3Q.:r.7r.7r.HW.)*.)Y.!Y.~Y.Fx.'t.{w.{w.FH.FH.FH.FH.FH.4c.4c.4c.",
"8] c1 {Y.]Y.sf ^Y./Y.(Y._Y.:Y.<Y.[Y.}Y.aI.|Y.1Y.2Y.3Y.4Y.ce 5Y.6Y.7Y.8Y.9Y.fD.0Y.q5 aY.bY.2w.cY.L1.dY.eY.fY.2w.gY.hY.)X.iY.jY.kY.lY.mY.PH.^X.nY.oY.pY.XT qY.rY.sY.tY.uY.vY.nY.wY.xY.yY.zY.AY.cn 6w.BY.76.CY.]M.DY.EY.FY.Z_.GY.HY.IY.JY.KY.LY.EO.jX.MY.NY.OY.PY.QY.RY.uf [S.SY.TY.UK K~ w{ s9 E# <= e^ n, {+ I# {+ )| y{ n, aI aI |^ UY.VY.WY.XY.YY.ZY.`Y. Z..Z.+Z.`t pb.u .}R.BX.@Z.#Z.$Z.*}.NF.NF.9/. ^.%Z.&Z.,V.*Z..^.(` /O.J@.iO.6S XW ^L :S JT Pt E(.~o <A.=Z.-Z.j! ;Z.>Z.,Z.'Z.<T.)Z.5p.!Z.~Z.{Z.Z+.6f.rs.ud.Jl.ax.%9 Ig UC Lw 1E.**.P=.gN Kr dk }} VO 5T.$N.]Z.^Z./Z.3u.aW.fn.`M.a3 k< ~} k< Rr c< [% (Z.%: >{ J'.|!.|!.N|.N|._,.!m.q* C- h< E5 0< wv.uJ _Z.:Z.<Z.[Z.}Z.|Z.1Z.2Z.&u.-I *Y.ms.b5.s2.D| Oi._c.mu.Qi.rL.rL.s2.D| xp.#. Xd./m.=_.#. {4.=Y.=N.3Z.i8.4Z.5Z.6Z.6Z.7Z.aE.8Z.6H.p4 x( KJ @2 ;: C5.C5.B- yW.[Q.2k.9Z.$_.0Z.Fi.(w.(w.}r.zO.!z.1r.'t.'t.)t.Ex.)t.qA.'t.tp.vp.Oi.aZ.bZ.cZ.dZ.,t.pf.}G.FH.FH.FH.FH.4c.4c.4c.Ca.",
"s_ H~ Sd eZ.fZ.gZ.hZ.iZ.jZ.kZ.lZ.mZ.nZ.oZ.pZ.*C.qZ.rZ.sZ.tZ.uZ.vZ.wZ.xZ.yZ.zZ.AZ.BZ.CZ.DZ.O_.EZ.FZ.GZ.HZ.IZ.JZ.KZ.LZ.MZ.NZ.==.OZ.7Z PZ.2d QZ.RZ.SZ.nY.TZ.UZ.VZ.WZ.XZ.YZ.ZZ.`Z. `..`.+`.@`.#`.$`.%`.}~.&`.*`.=`.7b.3X.-`.;`.>`.,`.'`.)s.)`.!`.~`.{`.]`.^`./`.(`._`.:`.<`.[`.}`.|`.z; VK 1`./) := [) *& <+ (^ ^+ ]+ /^ x{ |) :+ d, F{ 2`.a; UY.3`.4`.5`.6`.7`.8`.9`.0`.a`.b`. Q._` c`.d`.(` p(.vI.p(.AX.Y@.e`.f`.g`.h`.]W.v).8/.i`.wI.iO.<o kM 1V l&.Rj.E(.4k .^.j`.k`.[d.l`.m`.Po n`.o`.f:.v5.C` i#.eH z'.0E 4p.4..p`.q`.r`.3B j' 9d ~G oU R=.$M OD oi }} x4 *c.^Z.fn./Z.s`. 0. 0.5k. 0. c y| {} dE.E5 hk t`.>{ >{ K'.J'.|!.J'.cW._,.7%.Ji.AH.AH.)h.K@ '1.Ny.[L.zP.u`.rP.v`.w`.x`.y`.z`.Al.'V.Ny.,1.i8.A`.B`.&t.C`.&t.8D.B`.Oi.D`.xp.=_.,7.)0.)0.o8.n8.8%.{4.E`.F`.>].G`.H`.I`.0x.J`.js.K`.L`.M`.w( $].x| ,} ;: C5.B5.$_.$_.2k.2k.2k.N`.O`.^z.(w.|r.1r.tp.1r.!z.2r.kp.kp.!z.'t.1r.@t.(m.xk.xp.vk.P`.Q`.Ca.HH.op.FH.FH.FH.4c.4c.Ca.Ca.Ca.",
"R`.S`.cf T`.U`.V`.W`.X`.Y`.Z`.G-.<S.(S.``.  +-L . +8Y.+ +US.@ +# +$ +% +& +* +UZ.= +- +Ix.; +CA.> +, +' +rV.) +)C.! +~ +{ +] +^ +/ +( +_ +: +< +cm [ +} +| +ZE.1 +2 +3 +jY.4 +5 +6 +7 +8 +9 +0 +CZ.CZ.a +[9.b +c +d +e +f +Ph g +h +i +j +RC.k +l +m +n +o +p +^w 3P.q +5h r +P-.s +t +G} () u +1+ }= v +(+ (+ {+ /^ /^ n, '& d, o, d, w +<+ U! vZ x +y +z +A +B +po.pw.C +`Q YQ C$.D +xb.#:.kP p(.%Z.rM E +F +/L G +H +bR.*O IQ Y].wI.<o XW 4F ;` :S o$.5k I +J +K +L +M +N +O +%v P +Q +R +*4._!.T<.S +s~.T +U +V +7d.RL j' c* pa 4..P=.!r.~r.1m n4 >9 s4 Hn.W +Ns.X +Y +Z ++0.I] ;} Gv p4 2/ l}.m}.]m ,D.,{ cW.cW.ep.fp.4Q.!*.wk.Qi.` +` +~w.~w.up.5r.#. i8.|%.=7. .+Xj.&Y...++.+&Y.|%.xp.D| L@ Oi.mu.$t.@.+@.+@.+@.+#.+$t.$.+_c./m.,t.,t.,t.@t.@t.vp.vp.Mi.A`.;N.%.+&.+&.+*.+=.+-.+;.+>.+>Y.9k Z  a! k* ua.%0.wa.0Z.N`.ju.,.+'h.)Q.rf.<r.!z.@t.'t.zO.2r.,t.kp.<r.!w.'t.rp.rp.rp.@t./m.Oi.4r.r< Ca.,t.pp.DL.HH.HH.4c.{w.{w.(m.Ca.vp.",
"6g '.+).+!.+~.+{.+].+It.^.+/.+(.+_.+:.+<.+[.+}.+|.+1.+2.+Z).3.+Qx Qx 4.+gD.5.+6.+h. 7.+8.+9.+R-.0.+a.+QS.b.+c.+d.+e.+f.+g.+h.+tc i.+j.+>&.k.+l.+m.+n.+o.+YL.p.+q.+r.+s.+t.+c@ u.+v.+w.+x.+y.+J~.c +c +R0.z.+A.+B.+C.+D.+E.+F.+G.+H.+I.+J.+K.+L.+M.+N.+vf O.+P.+CO.Q.+R.+Hc S.+Pj T.+U.+/W -F u= Q= [^ %~ L# '& {+ /^ /^ {+ '& L# o, d, |) ~| V.+m: V+ W.+X.+%S Y.+Z.+`.+vQ  ++FQ _W.,~.o( T_ .++9/.+++@++#++$++#++@++%++g`.%Y.&++^S JQ r{.EG lk 4m 4F /~.5k *++=++-++>V.;++2n >++,++'++)++jR.!++p2.NQ ~++#y {++os.]++>_.pa pi.Lw UC s$.n2.Ps.Qs.O3. :  c !r.^++X +Ps.)r.Os.n* >2 1% -} C5 6! /++8! +: YM.t`.F] (++Fs.dp._r._++Pi.wp.3r.:++<++[++[++}++|++` +1++#t.;t.Oi.D`.2++3++4Z.3Z.=_.Xd.)0.up.#t.4++@.+@.+5++5++@.+@.+6++6++(m.(m.4c.4c.up.up.up.up.,t.4r.r< A`.qL.7++2++8++9++=.+Av.0++a++7! 2/ B( J` q* $0.b++)Q.iu.ju.ju.iu.pk.]h.Ex.<r.1r.'t.2r.)t.qA.)t.qA.@t.up.4c.4c.4c.Ca./m.Qi.vp.r< Ca.{w.qp.DL.pp.DL./z.~w.(m.qf.(m.4r.",
"c++d++e++f++g++h++i++gO j++k++l++m++qc n++o++p++q++r++}j s++t++u++v++w++x++y++z++A++A++B++C++Sv D++E++F++2X.-e G+++M.H++I++J++K++L++M++N++O++P++Q++R++pS.S++T++U++V++W++X++Y++Z+++s `++39. @+.@++@+@@+#@+$@+%@+&@+*@+=@+-@+sQ.)U.3N.;@+>@+,@+'@+)@+!@+~@+{@+]@+^@+/@+(@+_@+9'.:@+<@+[@+}@+|@+1@+z{ )& o, p, 58 1= {+ /^ /^ '& L# 1) _+ )| r[ #d F# A& 2@+3@+4@+5@+6@+7@+8@+9@+ a.*8.o(.ET Y1.sI.0@+rM a@+b@+c@+d@+e@+f@+PT )O g@+&` =}.*2.nP oP o|.o|.h@+..+i@+j@+k@+l@+m@+n@+)l 8m o@+p@+&p.q@+r@+f&.''.s@+t@++k.u@+[8.i' X&.c* .v  @.nX  N.6u.%2 [C ix.Y +v@+Lb.4u.P@ 1% I] w@+w@+.: AM :C B> /++*. YM.N|.r2.Fs.x@+DW.:r.JT.;w.1r.ZI.<++y@+z@+z@+A@+A@+B@+C@+D@+D@+D@+E@+F@+F@+F@+wH.Zd.Zd.Aa.~w.|++G@+H@+I@+5++5++H@+H@+J@+J@+/z./z.pf.qf.J@+J@+J@+J@+K@+L@+qf.;t.>w.mu.M@+N@+O@+P@+ms.Q@+R@+S@+u' %: J` @0.#0.iu.iu.'h.ju.ju.iu.pk.!h.:r.CW.7r.1r.!z.zO.)t.'t.@t./z.pf.pf.pf.pf.qf.r< Mi.vp.5r.up.{w.%J.FH.op.pp.4c.~w.Ca.qf.r< 6r.",
"T@+a1 R+ C= `d U@+V@+W@+X@+Y@+Z@+`@+ #+.#++#+@#+##+$#+%#+&#+*#+=#+-#+;#+0{.>#+,#+'#+)#+!#+9{.L7.Jh.~#+{#+]#+^#+9q./#+*M.(#+_#+&i.:#+<#+[#+}#+|#+1#+2#+3#+4#+5#+6#+7#+3 +8#+9#+8O 0#+a#+b#+c#+d#+e#+f#+g#+h#+2<.i#+j#+8K.]4.k#+7K.l#+m#+-M.n#+o#+~^.vV.Ph p#+q#+sF.r#+s#+;`.t#+bD.u#+v#+DJ.3J !) 9& '_ Bm p, 58 /+ 1= /^ /^ (^ L# 1) L# 9z 1^ y{ e^ := $& [T w#+x#+y#+z#+A#+B#+t).d9.C#+D#+pI.r(.y$.sM E#+F#+G#+H#+I#+J#+K#+Ci &2.L#+ { (O.@^.(:.3S 3S oY &Y.M#+N#+I| O#+P#+Q#+R#+wM.ET S#+T#+6V U#+aP VW V#+W#+]+.X#+Y#+Z#+E .:O `#+yE vi.En.9p.c3 [C GG Gn.>2 Hn.Os.dL.1% ){ d! 63 ;}  $+.$++$+3L ]m ]o N|.Fs._r.rk.JT.qA.tp.!t.!t.|++<++A@+A@+@$+E@+#$+$$+%$+&$+*$+=$+=$+=$+=$+-$+;$+>$+6Q.,$+}++}++G@+I@+I@+5++5++H@+H@+J@+'$+DL.DL.qf.qf.pf.pf.J@+J@+J@+J@+` +)$+)$+;t.mu.!$+~$+{$+|%.zl.wW.]$+v' #: @0.b++ju.ju.,.+,.+ju.'h.N`.]h.!w.IT.:r.7r.qA.2r.)t.2r.@t.up./z.pf.pf./z./z.(m.5r.Mi.>t.,t.!t.rp.%J.pp.GH.%J.{w.rp.@t.5r.vp.;w.",
"nZ ^$+/$+($+{b {s._$+:$+<$+G.+[$+}$+|$+1$+2$+3$+4$+5$+6$+}~.7$+8$+9$+0$+$R.a$+b$+c$+7C d$+_E S4.{M.e$+Rv @g f$+g$+h$+i$+j$+Bk.k$+!^.l$+m$+n$+o$+p$+q$+FZ.r$+s$+t$+u$+v$+w$+x$+y$+z$+A$+B$+C$+D$+E$+F$+G$+H$+I$+J$+K$+L$+M$+N$+O$+P$+Q$+.x.R$+S$+T$+U$+V$+W$+IY.IJ.3g.X$+Tm.Y$+Z$+`$+ %+.%++a 0q `! J/ }^ K# p, 3= 1= /^ /^ 1= ,+ L# 1) n2 (^ |) m, S# T# 1_ +%+@%+{w #%+$%+%%+&%+*%+=%+-%+#` k$.;%+>%+,%+'%+)%+!%+~%+T  {%+jM Qj.*a.E6 *2.6&.(V (V NW 5S ^S ]%+RR.5} ^%+/%+(%+&8.h`._%+a/.vJ :%+). H| <%+[%+}%+s .|%+1%+2%+3%+4%+(G 8< 18.Es.5%+Ov.<% l* 6%+F] 8O.02.7%+HJ ;{ 8%+3L AM :C (O 5L D> ,*.9%+;[.gp.Li.'S.!w.sp.!t.pp.}++}++0%+0%+a%+F@+a%+F@+&$+=$+b%+c%+;$+;$+;$+;$+;$+;$+>$+>$+d%+0%+}++G@+I@+5++@.+@.+J@+J@+DL.(h.(h.DL.6++$t.6++J@+K@+wH.wH.wH.e%+e%+e%+f%+1++>w.&t.g%+h%+i%+j%+k%+l%+if.mk.Kn.2Q.2Q.Zs.2Q.Ln.ok.Ii.]h.2r.)S.7r.wp.;w.)S.!w.tp.!t.4c./z.pf.DL.FH.FH./z.up.vp.tp.,t.!t.rp.%J.pp.op.qp.{w.sp.@t.r< 5r.wk.",
"m%+N$.n%+o%+p%+O.+;g q%+r%+P_.s%+s%+t%+u%+v%+w%+x%+y%+WT z%+dq.A%+Ck./#+Tm.B%+C%+&q.Bf.D%+eX.$v.E%+F%+G%+H%+kF.I%+]q.Xe J%+K%+L%+M%+)-.N%+O%+P%+Q%+uW R%+Tm.S%+mj.mj.2e NQ.T%+U%+V%+W%+Ph.X%+ I.X%+Y%+Z%+`%+ &+.&+.&++&+@&+#&+E$+$&+%&+&&+*&+=&+-&+a'.>s.;&+>&+,&+Rz.'&+)&+;s.Y$+!&+~&+{&+{Y.]&+GU J/ 2`.^&+p, 3= /+ /^ /^ {+ ,+ L# 1) F{ %~ {_ m, :^ 6( P= /&+eI.(&+_&+:&+<&+[&+}&+DD |&+1&+l<.2&+3&+4&+5&+)%+!%+6&+7&+v- 8&+l3.m3.m3.(d.9&+Mr Xp (V A .gP 0&+a&+b&+c&+d&+e&+f&+g&+-8.:W.h&+i&+j&+k&+r .l&+m&++^.n&+o&+p&+q&+mE #D X{.Zb r&+ V.Is.xp... t`.5/ G> [% }% H] s' :C  $+Kq.A~.}n.D> cE.|!.>*.|u.=0.:r.zO.tu.}G.op.s&+t&+u&+,$+yk.6Q.6Q.6Q.6Q.,$+,$+v&+&$+&$+w&+w&+$$+b%+b%+>$+>$+d%+,$+}++G@+@.+5++@.+@.+J@+'$+(h._h._h.(h.6++%t.L@+L@+wH.}++0%+0%+0%+a%+0%+e%+x&+y&+z&+b2.A&+3Z.B&+C&+#-.sk.D&+EE.2Q.Di.)z.Di.Ln.ok.O`.rf.IT.)S.wp.lu.;w.;w.@t.(m.4c./z.pf.pf.DL.DL.DL.pf.Ca.vp.@t.up.~w.{w.%J.FH.qp.FH.~w.@t.,t.r< Qi.Ni.",
"R[.E&+F&+G&+H&+I&+J&+7G.K&+L&+5B.M&+XN.N&+)P.O&+dX.P&+Q&+R&+S&+O%+^e Y%+zf T&+U&+V&+W&+X&+Y&+Yi.Z&+`&+ *+,o..*+9m.+*+Qk.@*+#*+$*+%*+&*+**+=*+-*+;*+8@+>*+,*+'*+)*+1h.!*+Hj ~*+{*+]*+(l.xX.^*+oF./*+Q%+iI.nJ iI.iI.(*+_*+Pm.1J.=&+:*+<*+[*+}*+|*+1*+`d.2*+3*+4*+5*+6*+7*+8*+9*+m$+0*+a*+b*+u^ c*+GU d*+2`.=& b; W! /+ /^ /^ {+ |= >+ 1) F{ t; <+ l, r_ 0] e*+f*+g*+h*+i*+j*+k*+l*+m*+n*+o*+Po.xM.q .3&+4&+5&+)%+p*+q*+r*+s*+P  p<.h' :! 9Y t*+Mr p<.x<.u*+v*+w*+x*+l@+y*+z*+e&+ol.A*+DP B*+[Y C*+xU.j&+D*+E*+F*+ ^.G*+QC H*+!% Vu Tu ]Z s< I*+U<.+. _c.4/ >{ `o.4L 9! nL.u' t' :C JJ (O |%. $+h%+>].J'.YX.a2./*.JT.!z.|r.GH.u&+J*+J*+s&+yk.Zd.Zd.K*+K*+4c.4c.Aa.Ba.~w.~w.pp.FH.wH.FH.6Q.>$+Si.d%+,$+}++G@+@.+@.+@.+@.+J@+'$+(h._h.>$+_h.6++#.+@.+4++L*+L*+F@+=$+E@+M*+F@+N*+O*+P*+Q*+R*+S*+s2.T*+gp.;0.U*+kk.Xs.gu.9r.fu.Bx.2Q.ok.lf.lf.IT.vk.)S.7r.lu.vp.(m.qf.4c./z.pf.pf.DL.DL.DL.pf.(m.4r.@t.Ca.4c.{w.qp.DL.%J.FH.~w.tp.qA.)S.V*+dT.",
"W*+X*+Y*+ul Z*+`*+0l. =+l{..=++=+@=+)7.#=+$=+[e %=+R&+&=+*=+[P.==+-=+;=+eq.>=+,=+'=+)=+LV.!=+~=+{=+]=+Aw. g 2q.^=+/=+(=+;% _=+:=+<=+[=+}=+|=+1=+Xn.-o.2=+3=+4=+ *+5=+]q.Bf.6=+7=+9I.8=+9=+0=+a=+b=+c=+d=+e=+e=+f=+g=+h=+'*+i=+'&+po.j=+e$+M_.k=+Or.l=+Mh.m=+@s.n=+zC.o=+cn p=+q=+r=+s=+t=+|_ u=+bz t= [^ %~ 2= ,& 3= {+ {+ 1= ,+ >+ 0; q, L/ n2 n, Z: W^ &[ v=+w=+x=+y=+z=+A=+B=+C=+D=+E=+F=+G=+H=+I=+J=+'%+K=+L=+L=+M=+N=+TW 4S O=+P=+(V Q=+MW 6&.r3.p$.R=+S=+)8.T=+U=+V=+-V `1.8% kP W=+X=+P> Y=+Z=+`=+{p  -+Xe.}R.:L.[O..-++-+@-+vE Kr #-+DB.4/ $: B( 5/ B( ]m I> 9! C> I> Y=.b5.,1.5L `=.J'.>*.;[.$-+_r.JT.'t.y&+{w.}++a%+%-+%-+%-+2c.Zd.Zd.K*+/z.4c.@m.)0.)0.)0.)0.Ca.Ca.(m.(m./z.>$+>$+d%+,$+}++K@+H@+H@+H@+H@+'$+%-+(h._h.>$+_h.J@+@.+@.+H@+&-+L*+F@+F@+B@+*-+F@+N*+N*+=-+--+;-+vk.$: pW.0}.]*.>-+rf.Ln.2Q.9r.fu.Bx.2Q.ok.lf.nk.IT.:r.Ex.zO.'t.(m.qf.pf.!t.~w.4c.4c.pp.pp.FH.pf.(m.up.,t.Ca.4c.!t.pp.DL.GH.qp.!t.^z.Fx.aO.,-+'-+",
")-+!-+~-+{-+]-+f .r#+^-+rC /-+(-+_-+:-+i$+*V Z[.@R Af.<-+[-+}-+|-+1-+2-+!*+3-+4-+5-+6-++5.7-+~v.8-+9-+0-+a-+b-+_0.&o.a$.c-+d-+e-+f-+e-+<I.g-+g-+cm.h-++q.!o.i-+!o..j.j-+k-+j-+vJ.l-+m-+n-+]y.o-+p-+q-+r-+Wu.s-+t-+u-+v-+w-+x-+y-+z-+Nm.=`.A-+B-+AN.'P.C-+Rz.D-+E-+F-+G-+H-++H.I-+J-+K-+sG L-+<T 1@+Am q= P# N# M# ,& /+ 3= 3= 3= W! W! >+ L# >+ >+ !6 4+ DR M-+9N.N-+ZW.O-+P-+Q-+R-+S-+T-+U-+DD `0.YC.0P V-+W-+X-+Y-+Z-+`-+&O Qj. ;+.;+${ C).+;+!5.IW @;+#;+$;+%;+&;+*;+=;+!. -;+)'.]i.Qt ;;+>;+,;+vJ _` ';+);+!;+h|.oB.~;+{;+];+^;+/;+ek.s4 l< {{ ed fd 83 F5 gd Tg 83 x' x' y| k< ,[.(;+5Q._;+5Q.vk.:;+<;+[;+)$+};+1++=-+G@+L*+L*+L*+pf./z.4c.4c./z./z.4c.~w.!t.pf.pf.~w.!t.4c.pf.pf.6Q.|;+a%+%-+%-+'$+'$+'$+'$+'$+%-+%-+%-+(h._h.%-+&-+&-+&-+M*+M*+M*+M*+M*+N*+M*+&-+1;+G@+4++--+1++JT.r< hp.2;+ip.tA.zO.]z.Ex.su.]w.]t.lp.[r.lp.su./w.Hx.tu.{w./z.pf.pf.DL.HH.HH.HH.HH.HH.DL.DL.DL.4c.4c.4c.4c.4c.4c.4c.4c.pf.4c.rp.|r.^z.'t.up.qf.",
"3;+V7.4;+5;+6;+!E.7;+6;+Sh.Ut.8;+9;+5$+0;+a;+b;+$j.TN.c;+d;+e;+]0.|-+f;+g;+Cg h;+i;+j;+k;+l;+m;+Mp.n;+Ku.o;+Z7.p;+q;+r;+s;+t;+u;+v;+Yf w;+x;+Yr Jw.Er.y;+z;+Q .L).L).A;+9m.Pz.Pz.B;+B;+C;+C;+R_ D;+E;+%B.F;+%B.G;+H;+I;+J;+K;+L;+M;+N;+O;+@&.P;+-s./t.Rz.Q;+R;+S;+T;+U;+V;+W;+X;+Y;+Z;+`;+1_ qo 1@+,_ e$ L, O# M# ,& W! W! W! W! W! 3= ,+ /+ 3= p: J# l, AR  >+.>++>+@>+#>+$>+%>+&>+*>+=>+->+'H.c<.;>+iM 3V >>+,>+'>+)>+!>+~>+JQ -;.{>+q>.z] 4k ]>+^>+#5./>+(>+_>+:>+<>+[>+i|.:%+-I 'V.ed }>+JP.|>+yP.1>+EX.2>+3>+4>+]A.Z1.G  5>+Ir q3.iH 53 ;} s2.s2.#2 Gv Tg -{ D] d! Gn.E] {{ mi $: *0.vk.vk.uk.R*+6>+[;+3r.4++4++@.+@.+H@+H@+7>+G@+pf./z.4c./z.pf.pf./z.4c.pf.pf.pf./z./z.pf.pf.4c.a%+a%+a%+%-+%-+%-+%-+%-+%-+%-+%-+%-+%-+%-+%-+%-+*-+*-+&-+&-+M*+M*+M*+M*+H@+8>+:++1;+9>+};+0>+a>+:r.r< b>+aO.Fx.jp.Ex.]z.kp.jp./w.]t.Hx.lp.Hx.]t.c>+LE.np.qp.DL.HH.DL.FH.DL.DL.DL.FH.FH.FH.FH.FH.4c.4c.4c.4c.4c.4c.4c.4c./z.4c.~w.!t.!t.~w.~w.4c.",
"d>+e>+f>+Ft.g>+^#+^#+^#+h>+i>+T&+j>+Ih.kh.6-+JV._&.k>+l>+m>+n>+A#.}P.o>+p>+nA Z&+q>+r>+s>+t>+Gf /F.u>+(B.v>+w>+x>+ur.y>+:j.z>+Tf Tp.A>+x;+B>+u;+u;+*).{7.Fr.Fr.C>+Q .hJ.hJ.D>+tr.E>+E>+F>+F>+G>+XA.H>+I>+J>+K>+L>+Wu.M>+5C.Lp.N>+O>+yK.D#.IP B-+P>+Q>+R>+S>+T>+U>+rj.V>+)s.W>+X>+Y>+Wh y; 2; s9 ,_ Am W+ P# O# M# ,& W! W! W! W! W! 3= 1= ^+ >& 3= ;& P/ u{ fU.Z>+`>+i + ,+BJ.%>+&>+.,+R-++,+7P )C @,+bx x .='.#,+$,+%,+&,+*,+NF.[O yP Sj.=,+^` xb.-,+#5.;,+>,+,,+',+),+!,+~,+J=+{,+=7.$: @. >9 My.]i.&Y.],+!+.^,+/,+(,+ Q.{L.!S q{.5G Cd.63 Gv CM D| E5 n4 dE.mi D| ]} +T %f s< |/ 6%./*.)S.wp.;w.Ex.kp._,+6++pf.pf.8>+8>+8>+8>+&-+L*+pf./z.4c.4c./z./z.4c.!t.~w.{w.|r.mp.|r.4c.pf./z.a%+a%+a%+%-+%-+%-+%-+%-+%-+%-+%-+%-+%-+%-+%-+%-+'$+'$+'$+'$+'$+'$+'$+'$+pf.K@+tH.` +qf.:,+<,+[,+CW.@-.},+|,+lf.kk.+t.CL.+t.+t.Di.)z.)z.)z.Ys.Ys.1,+#J.op.pp.DL.DL.FH.pp.FH.pp.pp.pp.pp.qp.qp.qp.4c.4c.4c.4c.4c.4c.4c.4c.{w.~w./z.pf.pf.4c.!t.rp.",
"2,+3,+`h.4,+5,+i$+~M.eX.Y&+6,+}P.Ti.L%+7,++g _&.8,+9,+:9.0,+a,+b,+c,+d,+e,+f,+g,+h,+i,+j,+k,+l,+Ff G5.If m,+n,+dt.o,+p,+q,+Of r,+Tp.px s,+t,+,N u,+dm.v,+9c.w,+Gk.Gk.2q.2q.u;+R1 MG.x,+y,+z,+A,+B,+Zu.C,+Eh ;y.D,+E,+F,+ o.G,+H,+I,+,d.J,+K,+L,+M,+N,+O,+P,+Q;+Q,+Y$+]-+R,+S,+T,+U,+V,+}T HK ,_ Am c, o2 O# M# ,& ,& W! W! W! W! W! /+ ]+ {[ tL /+ I# [( LX d> W,+4h X,+ ,+Y,+Z,+`,+7S. '+.'++'+GF @'+#'+$'+Z1.%'+j&+&'+*'+='+:A.eP 6k FU.V-+uM F .-'+ZC.;'+>'+,'+''+]{.)'+!'+~'+{'+|%.E> ]c.l* _C VJ.]'+^'+:=._` /'+('+RT E6 Xp _S RW ^m gd `b gd E5 =_.n4 (} _'+f< f! |/ 4% +2 ,} @. ]*.wp.'t.qA.zO.<r.:,+pf.J@+J@+8>+8>+8>+M*+M*+&-+pf./z.~w.!t.{w.rp.(w.|r.}r.Hx.+C.:'+]w.(w.pf.pf.a%+a%+a%+%-+%-+%-+%-+%-+%-+%-+%-+%-+%-+%-+%-+%-+'$+'$+'$+'$+'$+'$+'$+wH.|++f%+`I.|++qf.<'+['+}'+mk.hf.|'+mk.nk.1'+1'++t.lk.lk.Di.Ys.Vs.Vs.)z.Zs.op.%J.pp.DL.DL.DL.pp.pp.FH.FH.pp.pp.pp.pp.qp.qp./z./z./z./z./z./z./z./z.sp.{w.4c.pf.pf.4c.rp.|r.",
"0l.2'+Ft.P>+M,+3'+Y&+po.!=+Cg 4'+IF J7.5'+w2.6'+7'+8'+9'+94.0'+a'+b'+c'+d'+e'+}:.f'+g'+h'+8t.i'+,v 0t.j'+_0.s8.'K 0y.v;+k'+l'+m'+yG.)v.s,+x;+cm.D>+D>.n'+Wn.mm.1>.1>.rr.2q.R1 R1 Gh o'+:).p'+Sp.^2.`u.q'+r'+s'+t'+u'+xC.Aw.G,+v'+'&+~M.|P.w'+x'+T&+h$+y'+^*+z'+qj.f .A'+B'+C'+D'+E'+F'+G'+e$ c, +5 5; Q/ M# 5= ,& p, W! W! W! W! 3= /+ T} Xd l8 ]+ )| [( LX he gZ.H'+2,+al.I'+J'+K'+E&+L'+M'+N'+O'+P'+I$.9@+k6.Q'+R'+S'+>%+T'+='+*,+U'+V'+W'+X'+GX._L.pB.Y'+Z'+r].`'+ )+.)++)+@)+#)+$)+;0.'0.'7.mi .$+=7. .+Al.%)+ t &)+Zu Kg }C $,.^~.A5 >9 n4 >9 pU j< 'r.*)+=)+Uy.7u.bf.-9 73 -)+yi.AH.'t.sp.^z.tu.|r.x&+vH.e%+vH.}++wH.&-+M*+M*+M*+/z.~w.{w.sp.|r.^z.mp.vu.Hx./w.+C.^w.su.rp.pf.pf.a%+a%+a%+%-+%-+%-+%-+%-+%-+%-+%-+%-+%-+%-+%-+%-+HH.'$+'$+'$+wH.wH.K@+K@+` +` +)$+6++L@+;)+['+<,+mk.>)+|'+|,+CL.D&+D&++t.CL.CL.Us.Us.Ys.Zs.O`.of.FH.FH.DL.DL.DL.FH.pp.pp.DL.DL.DL.DL.FH.FH.FH.FH./z./z./z./z./z./z./z./z.{w.!t.4c./z./z.~w.{w.rp.",
",)+4B.')+))+!)+~)+{)+])+aJ.^)+BY./)+()+_)+:)+<)+[)+})+O'.|)+ke.ke.1)+mt.2)+3)+'&+U-+4)+5)+6)+xC.]7.7)+ur.6M.6M.Cr.A>+0`.8)+9)+0)+a)+b)+fL E>+Cr.c)+hJ.vJ.j-+ q.Wn.mm.1>.rr.d)+e)+WJ f)+g)+h)+i)+j)+k)+.E l)+m)+it.Yr iF.n)+o)+Z&+po.no.p)+q)+O'.r)+s)+s)+>*+t)+}l.>`.u)+v)+^j >E.w)+x)+Wk o2 +5 ~) 6; |^ 5= 5= p, p, W! W! W! W! 3= 1= 1^ qf fb ]+ /^ [( OX {T y)+z)+8V.A)+B)+C)+*b D)+E)+F)+G)+H)+I)+J)+K)+pw.L)+M)+N)+vv.T'+O)+P)+Q)+v- R)+&Y.)'.^T.S)+T)+P#+ov.U)+V)+W)+X)+Y)+Z)+`)+pH.1c.Xd._c.s2..$+=7.|V  !+|>+,I Ed.YF.H` /u.1Z ;2 E] GG D| pU 'r..!++!+@!+oa.(Z v4 ,7.(m.,7.b++1c.rp.(w.^z.sp.!t.vH.#!+#!+$!+e%+}++F@+*-+M*+M*+FH.!t.rp.(w.|r.tu.[r.lp.mp.tu.^z.|r.!t.pf.pf.!t.wH.a%+a%+%-+%-+%-+%-+%-+%-+%-+%-+%-+%-+%-+%-+%-+HH.'$+'$+'$+wH.}++|++|++K@+pf.qf.qf.z&+%!+&!+jp.jf.*!+sk.hf.>-+D&+EE.CL.EE.EE.Vs.)z.~m.of.Aa.pf.HH.DL.DL.FH.FH.FH.FH.FH.HH.HH.HH.HH.HH.DL.DL.DL./z./z./z./z./z./z./z./z./z./z./z./z./z.4c.4c.~w.",
"=!+-M.9l.-!+;!+Ct.5g.>!+fo.,!+'!+g,+&l )!+JK.=B =B dq.T&+1)+!!+`d.~!+{!+]!+,d.<e nG.^!+F5.ur.vr.y>+cm.D>+Yf 0`.|s./!+m'+0)+(!+_!+:!+<!+)v.uJ.[!+*)./3 1>.}!+Xe kO Q,.>I.2q.8*.:j.2p |!+1!+2!+3!+4!+1q.9)+(!+5!+6!+7!+iF.n)+8!+Cg 9!+0!+a!+b!+c!+%=+_&.+g 9J.d!+[l.e!+f!+g!+4@+W.+_W Vk X+ Q/ 6; [^ %~ d, q, q, p, p, W! W! 3= 3= /+ 1= m, l2 l8 l8 /^ +4 [6 uy.h!+i!+j!+k!+l!+&K /s.uy.db P= H} m!+n!+o!+p!+q!+r!+s!+t!+u!+v!+w!+x!+X)+w- %{ {:.+;.6k y!+z!+A!+f|.B!+C!+D!+E!+F!+G!+{$+'t.rp.,t.r< Oi.$: E`.,1.Tg b5.s2.;9 'c.T6 A- !9 s< c< hd j< Zb kL.H!+>f.I!+J!+0A.K!+L!+BW.k8.va.~h.qk.Gi.Mn.op.DL.,$+M!+N!+u&+t&+0%+|;+|;+D@+*-+FH.!t.{w.rp.rp.sp.|r.^z.{w./z.pf.pf.pf.pf./z.rp.FH.FH.FH.DL.DL.DL.DL.DL.DL.DL.DL.DL.DL.DL.DL.DL.HH.DL.DL.FH.4c.~w.~w.!t.up.(m.(m.Ca.IT.O!+P!+JT.rk.Q!+kf.R!+/G.CL.D&+D&+D&+~G.)z.O`.nf./z./z.4c.pf./z.4c.~w.~w.4c.4c./z.pf.pf.pf.pf.pf.pf.pf./z./z./z./z./z./z./z./z./z./z./z./z./z./z./z.4c.4c.",
"S!+T!+U!+V!+W!+X!+NV.Y!+Z!+Om.MK.<e #g `!+`!+s)+ ~+.~++~+@~+#~+!!+ie.$~+%~+&~+*~+=~+-~+;~+p'+XG.0y.[I.XK.>~+,~+'~+gF.)~+0)+_!+!~+:!+5!+~~+Tf B2.{~+#l._).*e.SN.0X.*e.]~+>I.>-.Y~.^~+/~+(~+F[._~+3!+:~+<~+rh.[~+d-+|=+1>.1m.}~+|~+2-+0!+1~+2~+p>+K(.gm.-*+3~+%=+4~+5~+kK.6~+7~+^g <W g$ |^ |^ [^ %~ F{ o, q, q, p, p, W! W! 3= 3= /+ (^ y{ r, a; a; {+ m, .P &! 8~+9~+0~+F&+a~+zo.AY b~+V: 2v H/ Sd c~+d~+o!+e~+,d.f~+g~+h~+H=+i~+P)+j~+k~++;+l~+{:.@D.m~+n~+o~+lP.p~+q~+r~+s~+t~+u~+vp.pf.~w.{w.Ca.(m.r< =_.#. =_.E> +. (m.v~+.w.w~+Ss.+2 x| @2 s< 9p.+!+x~+Vy.y~+J!+z~+K!+z~+nH.kn.(c.$w.Mn.qk.Gi.%J.DL.(h.A~+t&+B~+0%+0%+|;+|;+E@+a%+FH.~w.!t.!t.~w.4c.~w.!t.4c.pf.pf.{w.sp.{w.~w.!t.FH.FH.FH.DL.DL.DL.DL.DL.DL.DL.DL.DL.DL.DL.DL.DL.HH.DL.DL.FH.4c.~w.!t.!t.'t.tp.@t.@t.<;+C~+D~+lu.rk.E~+{*.rk.F~+lk.D&+>-++t.lk.ok.{h.pf.pf.Ba.Fi./z./z.~w.~w.~w.4c./z.pf.pf.pf.pf.pf.pf./z./z./z.pf.pf.pf.pf.pf.pf.pf.pf.~w.~w.4c./z.4c.~w.!t.{w.",
"1w.G~+H~+I~+J~+K~+tj.5g.L~+M~+t)+N~+O~+{=+o=+4-+Z&+a!+P~+Ao l%.OQ.Q~+{).&~+R~+S~+T~+U~+V~+W~+X~+px k'+Y~+Z~+gF.`~+ {+.{+!~++{+|q.|q._!+@{+qt.#{+${+k-+]~+%{+y-.&{+9*.4t.^q.*{+={+X~+-{+;{+)/.>{+Dm.}I }I ,{+}=+'{+1=+9c.){+Gj !{+^U.~{+$v.Y&+p>+9M.I%+jF. q.$j.`G.{{+T++:;.a~+|h I/ J/ 7; d, d, 1) 1) p, p, p, p, p, W! W! 3= 3= /+ '& |) <+ ,+ /+ /+ n, n; &a F)+]{+Xh Xh ^{+(M +b }6 /{+({+rG ob ') _{+:{+<{+[{+Y%+}{+|{+dC.1{+2{+U'+3{+Q=+SW s<.Lv 4{+5{+h`.|F r .N=+6{+)u.-N.>t.rp.~w.~w.~w.up.up.5r.5r.5r.~0.~0.,0.!0.Aa.4c.Cx. t.4% a3 GG Os.cd.7{+Wl.@!+8{+l:.9{+0{+S6 a{+K5 N`.b{+3c.Yd.Mn.{m.c{+xO.d{+e{+f{+g{+a%+uf.%-+&$+B~+DL./z./z./z./z./z./z./z.!t.~w.~w.~w.~w.~w.!t.{w.DL.FH.qp.%J.%J.qp.FH.DL.FH.DL.DL.HH.DL.DL.FH.pp.4c./z./z.4c.Aa.Aa.)0.)0.!h.(m.Xd.=1.E~+h{+*!+rk.i{+[p.<p.eu.zx.jk.jk.zx..t..t.N`.Ba./z.4c./z.pf.pf.pf.4c.!t.!t.4c.pf.pf.pf.pf.pf.pf.pf.pf./z.!t.pf.pf.pf./z.~w.~w./z.pf./z./z.4c.4c.~w.!t.{w.{w.",
"j{+k{+l{+m{+n{+Gp.o{+zf (e Y&+p{+Z&+q{+r{+s{+Ak.9J.X&+1*+t{+~!+1)+ke.mt.u{+R .v{+w{+x{+={+XK.r,+y{+gF.6!+8)+yG.`~+ {+:!+.{++{+|q.+{+_!+k)+Sp.}j.dm..j.|>.KK.Bm.KK.>o.*e.Hk.z{+z!.7,.=-.5].)/.A{+B{+/q.}=+GP d-+C{+d)+D{+){+E{+F{+}h.G{+2)+H{+I{+o)+Aw.Xn.mm.J{+y%+[g.K{+L{+M{+Uc w{ [) 8; K# L# 1) 1) 1) p, p, p, p, W! W! 3= 3= /+ '& <+ &~ L# 3= 3= '& r, Uj /g N{+O{+P{+Q{+DN |6 _( R{+mp S{+T{+>3 !5 U{+V{+W{+X{+Un.I$.yX.Jo.Y{+3R.)O.GX.JQ Yp Z{+`{+ ]+m$.kY .]+V-+fs.BM !4.~h.}G.!t.!t.!t.!t.up.up.up.up.qf.Ca.nf.1c.{h.O`.Ii.Ji.xp.^} Os.+]+@]+!k.#]+$]+8{+w4 Zl.Zl.K5 %]+&]+oi.*w.Hi.uf.K*+Hi.{m.e{+*]+=]+-]+;]+t&+|;+|;+%-+%-+DL./z./z./z./z./z./z./z.~w.4c./z./z.4c.~w.!t.{w.qp.%J.%J.%J.%J.qp.FH.FH.HH.HH.DL.FH.FH.FH.DL.DL.Ba.4c.pf.pf./z.4c.)0.Ca.,0.!h.,7.R!+>]+,]+']+|'+)]+xi.xi.)]+zx.h2.h2.Kd.Ax.hk.'h.Pd.Aa.Pd./c.Aa.4c.4c./z.pf.pf./z.4c.4c.pf.pf./z.4c.4c.~w.~w.~w.~w.4c./z./z.4c./z.pf.pf.pf.pf.pf.pf./z.~w.!t.{w.",
"!]+~]+2.+{]+]]+^]+Ij /]+e).(]+hj.aX.9*.|>.n)+ml _]+:]+c!+<]+ke.q)+<]+b!+[]+Hp.Am.}]+8m.YK.|]+m'+Z~+gF.Y~+a)+1]+_!+!~+!~+_!+2]+3]+4]+2]+5]+6]+2>.7]+8]+SN.P&+9]+(]+}>.&j.4t.0]+g)+a]+b]+_~+2>.B{+c]+/q.4!+A>+A>+C{+<j.:<.k%.'=+9]+9,+d]+e]+f]+8,+7m.yw..o.*{+]~+4'+g]+h]+i]+j]+k]+l]+!M y{ ;& ;& >+ 0; 0; 0; 0; 0; 0; 0; 0; >+ >+ ,+ _+ &~ &~ L# p, W! ,& N# M/ HK OC.7@.m]+sL rN m_ h9 nV n]+mp o]+EU p]+6J q]+r]+s]+t]+u]+v]+w]+x]+y]+'a.5R.Y1.kP z]+A]+)O <` )'.B]+-'.*Q.i8.L@ 1c.Yd.@t.@t.@t.,t.,t.up.~w.~w./z.(w.'0.qf.Ca.^*.kf.8%.ed [0 C]+D]+E]+Ns.F]+G]+H]+|p.cp.Fd.`l.)c.9u.w~+I]+-h.^c.Ba.1c.~h.#w.9r.6D.|G.}G.qp.(h.uf.uf.uf.FH.4c.4c.4c.4c.4c.4c.4c.4c./z.pf.pf./z.~w.{w.sp.~h.~h.{h.1c.1c.Ba.Ba.Aa./z.4c.Ba.1c.1c.Ba.4c./z.Ba./z.pf.pf.@m.v~+v~++m./m.q* J]+qn.K]+L]+Md.m8.M]+Ld.eu.i{+N]+yx.yx.Yv.Ax.hk.ju.(c.Aa.Aa.4c.pf.)0.up.up.Ca.Ca.Ca.Ca.Ca.up.up.up.,t.@t.,t.Ca.qf.!t.4c./z./z.4c.4c.4c./z.4c.4c./z./z./z.~w.!t.{w.",
"O]+3,+'s.P]+Q]+R]+A-+vm.3*.S]+dV T]+Fj >I.Q,.){+bX.U]+D<.j>+j>+V]+vS.~q.W]+0*.8*+5=+X]+[!+6!+Y~+Y~+Y~+m'+0)+`~+3]+2]+2]+3]+Y]+Xr.(q.Y]+Z]+`]+_~+0]+ ^+ml 9]+.^+9]+(]+bX. ^+9c.+^+`]+i)+@^+#^++^+$^+`]+<I.k'+Yr %^+mI Co &^+9X.*^+0e.=^+F%+-^+;^+h'+>^+]I.*{+,^+'^+)^+Sh.al.kQ.!^+NX dI.Y! !6 !6 ;& >+ 0; 0; 0; 0; 0; 0; 0; >+ >+ ,+ _+ <+ |^ d, ,& 3= 3= '& P# ~^+2s ,$ ] .{^+N2 dB.0Q ]^+IK cA ^^+/^+.F  < }] (^+_^+:^+<^+[^+}^+jr.:&.|^+1^+1< 2^+0&+3^+4^+ ^.oM UW 5^+xv.Tg L@ Pd.Aa.n8.>t.vp.@t.,t.,t.~w.~w.~w.1r.Ji.~0.#. ;0.(;+E`.e< 6^+7^+8^+9^+ad.0^+!k.a^+IB.XI.'f.`<./r. m.b^+c^+N]+Ws.-w.ok.~h.Ba.Zd.GH.%J.pp.FH.FH.6Q.%-+HH.4c.4c.4c.4c.4c.4c.4c.4c.4c./z.pf.pf.4c.!t.sp.|r.Fi.of.{h.nf.1c.nf.{h.{h.~h.of.~h.~h.{h.nf.Ba.Ba.Ba.4c.pf.4c.2K.va.wa.va./m.q* d^+e^+f^+M]+:Z g^+h^+qx.qx.qx.Xv.N]+yx.yx.zx.Kd.Ws.-w.iu./c.pf.pf.qf.Ca.,t.tp.tp.,t.Ca.qf.'t.@t.up.up.up.up.(m.qf./z.pf.pf.pf.4c.!t.{w.rp.{w.{w.~w.~w.~w.!t.{w.rp.",
"i^+Z$+ ,+j^+ny.k^+l^+m^+n^+)g.yf.o^+p^+&e.w,+Fj q^+r^+s^+t^+u^+v^+PQ.w^+.^+_}.&j.]~+dm.a]+)v.k)+Z~+6!+Z~+)~+b)+5!+0)+0)+5!+Y]+Xr.Y]+3]+x^+b]+Ff.y^+k%.&{+=e.6U.6U.Qr.ml }!+Fr.>{+`]+a]+'{+C{+Dr.7!+[!+0y.hF.x,+c)+z^+{~+A^+#v.B^+s}.C^+D^+7*+;o.gL Ih E^+]7.F^+G^+(*+Y$+`*.H^+.%+I^+_= N2 ^7 H# !6 ;& J# 0; 0; 0; 0; 0; 0; >+ >+ >+ _+ ^_ ^_ <+ '& /+ /+ (^ N# +5 ~^+sZ 3; X: w9 J^+FN @F qL Cn _J K^+@~.cA 5g ;_ L^+M^+pQ.N^+O^+P^+;*+Q^+kI.R^+S^+T^+U^+V^+R'+W^+X^+K#+p' ls.>9 Y^+va.+. 9%.9%.n8.o8.o8.!0.,0.qf./m.;0._,.>*.E`.=N.I`.Z^+`^+ /+./+aL.+/+@/+,k.Tv.En.]r.ra.Gd.8u.)c./r.jk.Ld.yO.Xv.h2.zi.mf.nf.~h.nf.{w.{w.rp.GH.GH.op.~w.~w.~w.~w.~w.~w.~w.~w.~w.4c.4c.~w.!t.sp.|r.tu.of.~h.nf.nf.nf.~h.Fi.pk.ok.Ii.of.nf.Ba.Ba.Ba.1c.+m.+m.+m.v~+on.g:.Yl.Yl.Yl.Y3.#/+$/+yR.y( &2 |p.mH.A| A| A| 8u.Hd.nH.Zl.`l.`<.%/+&/+*/+=/+[Q.Pd.Ca.Ca.up.up.up.Ca.Ca.(m.,t.up.(m.(m.up.,t.@t.tp.sp.{w.~w.4c.4c.4c.4c./z./z./z.pf./z./z.~w.!t.{w.",
"-/+;/+UE.>/+sF.,/+'/+)/+!/+n^+~/+{/+]/+Df.#^+^/+Fj V&+//+(/+_/+C7.:/+c;+</+[/+}/+7]+1=+Ej 9)+)v.7*.)v.)v.|/+1/+0)+`~+ {+`~+2]+3]+3]+5!+2/+/q._~+y^+s!.Eu.3/+4/+RM 5/+>o.q^+w,+A{+a]+7,.b]+$^+7!+uJ.Yr E>+t,+6/+Jw.7/+8/+9/+ q.0X.0/+Qn.a/+I%+Aw.b/+j'+c/+x>+ZG.0I.<k GC.d/+e/+f/+N0 -F O2 ~X ~X H# !6 ;& J# -& 0; 0; 0; 0; >+ >+ >+ _+ q= q= e^ n, 1= 1= (^ N# ~) 1s 0& g/+~| wF >a >a ~| i_ .b (( h/+i/+PB @x h8 j/+k/+l/+m/+n/+o/+;e p/+q/+F;+r/+s/+t/+u/+v/+w/+A$.x/+y/+</ ik G( h< 4/ 4/ {4.9%.9%.n8.n8.n8.n8.r< xp.pL.z/+A/+B/+C/+L`.D/+E/+F/+G/+H/+I/+J/+ck.$r.'c.wi.bp.Zy.Zy.ra.<p.M]+h^+qx.yx.h2.CL.Jn.ok.pk.sp.{w.!t.!t.qp.qp.!t.!t.!t.!t.!t.!t.!t.!t.~w.~w.!t.{w.sp.(w.^z.tu.~h.{h.nf.nf.{h.of.pk.O`.O`.pk.nf.Aa./z./z.Aa.Ba.on.}Q.}Q.on.+m.v~+,Y.>4.Fd.Pg.K/+L/+P6 &2 ~k.&2 A| YI.'f.qa.Ss.Zy.Ss.8u.nH.Gd.cA.M/+%]+9u.N/+-w.V<.qA.,t.qf.qf.qf.up.@t.qf.(m.,t.tp.qA.2r.Fx.jp.]w.su.[r.^z.sp.~w.pf.pf.pf.pf.pf.pf./z.4c.4c.~w.",
"O/+aQ.P/+Q/+7B.pS.R/+d#+S/+T/+j>+U/+.^+kF V/+Ea.bj.Eh.LS.3*.W/+J4.X/+[-+().`Q.:P.Y/+[!+Ej 9)+7*.7*.)v.)v.Z/+~~+5!+0)+0)+5!+`/+`/+`/+<!+2/+Ej B{+0]+9*. (+},.CY..(++(+}>.&j.0]+c]+@(+7,.(R B2.q,+q,+[I.t,+Ar.#(+6/+$(+]7.pr.i-+`p.]q.%(+&(+*(+=(+-(+x>+F,+;(+>(+,(+@P.t%+*C.'b '(+)(+7& O2 dB.wF _M Cm )[ J# J# -& -& -& -& J# J# J# {_ <= := 4+ 1^ /^ /^ n, 3) ^_ f$ +5 [) ~+ .H !(+>a [+ M-.!M n[ $U ~(+{(+](+.H ^(+/(+OC.((+_(+SH.:(+<(+[(+}(+%B.|(+1(+2(+3(+4(+5(+ ` %++0R.(C dE.6(+mi mi ,[.4/ K@ K@ :% :% p#.4/ =_.D| $)+7(+8(+9(+0(+a(+b(+c(+d(+e(+~V.dk.Ns.c3 WI.di.Fd.YI.A| cp.Wv.lH.Md.f(+qx.d^+>)+hf.+t.nk.1r.up./z./z.4c.4c.!t.!t.!t.!t.!t.!t.!t.!t.4c.~w.!t.rp.(w.(w.(w.(w.~h.~h.{h.{h.{h.of.Fi.pk.~h.nf.Ba.4c./z.4c.Aa.Ba.v~+g:.g:.v~+g(+g:.K> XI.PP.I!+bi.yR.bf.yR.Og.wi.'f.h(+h(+'f.Ss.Ss.8u.!c.*h.*h..m.b^+au.N/+bu.i(+~G.tA.Fx.2r.1r.tp.,t.,t.(m.'t.Ex.jp.tA.rH.Q`.HT.j(+k(+^w.~t.]w.su.vu.}r.(w.|r.|r.|r.sp.!t.4c.pf.",
"l(+m(+n(+o(+p(+q(+r(+s(+t(+u(+_w.P%+Hp.1j.v(+w(+x(+y(+z(+A(+B(+C(+D(+%l.2t.=j.E(+&e.d)+X~+F(+WJ y{+>~+Ej @(+D;.1q.2/+2/+gF.9)+)v.9)+k)+1q.Ej +^+}/+hj.(]+G(+H(+I(+J(+F{+&j.K(+L(+T*.b]+M(+J;.={+p'+p'+6/+N(+#(+O(+P(+Q(+R(+S(+T(+&j.U(+pr.V(+_0.x>+q;+Qz.W(+v]+9q.^-+X(+kn =L Y(+so qo 6z N2 r[ ~X H# !6 ;& J# J# -& -& J# J# ;& ;& Y: l, := l, 1^ /^ /^ n, N# Q/ f$ ^_ q= y{ .H iM.,a K/ Z(+`(+#~. _+~(+._++_+@_+;& }= #_+$_+%_+&_+*_+=_+eo.-_+W(+=S ;_+>_+,_+'_+)_+z$.h&+d&.<L.b5.s2.dE.mi mi ,[... E>  .  . 4/ '1.5L !_+~_+{_+]_+^_+/_+(_+__+:_+<_+[_+<!.6^+an.Qs.2% XI.}_+`l.MB.ln.Md.I*+{c.m8.rn.zR.h{+|'+U*+R!+@-.>t.)0.,t.'0.'t.Ba.!t.Ba.!t.Ba.!t.Ba.!t.pf.4c.Ba.sp.~h.(w.{h.nf.of.of.^c.{h.(c.~h.^c.of.Ba.Ba.Ba.Ba.Pd.1c./c./c.g(+}Q.g:.v~++m.3k.u4 8{+L/+|_+WI.WI.yR.pa.]G.WI.z| yR.pa.]r.cp.pn.1_+;4.-)+C5.B5.B5.2k.xW.bu.2_+F~+3_+rA.4_+rH.<r.@t.qf.tp.Ex.Q`.HT.3_+4_+HT.5_+PE.68.68.PE.6_+6_+68.j(++C.~t.(z.]t.vu.|r.~w.pf.",
"7_+8_+9_+0_+r +a_+b_+c_+d_+e_+f_+7g.R .^e.g_+~7.)=+h_+f;+]0.i_+Qf.l1.j_+k_+K_.l_+Hk.iF.R1 m_+xt.J;.n_+o_+p_+M(+j%.&e.q_+QM Jw.,N r_+uJ.6]+%e.s_+Cm.fc.t_+`P u_+v_+U/+w_+ZQ.Rr.x_+Ef.j%.3t.@v.z-.y_+!t z_+Ar.Vp.A_+B_+sr..o.|U.C_+9X.D_+E_+F_+G_+Wp.at.kr.fv.%&+M&+H_+I_+J_+M^+K_+@H Sk G'+L_+c, [) *& 8; _+ >+ J# o: o: )[ Cm bI H# ~+ y{ *& |) |) :+ :+ '& '& M# Q/ 8; *& F# y{ '| )| ^7 #d M_+N_+O_+LK P_+6r @F qb 1u {^+b, v{ #a d> Q_+R_+S_+.=+[l.0I.q;+T_+-V.U_+V_+YQ ~}.C(.QM.dE.,[.F`.E`.=N.-N.z/+B( 5/ [C Tg ~u.W_+X_+Y_+Z_+`_+ :+.]+X=+.:++:+@:+<V #:+An.2u.Z3.U6.$:+@S.%:+&:+Y3.*:+YV Hs.P3.Ng.=:+@r.lH.{c.q#.~*.K@ o#.k* {*.+m.~h.Pd.Aa.(c.1c.pf.Ba.(c.nf.Ba.Aa.Pd.nf./c./c./c.^c.yW.^c.-:+Ba.-:+^c.;:+(c.yW.Od.>S.Aa.;:+>S.;:+>S.yW.2k.*h.Ss.>:+,:+':+h(+XI.mH.qa.u4 pa.pa.$r.#T .c 4% W7 G( h< ,} 10 1_+{G.-)+3k.3k.):+b++2Q.78.HE.Xs.ok.{h.!h.rf.EE.!:+~:++N.(G.{:+Q!+(N.^w.k(+PE.]:+^:+/:+(:+:G.PE._:+k(++C.su.tu.!t.pf.",
"::+<:+[:+}:+aV.|:+1:+2:+3:+4:+5:+6:+7:+wh.8:+E5.P&+9:+9,+)-.i_+0:+a:+b:+c:+=j.z{+d:+Jp.4{.Q(+bh y_+R,.e:+f:+O4.:P.x!.g:+RN.|=+0y.>~+>~+1q.%e.s_+Cm.r^+h:+i:+j:+q)+k:+`P $&.l:+*j.m:+l_+d)._}.0X.T(+n:+o:+Hh N(+p:+Wp.q:+_0.n:+Q,.*e.5t.r:+s:+o-+*o.`_. ~+;L V>+t:+u:+v:+w:+Y0 ER [h 4'.K%.x:+y:+z:+%5 6; _+ _+ o: o: )[ )[ bI bI '| ~+ Y: {_ :+ :+ _+ _+ ,& ,& M# &~ 8; 8; 0z 0z X: r[ !X A:+B:+1v C:+C:+.N w8 !M 6z P/ P/ dc 67 `: D:+E:+F:+G:+H:+P]+I:+0J.&o.9F.J:+K:+L:+M:+CG FM xp.{4.qL.E`.3Z.=N.`)+4L D> `b %*.Lq.z> N:+O:+P:+Q:+R:+Y=+S:+kY 7V T:+&p.MU.jx.7..U:+V:+W:+X:+Y:+Z:+YI.`:+DB. <++G.0O.lE.NI. V..V.Hs.YV Is.@: .. =_.qf.^c.0Z.N`.ku.iu.(c.0Z.0Z.^c.Pd.Aa.Aa.4c.4c./z.>S.>S.-:+-:+>S..<+$_.xW.+<+ET.DL.@<+.<+[Q.9Z.AW. m.xW.+<+%]+#<+$<+%<+&<+YI.qa.YI.xR.w4 w4 7u.$T dd Rr a3 a3 f< v| f! v| W7 n#.,4.;7.>4.-)+3k.B- 'h.ok.Ii.of.~h.]h.Jn.~G.(G.*<++N.*<+=<+-<+h{+;<+><+j(+@C.k(+,<+(z.]t.uu.}r.tu.^z.(w.sp.rp.{w.{w.",
"'<+wL )<+!<+~<+{<+]<+^<+/<+(<+_<+c(.IV.:<+<<+[<+P&+J1.}<+d;+|<+Qf.1<+2<+S,.4p E(+ v. v.y_+Qv Hk.Q,.kO k%.v!.U!.3<+4<+)/.5<+6<+|q.7<+8<+x^+9<+g:+K(+]g.0<+c,+a<+a<+V]+b<+4/+c<+jt.b).nz d<+e` e<+f<+=(+xC.s;+>q g<+h<+&o.xC.=(+pr.i<+j<+r_+F>+WD.#j.k<+}l.XN.i +l<+m<+7N.n<+Tc %| 0, #a o<+p<+vy.y:+q<+%5 {_ _+ o: o: )[ )[ bI bI '| ~+ H# H# |= |= ,+ ,+ ,& ,& '& _+ {_ 9; #d #d rb Kl CY a8 pp 1v r<+$x  N {^+:= <= <= := <^ 67 Cn %P s<+t<+)$.S_.u<+v<+w<+!v.x<+y<+z<+A<+B<+Aa $} =_.{4.qL.E`.3Z.=N.z/+m}.4L -7.[/ >I C<+D<+E<+F<+G<+H<+>S Fl.I<+J<+K<+L<+M<+Te.,m I`  8 U6.(k.hd.N<+qa.Md.I*+rn.O<+=:+oH.I*+r&+:p.=:+rn.=:+f(+>7.:Z wa.$0.2K.P<++m.g(+g(+%0.v~++m.+m.v~+Qd.wa.%0.wa..<+>S.;:+@<+@<+;:+ET.yW.[Q.FH.DL.$_.+<+xW.2k.'Y.Q<+b^+&/+R6 #<+R<+S<+Q6 Pg.xR.A| ra.'c.di.z' s< >} ]} GG a3 s< f< >} >} K6 10 l8.l8.-)+sa.Y3.-)+ t.%0.2K.Qd.BL.xi.Ld.Wv.d^+qx.i{+M]+T<+U<+V<+.N.{z.rH.tA.kp.Ex.zO.)t.2r.'t.@t.up.(m.qf.Ca.@t.tp.",
"k).5b l& ,&.W<+X<+Y<+Z<+`<+ [+.[++[+6,+&g.@[+Q&+#[+cu $[+ae.%[+~6.&[+16.*[+1j.@l.=[+y_+iF.j<+Cf 0X.&{+-[+-[+().Dh.5U.;[+'/.>[+,[+'[+)[+![+9<+g:+@v.~[+{[+][+^[+/[+a<+-l.([+3/+_[+:[+P4.<[+/)+r@.%{+[[+F5.}[+n,+Hh (y.-(+xw.X]+8m.i<+iF.XK.A>+jr./l.Wh.|[+1[+2[+3[+dK.4[+5[+6[+d> 7[+9c ^g )$ ,$ eB.g/+U! 9; (+ ;& o: )[ )[ bI bI '| ~+ ~+ H# |= |= |= ,+ '& ,& '& _+ :+ Y: #d $d @d 8[+9[+yy 6t 0[+$x a[+NC.E# && && E# %& dc v8 Cn N9 b[+c[+W* d[+e[+f[+g[+h[+i[+j[+T=+k[+l[+|=.%K.h< {4.qL.~4.E`.F`.=Y.m}.4L w( gi *Q.m[+n[+o[+p[+q[+r[+s[+t[+u[+v[+Nq.w[+BG [L =} Q@ x[+y[+y[+z[+Zl.Fd.~c.m8.zR.A[+B[+~c.{c.I*+m8.f(+lH.B[+B[+g^+h^+Kd..w.#0.v~+va.Qd.g(+2K.@m.@m.@m.+m.Qd.%0.b++b++FH.C[+;:+@<+DL.FH.>S.[Q..<+@<+>S.Q<+ m.9Z.xW.au.&/+D[+E[+F[+Q6 Hd.8u.L!+'f.Fd.{G.>4.,} 73 73 10 v| [C GG l< hd 4% hd hd K6 W7 j8.-)+pn.Fd.ra.sa.q* &0.b++Nd.xi.Ld.i{+eu.Wv.i{+)]+)]+h^+$m.d^+)]+nk.<r.zO.zO.zO.zO.<r.<r.)t.!w.'t.,t.Ca.up.,t.tp.",
"G[+H[+I[+J[+K[+L[+I&+M[+N[+O[+P[+Q[+U/+().R[+S[+#[+t!.cu T[+U[+V[+W[+27.*j.I[.Qm =v.>-.X[+an Y[+:m.RM Z[+Ih.}h.`[+ }+.}++}+@}+#}+$}+%}+&}+m:+*}+s!.*-.Du.=}+-}+B,./[+!q.;}+6U.:m.>}+,}+c<+=e.K%+>o.U(+'}+'I.m,+]7.w>+xw.v>+gL XD.)}+qr.;% !}+~}+{}+]}+^}+/}+(}+5s _}+:}+<}+fZ.A+ 0$ a$ [}+V).G..HK Am m: %i d8 ;& ;& )[ )[ H# H# '| ~+ ~+ H# I# |= |= ,+ /+ /+ 1= 1= I# H# ~X EY cI }}+|}+]^+,X 6t 7t 1}+m9 I/ rZ )x.2}+j/+l: l: 6r ]| lV 3}+4}+5}+03.ZN.6}+7}+ew.8}+9}+}d.0}+ZI b..Y^+9%.xk.'7.~4.~4.{4.>[.m}.-7.&Q.6F a}+b}+c}+d}+e}+f}+g}+v- h}+i}+Nq.j}+Jv FJ d3 li ,o k}+I` XV ]r.z| xi.[p.T<+T<+eu.)]+h^+qx.i{+eu.eu.M]+h^+qn.T<+l}+`y.yO.m}+n}+K9.zx..t..t.`s. t.#0.b++wa.2K.+m.4c.)Q.-h.Bi.-w.gf.I]+2_+o}+,.+^c.'h.Bi.cf.c^+U|.p}+q}+K9.yO.h2..t.!m.!m.Rd.r}+k* F> J` k* K@ @. g< +2 u| +2 g< >} 4% s< (Z ]r.]G.'c.cp.cp.pn.v4 l8.,} ;7.n#.P6 wi.P6 @@.bf.(Z (Z z' (Z 'c.z' !m.1'+tA.3Q.Fx.zO.!z.1r.'t.@t.@t.,t.,t.,t.,t.@t.tp.",
"s}+t}+u}+v}+Y,+I&+w}+x}+y}+z}+A}+B}+|)+~[+v!.2t.C}+D}+T,.E}+E}+F}+Y}.G}+3t.^! x_+Zr.bh H}+I}+5-+J}+IV.K}+)q.L}+,P._/+M}+N}+O}+P}+Q}+R}+S}+M(+;H Rr.T}+AV.][+U}+}~.t{+Rx.q!+V}+5-+W}+X}+3/+h_+_}.-[+Y}+uC an Z}+=(+ o.`}+Ff  |+.|+)}+[[++|+cS Hj -d.@|+#|+$|+%|+&|+OL.*|+=|+-|+;|+>|+i; ,|+'|+)|+7& s9 E# 0z 9; ;& ;& )[ )[ H# H# ~+ ~+ ~+ H# I# I# I# |= 1= /+ 1= 1= {+ )| '| EY !|+~|+|}+]^+{|+#~.mv =#.p9 sL ]|+]|+I%.<u dI.w8 t[ 5r ^|+/|+(|+_|+:|+<|+[|+}|+||+1|+2|+3|+.t -c.w4 @m.4|+xk.'7.'7.'7.9%... l}..$+>I o' 5|+6|+7|+8|+*,+(% 9|+0|+a|+CM.b|+c|+d|+>c.)f ak /m .2 40 43 ix.pa.Ld.d^+U<+d^+[p.Ld.M]+Ld.eu.eu.i{+qx.e|+qn.qn.l}+f|+l}+K9.g|+h|+i|+j|+n}+k|+K9.l|+`y.yO.yx..w.dA.m|+n|+L9.o|+o|+p|+q|+r|+s|+ju.gf.t|+u|+v|+xE.Kd.hk.$0.va.wa.%0.]c.Rd.,7.w|+@. +. K@ :% L> L> g< u| g< w| j< v| 4% 1/ oa.ci.yR.]G.Y3.-)+;4.h< 73 @2 73 @2 73 -9 y( wi.73 W7 n#.K6 -9 K6 K6 :Z EE.rH.jp.Ex.!z.tp.Ca.qf.up.up.,t.,t.,t.up.up.Ca.",
"x|+y|+z|+A|+B|+C|+D|+E|+'`.F|+0g.NQ.`d.G|+H|+u!.aj.I|+j,.J|+K|+V[+L|+T,.s!.c).L(+M|+Zr.H}+uS CY.N|+O|+P|+$&+Q|+R|+S|+T|+`[+U|+c,.V|+W|+dj.y!.X|+Rr.Y|+Z|+fe.a'+}~.xm.DY.[m.6p `|+ 1+*l 9j.*^+J7.J7..1+Zk.+1+h'+@1+)}+XD.#1+#1+$1+bo.n)+%1+&1+&-.*1+=1+-1+;1+>1+,1+'1+)1+`V.ZV.!1+~1+{1+]1+^1+/1+:u b, %& =+ Y: !6 ;& ;& ;& H# H# y{ y{ ~+ ~+ )| I# I# |= X! X! !7 {+ {[ /^ >[ (1+_1+ Y 9[+yy #S :1+@K <1+Yd @a ;F ;F ^R.je g_ >w [1++d }1+|1+nV [] 11+21+31+41+51+61+71+Xe.81+Hn.rx.pf.6r.xk.vp.4r.o8.o8... 5L AI.91+B).01+a1+z$.b1+c1+s[+n' %{ Tj.BJ d1+kk *].e1+e1+YI ix =4.EJ wg.={ ]r.yx.K9.n}+Yv.jk.zx.h2.ik.jk.zx.Yv.l}+`y.`y.f|+yO.yO.zx.yx.K9.f1+p}+g1+h1+h1+h1+h1+i1+h1+j1+i|+h1+g|+g1+g|+i1+k1+k1+h1+l|+l}+yx.N]+m}+K9.l}+Ax.va.b++BL.#0.ua.]c.&0.q* :Z k* +. L@ L@ K@ :Z )4.v| u| g< j< ~} +2 bf.b3 z| 7u.]r.P6 K6 -9 G( !} >} [C @2 >9 ;9 v| >} |/ j< ;9 ;9 ~} '} K6 y( _Z CL.kp.zO.!w.tp.,t.up.up.'t.'t.tp.@t.,t.Ca.(m.qf.",
"l1+m1+n1+o1+p1+q1+r1+Ac s1+t1+u1+v1+~).w1+5p &=+aj.b:+I|+x1+y1+(9.z1+ih.e<+A1+ll b]+B1+C1+D1+E1+F1+G1+H1+I1+J1+p$+K1+$&+S|+L1+M1+($.+e.N1+O1+x!.P1+Q1+QQ.=}+R1+&`.L}+Sx.S1+T1+U1+kJ.:w V1+wS.&g.&g._[+V1++1+lh.6h.Uw.s{+W1+W1+X1+YD.JV.&l.9I.|v.GQ.Y1+Z1+`1+ 2+.2+E+  '  % +2+@2+#2+$2+V0 &=.%2+&2+sL s9 4+ 3) {_ ;& ;& ;& H# H# y{ y{ ~+ ~+ )| )| I# I# X! X! !7 {+ {[ j8 ;[ y9 *2+_1+=2+-2+6r 28 I9 R$.8' /s.;2+>2+,2+b1 je >w '2+)2+!2+~2+{2+ < ]2+Uh ^2+/2+(2+zz._2+GD w~.Ng.Jn.1c.6r.xk.vp.4r.,0.o8.4/ Ny.</ :2+x/+<2+[2+W@.}2+|2+^'+=,+%{ *Y. .+wv.%Q.G'.XI >c.XI v;.W=.12+12+r' >: h2.yO.Yv.%0.b++zx.Kd.zx.zx.zx.yx.Yv.rx.Xv.Yv.l}+22+l}+Xv.m}+l|+,G.j|+q}+q}+f1+i|+j1+k1+p}+i|+n}+32+l|+l|+;G.;G.l|+m}+f|+,G.`y.Ax.$0.#0. t.#0.wa.%0.b++$0.C- ua.r}+Rd.r< L@ :% F> p#.q#.)4.>7.v| >} u| f! f! |/ ]r.7u.z' P6 10 h< ,} n#.n#.v| hk  : >9 >9 {} k< f! ;9 g< v| ;9 w| -9 z' &2 lH.R!+Ex.!w.@t.Ca.(m.up.,t.Ca.Ca.(m.(m.(m.up.,t.@t.",
"42+wX N.+52+62+72+82+92+02+GC.V$+Fr a2+Z[+l:+U!.3<+Fh.b2+U|+c2+d2+}<+e2+%{+f2+g2+h2+7,.5O /).i2+j2+k2+l2+m2+n2+o2+p2+O]+5e >s.&M.Nh.!*+Cm.&e.:P.Cm.W&+c;+q2+/[+t{+}~.P~+M_.r2+&l f'+s2+=l 0(.jt.Rr.k%.9X.t2+Bm.8*+7*+D^+o=+o=+o=+u2+I{+T/+<k 0x _F v2+w2+x2+ %+y2+z2+M4 A2+B2+C2+D2+E2+F2+A= G2+ER K~ 6+ Z! 0z 9; (+ ;& ,+ |) |) y{ y{ m, 1^ Xd >1 n, |) I# {+ !7 !7 ,[ x9 z9 H2+I2+9W >[ P3 W: 3Q :6 2] C/ [* _' Z. B~ <i J2+K2+L2+f8 M2+N2+O2+P2+Td <@+Q2+R2+S2+T2+rl.c/ 93 =:+pf.|r.Mi.rL.4r.,t.1c.'0... Ny.>;+f}+U2+V2+W2+X2+Y2+Z2+`2+ 3+.3+Ve.+3+@3+7F &N.#3+^O $3+%3+&3+ug.Qe.w;.YV .w.ik.hk.Ax.jk.jk.hk.hk.h2.Kd.zx.jk.jk.Kd.Xv.M]+M]+i{+i{+i{+qx.qn.V<+V<+*3+T<+T<+$m.V<+=3+-3+;3+>3+,3+'3+*<+!:+(N.^G.EE.>-+^G.kk.V<.!h.]h.Kn.^*.@-.)h.o8.,7.o8.8%.;0.9%.o#.*0.=0.gp.dp.fp.#: i< 73 K6 W7 @@.bf.bf.wi.wi.@@.>} u| >} |/ s< .c l< ;} KJ [C k< k< u| 4% |0 s< n#.K6 bf.&2 ]G.~c.{*.wp.6r.vp.4r.4r.vp.>t.(m./m.r< 5r.5r.5r./m./m.",
"RT.)3+S7.!3+~3+{3+]3+^3+/3+L&+(3+_3+:3+<3+().R[+[3+~g.}3+|3+13+51.23+e2+y-.33+43+53+63+o_++v.4/+,l.73+83+93+03+a3+b3+c3+d3+e3+;`.kS.8U.f3+B{+c:+f2+Ir.Ui.g3+V]+h3+&`.W!.S1+r2+i3+j3+k3+.l.l3+O1+z{+33+Rr.o] y-.m3+D^+Hp.LV.n3+^t.I{+,d.o3++H.p3+q3+r3+s3+t3+u3+m} v3+%) w3+F= V[.x3+y +y3+z3+U0 +a u=+p9 %& F# {_ (+ ,+ ,+ :+ Y: y{ ~| Y! l, l2 l2 =~ |) I# {+ I# ,[ >[ g9 A3+0W `X B3+C3+!X Z: 3Q 6J D3+J{ E3+F3+G3+X/ H3+a1 p9 *& J# I3+J3+K3+w_ ~g L3+M3+N3+Lp.O3+sP.P3+n* Q3+4c.'t.)*.R3+>t.,t.Aa.!0.w| [/ zP.S3+T3+U3+V3+W3+{A.:+.h}+;I [L. !+X3+~u.}!.pT.pT.t< ^O Y3+&3+Z3+`3+ 4+lE.yx.h2.ik.ik.jk.Ax..t.hk.jk..w..w.h2.h2.zx.yx.<p.[p.[p.<p.(r.gk.fk.fk.xi.xi.xi.xi.xi.xi.<p.<p.+N.~:++N.{:+F~+F~+^G.~G.EE.^G.EE.1'+Jn.lf.Kn.lk.]*.@-.pH.pH.pH.@-./*.-1.;1.-1.-1.;1.a2._,.bT..4+'} 10 W7 W7 @@.bf.z' ta.(Z z' s< 4% |/ |/ 4% hd 1m D] KJ ]} hk KJ .c Zb Zb $T di.ta.wi.wi.j8.]c.(m.(m.r< vp.>t.6r.6r.6r.4r.vp.vp.>t.vp.4r.5r.r< ",
"+4+6Z @4+i( #4+$4+%4+&4+)@+*4+S0.=4+R|+1*+</+L;.-4+;4+>4+,4+'4+)4+!4+9,+:E k%.m> ~4+~4+4*.Hk.}>.1h.ol {4+r$+f.+K].]4+^4+/4+tQ (4+_4+.d.Eu.4*.%&.S,.:4+[-+d;+a,+h3+h3+DY.S1+M_.!r <4+[4+}4+|4+14+[!+y!.*j.24+34+.^+.(+c!+44+44+3)+0h A%+54+I-+64+74+Lc 84+94+04+4[ J! N$ a4+5V.Rj b4+c4+7~+R[.WH Uc c*+d4+m9 l, |) :+ _+ _+ :+ Y: ~| #d 1u E# l, j_ e^ F# x{ =~ x{ )| R/ P3 }W ~|+SB e4+:A f4+[( r+.g4+h4+e) i4+QT.j4+k4+l4+m4+v{ F# d8 n4+o4+HZ .$.p4+q4+r4+s4+c<.t4+8/.3k u4+(G.@t.Qi.v4+w4+>t.,t.4c.,0.n4 >I x4+y4+z4+A4+B4+C4+D4+%:.n' xv. !+AI.'V.-7.20 hi -7.}!.E4+%3+F4+G4+H4+J@ I4+eu.[p.[p.[p.<p.(r.fk.fk.(r.xi.xi.(r.fk.gk.yi.(r.<p.)]+[p.(r.!m.q* J]+@0.q* #m.!m.#m.Nd.@0.&0.D&+>-+>-+EE.EE.F~+F~+EE.^G.EE.EE.D&+~G.1'+1'+1'+=1.kf.rk.rk.jf.mk._r._r.if.=0.;[.J4+.4+7%.(;+pW.G( >4.,4.,4.y( ta.z' ta.*2 |0 |0 .c 1/ s< s< s< %. (Z.&: &: DB.<u.`:+#-+r&+lH.i{+fk.@0.]c.v~+/m.~0.5r.5r.4r.5r.5r.5r.5r.wp.wp.wp.wp.lu.>t.vp.4r.",
"K4+L4+M4+N4+O4+P4+Q4+R4+S4+5B.T4+_3+f).U4+V4+dV W4+b,.=&.*8 '4+X4+Y4+Ih.D^+#e.9<+Z4+`4+ 5+2>.mm.E,.0h 'e .5+t+++5+@5+#5+$5+%5+&5+*5+-U.y-.cc.3>.kF =5+Hr.-5+;5+c,+>5+Vi.r2+M_.,5+'5+[4+)5+6).!5+m'+Hi ~5+jt.{5+Ui.AV.~q.CN.]5+^5+K}+zf  i.s1+/5+(5+IO._5+:5+P$ g# J. V. <5+[5+}5+|5+15+_^+to 25+35+45+L~ h_ E# |) (^ '& _+ :+ 9; #d 1u 55+65+Am <= && F# e^ =~ y{ 1^ i8 /_ 75+85+95+05+a5+b5+x8 c5+d5+e5+f5+g5+h5+i5+j5+k5+t^ l]+!J @d h1 l5+9] `0 m5+n5+o5+Cw.p5+_E.L@.y' 32+(G.6r.D`.D| q5+xk.'t.nf.!0.n4 r5+s5+t5+u5+v5+w5+x5+h3.JF.y5+[L.|V ms.%*.fd }L -} o4 IJ &N.$3+z5+A5+B5+C5+&. <p.<p.)]+eu.[p.<p.[p.xi.(r.fk.fk.gk.#m.J]+ua.!m.fk.<p.[p.<p.fk.!m.#m.!m.!m.gk.gk.gk.yi.!m.#m.Jn.kk.CL.kk.1'+^G.>-+^G.^G.D&+~G.D&+^G.^G.D&+CL.jf.mk.|,+|,+R!+jf./*.#-.>0.;0.!4.{4.!4.pW.pW.!4.G( ;7.>4.>4.W7 wi.bf.ta.4% hd 1/ |0 *2 ta ta ta [% M> 6%+D5+Hs.C&+ V.E5+f(+U*+!m.!h.+m.)0.Aa.,0.;w.lu.vp.5r.r< 5r.vp.6r.JT.)S.7r.;w.lu.>t.vp.4r.",
"F5+G5+H5+I5+J5+K5+L5+<$+M5+5B.Ht T%+N5+O'.O5+]/+W4+P5+Q5+R5+S5+T5+U5+k=+V5+#e.c]+W5+X5+Y5+Z5+Ej /3 K%+~q.`5+ 6+.6+P'+m2++6+@6+#6+$6+%s.k%.B-.%6+%&.&6+S]+*6+i_+b,+U,.6$+R .r2+!r =6+-6+;6+>6+,y.,6+D].3o.nt.().G|+u^+<]+b$+,q.'6+#~+9h )6+!6+~6+{6+]6+^6+/6+)* o5 @^ (6+_6+:6+'&.5u 5u <6+[6+</.}6+gf dI D# E# |) (^ '& _+ :+ 9; aG u; )x.y:+L_+W+ c, && <= j_ =+ l, qf qf l_ |6+16+26+qT 36+-#.46+56+66+76+86+96+06+a6+fZ.,2+b6+c6+d6+2( $K .a e6+f6+g6+h6+(B.i6+6m $c M/+j6+ z.^m.&.+k6+l6+Ni.'t.nf.AH.`b m6+n6+o6+p6+q6+r6+s6+t6+u6+X'+v6+=7..$+JJ 0! G] ,D.`o.5L BM X  w6+x6+y6+N] v' {c.>: m8.I*+U<.'4.oH.U<.'4.'4.'4.'4._Z 0%.J` J` p#.q#.r#.r#.q#.0%.0%._Z _Z >7.>7.'4.U<.U<.~c.jf.R!+R!+jf.jf.R!+R!+rk.|,+mk.rk.jf.R!+|,+jf.^*.]*.^*./*.-1.#-.>0.8%.'7.D| xp.xp.$: =Y.T*+T*+!4.'} ;4.;7.;4.,4.v4 wi.P6 u| f< hd .c O3.^o ^o v' D5+z6+TP.A6+Wd.Ki.ya.B6+R!+)t.!0./z.4c.4c.2c.~w./m.=_.Mi.^m.Pi.HW.Li.C6+vk.uk.Nn.^m.wk.Mi.Qi.Oi.",
"r} &@ ~c D6+E6+IY F6+G6+H6+I6+J6+[g.K6+:h.O5+aj.L6+M6+N6+O6+S5+T5+&3.-l.h;+k%.T*.P6+Q6+jl R6+4o.,{+S6+#[+{[+,P.T6+l$+Nh [J.U6+V6+u]+ue.3t.l! G,.W6+&6+:}.X6+|<+;5+Y6+~{+Z6+u{+yS.`6+ 7+.7++7+5/.Q'.@7+#7+1j.Hr.`[+$7+<o.%7+t-.&7+*7+R|+=7+Wz.z}+-7+;7+>7+S% t. &) (6+,7+fl.'7+7|.dM )7+[5+!7+~7+{7+9+ @& X^ %& e^ :+ _+ _+ :+ {_ 0z u; y:+2s ]7+9& ;E.c, W+ M/ =+ l, S/ 5Q ^7+-2+1v rT :J LK vN 2}+]7+/7+(7+_7+:7+<7+[7+}7+0f ~^ L0 ^a |7+]X 17+27+37+47+57+67+f' !:.q< 77+87+97+5Q.07+a7+b7+A`./m.4c.n8.fd c7+d7+e7+f7+g7+fW.h7+t6+(n.%)+i7+=7.Tg 5L >{ 6%.(*.l* dE.i8.qW.j7+k7+l7+m7+7%+:p.r&+r&+>: )4.q#.>7._Z >7.U<.~c.~c.~c.U<.'4.:Z p#.0%.p#.F> k* L> k* )4.)4.)4.)4._Z '4.U<.U<.},+|'+},+mk.kf.kf.^*.{*.]*.pH.)h.Ei.pH.{*.Ei.4|+,7.o8.9%.9%.9%.#. L@ _c.$: $: ~4.!4.pL.9%+pL.!4.L> ;7.>4.;7.,4.{G.wi.@@.f< |/ s< .c E] ix.ix.&. n7+o7+p7+)Y.R3.q7+,S.'S.qA.,t./z.~w.%J.pp.HH.pf.(m._c.]m.DW.hp.r7+DW.Li.uk.Pi.]m.Ni.Mi.Qi.Oi.Oi.",
"s7+D) t7+u7+v7+w7+x7+^ +Lj IL.{{+8b.y7+c!+O5+3<+z7+A7+V|+B7+|[.C7+&3.D7+E7+_P.T*.F7+G7+H7+I7+J7+:{ K7+HS.yf.Hr.L7+v_+M7+>N #d.+[+te.7U.4<+N7+_1.O7+P7+Q7+R7+S7+T7+U7+<3+7:+2)+yS.=6+V7+W7+X7+Y7+ /.Z7+h2+`7+ 8+M1+$7+.8++8+@8+3d #8+$8+%8+<v.&8+*8+=8+-8+;8+}- >8+,8+'8+)8+)8+!8+;b `k l!+E= ~8+D_ |_ %! X^ %& F# 8; _+ _+ <+ 8; F# m: {8+]8+^8+I3 sn ;E.W+ z{ && <= 3+ n; 57 <( Ll 0D Py /8+mv 65+(8+_8+:8+<8+[8+}8+W).|8+h= Kk 6x -w g[ 18+28+38+48+58+68+78+88+98+08+a8+b8+c8+FR.d8+e8+f8+xp.vp.pk.rk.U7 w- g8+h8+i8+j8+k8+l8+m8+n8+o8+p8+!_+Tg 5L >{ #: :% +. D| b5.BM rW.q8+r8+s8+t8++G. V..V.u8+@: #: >1._*.WX.Is.Is.WX.WX.ZV v8+_Z >7.>7.)4.p#.k* :% K@ J` :Z 0%.q#.q#.q#.0%.0%.rk.w8+CW.'S.)S.)S.7r.lu.>t.vp.4r.5r.4r.vp.>t.>t.=_.=_.Oi.Oi.Qi.Qi.Qi.Qi.g%+g%+g%+R3+!S.'*.!S.(;+ua.):+j8.j8.1_+Y3.ta.@@.hd s< 1/ .c E] E] ix.&. EW.x8+y8+y8+z8+rO.A8+)$+` +J@+wH.B8+t&+uf.uf.HH.vp.^m.HW.V*+O|.C6+vk.]m.uk.Pi.^m.wk.Mi.Qi.Oi.Oi.",
"C8+D8+E8+F8+G8+H8+I8+1~.59.J8+K8+O;+L8+D<.Gj k_+M8+N8+N8+O8+P8+F8.:9.f,+Q8+f2+R8+S8+Fm.T8+4]+|q.U8+V8+W8+ R.5U. }+[-+s^+:]+X&+IV.44+X8+4p Y8+Z8+`8+JS.}0.y1+T[+ 9+.9++9+@9+M_.i3+j3+9t.#9+v`.$9+%9+@{+#l.&9+m>+*9+=9+z#.-9+;9+>9+,9+'9+QS.)9+!9+~9+=8+3G.w7+{9+]9+^9+/9+(9+_9+:9+TT.yX F= }* <9+f> E2 ec rN := 0z *& Y: <+ <+ <+ *& ~) x)+[9+}9+)w |9+19+19+/g 1@+] .e$ <~ 3+ }( [( 29+39+ZG 47 55+49+59+69+79+89+99+O{+09+af @+ a9+b9+c9+d9+e9+f9+g9+h9+i9+j9+&q k9+l9+m9+%z.n9+/h.P@+Tg o9+{$+mk.Xv.xR.p9+/=.q9+r9+s9+t9+u9+bC.$9+v9+w9+:n.i7+ms.l}.;[.~*.=_.=_.'7.pL.x9+|%.|%.)u.y9+z9+A9+0O. V.YV 6%.(*.DB.>1.Is.oH.ZV r#.$. r#.'4.'4.U<.~c.'4.r#.F> K@ @. @. K@ k* J` F> L> +. L@ r< Oi.5r._c.r< xk.>t.Qi.4r.Qi.5r.=_.5r.Qi.6r.^m.8%.!4.{4.~4.~4.qL.8%.g%+!*.R3+B9+g%+!S.'*.C9+J4+b++zi.1Q.v4 ln.pn.pn.P6 wi.ta.bf..c |0 ta Zb YV EW.,N.D9+qO.cT.E9+tp.K@+qp.,$+d%+F9+HH.pf.(m.;0.>].Kq.Kq.>].>].>*.|!.;[.bT.Pi.^m.wk.Mi.Qi.4r.B`.",
"G9+H9+I9+Xv u7+b@ J9+k..K9+L9+'9+M9+N9+{[+<>.Eh.O9+i,.T]+2j.P9+-g.=^+4/+V1+;H Q9+R9+S9+T9+U9+d)+o_+Gk.Gk.V9+5O W9+){+q^+kO %{+9X.+v.f3++v.P1+X9+y!.;j.Y9+t!.Z9+!].BZ.`9+ 0+5$+7:+.0++0+@0+#0+$0+^2.Q4.%0+&0+*0+=0+').-0+;0+>9+>0+,0+'0+=4+t(+;N :z.)0+!0+~0+{0+HY ]0+^0+#h /0+(0+t$ _0+#7 :0+=X F2 <0+]( E# 0z x{ m, l, l, }) Q/ |^ Uk [0+}0+|0+10+20+30+dM `N 40+50+60+70+6; 9; ~+ p[ <( g1 M2 80+0z *& L, 90+^) ]& 00+L-+NX ;F  o ($ a0+b0+c0+d0+e0+f0+3,.g0+1V ;2 J]+Di.h0+i0+j0+~:+k0+l0+m0+n0+o0+ya @{ &I p0+q0+r0+s0+t0+u0+v0+w0+!+.x0+AI.=7.3Z.)*.JT.lu.>t.Mi.Mi.rL.{4.!4.K@ :% ,D.9H.y0+z0++G. <+>7._Z U<.>7.gk.~c.xi.>7.yi.gk.xi.fk.fk.)]+Md.>: p#.#. 4/ A( A( A( D| =_.xp.$: {4.~4.'7.{4.8%.{4.8%.(;+9%.{4.9%.!4.8%.!4.8%.!4.D| s2.dE.,[.,[.E`.D| xp.xp.$: {4.~4.$: $: B9+]m.Fi.O`.,.+`s.=h.hk..w.i{+YI.qa.A| &2 z| ci.J> Rs.A0+D9+GR.B0+=_.D`.'0.F9+>$+C0+D0+E0+2c.#. Ny.)V.Q=+n>.)2 F0+12+{i.&N.BM %: pW.wk.wk.3r.3r.ZI.G0+",
"H0+e# I0+== J0+K0+L0+M0+N0+O0+P0+Q0+&7+)-.R0+y(+yf.:4+*=+6!.S0+T0+76.R4.+v.c:+dj.U0+V0+Y/+Ip.|U.&^+S(+_).Hk.^q.e:+0c.D{+D{+z{+z{+D{+$e._}.-[+Rr.x_+y!.*j.ih.W0+X0+Y0+Z0+`0+ a+6p Zk..a+[x.-'++7+}4+e,++a+u$+T4+L9+@a+0 +#a+aY.$a+k^+%a+&a+*a+=a+-a+3i ~@+j++;a+>a+,a+'a+)a+!a+~a+{a+** &% #j ]a+^a++N := e^ *& x{ m, 4+ 4+ q= Q/ g$ Uk /a+(a+_a+:a+;|+<a+[a+}a+|a+h*+1a+2a+6; {_ ~+ w9 Z! Z! 80+r[ r[ '| R/ R/ qf {J )E k2 v{ L-+3a+4a+$$.5a+6a+7a+%~+oh.8a+4^+es..: 9a+-0.0a+X<.aa+ba+ca+da+ea+_p.fa+ga+W1 <3 ha+ia+ja+ka+la+ma+na+1(+oa+pa+qa+ra+-N.]m.;-+)$+8D.8D.nu.nu.o8.'0.sa+Qd.M@ N@ MI.ta+K6.#-+f(+oH.yi.Nd.q* !m.yi.!m.gk.xi.(r.fk.fk.<p.I*+{c.)4.F> .. .. .. 4/ A( D| s2.dE.~4.$: ~4.{4.{4.{4.!4.pW.{4.{4.{4.{4.{4.{4.{4.F`.mi CM CM CM mi ,[.,[.'1.(;+7%.J4+.4+7%..4+uk.IT.Xs.+w.>z.HE.i(+o}+Xv.Yv.8u.Hd.)c.pn.cp.ra.ua+v4 >: va+mO.wa+D| _c.!0.vf.E0+D0+xa+D0+-:+pU ya+Xj.za+l<.Aa+Ba+c/ AJ aR.A5.4L pL.8%.wk.C`.ZI.--+};+",
"%^ Y5 Ca+9@ Da+2G.Ea+Fa+-a+:X ]]+Fr 8.+j:+'g.hc.R0+:4+Ga+Q&+l:+e` r@.Y[+s!.L(+cc.&}+;% &e.K;.nz :[+<w Ha+z{+Gk.Ia+y^+O1+L(+L(+o_+ll 1>.zf.d).c).^! d' L;.ih.Ja+Ka+La+Ma+Q0.:g.Na+an tz.Fy.rP.Oa+Pa+Qa+Ra+S` Sa+Ta+Ua+O0.Va+Wa+$a+Xa+Ya+W%+Za+`a+ b+.b+5G.j+++b+S_.@b+#b+$b+%b+** 2# [; &b+$| 8J *b+h_ <= 3) }) x{ m, 4+ 4+ q= ^_ |^ Vk =b+-b+;b+>b+eV.,b+'b+)b+!b+~b+{b+y:+&& m, l_ BY P/ E# E# X: Y! y{ )| R/ Xd qf n; T# _= U+ 7+ ]b+^b+/b+(b+_b+:b+<b+m8+8S u< [b+}b+|b+1b+<c.2b+3b+4b+5b+6b+@@.7b+;J yK 8b+9b+0b+ab+bb+cb+@B.db+hF eb+fb+gb+t~+z/+^m.*t.#t.8D.8D.B`.B`.,7.!0.Hi.nf.#. F] 6%+hb+SP.K6.B[+>: U<.r#.@0.q* #m.#m.yi.xi.xi.(r.(r.xi.oH.~c.>7.r#.M@ M@ <% 3/ E> 4/ mi s2.$: ~4.~4.~4.{4.!4.!4.{4.~4.~4.~4.~4.~4.~4.~4.E`.E5 F5 ed E5 >[.B( `o.F] |u.fp.ep.dp.x@+|c.dT.ib+3_+,<+^w.{t.;z.'G.DE.Ys.-h..t.zi.$0.$0.BL.B- w|+x@+GW.D9+jb+B0+7++Xd.K*+kb+D0+xa+lb+Od.3/ ~u.zP.mb+$2.nb+ob+pb+AJ ND gi `  9%+o#.wk.C`.&t.qb+4++",
"rb+;  sb+u7+tb+ub+vb+2d wb+Gt.xb+yb+zb+6O )-.U[+Ab+{g.Bb+:4+S[+Cb+l:++v.3t.L(+R8+B-.Db+o_+0c.#l.a).Ha+y^+z{+D{+E(+L(+j%.j%.j%.o_+o_+Gk.Eb+Fb+c).^! kF w|.Gb++9+Hb+Ma+Ib+Wa+Jb+Wk.or.Kb+Lb+Mb+Nb+Ob+2o Pb+=J.Qb+Rb+Za+Sb+Tb+Ub+Vb+Wb+Ta+Xb+Za+=a+0x j^+)U (.+Yb+@b+K*.9_+Zb+M+ `b+;< z^ `)  c+ie Dm m9 q= <+ <+ |) x{ l, l, l, ^_ Q/ f$ .c++c+@c+#c+eV.$c+%c+&c+*c+=c+v*.-c+5+ <^ :( Ll %& Am && && =+ y{ x{ x{ m, Y! 80+6z *+ G{ &+ VK *L 7|.o(+;c+>c+,c+'c+V@ )c+!c+~c+{c+]c+^c+}% aE./c+(c++: ]G._c+:c+PS <c+l| [c+}c+|c+xG [F 1c+2c+3c+fb+zJ rW.x9+^m.1r.L@+1++>w.>w.5r.up.Ba.wf.1c.L@ mi %: G] .V.4c+u4+I*+f(+~c.!m.yi.gk.!m.yi.fk.(r.xi.<p.<p.U<.'4.>7.>7.WX.WX._*.$. M@ <% >[.dE.{4.!4.!4.~4.~4.!4.!4.{4.~4.~4.~4.~4.~4.~4.$: $: E5 F5 {{ {} F] G> K'.t`.BR.dp.gp.gp.0}.0}.hp.5c+Fx.lp.vu.vu.lp.ok.Fi.nf.nf.(c.Pd.g(+Ba.Qd.Pd.P<+;w.hp.FW.6c+7c+8c+o#.pf.9c+0c+ac+bc+)Q.M@ FG 0R.x4+zG /'+cc+UW (L dc+[/ 0! 5/ o#.wk.>t.8D.#t.@.+",
"^c ec+fc+d@ gc+hc+ic+EL.!@+82+jc+f +kc+3d lc+mc+nc+oc+pc+&6+qc+5U.L;.3t.R,.O1+_~+i!.b]+L(+z{+D{+0]+Gk.j%.p_+g2+o_+B{+B{+B{+A{+A{+A{+o_+rc+aj.4p sc+S,.u!.i_+tc+uc+vc+wc+xc+yc+u4.m,+~B.zc+Ac+tz.Bc+Cc+Dc+Ec+Fc+Gc+Hc+Ic+L[.Jc+WZ.Kc+SZ.2<.Lc+Q]+XE.-/+Mc+5h Nc+].+Oc+^9+[* Pc+8, B~ ::+!s fc ~&.{ .pL %5 7; (+ :+ |) m, l, l, e^ ^_ W+ Qc+Rc+Sc+Tc+Uc+Vc+Vc+h5+Wc+Xc+Yc+:s q9 O^ Zc+]| 5+ L_+Am <= && =+ =+ Y! y{ r[ 1u 80+:= <~ %& w{ `c+A;  d+.d++d+@d+#d+$d+%d+&d+*d+=d+-d+;d+>d+)c+,d+'d+w' )d+ed.!d+SV IG Le.'l ~d+{d+]d+^d+=W./d+;T.(d+_d+rW.pL.^m.qA.up.1++;t.5r.r< Ca.~w.yk.2c.Rd.D| xp.3/ u8+A9+SP.Hs.<u.Is._Z '4.xi.fk.yi.yi.Nd.yi.xi.<p.~c.U<.U<.~c.DB.v8+Is._*._*.WX.t`.`o.3/ <% l* 4/ A(  .  . 4/ .. .. 4/ 4/ 4/ A( A( A( dE.E5 k< hk G] &: >1._*.BR.a2.-1.#-.~*.8%.Oi./m.)$+f%+x&+|++pf.pf.pf./z.HH.Zd.Zd.pf.K*+Ba.3c./z.qf.&t.:d+<d+[d+o7+fp.n8.of.}d+}d+Mn.!h..4+|d+gs.H +0+.:W.Y-.1d+=,+dc+ms.`  B( o#.wk.>t.8D.%t.(m.",
"2d+3d+5 +4d+5d+6d+7d+8d+T++9d+t,.r).0d+>9+ad+bd+cd+Jr.dd+dd+}3+ed+fd+X|+E(+l_+2!+7,.PN.p_+z{+/3 7]+q_+&e.2!+M(+2>.c]+c]+2>.A{++^+3!+gd+T]+hd+-j.kF S,.S[+;5+id+`0+vc+z.+xc+>l.jd+P(+xG 2|+kd+o'+C<.ld+mA gq gq r.+md+T4+ab._3+nd+od+pd+s++r++!U [N.qd+rd+sd+td+ud+,U RK vd+`# wd+,! 4|.^R.:s { .2}+q<+}= =& K# _+ :+ x{ m, l, l, q= I/ AF xd+yd+zd+Ad+A)+8V.E3+Bd+D)+O-.L~ db N^ K^ N^ N/ G'+I/ I/ ^) E# 80+80+N2 Y! l, j_ 90+M/ <= 5+ Cd+E/ fM.Dd+Ed+Fd+Gd+Hd+Id+Jd+Kd+Ld+Md+Nd+Od+t* )c+'9 Z  -9 Pd+Qd+yH <H.o( Rd+Sd+Td+Ud+Vd+|^+!L.'W.Wd+Xd+jO.%: Ei.!w.!t.#t.#t.r< Ca./z.DL.>$+Zd.Rd.$: xp... ZV 0O.A9+NI.Is.(*.p#.)4.(r.(r.gk.gk.&0.@0.!m.fk.~c.oH.>: m8.Is.v8+Is.>1.Is.lE.H> 6%+(*._*.$. .. 4/ 3/ l* E>  .  .  . E> E> .. .. .. mi n4  : ]} G] t`.@: #: 7%.(;+o#.8%.8%.'7._c.(m.#t.f%+x&+|++pf.pf.4c.rp.DL.qp.2c.K*+K*+2c.2c.HH.J@+%t.-t.Yd+jb+Zd+,*.D| >0.pH.mf.mf.>0..4+G`.Yo.H +s5+`d+B).y/+=,+qT.My.D> %: !4.9%.>t.vp.;t.$t.",
" e+.e+,#.+e+@e+#e+0x $e+G>.%e+&e+C{.e +*e+=e+-e+;e+>e+,e+'e+)e+!e+~e+S,.l_+l_+J;.J;.J;.O1+L(+o_+ll +^+A{+9<+m> T*.%e.Ga.T*.A-.3!+{e+A-.[3+]e+c:+4<+fd+^e+a,+/e+(e+@@+`L._e+:e+7t.<e+Ee.i6+i6+-(+[e+}e+|e+1e+2e+3e+6K.4e+e +;N 5e+!U 6e++=+7e+xf 59.8e+KQ.9e+0e+h++ae+Ek =] Em B_ ~^ G~ 8q be+n9 c, 5; 7; K# L# >+ ,+ |) x{ l, l, <= $& ce+N0 de+'8+ee+WT.fe+ge+,C W0 ^1+U+ _= he+N^ a] 1@+ie+2; d$ ^^ N/ h_ j/+a[+6z R# Q# j_ F# F# Z! (5 no 5b je+ke+le+me+ne+oe+pe+qe+re+se+te+Re.Tj.~_+ue+){ 1/ XU.ve+yH rH y(.-8.we+xe+ye+71+$0+ze+Ae+Be+X'+Lq.4L ~*.!z.rp.#t.L@+Ca.(m.pf.HH._h.(h.g(+#. #. +. $.  <+hb+z- Is.$. 3/ M@ )4.>7.gk.gk.q* q* q* Nd._Z ~c.>: I*+Is.v8+Is._*.DB..V.03 I4+Is.v8+_*. . 4/ <% #: 3/ <% <% l* l* 3/  .  .  . n4 >9 k<  : M@ l*  . .. #. #. '7.o#.>0.+-.;w.lu.1++};+};+};+:++:++` +` +wH.e%+%J.FH.(h.,$+F9+FH.tH.Ce+C`.De+Ee+Fe+Ge+b5.4L 5L '1.M@ dp.B&+z;.ra+He+S3+Ie+Je+o' A] 4! pT.l}.'1.{4.{4.xk.xk.Qi.Oi.",
"Ke+Le+Me+Ne+Oe+Pe+Qe+JL.0K.0K.gN.Re+Se+Te+Ue+Ve+We+A0.Xe+Ye+Ze+44.`e+kF S,.y^+0n  f+={+o_+j%.L(+j%.A{+A{+A{+B{+T*.Ga.l- %e.R8+A-.5<+.f+{].+f+JS.c:+@f+ih.Ja+#f+$f++@+%f+&f+*f+A2.%V.=f+~/ T2+V(+-f+;f+>f+,f+'f+)f+M'.!f+ b+~f+{f+K&+]f+^f+bg./f+EL.qS.(f+,f+_f+:f+<f+[f+,2+e_ M~ #K v{ [s sZ c, ^_ <+ &~ L# p, >+ >+ :+ |) x{ l, 4+ *+ <T Q{+AY /s.:0+RK F, }f+|f+N0 1f+b& ^^ >w .b cc qo 2f+1_ -F 3f+db o9 g_ 4f+L-.:^ p; 80+$i f=.r[ +4 5f+6f+7f+8f+9f+0f+af+bf+cf+df+ef+lO.t< >` y] gs.i7+20 Pg ff+ 8 *T 5%.TQ wI.gf+hf+if+S^+'n.jf+kf+lf+mf+</ `b F> V<.'t.up.L@+(m.qf.pf.uf.(h.uf.qf.#. +. +. E> @: ,D.%. v' 6%.3/ l* q#.)4.yi.gk.xi.yi.q* J]+0%._Z U<.oH.u8+YV DB.6%.ZV `:+z- [% YV <u.ZV  . 4/ M@ $. <% #: M@ M@ <% l* l* 3/ 3/ {} {} {} {{ .. A( D| =_.;0.o#.o#.~*.+-.>0.6r.>w.L@+9>+9>+4++1;+1;+J@+pf.HH.}++qp.FH.FH.%J.A~+vH.}++qb+nf+Yd+C~.0x.of+Yo.pf+=7.=7.Jq.m* qf+rf+A/+g}+sf+tf+uf+zP.]i.&{ ~u.5L ,[.~4.~4.xk.xk.Mi.Qi.",
"vf+wf+xf+yf+zf+oV.Af+Bf+Cf+V[ Df+Ef+$f+Hb+id+Ff+Gf+Hf+If+Jf+Kf+]. ed+4p 33+33+e:+l_+E(+L(+p_+p_+j%.+^++^+c]+m> T*.T*.R8+R8+4*.R8+5<+W8+JS.M8+Lf+Mf+Nf+Of+Pf+a +Qf+Rf+Sf+Tf+Uf+3{.Vf+Wf+Xf+Wf+`}+Yf+Zf+`f+ g+%c+.g++g+@g+#g+Ph 59.$g+$g+wc MH.q%+%g+rd+&g+.g+*g+=g+-g+;g+i= Q{ OX P$.b, Am ~) 5; Q/ &~ M# ,& 3= -& J# ,+ :+ x{ l, n; {& G{ U+ Z/ `n 8' h4+>g+U0 bI.cz ,g+9& O3 z{ := s9 b& Rk 'g+Qk y& ]$ =$ b~+<1+9] l= cc dc Z! 1^ )g+~+ 67 aq !g+~g+{g+]g+Ee.^g+/g+(g+AM hi ak 4%.ad {m )V.}!.-{ 2% id M` ,Z d* _g+:g+<g+[g+v`.}g+|g+1g+S3+7&.6F IJ E> )h.'t.@t.4r.5r.Ca./z.6Q.>$+Si.pf./m./m.+. l* 4/ >{ 03 03 &: <% 6%.'4.q#.@0.yi.)]+fk.fk.eu.{c.q#.p#._Z WX.WX.WX.Is.v8+DB.(Z.G] *2 Zb ta s< g< w| ;9 @2 ;9 ;9 w| w| w| w| ;9 ;9 f! ;9 w| j< E>  . k* F> >0.+-.^*.=1.^*.{*.6r.8D.#t.4++@.+2g+};+};+L@+qf.K@+|++{w.rp.rp.{w.qp.}++HH.8>+;t.A;.[b+3g+O> zJ 4g+5g+6g+r8+7g+8g+!S.is.`2+Y=+9g+0g+y5+z] zI.=7.l}.mi $: ~4.o#.;0.wk.Mi.",
"ag+bg+cg+dg+eg+fg+gg+hg+ig+jg+jg+`9++8+/$.kg+lg+mg+Y6 If+Jf+Jf+ng+b:+w|.k%.w|.f2+X|+:P.O1+p_+p_+j%.gd++^+B{+_~+T*.R8+R8+R8+4*.R8+5<+W8+M8+og+pg+qg+ }+:/+rg+aY.sg+tg+ug+vg+wg+4y.xg+kd+yg+zg+8t.xQ.[$+Im Ag+Bg+Cg+kZ.Dg+sV Eg+Eg+~@+Fg+~@+Gg+Hg+KQ.Ig+:S.Jg+:,.Kg+#% 11+Lg+#a Dm p9 I/ +5 Mg+6; Q/ <+ '& /+ 3= -& -& >+ ,+ |) m, n; n; ^) Uj b] [h ^R.Ng+G2 Q{+Og+Pg+9& SX 4) f$ o2 e$ Sk po cz d] ff @~ Qg+Rg+=| $! t_ 3Q .b o; 36 1^ ]+ r[ <h Sg+*>+Tg+Ug+Vg+O3+Wg+E +Xg+R7 L  8+.aF d1+;u.Lq.X7 qi %T w#.#M 4=.4F pM Yg+Zg+(%+h3.^n.`g+ h+.h++h+&7.ed w|+,7.vp.4r.5r.r< /z.FH.>$+yk.K*+g(+@m.w|+L> 4/ B( H] CB.YM.t`._*._Z q#.Nd.gk.fk.!m.(r.Wv.r&+~c.r#.)4.$. @: 6%.>1.WX.WX.,{ ,{ s< s< hd |/ u| g< @2 @2 ;9 ;9 ;9 ;9 ;9 ;9 ;9 ;9 @2 @2 @2 f! <% M@ p#.0%.-1.-1.=1.]*.pH.n8.r< (m.#t.4++4++2g+};+};+#t.6++#t.1++@t.@t.,t.,t.,t.,t.x&+@h+>w.{$+#h+$h+%h+&h+q~+*h+h`.=h+ul.-h+r2.;h+>h+,h+'h+9|+Xd+A] zI.'V.m}.5L {4.!4.~*.+-.Nn.^m.",
")h+!h+~h+3[.{h+]h+^h+as y7+Wc./h+(h+_h+:h+<h+[h+}h+|h+1h+1h+2h+3h+Nf+Dh.IF D}+w|.3<+4h+X|+y^+y^+E(+&e.ll &e.L(+c]+c]+c]+c]+c]+c]+R8+W8+HS.5h++f+w|.%l.U7+6h+|9.7h+8h+9h+0h+ah+pC.bh+ch+dh+p5+Ih eh+5` 6<.fh+q@ 0) gh+hh+ih+jh+l +aD.kh+lh+mh+`f+nh+oh+_Y.ph+lX.qh+rh+gM.sh+Yd 8q Bl KH ~) r= Q/ ^_ }) |) 1= /+ o: I0 0; >+ :+ x{ 3+ 3+ && && 5+ w{ Dm :s v{ -F be+ZA th+uh+vh+wh+1s PX }s !) <T L-+xh+ac _& N%.i) #$ |7+-U  5 cc o; N2 |= yh+$& zh+Ah+Bh+Ch+Dh+Eh+Fh+Gh+Oj.q3.'8.IG IT vM -I DJ #z Ny.CM }} Hv O@.$f !m Hh+Ih+!2 Jh+Kh+Lh+i~+Mh+u- |>+F5 @. #. xk.Mi.Oi.r< (m.4c.6Q.yk.uf.Pd.g(+Xd.K@ .. '1.cE.*. }% %. WX.)4.r#.!m.gk.Nd.J]+q* <p.I*+'4.q#.q#.@: _*.WX.WX.>1.>1.(Z.6%+f< >} u| f< |/ f< +2 @2 ;9 f! @2 v| v| v| @2 f! v| v| v| g< 0%.q#.r#.r#.jf.kf.]*.Ei.o8.Xd.qf.qf.1++#t.#t.1++8D.8D.4r.r< vp.vp.,7.~0.Xd.Xd.L@ vp.L@+_,+wp.D|  p.i}+Nh+Oh+Ph+,=.C!+Qh+Rh+Sh+r2.8%+m[+#++f@+:2+Fq.Th+B] 'V.4L m}.E> 3/ ;[._,._,.;[.",
"Uh+Vh+Wh+%(.yf.Xh+J2.Yh+Zh+}-+`h+ i+.i+rm.+i+@i+#i+$i+%i+,4+&i+*i+t!.Gb+Q1+S7+ }+=i+P8+X|+y^+y^+l_+z{+j%.j%.O1+j%.2>.2>.c]+c]+c]+c]+-i+[3+Q7+;i+S[+Y|+vS. 0+c +ha >i+O).,i+m,+'i+)i+!i+~i+kd+c/+{i+5` ]i+^i+/i+G= L+ (i+_i+:i+gO :S.Yb+9Z 9Z 9Z <i+i++[i+}i+|i+y  1i+R..2i+ER :s Bl 9& X+ Y+ ^_ q= m, x{ I# |= o: I0 0; >+ ,+ |) 1^ 3+ e^ q= E# m9 dI.w{ b, ^^ 2}+ZA th+t, wh+3i+4i+PX n9 s9 q9 :s NX G2 >( CN CN %N R$.5i+I~ n= 8= 80+]+ #N u; q2 6i+7i+8i+)E.rj.9i+Ee.0i+l6.ai+Ie.Nv 8V W'+bi+:L A5.Ny.ck bk D~.I6 q$.ci+di+ei+fi+gi+1{+hi+BU.)O x] ik B( pW.qL.rL.Qi.=_.r< Ca.FH.,$+uf.b{+Aa.(m.+. %: 5L m}.|% m* N@ (Z._*.>7.yi.Nd.(r.q* C- @0.r#.q#.0%.r#.>1.Is.DB.ZV (*.@: t`.(Z.u| >} |/ hd hd |/ u| v| @2 v| g< u| u| +2 v| @2 f! @2 g< +2 q#.r#.r#.r#.]*.{*.4|+,7.Xd.Xd.up.,t.ZI.y&+y&+)$+8D.vp.4r.Oi.xk.{4.~4.xp._c._c.D| ~4.(m.)t.-1.,1.|V m>.ii+ji+ki+li+mi+ni+yT oi+5L CB.pi+qi+ri+^'+si+>I jO.'V.D> m}.%: <% _,.ep.a2.fp.",
"S[+fd+ti+ui+dV 5>.6!.<>.{/+vi+%1+wi+wi+xi+yi+zi+Ai+Bi+@R.#i+Ci+Di+Ei+:/+W/+Fi+c2+Gi+P8+;H e:+e:+e:+K;.l_+l_+y^+Gk.o_+j%.L(+L(+L(+j%.2U.ed+Hi+Ii+P9+Ji+Ki+jg+Li+Mi+>i+Ni+Oi+$(+Pi+Qi+Ri+c+.Si+Ti+Ui+[$+.g++2+,h t& Vi+Wi+ph+Xi+.g+Yi+_f+-m Zi+`i+ j+.j++j+@j+#j+2$ $j+[f+%j+&j+/1+5'.u, f$ X+ q= <= k_ k_ )| E} o: I0 p: 0; >+ :+ 1^ 3+ 2+ j_ 4+ <^ 67 h_ >w >w 5+ I/ A& e$ sZ vy.*j+G'+<= M/ *+ <u =j+-j+;j+%K :i >j+,j+A# V# 'j+wZ 6= vF l8 ^_ 3`.)j+gB.U,+!j+~j+%e )*+{j+p5+]j+^j+{/ ^T.e&./j+R)+qT.My.ik 83 gd :0 q>.;8.kP <E.(j+_j+:j+<j+*:.'O C)./O D> pL.{$+[j+A`.D`.r< Ca.FH.pp.(h.}j+4c.(m.K@ 5/ 4L Kq.|j+1j+}% ,{ WX.~c.yi.$0.Ld.(r.Nd.Nd.r#.q#.q#.)4.6%.>1.ZV _*.#: <% >{ t`.f< pX Dv Dv pX =2 C| C| wA C| =2 vA vA C| %T )9 @2 v| K6 n#.)4.r#.q#.0%.Ei.4|+~0./m.qf.Ca.,t.tp.qA.qA.1r.'t.vp.,7.#. $: !4.>[.l}.CM i8.s2.Tg ,[.)S.7r.M@ ik ]'+u`.+2.2j+3j+4j+5j+6j+-W.p$.F5 6/ 7j+8j+9j+0j+m6+xv.VJ.{u.4L m}.%: 5/ G> G] t`.K'.",
"P9+S[+&=+2j.aj.E5.aj+(U.bj+cj+dj+ej+fj+gj+.R..R.hj+Bi+Ai+ij+jj+Ei+:/+R*.kj+lj+mj+nj+oj+w!.1U.e:+K;.K;.K;.y^+y^+/3 Gk.j%.L(+L(+L(+j%.*}+k_+pj+qj+<|.a,+rj+sj+V[ tj+uj+vj+wj+xj+yj+zj+Aj+Bj+Cj+Dj+MN.Ej+'f+j]+2q ;h Fj+Gj+Hj+Ij+Jj+Kj+Lj+uo .2+D+ :f+Mj+Nj+Oj+Pj+^Y.=|+L= Qj+c= Rj+ B `A SX s, <= 4+ Z: Z: g9 bI o: I0 p: p: >+ ,+ =~ S/ Q# R# R# p; =[ )6 v8 K2+8= T# N/ {( Bl Bl %A.r9 [) }) l, ]( cI.*#.Sj+^$+9<.Tj+X# Uj+S`.e; lf Vj+7z 2_ N# Z(+Wj+Xj+N{+Yj+Y*+Zj+`j+ k+mh..k++k+@k+k$.m>.#k+V-+q' $k+p4 D] [C gd S7 wM wI.nW.%k+j3.&k+*k+=k+8S ei `p -7.=N.z/+{$+u~+7++=_.r< 4c.pp.(h.3c.4c./m.L> 5/ cE.B> TM.1j+H] (Z.Is.~c..t. t.(r.fk.gk.gk.)4.q#.0%.0%._*.WX.Is.ZV _*.6%.&: ,{ $z *c b..b..K` vA vA <C $z $z $z $z vA =2 wA %T g< u| y( P6 _Z )4.0%.:Z 4|+o8.~0./m.qf.(m.Ca.,t.!w.!w.!w.1r.n8.'7.{4.=Y.B( 0! AM qW.-Y.=7.AI.BM /*./m.=_.q^.SW -k+gi+;k+>k+,k+g7+'k+)k+]=.Pr 6/ !k+~k+Al.0j+si+)V.VJ.[/ D> m}.%: 5/ a! K'.K'.a! ",
"xS.zf.Eb+ ^+Fk.om.{o.ir.{k+]k+^k+/k+(k+_k+:k+<k+[k+b,.}k+x1+|k+1k+W0+:o.2k+3k+Q;.4k+5k+Ii+X[+_).z-.Ip.Ip.Hk.Hk.1>.>I.0]+z{+E(+z{+D{+x!.4h+6k+Dh.Y|+U7+7k+8k+9k+0k+uj+ak+Zr bk+ck+q~+dk+ek+W3+fk+[*+t,.gk+hk+ik+h- Z) 5$ jk+M& ]9+L+ SY.kk+06+lk+mk+nk+ok+W. pk+qk+=|+rk+sk+tk+uk+vk+wk+SX 4) <~ <^ q_ <( xk+.H )[ I0 p: p: 0; ,+ n, S/ 57 nv -1 yk+zk+2[ k: mv D{ @N Ak+Ak+0q K~ u*.4$.V.+-+ *& <~ dA [h Bk+Ck+9<.Dk+c= Ek+a= Fk+() Gk+Hk+7z 8; 9q [^ s= Ik+N{+Jk+Kk+Lk+Mk+Nk+Ok+Pk+~C mW.vJ /% Qk+U  4! |L 9! a3 [C 33 q$.(H.Rk+ol. }.{H.7s.Sk+ds.h>.{m {u.|%.wa+Tk+&.+2++=_.r< 4c.FH.Uk+}j+4c.v~+k* B( Z  |% ,Q.m* z( ,D.Is._Z .t.jk.Nd.yi.gk.!m.0%.0%.)4.'4. <+u8+YV YV u8+ <+%. 6%+vA pX <Z e! <Z *c K` *c K` pX &T <C $z =2 C| wA K6 n#.@@.P6 _Z 0%.&0.]c.,7.,7.)0.Ca.Ca.Ca.Ca.Ca.{h.~h.!h.Ji.Rd.:% 3/ F] x( M6 t< Vk+ p.)V.ND A5... r< 6(+)I %q Wk+Ac+Xk+Yk+Zk+`k+ l+)k+X=+s:.d3 .l++l+@l+_d+#l+[L.@3+}!.0! D> B( 5/ >{ G> a! F] ",
"X8+[P.Eb+$l+ir.+E %l+&l+s_+7c.cj.*l+V0+=l+-l+;l+F' >l+,l+'l+)l+!l+1k+~l+{l+]l+^l+/l+(l+r@.Zk.6h.Cf Q,.[[+>I.>I.mm.>I.0]+z{+O1+8*.2>.B{+]e+Hh._l+}h.vS.5!.|9.g#+:l+SZ.X!.<l+t-+[l+o~+o' }l+|l+1l+2l+3l+4l+5l+2q 6l+B~ W/ v# 7l+hk+x^ W' om 8l+9l+0l+al+#W jk+.% bl+cl+dl+&P $$.el+!1 s2 u, z{ <~ ^) <^ +4 '| H# J# -& 0; 0; >+ _+ =~ 3+ O/ (5 =1 fl+gl+hl+W^ )7 _~ Y^ il+cP.OX %a c*+jl+kl+z&.[= <~ 9= K~ ll+ml+X0 nl+ol+pl+ql+rl+sl+] .tl+3+ }) M# 9q ul+vl+e, wl+xl+yl+zl+Al+Bl+Cl+Dl+El+pl.N)+G .Fl+:O. q +2 ]G.|0 Ug y] Gl+k|.gi+Hl+Il+'c+Jl+mW.9/.=,+)V.=7.x9+;N.qL.A`.=_.r< Ca.4c.9c+Kl+Uk+(c.&0. . ]m 'Q.Ll+Ml+BB.+: ZV q#.gk.Xv.yi.(r.fk.Nd.:Z r#.I*+B[+*:+lE.<u.<u.<u. <+(Z.G] >} vA <C *c qX b..qX Dv Dv *c pX <C vA =2 C| C| g< +2 n#.y( q#.J` Rd.,7.(m.(m.Ca.Aa.Aa.Aa.~w.~w.,0.'0.Ji.Ji.r}+3/ cE.gi Or uP Nl+Ol+c/.sB.Pl+Ly.]'+8x.F'.lk xb.s5+}x.T2+Ql+Rl+Sl+Tl+Ul+`s `I =} oi+{,+:/ {o Vl+Ve.Wl+hx ni @2 l* `o.H'.Z=.;[.J4+",
"w_+6c.:4+yi+Xl+Yl+Zl+xi++e.j_+[/+C}+~7.Da.`l+hj+ m+.m++m+@m+#m+U;.$m+m@.%m+&m+*m+=m+-m+;m+wj+6'+ (+%{+Rr.1U.D{+[:.rr.1=+QM 4!+9)+>m+,m+G,.~e+t!.U,.L8+'m+uc+Qf+++.L{.)m+!m+Z[.O3+]d.n|.a&.~m+{m+]m+^m+/m+(m+), G: S) S) S~ j] _m+Ik :m+]u <m+Y .[m+}m+|m+1m+ %+2m+3m+4m+5m+O%.Qj+6m+A# ;j u, 9& W+ [) 6; 7; K# K# K# K# %~ 8; q= := *+ ]( T# :~ 7m+Vd x2 EN .P 8m+l= 3Q @K Q$.H/ !j 3Q 67 ^) *+ {( { .9m+|@+T).0m+am+u+ bm+cm+dm+em+fm+n9 <= 1+ L, F# 0z q<+j/+4'.gm+'7+QW.hm+Q4+im+jm+km+*6.lm+mm+nm+(/ om+pm+1k.Zl.63 -I qm+rm+s6+gT.b$.sm+tm+|x.!. um+X'+!u.F`.4r.@t.`I.ZI.;t.mu.tp.E0+D0+E0+_h.Aa.F> &. 1j+vm+#h+V7 ^} 1/ bf.pn.du.J]+U<.)4.r#.rn.jL.1p.u4+.V.lE. <+ <+[% [% 6%+&: |/ ta.(Z di.di.(Z (Z (Z z' (Z (Z bf.ta.wi.@@.u| <C <m u| u| u| 73 wm+/m.Ca.Aa.Aa.3c.qp.qp.F9+!t.#. @. Qd.Od.Y^+f! jO.91+]=.&I (S xm+ym+zm+zD.Am+Bm+ql.{A.Cm+So.Dm+Em+Bm+Fm+Gm+Hm+Im+b+.kM c..)9 -4.w( b%.Jm+Km+Lm+j9.&7..7.p* C- (;+*.+=.+HW.<r.",
"]0.Mm+{g.pc+Yl+.R.@R.O9+R0+_l+1t.W]+9]+Nm+Om+Ai+Ai+Pm+Qm+Rm+Sm+Tm+B0.Um+Vm+Wm+v+.l^+a +Xm+&~+7:+D^+KK.s!.3t.$e.^q.}[+Df ${+ f+l'+Ym+Zm+S}+`m+ n+c,+ a+6h+BZ..n+t$++n+CS.@n+#n+$n+%n+&n+7&.y4+[l+*n+=n+-n+;n+/X 51 0~ yr 0a Ib *w d+ F3 3q ~< >n+yU ,n+[5+3m+'n+)n+!n+~n+{n+]n+^n+.& 6q U+ /n+9& o2 Mg+[^ 7; %~ 7; %~ %~ 7; *& [) := I/ 5+ $& (n+tl+_n+7= ]( dI.cc +N (a  d 2( :n+u_ _5 =#.>_ b, b, w{ !) sL 4J Kx U).<n+(s.[n+[n+}n+1a+ZA <= := <~ n; n; o; D# |n+aq 1n+2n+2S.3n+4n+5n+6n+7n+8n+9n+-,+0n+*f an+pm+i{+[0 bn+cn+<j+uq.dn+en+YZ Ud+yG fn+gn+}l+Yo.`o.Ji.op.$!+@h+>w.!$+wk.vf.hn+in+(c.J]+ZV *. s* c! 7! ={ D] s< z' !c.!c.qn.U<.r#.B[+jL.0T.g^+jn+.V.lE. <+v8+[% [% 6%+(Z.P6 bf.di.b3 'c.di.(Z (Z z' di.'c.di.z' ta.wi.P6 <C od ]} hk g< ,} Rd.,7.,0.1c.Yd.Hi.A~+A~+s&+{w.A( mi 2K./c.Yl.>9 6F <=.^T.o(.H  kn+ln+mn+q:+nn+on+pn+qn+rn+sn+tn+*;+un+vn+wn+xn+yn+!'+UW t| kR K'.[C zn+u$.An+`W Av Bn+Pt [V 4L Cn+Dn+En+Fn+Gn+",
"Hn+In+Jn+zi+Kn+}k+Fh.:4+Hr.Y|+Ln+~{+Mn+Nn+In+On+Pn+{g.x1+}h+Qn+Rn+Sn+Tn+Un+Vn+Wn+Xn+Va+Yn++~+k=+S&+V4+9*.#e.hj.ml 7m.]=+Zn++1+Z}+Hk.0]+2U.S,.t!.g3+Pf+-m+`n+f#+ o+.o++o+@o+#o+$o+2s.H).]=.n6+%o+oJ MN.&o+*o+=o+-o+R~ 8g ;o+Cp LH YM 8g (u >o+,o+H3+'o+VV.|`.)o+!o+~o+{o+]o+L; ^o+Rd b~+z& 9& A& W+ && F# F# Y: y{ Y: Y: *& *& *& F# && Z! := q; Q# R# S# .d  N O/ ]W /o+mv (a (o+_o+[6 +N he+X^ D# D# N/ ^^ d$ d$ 2; Pg+:o+2f+G..2f+Pg+@5 e$ ,_ ^^ n= _~ j: AR fc hf <o+[o+}o+8u |o+1o+2o+3o+4o+5o+6o+qP.{` %T bf.s4 Jv Fl+G .7o+h3.U=+en+8o+9o+0o+ao+!'+s[+p8+`o.Ei.(w.np.sp.4r.D`.u~+!4.D| D| m}.8%+'{ bo+vm+/++s' ^} a3 bf.)c.nH.Hd.*3+Ld.>: +r.%m.f(+_Z :p..V.*:+u8+ <+[% [% %. (Z.wi.z' b3 ]r.]r.'c.di.di.di.b3 ]r.b3 z' P6 @@.P6 hd hd |/ u| ,} h< Rd.Rd.AH.AH.~h.~h.}G.GH.GH.tp.'1.,[.+m.+m.+. `b co+1>+Z2+rI.Le.do+eo+fo+go+ho+io+jo+ko+lo+mo+no+oo+po+qo+ro+so+to+uo+vo+*Y.D] lE.,{ 23 I@.wo+xo+yo+zo+Ao+zj+Bo+Co+Do+Eo+JT.LE.",
"rm.Fo+Go+zi+Ho+@R.yi+Ga+]g.Pr.~{+Io+Or.Jo+*l.7C 7C A(+U[+Ko+cd+W$.Lo+Mo+No+)/+Oo+l^+a +Jb+Po+Ih.{[+r^+</+</+'-.3-+)*+Qo+Qo+}^+nG.^M.8J.&{+9X.t!.d;+1k+id+Ro+So+To+.o+Uo+Vo+Wo+Xo+Yo+Zo+FU.nM `o+Fh+ p+.p++p+@p+#p+$p+lo ZM ^] ^] G9 yt Cp %p+[i <i =] 25+&p+*p+=p+-p+;p+>p+M; @~ 0I _^ /) z{ <~ := Z! ~_ ~_ p[ p[ p[ '| y{ y{ [= [= [= F# =+ =+ Z! Z! %& *+ T# Vd ,p+'p+H%.)p+!p+~p+u{ je DN DR %+ dA 6+ G{ Uj Uj $& N/ N/ &+ 9= P= wZ {p+9& ]p+p9 &[ ^p+F/ >C 3^ /p+(p+4[+_p+:p+<p+[p+}p+|p+1p+2p+3p+Po.u- ZP.pT.5! 4p+Fl+)S (n.n( t6+YZ 5p+6p+7p+8p+|R.9p+gs.CM o#.]h.^z.tp.Oi.7++$)+0p+>;+>;+F!+ap+s8+bp+cp+8! H] E] (Z cp.Zl.0u.dp+.t.qn.@r.:p.{c.r#.p#.'4.Hs.lE.<u.YV v' [% 6%+WX.bf.di.]r.]G.]r.b3 'c.'c.]r.]G.&2 ]r.bf.n#.W7 @@.z' 1/ wi.K6 '} )} wm+r}+!h.!h.!h.of.|r.(w.(w.4|+T*+'1.wm+v~+K@  $+ep+fp+gp+2R.ZC.|o hp+Uf `x.ip+jp+RA.kp+_C.S2+lp+)v mp+np+op+pp+qp+rp+sp+`3+'Q.D- C> a|+tp+up+vp+wp+xp+yp+zp+Ap+Bp+Cp+J`.=1.,h.",
"Dp+!h+Ep+Ho+Ho+zi+On+In+(/+Fp+p)+`d.L,+K,+Gp+D5.D5.vm.Hp+Ip+Jp+;q.bd+Kp+Lp+Mp+Hb+Np+Op+Lr.V]+Pp+Qp+M%+G|+QQ.J}+Rp+EN.Sp+NV.NV.Tp+Up+Z!+yS.Q8+<|.Di+Vp+Wp+wY.Xp++5+Yp+Zp+`p+ q+.q+Gg r9.+q+vJ ei+|< &).Ii @q+#q+$q+OK 18 <] |x %q+=x /| ,F &q+kZ e9 *q+j; R+ =q+-q+#T./$ {h ;q+>q+V^ =[ q; L, j_ k_ +4 m_ m_ 08 h9 h9 xk+p[ ~| %i }= c8 q= m: #A.'w ,q+N/ U# O; 'q+!&.)q+!q+~q+{q+]q+Lg+m4+8J zr Ct L-+3f+dA d; ~& {& O/ :^ 5( xZ ^q+/h w= /n+-c+:s $! @! Q! /q+(q+_q+XV.:q+%S <q+[q+}q+|q+1q+2q+3q+4q+5q+T@.k~+6q+I@ 5^+/=.,:.r6.HW 7q+~H.8q+9q+0q+aq+bq+-W.cq+ms.!4.Ei.n8./m.D| oL.p8+dq+eq+fq+gq+hq+Uj.Vj.^O $2 O3.b3 Fd.nH.Id.iq+9u.zi.$m.*3+(r.#m.fk.'4._Z f(+f(+<u.lE.<u. <+ZV _*.{c.eu.i{+M]+i{+Ld.Ld.Ld.i{+Ld.i{+M]+)]+gk.yi.(r.cp.z' {G.;7.Rd.~0.w|+Rd.Ei.Ei.Ei.mf.mf.!h.!h.o#.x9+pL.Ei.)h.(;+1L jq+kq+lq+mq+nq+oq+pq+qq+rq+sq+tq+uq+vq+Yw.!C.wq+xq+yq+zq+Aq+Bq+Cq+Dq+Eq+Od+r4 HW.i%+Fq+Gq+Hq+Iq+Jq+Kq+Lq+Mq+Nq+Bo+Oq+qW.>4.Q<+",
"On+!h+Pq+Ho+Ep+Qq+Rq+:>.Zh+*9+)q.Zc.Sq+7b.B}+8b.Tq+Uq+Vq+Wq+Xq+Yq+Yq+Zq+`q+ r+-9+@8++8+u-.Y6+.r+M1+U[+T7+j:+|o.-s.vK.*X.+r+@r+#r+n#+$r+L~+[m.x-.%r+&r+*r+e#+=r+9p il.-r+;r+>r+,r+^;+@t +;.PT 'r+)r+.X ti+!r+hc+@>.~r+;U L0  H *i {r+]r+tr cG d@.I1 ^r+i, -_ -~ /r+f& y& R{ (r+)E 3[ qf >1 n, =~ m, p[ l_ xk+h9 h9 xk+xk+i1 N2 1u aG u; e$ ] .be+_r+Al /W :r+<r+1h [r+}r+|r+1r+2r+3r+4r+4r+'8+1* TK U0 @a /1+7+ C# dA W^ 6( 5r+6r+7r+8r+8& ie+!) ec R! ;7 %< UP 9r+2V.0r+Qc ar+br+cr+dr+er+fr+gr+hr+ir+jr+kr+lr+@++f@+C$.Pe.mr+nk [` o> 1F.nr+or+pr+qr+rr+;T.}l++3+m}.4/ =_.@. a! t' ug.sr+tr+ur+vr+wr+Rh+G| xr+ix.b3 mH.Gd.Hd.Id.9u.b^+l}+e|+eu.xi.qx.d^+f(+m8.m8.m8.<u.YV  <+DB.WX.>1.Ld.Ld.i{+Ld.eu.eu.Ld.i{+Ld.<p.[p.M]+M]+[p.<p.eu.pn.K> j8.l8.wm+w|+wm+Rd.Ei.Ei.pH.{*.{*.>0.{*.7%.XX.9%+pH.pH..4+-.+yr+zr+Ar+Br+Cr+<Z.Dr+&V.Er+Fr+9f+Gr+Sh.|[+Hr+Ir+Jr+Kr+Lr+Mr+Nr+Or+Pr+Qr+w6+1V.Rr+Sr+Tr+Ur+Vr+Wr+Xr+Yr+Zr+`r+ s+.s++s+jO.)9 @s+",
"Go+#s+#s+$s+%s+&s+*s+=s+-s+Rb S|+&-.;s+>s+,s+'s+)s+!s+~s+{s+]s+^s+/s+]s+]s+Zq+(s+_s+:s+<s+mc+[s+}s+=q.mc+<o.@d.|s+1s+Fo.2s+3s+4s+5s+6s+re.{#+Ji+Ma.7s+8s+B.+yZ.9s+0s+as+bs+cs+0V ds+)L ^=. ;.TJ.es+fs+Em.gs+hs+is+js+ks+f_ N9 44 #U 54 %C XB l1 ls+I2 ms+$+ 2^ rL 00+9= (n+3+ 1^ >1 ]+ ]+ {+ {+ I# bI bI bI .H .H x9 p[ O2 !M >w 6Q 7$.19+xy.ns+os+%_+ps+qs+rs+ss+ts+us+*>.vs+ws+xs+ys+zs+As+Bs+Cs+Ds+Es+[@+Fs+:r+Gs+%a %a A_ 5z Ar 46 q9 qo db /R.t_ D:+z8 Nt.@b `0 Hs+Is+Js+Ks+/}+Ls+Ms+Ns+Os+Ps+Qs+Rs+Ss+Ts+Us+I .Vs+wU.Ws+Vr Xs+o{.Ys+Zs+`s+ t+.t++t+@t+#t+#l+~u.n4 `o.ix.dL.$t+%t+&t+*t+=t+-t+;t+xJ >t+d! b3 Fd.8u.Hd.Kd.zx.yx.N]+T<+d^+)]+Ld.$m.T<+lH.=:+Md.f(+>: ~c.WX.>1.WX.Is.i{+i{+Ld.)]+[p.)]+Ld.Wv.Ld.gk.yi.eu.i{+<p.fk.xi.Ai. t.b++va.Qd.va.]c.]c.L> k* >0.+-.*0.;[.#-.;[.,*..4+mf.!h.>0.0x.,t+'t+Ar+)t+!t+~t+{t+]t+^t+/t+(t+J$.3,+_t+{J.:t+<t+Cs+[t+}t+Z_.|t+1t+2t++: uk.3t+4t+5t+V-.6t+7t+8t+9t+W)+:2+-4.Zo.Th+Q@.6L *u.",
"!h+0t+#s+$s+at+.9 d .bt+ct+dt+et+ft+gt+ht+R]+it+2*.^>.jt+Zq+kt+lt+mt+nt+nt+ot+/s+^s+pt+qt+ag+rt+}s+=q.st+tt+B}+ut+vt+wt+xt+yt+zt+At+Bt+Ct+2X.b'+C0.Dt+Et+Hc+Ft+Gt+Ht+{i+ 3.It+Jt+Kt+=O +++f`.Z].g' -k+Lt+H^.Mt+Nt+Ot+Pt+q+.H%.c@.Qt+<P [x Rt+St+9I Tt+j: D} dA cc ~& Ut+j_ |) :+ /+ 2= ]+ {+ 1= ,+ )[ o: )[ ;& |= Y: Z! h_ Dm @A.NX *L Vt+Wt+Xt+Yt+Zt+`t+6P  u+.u++u+@u+#u+$u+%u+&u+Jc+Se+xf *u+=u+-u+;u+>u+Qc ,u+Xh s +'u+#b )u+!u+~u+MX ]&+L~ %a 9] 1g 1g y8 {u+]u+^u+/u+nC (u+jB._u+:u+<u+[u+}u+|u+1u+2u+3u+4u+!+.&u.(L.5u+6u+7=.o{.Ys+7u+8u+9u+0u+au+V@.bu+X'+X3+`_ S@ R/.cu+M<+du+eu+fu+gu+hu+iu+sP =} ]r.Hd.dp+dp+9u..w.)]+Md.g^+xi.qn.qn.Ld.Ld.M]+r&+u4+:p.Md.oH.)4.@: (*.ZV >: M]+M]+eu.[p.xi.[p.Ld.Wv.i{+yi.Nd.xi.)]+yi.@0.BL.'h.0Z.2K.2K.va.b++&0.C- k* F> *0.;[.|u._,._,._,.>*.>0.~h.~h.pH.ju+ku+lu+mu+nu+ou+A@.{m+pu+qu+ru+su+tu+2,+uu+*=.vu+wu+xu+yY yu+J)+zu+Au+Y-.>[.E9+Bu+Cu+Du+6g+Eu+Fu+Gu+Hu+C).n4 @. >{ :O.2+.L  r- ",
"Iu+at+Ju+Ku+Lu+Mu+Nu+Ou+Pu+Ue+Qu+Ru+Su+Tu+Tu+Uu+Vu+Wu+Xu+Yu+Zu+`u+ v+.v+.v++v+ v+@v+#v+$v+%v+&v+*v+*v+=v+Wq+A-+iO -v+;v+[w.>v+,v+'v+)v+TS.!v+~v+Wp+{v+k. ]v+^v+n++/v+Mm (v+~(._v+:v+7/.xT <v+8V YW [v+5i 8* }v+|v+1v+2v+3v+4v+5v+K^ [1 6v+k9 29+^( qQ (W =[ 5+ S# l, }) :+ _+ >+ ~[ !_ )+ H# |= >+ ~7 ;+ 3= 58 d, 7v+T! _s G2+I-.8v+,b 9v+0v+av+bv+cv+dv+il.ev+Ej.{M.Yk.Tk.fv+gv+hv+iv+jv+kv+{!+lv+mv+k{+nv+ov+pv+qv+rv+sv+tv+tv+uv+vv+Tc UK *! D^ H/ 28 g1 :^ X^ wv+xv+yv+zv+Av+M1.DQ.,F.Bv+Cv+Dv+Ev+:I Fv+Gv+Hv+Iv+Jv+Kv+Lv+qJ cL 8=.>=.Mv+Nv+Ov+Pv+Qv+B!+-'+Rv+:L |%.QX.E9.2W.MQ ^i.X@.Us+d+.aP NQ =} B| /k.Sv+Tv+dp+Zl.eu.YV I4+H> Wv.Yv.N]+N]+M]+qx.qx.Wv.f(+>: U<.)4.r#._Z U<.{c.|'+Uv+kk.>-+!:+(G.-<+D&+mf.1'+CL.]h.Ji.'0.)0.'0.{h.Ba.Aa.1c.!h.V<.J]+&0.J` :Z #: $. @: G> a! >{ $. :Z Od.Od.q* B> Vv+Wv+p[+Xv+mq+x5+Yv+Zv+`v+ w+.w++w+@w+#w+}5+$w+%w+&w+*w+=w+Xp+-w+El+Mh+I`.;w+>w+,w+%.+L> }} 9< z5 s| 'w+3c.J` VM.)w+!w+(/ 7< ",
"~w+{w+]w+^w+/w+(w+&v+pt+_w+Ue+:w+<w+f%.[w+[w+}w+|w+1w+2w+3w+4w++v+5w+6w+7w+7w+8w+9w+nt+Jp+_o.0w+aw+(w+bw+Wq+4X.cw+dw+ew+fw+gw+hw+iw+vN.jw+kw+`L.l^+lw+mw+q,.nw+ow+$P.pw+e1.}(.qw+rw+pI.&u.sw+/` [+.tw+)r+uw+vw+ww+xw+yw+zw+Aw+Bw+lv zn j9 5t #S *U j1 3[ }( 80+x{ |) _+ L# 0; 0; p: ,+ )| ~+ '+ =& K# K# %~ V! Cw+Dw+8P.Y(+Ew+Fw+Gw+Hw+Iw+Jw+Kw+Lw+Mw+E-+g=+Ku.Gh y< Nw+Jo Ow+Pw+Qw+Rw+Sw+h7.^~+Tw+Uw+Vw+.5.#r+Ww+Xw+Yw+Zw+`w+ x+.x+/&.yo.Zd +x+{T H2 9] =1 @x+cc L-+#x+r]+$x+`@+%x+{e &x+*x+=x+-x++2.;x+>x+,x+'x+Hv+Ky.)x+ z nb.!x+~x+sm+{x+]x+^x+/x+(x+B!+_x+B).:x+hH <x+[x+>a.}x+|x+1x+2x++I 3x+9i o2.KB.4x+5x+Tv+dp+nH.I*+v' }% N@ f(+yx.Kd.yx.i{+M]+i{+Ld.I*+oH.>7.r#.r#._Z U<.oH.EE.!:+~G.F~+{:+/G.Uv+lk.!0.Ji.'0.'0.!h.)0.qf.,0.1c.Ba.Aa.!0.mf.]*.J]+J` :Z p#.$. (*.K'.K'.G> [C [C g< B5.)Q.10 p4 _% 6x+7x+uv.w .8x+Xk+9x+0x+ax+bx++,+cx+{x.dx+ex+=H.ol+V[.9x fx+gx+hx+s5+ix+jx+kx+lx+!w.mx+%S.nx+ox+px+=S.^c.&: qx+rx+^i.0d sx+",
".9 ^w+tx+ux+vx+wx+#v+xx+yx+zx+Ax+Bx+Cx+Dx+Ex+Fx+Gx+Hx+Ix+Jx+Kx+Lx+Mx+Nx+Nx+Nx+Ox+Px+Qx+;q.Rx+lj+Sx+bg+=q.Tx+Rb Ux+Vx+Wx+Xx+Yx+Zx+`x+ y+.y++y+ZL.@y+#y+$y+W++%y+&y+*y+=y+-y+;y+>y++#._%+%'+ ` 9S `].JW ,y+o*+'y+)y+2s+!y+~y+{y+]y+^y+N^ :( h1 BY 8` /y+p[ '| ~| I# |= ,+ >+ 0; 0; 0; ,+ /^ Y! 4g c8 d, >j r= (y+_y+:y+<y+[y+0<.}y+|y+1y+2y+3y+4y+5y+6y+7y+8y+9y+0y+ay+by+cy+dy+ey+fy+Cg.gy+hy+iy+gh jy+ky+ly+my+ny+~v oy++r+py+m{+~ +qy+ry+sy+ty+4r+11+CU &! DR $a wl+3V.uy+vy+wy+xy+r@.yy+zy+Ay+$a.pI.J@.By+Cy+Dy+Ey+Fy+Gy+g9.pb.Hy+Iy+ I Jy+Ky+Ly+My+Ny+Oy+Py+ ^.Yp Qy+Ry+Sy+D@ Ty+ f.Uy+yA // vE 9..Vy+Wy+Xy+5x+Yy+*/+Fd.YV I> 8! I> I*+Kd.zx.Kd.yx.Kd.[p.xi.[p.xi.>7.)4.)4.>7.~c.{c.^G.Uv+F~+F~+F~+^G.^G.]h.!0.Ca.qf.,0.]h.,0.qf.'0.,0.Ca.)0.'0.mf.]*.^*.+-.0%.@: (*.6%.GG GG ]} #2 1S .q fk W7 ni Q@./% Zy+C!+`y+~i+`o+[l+ z+.z++z+@z+#z+$z+%z+&z+*z+sX.=z+-z+;z+>z+a=.,z+'z+)z+!z+~z+{z+BH.]z+^z+nx+/z+}*.6(+BM (z+_z+:z+<z+k' [z+",
"bg+aw+aw+}z+}z+|z+@v+1z+3w+2z+3z+4z+5z+6z+7z+8z+9z+0z+az+bz+cz+dz+ez+fz+gz+gz+hz+iz+jz+Ve+kz+lz+[h+mz+nz+bw+Wq+oz+L[.5e+pz+qz+Xx+/5+rz+sz+tz+o.+uz+vz+wz+xz+yz+zz+Az+Bz+Cz+nr.Dz+Ez+!2.k<.xT Fz+F .sB.BM.oq+Gz+Hz+Iz+Jz+Kz+Lz+W0 &! ;_ j1 l_ /y+b8 i1 w9 ~+ H# |= |= ,+ >+ >+ 0; 0; _+ x{ l, =+ m: Mz+vy.Nz+Lx Oz+yw+(u+Pz+Qz+mo.*~+cw.Rz+Sz+Tz+Uz+Vz+Wz+Xz+Yz+Zz+`z+ A+.A++A+@A+#A+=D.rs vs $A+Lo +/.%A+&A+61+*A+=A+-A+;A+>A+,A+N;+'A+)A+!A+~A+{A+ST.]A+^A+f> Tc 3|./A+(A+_A+:A+<A+[A+}A+]H.n(.f<.:H.|A+1A+b/.2A+3A+Fy+4A+5A+6A+7A+8A+9A+c|.0A+aA+bA+cA+dA+}2+bR.<o eA+fA+gA+hA+iA+jA+kA+{,.m#.wK %1.Qd+lA+mA+nA+(k.8u.Fd.u8+&. s' H] eu.zx.Kd.Kd.yx.zx.xi.gk.<p.xi.'4.>7.>7.U<.oH.>: EE.(G.>-+CL.+t.kk.Kn.,0.mf.lf.!h.'0.]h.!h.AH.V<.)0.Xd.Ca.n8.{*.^*.#-.*0.@: (*.6%._*.KJ GG ]} Rt x] hY `1 !` {` P  bu+mq+c$.oA+rl.pA+zg+qA+rA+sA+tA+uA+vA+wA+xA+yA+zA+AA+T,+BA+1l.CA+eC.DA+EA+FA+GA+HA+}d+]z+IA+JA+%^.2S +$+KA+LA+MA+NA+f* s> OA+",
"PA+QA+&v+RA+SA+`u+`u+TA+UA+VA+WA+XA+YA+ZA+`A+ B+8z+5z+.B++B+@B+#B+$B+%B+&B+*B+=B+-B+;B+>B+,B+.r+nc+'B+x1+.9 )B+:s+oz+Jc+!B+Oh ~B+~B+{B+]B+^B+/B+(B+_B+:B+<B+[B+Kc }B+.F.|B+1B+2B+3B+mg.&:.AX.kY 9&.(=.k&+bs.yj+4B+5B+6B+7B+8B+9B+0@.L~ )6 36 o[ p[ i1 '| )| {+ |= |= ,+ >+ >+ >+ 1) _+ F# Ut+(n+{ .0B+ml+aB+bB+cB+dB+eB+Yf+fJ.P(+fB+u].gB+hB+iB+jB+kB+lB+mB+nB+oB+pB+1T.qB+(U rB+Kv.sB+tB+uB+vB+wB+xB+yB+zB+AB+BB+CB+DB+;6+p!.A,+>v EB+FB+GB+HB+IZ.IB+O[.9x lA Pp JB+KB+LB+MB+NB+OB+C].PB+QB+Po.r(.Qj.r9.>a./:.Ur 8R.RB+A*+SB+TB+UB+VB+WB+U=+XB+YB+ZB+`B+ C+'T.mb+.C++C+@C+#C+$C+%C+&C+w5 ~% `@.mX 'Z J] Z3.*C+_}  8 mH.b3  <+&. &.  <+Ld.s|+s|+Jd.yx.zx.jk.hk.(r.fk.gk.gk.'4.U<.~c.{c.EE.F~+D&+]h.!h.Jn.mf.qf.lf.{:+F~+!h.!0.]h.lf.nk.5r.=_.r< Mi.~*.#-.#-.*0.@: (*.f< |/ |/ f< >} sa IX.+.+tl.D(.bi =C+-C+V)+;C+>C+,C+q] 'C+)C+!C+~C+{C+]C+^C+/C+(C+_C+:C+<C+[C+tN.d!+_I.t9.`=+}C+|C+1C+2C+'z.3C+4C+-[.z5.;u.'u.5C+6C+7C+8C+9C+v#.0C+",
"aC+Tx+bC+RA+SA+`u+cC+TA+TA+dC+eC+fC+gC+hC+W..iC+ B+jC+kC+lC+mC+nC+oC+pC+qC+rC+sC+tC+uC+N>.vC+Pp+nc+'B+U|+wC+xC+yC+zC+*7+;@.AC+BC+PZ CC+DC+EC+FC+>a+GC+,@ p# HC+oh+IC+`x+JC+KC+LC+MC+NC+T_ `].)2 )'.v- f}+OC+PC+QC+RC+SC+TC+UC+VC+WC+%+.D# 36 /_ P3 '| '| )| ]+ I# |= |= ,+ ,+ >+ L# &~ ^_ 5$.XC+*b+YC+ZC+`C+H>. D+.D++D+'K @D+xj #D+$D+%D+&D+*D+=D+-D+;D+>D+7n.Yq.,D+'D+)D+5H.!D+BV <i.~D+{D+]D+vB+^D+/D+ n Ro (D+_D+:D+:p <D+[D+8j >l }D+|D+1D+w{+=&+2D+3D+4D+5D+6D+7D+=d.1X.8D+.o.9D+0D+5s.f|.~p 9V aD+=` 1%+|O.o@+bD+cD+dD+v* eD+fD+gD+hD+iD+jD+kD+lD+c$.mD+}E.nD+oD+pD+qD+F$.rD+sD+JG tD+9d r> m#.`S .T 8..vi I` b3 di.{c.v8+u8+I*+N]+Jd.s|+Jd.yx.zx.h2.ik.gk.gk.gk.gk.>7.'4.U<.(r.(N.F~+^G.mf.]h.D&+lf.,0.rf.uD+uD+rf.Ca.mf.lf.lf.Mi.Oi.=_.Qi.;0.*0.#-.#-.$. @: >} >} >} u| +2 ys.Mh+-,+x4+]>+eP ~>+rr+vD+wD+xD+0b+yD+zD+AD+BD+CD+DD+HJ.ED+FD+GD+HD+ID+JD+KD+;e D>.;>+HW @;.A> 6Z.LD+C9+iu.MD+b%.{'.]i.W_+h%+'*.ND+OD+PD+ p.QD+DT.",
"R*.Ip+Tx+RD+@v+ v+SD+TD+UD+VD+WD+XD+YD+ZD+`D+ E+.E++E+@E+#E+$E+%E+%E+&E+*E+=E+-E+Me+;E+xm.Rx.w1+_l+>E+oj+oj+,E+bg+'E+=9+)E+*7+)s+!E+~E+sV {E+]E+gh+93.t$ ^E+t. /E+(E+_E+fr.:E+s>+<E+[E+YW jM EM.UW w- }E+9p+|E+1E+Gz+2E+3E+/E 4E+,u+N0 =#.+4 S/ S/ '| '| )| {+ I# |= |= |= :+ _+ _+ <+ P# 5$.G} 5E+6E+7E+8E+9E+ad+k_+jl 0E+aE+bE+cE+dE+eE+|..fE+gE+hE+iE+jE+kE+lE+mE+nE+oE+pE+qE+rE+sE+tE+bX uE+aX vE+nu vE+JV JV vE+wE+B/.B/.Tw xE+=t yE+zE+AE+BE+Zr.t2+CE+DE+So+EE+FE+GE+HE+IE+JE+KE+LE+aq+ME+NE+OE+(V IT q<.=z PE+bD+QE+RE+SE+TE+UE+VE+WE+XE+YE+ao+ZE+f|.xM.`E+ F+.F+2d.+F+@F+#F+$F+2d.=A %F+Z#+*1.]~.u5.`I ,m Vp ta z' oH.[p.&F+E~+I]+s|+cf.cf.zx.zx.h2.jk.fk.(r.(r.xi.xi.xi.~c.xi.F~+(z.~t.(w.mp.k(+vu.~w.[r./:+*F+Gx.^z.}r.[r.Ex.Ni.rL.xp.D`.!4.J4+;[.;[.#: #: +2 +2 K6 -9 9/ Ue.=F+Kh+-F+oT.wT rm+;F+>F+,F+'F+)F+!F+~F+{F+]F+^F+&s.f ./F+(F+_F+:F+<F+|w.[F+8!+}F+|F+1F+2F+{G.|c.'*.>*.ju.):+u~.}V aR. $+Gi.3F+4F+5F+;[.5/ FT._V.",
">q.6F+Yq+/s+nt+7F+8F+9F+0F+aF+bF+dC+cF+dF+eF+fF+gF+hF+iF+jF+kF+lF+mF+nF+ 9 Ke+oF+.@+pF+qF+/[+,B+W/+Ko+mj+mj+Ko+rF+Yq+Wq+Rb dt+IP sF+tF+uF+/.+:Y.vF+wF+xF+yF+K4 zF+{0+AF+0e BF+CF+|/+DF+Wr p( k&.VW #k+9|+EF+='.Ro.h/.t).FF+GF+HF+lJ ps+-U 47 Z: }( Y! ~| H# n, I# |) |) x{ x{ l, l, <= u, Kx Fs+IF+JF+< +KF+-&.LF+MF+NF+OF+PF+HI.qB+ws.QF+RF+*k.SF+Uq.TF+UF+VF+WF+XF+YF+1W.ZF+`F+ G+.G++G+@G+uE+bX vE+#G+=,.1U GS $G+%G+&G+aw ru Y&.o&+*G+=G+!;+c&+-G+@7+fv+o] =^+RK.;G+k;+>G+,G+'G+)G+!G+@u.~G+{G+dy ^V o3.ra ]G+|O.^G+/G+(G+_G+:G+<G+[G+}G+|G+1G+2G+3G+4G+}x.5G+6G+5w &C+7G+8G+9G+0G+aG+bG+cG+i>.9+.)m $;.E=.,m Vp *2 ~c.xi.U*+&F+Q!+yx.zx..w.h2..w..w.h2.jk.[p.[p.)]+eu.eu.)]+)]+U*+uu.}r.lp.pf.sp.^w.(w.qf.Hx.dG+eG+><+]z.Ex.Ex.tA.^m.rL.xp.D| [j+XX.|!.a!  :  : g< x| #: F] XX.@3+h`.fG+gG+HU.j! rm+hG+Gd+iG+jG+kG+eC.lG+mG+nG+oG+pG+qG+'s.rG+sG+tG+uG+=!+X$+!C )k+<H.vG+wG+xG+C5.pW.XX.@0.-9 vP &7.ls.l* yG+zG+AG+BG+V<.L> 4C+CG+",
"Mp+DG+EG+FG+]l+GG+iz+HG+IG+JG+KG+LG+MG+O7.NG+OG+PG+QG+RG+SG+.E+hF+TG+UG+VG+WG+XG+h#+YG+-m+ZG+kg+kg+2k+kg+`G+.8+z#.-9+ H+;9+#8+#8+P*.O*..H++H+jh+_.+Z`.Z .@H+#H+(c $H+%H+eN.&H+*H+!z =H+D4+.++9S W=+^=.{:.tP Lg (S wM.%o+{j+BN.GF++'+-H+:i G/ y_ O/ =+ V.+{_ w +a; ;H+YA c; 8= D# _= }T >H+,H+zy.'H+)H+Q~+;H !H+~H+MB {H+]H+_K ^H+/H+(H+_H+g}.:H+<H+<H+[H+CS }H+fy+|H++]..y vB+1H+2H+3H+4H+ Z 5H+6H+7H+8H+IV 9H+0H+aH+bH+B<+GM.cH+GM.dH+eH+fH+gH+3n hH+iH+jH+ {.kH+Sp.lH+mH+nH+oH+pH+E!.qH+f|.R'+/` Cv M@.]% $].O=.ZJ.rH+sH+J!.tH+uH+vH+wH+xH+yH+zH+]j+0i+AH+BH+CH+el p6.DH+EH+FH+GH+HH+IH+JH+DQ Uo.X].=c E=.[Z I` x[+mH.)]+xi.E~+Vd.0}.<p.xi.(r.(r.fk.(r.(r.(r.yx.`s.Kd.zx.ik.h2. t.Ii.k(+KH+pf.LH+@t.!w.qf.wp.1'+MH+NH+Q3+E~+sk.mk.},+HW.!*.OH+q5+ND+PH+9k M6 A5 %;.R@ ;} wa+QH+RH+SH+Ve.Ol+q@+TH+Z=+Hu+v`.UH+VH+WH+XH+YH+ZH+`H+ I+.I++I+e3.@I+#I+$I+%I+&I+*I+=I++B.-I+ck >S.;I+>I+,I+{{ 4L `o.F]  : {} E> +. (c.vf.Gi.~h.r}+r}+Yl.Yl.",
"Hb+'I+)I+!I+Kp+~I+{I+]I+Kp+^I+=m+D&.l^+E#.ha .e+.e+^z /I+(I+(I+_I+_I+:I+VG+<I+[I+}I+|I+Mp+;B+Q*. r+)I+1I+@8+;).#8+>9+2I+3I+>9+3I+4I+.@+u+.C&.L5+<;.5I+IO.6I+{c 7I+|, 8I+9I+0I+aI+bI+mz.U=+l<.5R.ds.Y-.f&.>}.Wp :G cI+dI+eI+yv ue.fI+gI+hI+]a+ie J~ m9 iI+9q jI+&~ }) <~ {& _= :u L~ kI+dp lI+Ay.mI+Jh.2!+5).nI+oI+pI+Au qI+*Q rI+sI+tI+uI+vI+wI+=Q NL 5R .c..c.xI+yI+ru XF uB+zI+AI+BI+.Z CI+/%.DI+EI+FI+zq GI+HI+us CC II+JI+KI+n&+LI+MI+MI+1Y NI+OI+PI+xh QI+RI+SI+TI+UI+VI+WI+XI+YI+ZI+<d.(` EG )o F~.va s> >f 7i O5 `I+ J+.J++J+@J+#J+$J+TD.%J+&J+*J+=J+-J+;J+>J+,J+'J+)J+!J+~J+{J+/G+8m }o lx q( bH .J ui ak.A| Zl.(r.mk.tk.]J+aZ.oH.~c.(r.fk.fk.fk.(r.xi.jk.#0..t.BL.(c.0Z.Od.Ln.^J+/J+K@+(J+(w.zO.(m.(m.hf.h{+xa.[c.0}.if.yi.xi.nk.!w.B`.!$+_J+:J+3L q^.~` $].9< 1S |%.<J+[J+}J+i8.Rt y~.i}+|J+1J+2J+3J+4J+5J+6J+7J+8J+9J+0J+aJ+bJ+cJ+D-+dJ+eJ+fJ+eJ+gJ+hJ+iJ+jJ+%: ET.;I+kJ+lJ+bk (O `  0! <% 3/ :% wm+r}+]c.wa.]c.]c.L> L>  . ",
"pF+mJ+Ka+Lp+nJ+oJ+^I+;B+pJ+Mp+qJ+)/+rJ+sJ+tJ+uJ+uJ+vJ+wJ+xJ+xJ+yJ+zJ+UG+'0 AJ+vc+Qf+aY.BJ+!].CJ++8+=e+-0+DJ+EJ+FJ+GJ+GJ+HJ+;@.C;.Ub+IJ+JJ+KJ+<z.LJ+MJ+NJ+OJ+/6+PJ+QJ+RJ+SJ+] +TJ+UJ+;(+VJ+~i+1g+WJ+sM XJ+NQ Wp YJ+ZJ+`J+ K+.K+@R Lh.+K+@K+#K+$K+`;+<T )x.%K+R= :h 7; L, v= Sk }T c] ]{+&K+*K+=K+-K+Rr.;K+>K+,K+oj FI+JV g;.uI 'K+)K+!K+~K+{K+]K+eE QI ^K+/K+(K+_K+yI+aw :K+IV Zz+<K+AI+[K+[K+^D+}K+}K+|K+1K+2K+3K+Qw ZF+4K+8X ZF+5K+6K+7K+7K+8K+9K+0K+aK+bK+cK+dK+ej eK+fK+gK+hK+iK+jK+I| .I 8S *I Aa Q7 98+YO X1 <H.kK+Ei lK+mK+nK+oK+wt.pK+Yr NG.qK+rK+sK+tK+uK+xj vK+wK+xK+yK+zK+LB AK+@:.[o AA CI.!G WV c^.J> mH.^r.[p.sk.[c.BK+EW.oH.~c.U<.'4.fk.fk.(r.xi.h2.%0.b++v~+Ba.(c.Aa.Ii.CK+DK+%J.(w.|r.1r.qA.qf.mk.EK+iL.},+q#.r#.)4.Ax.FK+GK+HK+}++rp.Ei.3/ vP r'.tB.:O I6 CM w4+IK+JK+=_.L6 &Q.KK+Wd+LK+MK+zj+NK+U@.7o+OK+6s.PK+QK+RK+SK+TK+UK+VK+WK+XK+48+YK+ZK+T2+jJ+4L g:.`K+ L+c%._m Zo.`  0! <% 3/ :% K@ k* k* ]c.L> L>  .  . %: ",
"YG+Np+Hb+Mp+=m+)I+ r+NZ Ue+@8+mJ+`9+l^+=E+.L++L+@L+#L+$L+%L+zJ+yJ+zJ+&L+*L+Z0+=L+-L+l^+6h+;L++8+DJ+-0+>L+>L+,L+'L+)L+)L+*0+L[.Jc+'9+ug+ @+!L+~L+{L+vZ.]L+ih+^L+<> /L+(L+_L+:L+<L+[L+,K [F }L+OG |L+R'+D +U=.xA |3 1L+2L+3L+4L+.K+$q.5L+h).6L+Ot+0r+U.+po Am O# [^ )& 1+ Uj 4J ^g 7L+8L+9L+vt+F++=e.a!.0L+aL+bL+75.cL+dL+=,.eL+fL+gL+hL+iL+jL+=Q kL+L=.lL+mL+nL+(K+oL+Y&.Uq pL+qL+qL+rL+sL+tL+uL+vL+tL+FI tE+wL+9X tE+xL+yL+zL+AL+BL+CL+DL+EL+FL+GL+,p HL+IL+JL+KL+LL+ML+NL+OL+PL+w3.QL+RL+-:./` s<.Aa s- X{.ZO SL+TL+ { qg.UL+VL+WL+UK.}4.XL+YL+ZL+`L+ M+.M++M+@M+x6.#M+$M+%M+&M+*M+=M+z4 r6.q{.rd CI.{,.s#./u.2% Fd.Wv.i{+Ud.[c.-M+dp.~c.~c.'4.'4.gk.fk.(r.(r.yx.b++Qd.v~+ju.ku.Aa.~h.;M+>M+pp.BH.tu.pf.mp.1r.rf.,M+EK+R!+J` r#._Z Ai.'M+0c+)M+w&+!M+nf.E> 3F z(.=2.~M+{M+~u.pW.]M+=-+_c.5L ^M+Xj.&Y./M+(M+S3+qm+6x.!W.k$._M+~S :M+<M+[M+9i+}M+|M+1M+2M+3M+4M+5M+=f+8C+h%+]c.nn.$c 6M+MT Zo.`  `  `o.3/ :% K@ L>  .  .  . %: >[.l}.l}.",
"@a+4I+Np+7M+Mp+8M+Ue+9M+0M+!E+@&.aM+>9+uC+bM+vQ.cM+lF+dM+eM+hF+fM+RG+gM+hM+iM+jM+kM+lM+mM+5!.A,.nM+A,.oM+oM+)).pM+ZP u(+qM+F>..6+a~.rM+sM+s++tM+1[+uM+vM+wM+(X  ; xM+|$ Cs+yM+1z.zM+AM+BM+CM+DM+EM+mP.ds.WW ,` rU W1 FM+GM+HM+d4 IM+JM+Et.KM+LM+E{.MM+X0 /g KH ^_ |+ KH Sk so V,+NM+OM+PM+b~.=j.;K+QM+RM+NV SM+TM+UM+Z&.1U +%.VM+WM+XM+=Q uI L=.0R :H+YM+ZM+(K+td.`M+G=. N+.N++N+@N+#N+$N+%N+/U !B &N+o@+Qw 1K+}B yL+*N+3&.ZF+Hh+=N+-N+EL+;N+>N+TC Uq -p ,N+'N+)N+!N+;c ~N+:p {N+]N+^N+/N+(N+/` lk =c $,.LJ s5.>T !:.9Y u`._N+:N+<N+[N+}N+|N+1N+2N+3N+4N+5N+6N+7N+ND.2O 8N+9N+0N+aN+bN+cN+nk pM dN+E@ X_ c..eN+2% Rs.h^+[p._r.tk.TP.a2.~c.~c.U<.U<.'4.>7.gk.gk.fk.&0.wa.2K.zi.zi.Qd.Vs.fN+gN+HH.EH.KE.pf.ok.rf.AH.!:+T<+yi.:Z )4.6%.#m.On.hN+iN+jN+kN+Ji._C lN+l<.Q'+mN+-I+&Y.IJ }G.u&+Qi.x9+nN+0p+qa+oN+pN+qN+K .~o rN+r{.pY u5 sN+,C+tN+uN+vN+wN+xN+yN+zN+AN+RC+%o+BN+`=.F> f! 9< tB.`_ w( fd 83 {} >9 w| j< j< n4 n4 o4 *7.*7.{u.{u.",
"CN+3I+;E+X0+1I+-9+8M+DN+^>.!E+2*.2*.-). r+DG+sC+EN+FN+GN+HN+ E+fF+IN+JN+KN+LN+La+kM+lM+ 0+MN+5!.5!.N5+NN+z,.a'.$8+fn R-.oK.x,.p$+;P.ON+o$+PN+QN+RN+SN+TN+K[+UN+VN+WN+C2+3b Cs++>+|v+XN+YN+ZN+[l+`N+ O+'W.Pe.],.(/ P7 .O++O+@O+#O+eD+lm+Eh+$O+%O+&O+*O+&_+Y0 =O+7& bz -F so -O+;O+ '+>O+{).hv+,O+rq 'O+)O+!O+~O+ M 3O.G=.e:.{O+]O+^O+/O+(O+NL _O+:O+<O+[O+}O+U9.|O+1O+ey+Y&.2O+3O+3O++N+AI+4O+5O+o@+fP 6O+7O+1K+8O+9O+0O+EU.aO+bO+Ag.LI+cO+dO+<a.3%+9B eO+bK Q<.6N 0N+fO+gO+hO+iO+zy+jO+kO+(N+9/.5F 3=.Aa 5+.O@.Y1 )i.lO+mO+nO+oO+pO+|{.qO+N|+rO+sO+tO+uO+vO+wO+xO+yO+zO+AO+BO+{%.=y CO+HM.:T.qM Yu DO+N5 $@.x4 &2 7u.M]+yi.za.tf.EO+Gs.U<.~c.~c.~c.U<.>7.!m.Nd.ua.J]+#0.+m.2K.+m.Qd.FO+GO+HO+DL.EH.CH.1,+2Q.Fi.{h.F~+Wv.!m.0%.6%.(*.q#. t.Fi.IO+JO+BH.7%.z> KO+LO+MO+NO+kd+Eu+*Y.r}+#J.lu.%.+wa+OO+.s+PO+/{ QO+RO+!o sb.9+.]V SO+JW TO+UO+VO+WO+XO+YO+ZO+DD+`O+b|.Kh+si+J'.<% {} 23 (C |H.w( fd fd {} >9 {{ n4 n4 o4 L6 -7.~u.@3+@3+)V.",
">0+>9+P*.-9+NZ NZ NZ NZ Ue+ P+!E+.P++P+jt+NZ @P+#P+7z+$P+%P+&P+*P+=P+-P+;P+O7.>P+Z0+jM+BZ. 0+Op+Op+ 0+- +P0.,P+;@.We [,.'P+o$+ON+s++s++)P+~f+!P+~P+{P+]P+^P+/P+(P+_P+d> zD :P+<P+[P+}P+|P+1P+T2+gT.2P+Lh+G .jM >m CG TL+SQ {}.Vb >i.3P+[l+on+aw.4P+O^+5P+yo.0-.09+6P+09+gI 7P+#w+8P+9P+g2+0P+aP+!H bP+cP+dP+eP+2H.fP+p~.Z&.{O+Fb.gP+.%.hP+^K+.c.mL+U9.3R fa.iP+|R td.jP+kP+lP+mP+EV nP+oP+pP+qP+Eq.Eq.|B .C+rP+sP+tP+uP+vP+Ow CC Ow uP+cO+Tr [8.+{ 0B =G wP+!D.xP+|O yP+zP+AP+BP+t9.u).CP+$2.DP+QT jM 4F ]` rP @f {M+'}.Qo.e&+EP+FP+GP+_[+HP+$`.IP+JP+KP+LP+MP+NP+OP+PP+AO+O5 bF iK ay /:.QP+1A+^:.&z t$.sK gN (Z &2 I*+r#./h.RP+SP+C&+U<.~c.{c.{c.~c.>7.0%.:Z J]+#m.q* ,7.Qd.@m.+m.FO+Y<.wO.BH.}G.-z.+w.+w.Ln.iu.zx.)]+Nd.q#.(*.+2 K'.3L G`.R3+Nn.!*.TP+UP+VP+WP+XP+YP+ZP+`P+ Q+yi pH.wp..Q+B0+Sr++Q+@Q+ug.#Q+:d.L@.B(.8L n3.$Q+T1 jf+%Q+&Q+*Q+=Q+-Q+;Q+>Q+,Q+KR.'Q+>I fp.*0.`o.ys.uA |H.|H.`_ `_ _m _m bk bk bk %} =].uA 8x.)Q+6F 6F ",
"*e+#8+ H+NZ Pu+!Q+_w+(s+NZ Ue+ P++P+~Q+!s+^>.|w+{Q+]Q+Q` ^Q+6Z /Q+(Q+#C._Q+:Q+PG+<Q+>P+Q0.P0.mJ+[Q+BZ.0 +uc+}Q+|Q+1Q+2Q+o$+2<.O_.3Q+4Q+5Q+6Q+cQ.7Q+8Q+9Q+0Q+aQ+bQ+>2+#b 9r+cQ+dQ+eQ+fQ+gQ+hQ+iQ+1c+2|+Em+Rk+v).nP E(.:S :S x<.Qj.s] jQ+ Q. 2.YZ kQ+!M.lQ+mQ+Q_+nQ+oQ+pQ+)b qQ+f!+rQ+ol py 3l sQ+NC tQ+uQ+vQ+wQ+xQ+yQ+zQ+}U AQ+BQ+_#.CQ+DQ+mL+EQ+lL+YM+<H+FQ+GQ+W|.HQ+NM.IQ+JQ+KQ+LQ+MQ+NQ+qP+<+.[+.x$.uP+.C+OQ+PQ+n$.[+.QQ+RQ+|B P +QQ+l[+s@+J  E@ 4B >G 5B @D kK SQ+TQ+Yt *8.UQ+VQ+WQ+-V XQ+YQ+DP+0P <o ZQ+`Q+5m wJ /H.sP. R+.R++R+@R+T!.#R+$R+,l.%R+&R+z-+*R+=R+-R+;R+>R+Ur bF 0y p'.,R+'R+m9.<V '` {_.)R+ex s< ]G.>: r#.Wd.!R+~R+J4+U<.~c.>: >: oH._Z p#.k* <p.(r.@0.r}+hk.$0.qf.N]+{R+]R+OE.DL.Bx. C._N.^R+-h.zx.(r.0%.@: a! x( M6 /R+(R+H`.B0+_R+ .+:R+<R+[R+}R+|R+1R+2R+3R+AI.3/ wp.8D.R3+4R+Av.5R+0p+;I #I _/ @f ^V rN+6Y -8.S^+6R+7R+8R+9R+0R+aR+>G+jI.jf+0&.}/ ;1.*0.F] /O v( v( |H.|H.MT MT %} %} %} MT |H.uA 8x.:/ 0R.AJ 0|+",
"2I+X0+ r+{s+bR+cR+cR+dR+Pu+eR+9M+fR+gR+hR+iR+jR+0d+kR+IY lR+mR+nR+oR+pR+qR+-8+rR+sR+tR+Ma+Q0.Me+`0+-E+Q0.uR+vR+oF+wR+V%+M>.`a+M[.xR+Qb+yR+zR+MW.J[+AR+BR+CR+DR+W%.ER+FR+GR+HR+IR+JR+KR+LR+MR++B.i6+#V.NR+OR+BM.%Z.PR+a&.QR+8V )O (H.5F gH WJ.RR+SR+TR+UR+VR+WR+XR+YR+ZR+`R+;C.P(.!e <E DF+Au qI+AO eU  S+.S++S+@S+Ru #S+$S+%S+&S+*S+c;._O+mL+ZM+}O+=S+=S+-S+;S+HP./!.>S+,S+F=.BV 'S+)S+!S+~S+IX.{S+]S+dH+^S+@N+*2._g+8K+/S+(S+_S+:S+<S+[S+}S+G(.|S+1S+Ig GB.cN zK 2S+(S y ..}.3S+)8.4S+5S+f|.v .&u.6S+Ys {+.Xs qN+H| 7S+8S+4G+9S+0S+nK+aS+bS+H7.3/+]M.cS+dS+eS+fS+0C.2O L( pY gS+`6.-2.&z NQ 0Y z~.bY X+.li iN Zb 1/ A( #: hS+iS+Gs.bT. <+M@ #: .V.:Z =_.f(+q#.k* L@ J]+#m.!m.#m.ua.Ax.jS+>z.of.~h.fu._N.i(+Ci.'h.hk.bf.f< x( }/ /O B] #l+F!+kS+`)+b5.lS+mS+nS+oS+pS+qS+rS+sS+3R+ .+D5 )t.tS+E9+uS+vS++Q+Xo.q' }L.Ol+]T.4k uI.u`.{O.wS+xS+yS+zS+AS+F_+BS+hT.CS+^H.R7 +2 @0.@0.>{ FG B] z5.Ue.Ue.Z1 w] w] 7x.v> Z_ x] x] 2! e* 8&+7&.7&.",
"mJ+'I+ r+!Q+cR+DS+pt+!Q+_w+_w+_s+DN+-).gt+ES+FL.^Q+FS+2e+q).GS+HS+mZ.IS+[B+JS+9D.KS+LS+)].>P+AJ+MS+uJ+NS+OS+PS+QS+RS+SS+TS+US+VS+72+0D.WS+XS+fO lQ.YS+ZS+M$.`S+ T+x) =< tm .T++T+@T+#T+$T+%T+;_+[l+tq.jf+)k+3R.:+.&T+*T+x/+{L f`..^.@;.>} ]G.v5.=T+-T+;T+>T+Q[+p!+,T+'T+)T+!T+Qr.gd+~T+#n .y &G+V+.]H ^H ^B V&.l5.{T+]T+[R by ^T+/T+:O+(T+/K+<H+:H+=S+_T+:T+<T+[T+}T+|T+}i.%f.cH k^.1T+2T+3T+SW di 4T+5T+6T+UJ.dN+7T+YJ.7E 2L.QC FL+7T+}S+8T+dN+%F+tD+r> G6  J X&..{ p( y ..}.9T+:M+|x.QB+0T+aT+bT+cT+Ie+mM ='.dT+V@ eT+T3+mv.`X.fT+gT+hT+iT+jT+hd+hj. p+DF.kT+lT+mT+Ay+nT+M:+DO+~G ;. {` $;.3+.;c./m ,m Vp 5u.*2 $T 4/ @: ~R+hS+gp.TP.`U.Hs. <+6%.:% @. F> ~c.oT+U<.yi.#m.q* @0.ua.<p.NH+D&+!h.of.Ys.^R+Ts. t.wa.Nd.|/ hk _C }!. p.yv.pT+;I AM h%+qT+rT+sT+tT+uT+vT+wT+xT+yT+4R.AI.h< lf.)$+r< w4+Eo+,u.Hq.zT+;I 12+AT+uJ h`.BT+CT+DT+ET+FT+GT+HT+IT+=f+pA+JT+_S 'f j8.BL.J` B( 1L +3+}L._O.hY hY hY _/ _/ _/ KT+y] y] e* 8&+uJ [=.(=.",
"mJ+X0+ r+!Q+{s+cR+pt+!Q+_w+_w+_s+Ue+@&.hN.LT+6Q+MT+NT+].+OT+PT+2|.}b z)+im QT+w@ RT+ST+TT+UT+<  VT+WT+XT+YT+%P+-P+i( ZT+`T+ U+.U+N.+4Z +U+@U+x^ ,n+:}+sv+X_.#U+$U+%U+&U+*U+=U+-U+;U+>U+,U+Uu.'U+T2+j| )U+)k+oB.IF.3R.Py+v!+='+S3+!U+-'._Z ,.+bk.~U+{U+]U+^U+/U+9i+(U+f]+_U+:U+<U+[U+}U+|U+1U+2U+$v tu AV 3U+^!.4U+o~.sd.5U+6U+7U+5A.8U+(K+9U+6U+iP+0U+aU+bU+@S++A+cU+1T.ud.t~.~,.dU+eU+Ol+{:.T=.fU+gU+4T+1V hU+iU+jU+1%+<T.WF RC kU+1L.HM.HM.G(.%F+lU+l9.=c rP Nt JT jM ,:.m<.h<.9T++2.mU+|g+nU+oU+pU+h&+dT+&Z.f`.C*+7S+qU+~G+Fu+rU+sU+tU+uU+vU+Z8+B{+2!+$^+DL wU+xU+yU+Xg )L cH i#.:0 0< Cd.C'.RD pd 6/ KJ n* >9 G> _c._*.zU+4c+fp.AU+BU+Ov.`:+#: $. M@ L> CU+@G.g^+xi.!m.#m.&0.r}+<p.DU+sk.{*.V<.ik.zx..t.wa.w|+,} [C  q My.yv.A] A] uP sa $. @-.wp.fp.EU+Bj+FU+GU+HU+IU+JU+6k JP.;4.kk.6r.D`.9++KU+LU+<n.xl.Sh+]'+MU+NU+OU+PU+QU+RU+B!+zU.pA+SU+hi+TU+~~.(0 t5.m:.[V.;4.;9 L6 UU+.3+VU+Q=+Nr {M+Zp D(.bd bd bd bd K@.IX.IX.~m sB.]W.",
";E+;9+8M+_s+_w+!Q+(s+`q+ r+-9+@8+@8+WU+XU+YU+ZU+zs+HS+`U+ V+.V+Zd *b T..}:++V+t  T$ @V+#V+y6 $V+%V+&V+&V+*V+*V+;Y >#.=V+-V+;V+>V+/E+,V+'V+Y, 2q *b NT.)V+#o !V++j+~V+_' {V+]V+^V+/V+(V+_V+{F+:V+<V+[V+>^.}V+`[ !2.|V+4R.Py+ h+1V+nM 2V+E] @0.Y^+ui B=.3V+4V+5V+6V+7V+8V+9V+0V+aV+)N+7R +_.r~.p&+DI.r~.bV+bV+4X N3.RL 3E.cV+dV+3y Ou eV+fV+gV+ c.hV+=S+Fg.Cv.iV+jV+kV+lV+4i.+1.mV+nV+#].BI.tP es.oV+pV+)m KD qV+Kv KU.<a.<a.TC >N+CI.%F+rV+rV+kA+kA+,R+gY hH |+.F'.Sj.%q k&.CU.v(.x . D.sV+9T+$}.pU+tV+<z+OT OT Y@.). uV+I=+XQ+w .vV+wV+xV+yV+d~.Eo sh.}I zV+f].xc.AV+BV+CV+X].-*.jk JD MT ji P=.'o +q w@+E5 E] >[.D| =_.#-+DV+.V.l%+SP+EV+<u.(*.6%.(*.M@ Md.FV+GV+m8.yi.gk.gk.@0.wm+fk.E5+|c.*0.=1.xi.eu.hk.C- i< f!  q C] rT. 3+AJ AJ D .QW n#.BL.~h.]*.YM.Xg+,V.-'+v`.<x.wI.z(.E5 F> pH.wk.%.+HV+IV+|V JV+ue+!u.ue+KV+LV+3n.MV+NV+OV+r[+PV+He+v- -I CJ sa ek QV+^k.QV+K] _m A5.xv.m6+1d+RV+~~.~o @D.K@.bi bi #f bi 4k IX.)O sB.sB.]W.",
"@a+vR+;).sF+sF+-9+-9+1I+ H+P*.>9+>9+SV+TV+UV+VV+9x WV+XV+YV+ZV+`V+8-.8l+Y. K{  W+`( .W+== Q$ == == {c {c S$ s  ]; ]c +W+}- @W+#W+$W+{V+w: ]= %W+4b &W+*W+=W+-W+;W+>W+,W+'W+)W+!W+GL.~W+^*+{W+]W+^W+/W+(W+_W+uM.:W+QJ.Oj.*:.:+.y$.'~.d&.Xg+t< E| Hv UO <W+LI+[W+}W+|W+1W+2W+3W+4W+PI 5W+6W+QL +h.Tq 0w 7W+7W+8W+Sq 9W+0W+0U+aW+QO bW+cW+dW+9U+6U+eW+fW++A+gW+hW+iW+jW+kW+4i.WV Jl.lW+}C |=.x~.Tt mW+MU.nW+O/.T +T +F=.Ew Ew Ew Dw +{ tD+@-+oW+pW+qW+Wp rP sA :L rW+Xg+=I Fl+~S+]L :H.iO.@:.e<.(N+ds.7S E@.sW+sW+tW+uW+X=+vW+BQ wW+k<.xW+yW+zW+9!.8!.AW+l)+BW+CW+Vw Fi a* t] Nt i&.St %*.`b Gv Z +~r.5u.ix.x| Qs.[% =_.G> DW+EW+FW+NI.DV+z- `o.D| >{ A( #: GW+HW+sn.)4.0%.r#._Z p#.Rd.U<.Gs.Fs.M@ p#.U<.>: (r.q#.v| x| G5 *{ BJ o' y/+uM 2k Q7 *} _Z Ji.mf.'4.E] 23 (0 +;+p$.IW+v> -7.=N.E`.x9+-.+LU+JW+KW+LW+MW+NW+>].OW+PW+QW+RW+#p.SW+r5+rW.AM TW+fp.*0.C- ;4.!} ~} UW+%} l' 6F cq+v- *Z.]W.sB.sB.~m @D.@D.@D.bi 4k IX.IX.~m sB.sB.<A.",
"VW+CN+>0+vR+aM+!E+!E+@&.]>.Te+WW+iN.GL.XW+YW+2e+ZW+`W+5[+ X+Dk+.X++X+@X+#X+&_ 5[ $X+h~ X| r$ %X+&X+*X+=X+-X+;X+>X+,X+@h ~V+I+ 'X+)X+p{ .| F[ !X+~X+Oc .l &P.$g+kR+{X+oy.]X+^X+/X+9b.zm.s).(X+_X+tz.:X+<X+[X+}X+|X+1X+T1 6Y 6Y TJ.Qj.@^.2X+PT 3X+EJ Hv 20 4X+5X+6X+7X+8X+9X+0X+Cz $D.aX+bX+mR Kw Sq qs .y .y rs xu 1O+cX+vz PO 4O.dX+eX+eW+td.CS fX+Cv.+A+xQ+hW+#A+gX+jE+wH Ll.lE+nU t| ii ;c.hX+iX+ma.jX+dw 4p.>8.4p.@c.@c.pi.pa 9d uE @D Jw TO &J m&.h&.G'.kX+#I lX+#^.],.4F Cv .{ L .p3.Xt iO.,}.XW o>.mX+Re.mX+nX+e3 XJ+,}.JX.oX+pX+qX+rX+yy+--._F.sX+TG.tX+uX+vX+wX+=~.Lr St }L F5 E5 {} s4 Os.(} ]} ~r.9i.jE.=_.t`.xX+ZF.03 3p.3p.G> ,{ F] F] 4/ SP.yX+vn.g^+r#.q#.:Z F> J` C- m8.I( cW.5/ l* 6%.~c.'4.(*.GG #2 gi dc+-I g}+%++PT c/.#f ZP.Y=.F`.Mi.^*.)4.zX+R@ ~'.AX+BX+</ CX+|V ra+TP+DX+5R+EX+FX+H5 GX+|u.x@+sk.HX+.G.=.+=7.Tg 3Z.;0.'S.sO.KH+$!+GH.~h.,Y.$4.7x.Rj.Nr 0&.ek+~'+Mh+Mh+za+=C+sB.IX+IX+Yp @D.@D.@D.~m ~m <A.<A.<A.",
"!L+JX+j=.KX+LX+jN.jN.|Q+i..MX+BC+NX+@=+6Z OX+_i+PX+*w+3V.1h G2+{k >j+QX+RX+SX+TX+UX+VX+`8 WX+XX+YX+VM ZX+`X+ K  Y+0' .Y+io +Y+@Y+#Y+a[ $Y+#j wu+8S..'+%Y+&Y+*Y+=Y+Vx+-Y+;Y+>Y+,Y+Hp.7*+'Y+)Y+!Y+Mw.~Y+{Y+/I GM+]Y+^Y+ma 8Y *a.zP xP 6&.v!+|l+U'+/Y+r' 8%+(Y+_Y+:Y+<Y+[Y+}Y+|Y+p^.1Y+2Y+3Y+4Y+;D 5A._B D/.ps %Z 5Y+:O+w'.3y Aw 6Y+7Y+HP.fX+DS fX+fX+1i.8Y+9Y+gW+0Y+aY+bY+vR SF+cY+)_.r;.!,.ji o^.dY+r;.!Z.Z+.jx.5f.5f.Fw ;r..v %9 Fz 5y eY+fY+gY+vR &J ;. G'.hY+ 4+4! :O.sA Nt }C (G (~.NJ gA+oP 3=.Lt xM ZP.'I ID Q@.q>.|+.4m MD +;+-8.iY+jY+kY+p!.@{.lY+mY+nY+mb.nm+oY+SO }Q  2  c I4+k< f! g< 18.&. ,{ pY+qY+I4+dE.5/ FW+jE.rY+sY+Ov.&: I4+6%+`o.YV tY+uY++G.~c.)4.~c.p#.:% F> p#.lE.z( Z  D> `o.(*.WX.|/ +2 GG }/ z5.z] o' f* vY+sw+&T+wY+xY+yY+5R+zY+T*+E> H/.AY+%^.[V }L.BY+CY+DY+EY+FY+GY+GY+Oq+(R+J`.cW.'K.zE.OE.LE.Hx.3r.Pi.C6+)S.mp.HY+IY+JY+KY+LY+}G.73 [V ra 5k RV+MY+fp+NY+5x.BU.pP.!W.ZX.&++$Q+9&+=2.=2.9&+$Q+$Q+$Q+&++&++",
"OY+d` N'.2<.2<.9k+9k+8h+PY+QY+RY+j#+SY+wV.TY+UY+VY+E+ WY+9-.#x+>j+Em Se N[ &; XY+YY+ZY+`Y+ Z+]6 E. .Z+.Z+H_ ;5 +Z+@Z+#Z+$; ]u f[ >g+N: _6 c+ }f+$Z+$#.%Z+6e+&Z+*Z+$8+43.yf =Z+-Z+Na+LY ;Z+>Z+,Z+'Z+)Z+!Z+~Z+{Z+]Z+^Z+/Z+(Z+Wb b* 8L *2.k|._Z+T@.PT -'.:Z+<Z+[Z+}Z+|Z+1Z+rx+2Z+3Z+4Z+5Z+6Z+7Z+;D TF.wI -,.]!.8Z+9Z+gV+YJ+oN $k.HP.0Z+aZ+bZ+{T+cZ+dZ+eZ+@S+fZ+bU+gZ+hZ+VI.)Z iZ+5..3..QF+An.jZ+r;.5p.Z+.-Z qi.Z+..@.-2.]G vE %D uE cN mU <y kZ+Pz vR c..fH Cd.A> r$.DJ y5.D .1=.{% r- (G xP t] w$.;o 1+.cd )I ,c.PQ |H.ix $;.rP 0Y +f *}.lZ+mZ+nZ+oZ+pZ+ND.qZ+rZ+sZ+E6 TL+@M U6 b< I] EW+ c g< xp.%2 H> hb+tZ+uZ+03 (Z.`o.>{ FW+`F.vn.NI.,D.t`.a! 4/ `U.vZ+tn.u4+F> q#.m8._Z L> :Z p#.u8+YM.Y=.Kq.A~.x;.Y  M6 _C X7 A5.@3+>I 0R.cq+v- N=+wZ+Gl+Be+xZ+yZ+zZ+.s+>;+>;+|V p$.t*+lf+AZ+BZ+ur+CZ+DZ+EZ+FZ+GZ+HZ+IZ+>K.JZ+KZ+Ri.LZ+M!+DL.*t.;w.e{+MZ+NZ+OZ+PZ+QZ+RZ+)h.83 Ue.{~.SZ+Gl+za+`d+<v+wW+za+!W.]W.*O IX+E6 We.Nr Nr Nr Yp =2.~o $Q+IX+",
":  TZ+UZ+VZ+ b+WZ+XZ+YZ+k..ZZ+`Z+<   `+.`++`+]$.U[ @`+#`+B% l4+$`+%`+&`+*`+^6 =`+-`+;`+35 >`+,`+'`+Q[ )`+!`+mT o6 kg =( C0 T) ~`+{`+S[.]`+^`+B2 /`+!a+(`+_`+:`+<`+^>.[`+ON+}`+9h+lM+Pf+5-+am |`+b[.1`+2`+aV 3`+4`+5`+6`+7`+IG p{.lx x(. ^.v)..^.{W.8S v).h`.8`+PQ+9`+s@+gR.{++os.0`+a`+eU ^Q `L 3E.AO SL @,.XF+1O+O7 &9 f8.:U b`+c`+Jl.*D.As.RF+6W.Nl.e^.xB.d`+e`+MO rE W&.eU Jw Rs ]H RV ~p.3..iE.vH mX ]G iE.qK S=.H` qK kN nU *M uK @{ Lr =*.N5 N5 h&.hH EJ q>.fY D .hH rP 7+.+z &;.2k OW 1V #^.$I BI.r$.G'.j* >t+f`+y-  p.7F zI. ;.g`+h`+i`+j`+k`+l`+m`+h<.n`+2! 7x.YF.'o gd m< cn.Ps. :  : Rr Rr 4u.o`++]+^o  c {} =_.(} p`+Os.Rr Is.YV 6%.k* lH.q`+r`+yi.ua.gk.eu.xi.F> @.  . @: F] 0! FG p8+@Q+s`+t`+u`+~_+9x.1L !_+ls.v`+ p. p.1=.v> |V zP.h`.rP.w`+z`.x`+#d+<M+c|.h7+y`+z`+bA+A`+B`+C`+u[+D`+KU.M/.E`+@{ q5.F`+G`+H`+pk.(,.B9+I`+J`+K`+bc+^c.L> `b uA -u.Yp <A.sB.*O lP IX.6k 6k b&.)O ]=.K@.L`+^% _0 1! M`+1! _/ gx -u.{M++h+",
"N`+.&.O`+2N.*u+<$+r(+P`+Q`+KS+R`+S`+T`+U`+V`+-P+W`+X`+Y`+V| g: 5c Z`+[a t1 ``+0O   @Qn . @+ @@ @# @$ @% @KN  S & @'`+* @= @- @_|+; @lZ > @vD , @' @`X+K4+U%+) @! @EN+}I+~ @,U.~f+{ @2I+~{+:m.gx+] @^ @:)./ @( @_ @: @< @O=+[ @z .x .-:.8&.c&.s{.Mh+g<.} @D#+$A+| @wE+1 @2 @3 @4 @5 @6 @V+.9B x5 Ts Mw cK 7 @8 @9 @/0 /G bU 0 @a @sB+#,.Bn.{p.{p.Cn.b @&D.c @d @e @LO Qu ]Q eU 4y f @dK pE yE xE `S WV `S ]G `S nd &M jN za za nd nd UO h&.rP sA sA sA yM D .q>.yM yM sA hH rP hH yM fY +f Mg 2+.wM wM |+.:L 3m V  y- j* &Q.sW.sW.9x.s*+g @h @i @j @k @l @%u.m @n @81+%}  c a3 ;} o @)p.p @a3 n4 ^o ^o q @Ms.Y +Rr GG x|  : 5u.Ns..0.a3 I4+u8+>1.r#.M]+r @K9..w.%0.b++yi.Ld.xi.k* +. <% 4/ l}.s @t @u @v @w @u @Vo.x @BM CM 5L 4L `  k< vA %^.}V zP.-,+y @z @A @B @C @D @E @F @G @%A+H @I @J @K @H@ %q v<.L @M @]/ N @zn+O @P @ t.Q @XX.R @S @T @ET.kR MT m' u- <A.Gl+Ly.]W.mP l3.Mr K@.t- t- t- y] KT+_0 I6 eY &} &} 23 M`+_/ _/ -u.-u.",
"U @V @KH.W @X @Y @Z @` @ .@..@+.@G4 1  fF+@.@ZT+5Z vX #.@3> ~~ i(.R~ t~ 24 [5 9a C8 $.@%.@P9 &.@*.@=.@# @6@.-.@Q[ Q[ ]`+B8 ;.@X .>.@t*.,.@:5 18 '.@).@>W+f..!.@sJ+Li+~.@|.+{.@YN.6e+nd+].@^.@/.@(.@_.@:.@q:+Y~ <.@ng.[.@}.@|.@JF.v .&}.'O 8&+^T.I=+{O.'a.1O 1.@2.@3.@4.@qs 8E DI 5.@pV+SL 9B x5 7B Ts 8B |K B=.tH /0 m#.vd.~U+~U+mV+C=.6.@7.@iE+8.@'p.{p.9.@0.@#D pE #D.qE a.@bB Rs >G qE 7k.7k.hX ]G {G  T .T .T  T !{ &M &M &M jN c..8i 1=.{O {O {O {O >. 6+.+z 1=.1=.1=.+z +z 1=.fY 1+.q$.BI.xM kX+gH wg.wg.*{ TR.TR.TR.X  ,9 zl.,;+} @b.@c.@d.@iD+e.@U@.f.@g.@y~.D~.K` u| Zb h.@i.@Qs.^o mi c< >2 j.@k.@4u.E] x| [C E] Ps.!r.s4 E] jE.&. WX.WX.~c.xi..w.yx..t.%0.BL.i{+i{+:Z #. L> L@ ,[.s @l.@s`+m.@n.@GY+:n.JV+,1.s2.mi %: 4L L6 PD bk ya+&Y.Z2+o.@p.@q.@r.@s.@t.@u.@v.@w.@Vd+2|+x.@y.@z.@/L ]W.Eu+ql.8s.A.@pP.Rj.B.@H/.:Z `=.F`.[Q.C.@D.@~} %} _O.Q  1>+E.@F.@_Z._Z.Gl+<A.IX+~o P  2! 2! x] M`+23 23 &} &} &} 23 M`+_/ _/ -u.-u.",
"G.@H.@I.@J.@Ec+SE.K.@L.@M.@!  N.@O.@l3 P.@Q.@R.@;W+,V+xM+6f .+ a~ s{ w~ t8 qD h5 Sn S.@T.@U.@V.@D..W.@* .X.@Y.@!`+Z.@]a TN YR `.@iC 34 E^ |] R:  +@.+@++@6Z @+@#+@$+@%+@HJ.&+@*+@=+@-+@V$+;+@Gp.>+@,+@'+@)+@!+@';.aS |k Kj.IF.4R.~+@}2+QT !~.&O j<.zq.`o+VQ+{+@]+@^+@6w /+@OX.<a.(+@;D+5< eO+eO+h4 ay h4 9d rH 6< O7 e;.mV+#,.#,.sB+~U+_+@ws.:+@<+@7.@iE+[+@}+@#D uB.W&.cN bB >G ^Q &D E` E` hX iE.vH dN za +c jN nd XO .T  T .T &M $@.dx 1=.5+.{O !I 1=.5+.>. P@.{` dY qP E~.>. P@.>. $^.BI.$^.sA gH uP PQ zi /O C] p4 zM s* =. 8! </ |+@4V+1+@2+@3+@3Y GQ 4+@5+@,. li k}+,} ]r.aT.9O.n* ^o >9 ix.Fn.6+@!r.c< c< k< [C c< %r.Os.ix.03 *. z( G] @: <% k* q* jk.yx..t.`s..w..w.q* r}+L> ,7.4/  $+CX+Gq.s`+t`+Vo.kO.AM >[.mi 4/ >[.'1.,1.,f Ny.>;+1d+-T.7+@8+@9+@0+@a+@b+@Ky+<>+%;+$0+dh+c+@d+@e+@;t+f+@g+@h+@i+@j+@+u.:A.w> ,f  . z/+b5.~} kR bk w] -u.Q  E.@k+@vo+l+@2{+m+@Ly.H +RV+x> -u._/ Ue.Ue.Z1 [V ~` ~` [V Z1 Z1 Ue.hY hY m' m' ",
"YW+n+@o+@qR+p+@q+@r+@s+@t+@u+@v+@w+@J' x+@y+@z+@A+@B+@C+@D+@.$ E+@;6 F+@56 d@.nb 0J G+@3s H+@I+@J+@K+@{, z0 L+@M+@N+@rt O+@P+@Q+@(] R+@|( DR )) R0 )g S+@T+@U+@9K.V+@d0+W+@X+@Y+@Z+@`+@ @@s%+.@@+@@@@@#@@$@@'}+%@@zX.,;.t5 &@@2R.*@@I=+/` wI.k$.4Y 2P+~/ =@@-@@;@@>@@*t ,@@'@@r~.05.)@@%[.&G +h.!@@=~.!% #J O=.4%.4p.C=.C=.~@@=p.|A.{@@Cn.]p.Cn.]@@_+@7.@^@@&M Ll.Ll.6..'Z -G hB /Q US wK &M |Q L` s5./@@/@@LJ -[.%^.e/.s5.L` +c za ua nK !I QQ 5+.$-.!I QQ O@._O `1 EM t| _O O@.wP P@.Fv |n.)I zi Og ys.20 U7 M6 20  q hi HJ (@@CB.'I _@@:@@<@@[@@Xz+]A.}@@|@@1@@2@@Y+.XV !} WI.GV+3@@6%+&: t`.&: 4@@5@@rY+&. v' 5/ G> z- 6@@9H.%. 7@@H] GR.-].pL.~4.~*.^*.nk.~G.Xs.Xs.78.Vs.CL.nk.Ei.2K.+. ,[.-Y.i7+s~+(z+zT+-h+Z  l* .. @. $: xp.xp.%*.v( z] w- xT 8@@9@@0@@a@@b@@c@@qr+d@@e@@]H.aT+f@@g@@4g+ek+h@@i@@j@@k@@l@@m@@n@@g`.}V m}.wa+1L =7.aR.Pt IX.PR+Mh+o@@p@@q@@q@@1J+f+@r@@xY+.;.yP.hY Z1 w] ~` ~` u~.%;.%;.~` w] w] l' Vl+Vl+_O.VU+",
"s@@t@@u@@v@@w@@x@@y@@e@ z@@A@@E) 39 B@@C@@D@@}i+E@@r: :' r{ E~ I1 gC F^ re F@@27 G@@;j+H@@I@@^;.fh+** J@@<* x1 ]s d@.MK K@@L@@ob 77 qr Et Y^ @A.Q0 *W M@@N@@O@@Gt.P@@Q@@R@@S@@>O+. +T@@Q_.U@@n.+`E.F|+uY.V@@]1.W@@X@@8a+ka &@@=:.&T+0@+(H.kP #2.:j+Y@@Z@@`@@ #@.#@+#@@#@##@#t DI $#@B=.aH [3 oa %#@&#@q> ~% G).l#.9k.D=.=p.ud.~@@{Z.5W.*#@za xs.=#@^@@LP.[Z ,_.&D.G` G` ]Z Ev.vK 2G vK !{ &M |Q za 1Q sR uR [Z /@@-[.-#@B.@%K./@@uR +c $-.wP !` !` wP !` 'f QW _O DM EM DM _O !` wP A5 2S ys.q^.q^.`_ Ny.ik y| d! ^} #2 #2 [% 8O.1u./m Ot ;#@>#@,#@'#@.Q.)#@!#@~#@:o u5.S@ f< Rv.;f.5%+G] >{ ,{ ,{ {#@]#@1u.[% (Z.B( t`.z- ^#@ZF.(Z.b! /#@(#@8g+-N.F`.|u.rk.{*.pk.Us.HE.^R+^R+HE.Ys.!h.iu.C-  . BM [n.<n._#@kO.C> K'.J` +. Xd._c.D| ,[.i8.</ -'.H@ S3+q@@:#@w`.<#@U)+~n.[#@}#@s9.|#@)T.x- 1#@2#@zP.3#@4#@5#@6#@7#@8#@9#@0#@]i.'V.2L )u.a#@t*+)~.b#@&T+c#@l+@d#@zj+zj+1J+q~+#t+Be+He+e#@w] ~` u~.u~.%;.%;.%;.%;.~` w] l' l' Vl+_O.VU+VU+",
"i++b` f#@g#@M. Z( h#@z! r  i#@j#@o0 L4 k#@l#@B% `; G: <i 18 R+@m#@G3 m).ZN ZN m).G3 xv+nQ.n#@o#@IS+3: p#@q#@81 lo F@@0G Jl {| #~.^| 8t Dn N9 .$.r#@s#@t#@zR+`T+u#@53.v#@w#@N^+x#@y#@4<.z#@A#@&J.cm VZ+n$+w4.B#@<j.C#@h/.D#@#` p(.oM 8V IQ rg.E#@F#@'L.G#@H#@I#@J#@K#@L#@*t 0H+M#@=Z 8d.tD+w$.@z 7i A(.4G w).y'.%y %y =p.=p.6p.N#@5W.O#@fn.dk VO P#@]9 Q#@&c R#@S#@eN+h8.]9 T#@eN+1y /u.9..U#@U#@oX Vl.XV I` U#@L` tR R@ LJ *u.*u.sR [Z *} ;2 od <m <m <m qi ni qi ni Qg :m ni qi qi D~.vP -7.F5 o4 L6 `b Gv Rr n* s4 a3 ]} Is.Hs..V.ki -` V#@W#@X#@Y#@!V Z#@`#@ $@>~.U=.Ed.){ .$@`F.ta+&: >{ G> I4+{#@02.jE.H> &: >{ t`.6%+8O.8O.G] YM.B/+7Z.+$@G`.T*+;[.^*.Ei.pk.Ln.ar.=z.@z.nA.Bx.pk.*w.$0.k* >[.BM ^M+v`+3L F] :Z ua.w|+P<+wm+)4.v' &N.qT.-I Qk+@$@#$@y4+[&.$$@Qi+%$@&$@%}.k<.&:.8S fs.,u.|L ;u.u`.*$@=$@-$@;$@>$@,$@'$@*Y.X3+|V m6+RV+!W.BM.rI. h+i~+)$@!$@1J+f+@~$@{$@}l+ep+{,+oi+`_ vP }} }} }} PD _m _m MT =].|>+|>+ND *Y..p..p.",
"Jt.i@.]$@^$@/$@($@_$@:$@<$@[$@p0 3_ 11 }$@dl.@Y+|$@1$@2$@`K L0 3$@)p+uL m).m).+O.J2+4$@5$@6$@7$@8$@_$@)3+9$@0$@z~ -W `(+#d r[ a$@o]+yn _J u[ b$@c$@;2+d$@e$@f$@g$@c` h$@i$@j$@k$@oR+l$@OJ+m$@n$@o$@p$@q$@E++r$@s$@5M.t$@`o+{A.u$@s{.RV+6Y {/ v$@m( w$@7N+x$@y$@z$@A$@B$@C$@0X D$@~% RL E$@sb.)i.4G F$@A(.%J P/.HI.%y vd.e;.|A.{@@5W.}A.G$@oi VO fn.8..S#@H$@I$@J$@00 8f.K$@8f.L$@T#@.h.x[+e! b..k}+XV *c K` Dv %^.-[.e/.fN +c L` 1Q [Z OD *} ;2 od od <m qi ni ni :m pi pi Qg pi }} PD k< $].i8.CM fd Gv Rr c< s4 O3.s< f< >1.DB.Is.E| [H.<3 M$@N$@O$@Z'+P$@Q$@AC -:.HX.],.e1+Rl.2A.R$@6%+G> %: 8O.S$@I4+v' jE.%. t`.G> `o.%. hb+G] nL.B/+T$@8g+`=.9%+(;+Ei.Ei.Ys.~m.hu.+w.U$@V$@gu.hu.sa+/c.,7.xp.i8.b5.Tg Tg +. r}+Qd.+m.+m.q* =:+W$@X$@C5+AJ o' f@+9p+3&+ ` e}+Zy+T'+j&+y$.a/.)~.u- JV+i%+a! A~.Xj.0#@Y$@Z$@`$@ %@y4+zP.:/ >I #l+9|+.%@=:.3R.3R.c#@c#@~>+~>+bu+MY+Wd+}l+zJ m6+oi+Lq.a< }} }} }} }} _m _m MT =].|>+|>+ND *Y.*Y..p..p.",
"+%@@%@#%@Si >  $%@%%@&%@*%@b  =%@C: -%@;%@<m+'.@>%@;U 5|.D:+ZN 1( -W ,%@K-.G~ G2 6 .'%@|:+ow+)%@!%@~%@{%@]%@p& ^%@r+.'2+/%@(%@XA Ll _%@:%@j9 L^ <%@4' r& ]%@[%@}%@zR+|%@1%@2%@3%@4%@4Z 5%@6%@7%@<,.8%@xf K1+9%@0%@-o.7V+*x+a%@rP.GQ =:.b%@c%@d%@kd+e%@f%@g%@h%@i%@j%@qk k%@l%@Uq MJ tD+X].z(.IT m%@n%@*1.o%@)@@aE aE %7.5p.}A.p%@q%@Oy.r%@K] U#@>m.s%@t%@u%@v%@w%@bW.OP.ff+i2.xR.A- x%@^r.7u.yR.oa.z| 7u.qX $z %T wA LJ tR uR 1Q eN [Z <m vA vA vA C| wA %T )9 )9 )9 )9 1!.1!.-2 -2 }} E5 ,[.mi ,[.5/ t`.v8+<u.u8+u8+m8.Md.di.y( -9 :m IW+y%@z%@A%@B%@C%@D%@E%@F%@G%@I=+W=+vb.H%@I%@]{ J%@=_.XX.YX.K%@r2.(++I( J'.N|.r2.XX.pL.|!.M> L%@H5 M%@N%@`=.pL.{4.Ei.=1.2Q.Zs.@w.9r.ar.ar.hu.3c._h.K*+P<+_c.xp.s2.s2.=_.,7.+m.Ba.Aa.v~+J]+m8.O%@P%@Q%@;I Xj.cq+Vv+R%@S%@T%@U%@R  Qk+lN+e* -u.{o js.I'.]*.C- n4 Ve.u`.Eu+w`+rP...+aR.(C </ y/+V%@W^+k$.rI.BM.qm+6x.6x.Gl+[=.Q  ,;+)Q+xv.jO.jO.w( pi -2 dk PD a< .q 2S 3F =].uA v( 8x.)Q+*Y.]i.W%@",
"+%@aV.X%@Y%@U. 8@ PJ+Z%@O% `%@s0  &@X) i> .&@+&@@&@-X zR #&@*1 9] l]+$&@%&@'x.&&@S$.}m+*&@Lj =&@-&@;&@m# .' PK @b { .FH >&@,&@'&@)&@0G 36+_T !&@~&@S[.p{ {&@]&@^&@/&@(&@J'+_&@:&@<&@[&@}&@|&@1&@2&@3&@Z).4&@5&@6&@7&@8&@9&@0&@i6+`o+ R+a&@bx b&@c&@d&@e&@f&@g&@h&@i&@j&@L( k&@:a.&#@E .yP Mr t] l&@,8.m&@ps.)Z.5H.#].C` !Z.nR.}A.rB+zs.n&@-2 /Z o&@>r.o&@p&@M5 ak.J> A- Pg.RP.z~+mn.,G.`y.qx.bp.z' 'c.&2 x[+*c &T &T s5.s5.s5.s5.r- QQ LJ vA vA =2 C| wA %T )9 )9 )9 1!.1!.-2 -2 K] ;9 '1.,[.mi ,[.%: >{ _*.ZV u8+u8+f(+lH.]r.ta.y( <m AI.aG+q&@r&@=@@s&@t&@u&@v&@w&@<j+H .x&@y&@z&@A&@B&@|!.YX.N|.C&@B&+D&@I( J'.N|.r2.XX.T*+XX.E&@F&@G&@H&@I&@Z=.,*.pW.pH.=1.Zs.2Q.4D.hu.@w.9r.8r.3c.J&@Zd.@m.=_.xp.D| D| xp./m.4c.3c.Pd.v~+r}+0%.u' 1} A> dc+&{ UR.ug.K&@ug.I@ pT+_L L&@:O.zI.hx gi I&@(,.Ln.M&@N&@Y^+|H.e#@a|+xP.w] [V 1S 8k T%@c1+O&@I@.I@.I@.^T..h+~m Yp +h+m' 8x.v( |H.w( w( `b pi pi pi xi xi JD |H.|>+|>+wv.8x.</ 6F )Q+*Y.]i.",
"N1.P&@Q&@]9++j+R&@S&@7o km ^8 t# J+ `. y) -! 4' T&@U&@+b DR DN DN $K V&@W&@X&@Y&@Z&@`&@&J.]v+~3+ *@.*@+*@@*@$`+zr p9 #*@$*@%*@&*@|/.rG aD *U L-.Cd+**@=*@-*@;*@>*@As+,*@ee ^;.z*.93.{9+Z`.'*@cD.)*@!*@~*@{*@]*@^*@/*@(*@_*@:*@<*@Ee.[*@}*@|*@1*@~B.2*@3*@3*@4*@5*@6*@7*@L( 8*@:K+.{ C(.p<.UJ..z Yu 9*@EL+#y os.0*@&4.C` 3T.a*@Kb.b*@c*@'D.<C d*@s%@8A.~k.h(+':+0A.|_+mn.32+e*@m|+t|+l}+rx.|,+&0.@0.<p.f(+]r.'c.Dv <Z sR tR s> s> +1.QW LJ <m <m ek qi ni Qg Qg pi pi }} }} PD PD dk {{ >[.=Y.F`.F`.=Y.pL.<% #: DB.Is.>: Md.]G.di.bf.OD C(.PE+f*@g*@h*@i*@j*@k*@l*@Z@@x`+m*@n*@o*@p*@q*@r*@+V.cW.9%+.G.va+s*@t*@N|.N|.J'.,*.T*+pL.r2.Q @u*@v*@w*@;]./,..-.JT.:r.uu.lp.tu.(w.^z.mp.^z.Ba.J&@J&@4c.~0.L@ $: $: #. g(+Pd.b{+/c.v~+K@  . D> Y  ,9 x*@#h+J( y*@y*@7g+z*@y9+30 B> D] ]m hk Z  ju+5Q.#w.A*@B*@C*@,Y.>9 ik xi Iv C| E| 3X+;%+d7+_Z.=C+PR+oM 8V 4k e* -u.Wl+l' Z1 JD JD vP _m _m PD a< .q 1S 3F |>+(C <L.ND }L.6F :/ :/ )Q+<L.aR.",
"D*@%E.~b E*@F*@42 W% 6[ I. G*@X. nm F, H*@Y4 yg ~u+|7+l]+ec <0+<1+Ao.I*@J*@I*.Aj.K*@L*@vz+.&.P.@b@ M*@v@ N*@=X @=.o9 >w ,q+=#.P$.E^ re u_ y_ ~&.O*@P*@D; Q*@6%@M'.R*@S*@T*@U*@V*@W*@B&.X*@Y*@Z*@`*@|.+ =@.=@+=@@=@#=@$=@%=@&=@*=@==@Cv+zg+`0..K+-=@;=@>=@,=@'=@)=@!=@~=@{=@HL+EI @t ]=@=2.Qj.1A+cO+EL+^=@Q +os./=@MU.3T.$7.(=@_=@_=@an.K` /Z s%@:=@bi.<=@y~+px.PP.-3+`y.N]+Ws.Ts.Ci.Us.'G.~G..t.[p.qx.M]+z' P6 <Z K` s5.*u.s> s> ^~.wP <m <m <m ek qi :m Qg pi }} }} PD PD dk dk oi n4 >[.T*+=Y.=Y.=Y.T*+ .  . @: @: _Z >: ]r.'c.di.Kr =` #:.]+@[=@}=@|=@1=@2=@3=@4=@5=@6=@~+.W-+:n.7=@8=@9=@cW.D| +V.n7+0=@D&@YX.YX.N|.>*.pL.T*+9%+|!.a=@;].jb+b=@$-+Li.:r.Ex.<r.}r.rp./z.4c.tp.tp.4c._h.J&@4c.~0.#. $: A( @. @m./c.sa+Ba.g(+:% a! C> }% CB.c=@CB.c=@w' w' jE.%. Is.ZV ZV >7.)4.q#._,.9++.-.FK+d=@e=@f=@Cx.h< v| g< {V.&f 0k CM.c1+)+.U'+n>.!~.di bi bd x] M`+{'.~` 4+.DM DM xi u~._m bk `_ JD |H.|>+<L.wv.6F 6F :/ A] z] :/ )Q+aR.>;+",
"{A+,*@g=@2m+NO.Z5 O4 ,~ 22 j5+h=@*b i=@.+ j=@7c k=@|7+l]+]&+wv+l=@m=@n=@I*.o=@QT+t/ %V+p=@q=@r=@M*@s=@t=@9[ (^+c*+/R.J~ m; H2 !5 18 u=@G+@]a+f> H+@v=@w=@x=@y=@Qb 9G.z=@uG A=@B=@C=@D=@ D++5+O[+E=@F=@G=@H=@I=@er+J=@K=@L=@M=@N=@O=@6C.hT.6V+vW P=@Q=@R=@S=@T=@U=@V=@mO W=@3.@.F+;~.rN+4k 3V W#+9`+4T+2B jR.X=@Y=@Z=@1..1..`=@_=@ -@.2 &T 9f..-@>m.{k.<=@JB.+-@K9.,G.@-@GE. C.nA.+z._D.#-@$-@uD+uD+T<+Ld.P6 W7 K` pX tR LJ s> s> ^~.wP Rt Gv Gv Gv  q gd x( 83 `b `b `b L6 L6 o4 o4 l}.z/+B0+Tk+Tk+T*+T*+T*+pL.l* 3/ #: ZV Zb $T ]r.iN %-@JW &-@*-@=-@--@;-@>-@,-@'-@)-@c$.!-@~-@{-@H&@]-@0/ 9=@i8.T*+,*.+V.N|.cW.cW.N|.|!.9%+T*+pL.XX.I'.a=@b=@^-@aZ.DW.<;+<r.!w.1r.up.qf.qf.5r.4r.Ca.Zd.Zd.4c.~0.#. $: @. w|+qf./c.%w.0Z.r}+#: YM.}% 03 jE.u8+ZV Ud./h.Vd.*!+},+D&+1'++t.Jn.Kn.nk.*0.z;.5Q.EH./-@(-@_-@]h.5/ gd  q =2 od 6+.lN+gp+sp+k&+w- a&.8&+2! _/ 23 t| ~` 4+.8< ~'.|! t| FM Z1 &7.VJ.VJ.+3+W_+si+:-@pT+ul.ul.ul.pT+gs.fs.)V.[L.",
"<-@[-@}-@|-@1-@+% U* M! (> F= ,n+mq.2-@3-@Md 4-@2$@5-@f_ cb *b+]u+6-@7-@8-@QT+9-@0-@a-@:# b-@T| c-@d-@e-@i[ Y3 LX LX R^ *| N: f-@g-@h-@PK i-@/X j-@k-@PZ.B.+Q0.l-@N0.Pb+m-@n-@o-@p-@Te+:3+sK.'e q-@^.@4P+aq.r-@s-@s-@t-@u-@v-@w-@x-@y-@z-@A-@B-@C-@D-@E-@<b+VD.<e.,t F-@G-@6w fy ;2.$Q+#O j&.{S+H-@I-@J-@iR.K-@Y=@nW+o;.L-@M-@N-@YF.Q@ na.O-@P-@,r.~k.t4 0A.r @l|+l|+Q-@Q-@g2.R-@S-@T-@U-@V-@jS+=<+N]+)]+cp.z' *c K` s5.*u.s> +1.+1.QW Rt Gv Gv #2  q gd 83 83 fd fd `b `b L6 L6 o4 l}.z/+B0+Tk+Tk+=Y.T*+pL.pL. . E> l* >1.Zb $T ]G.iN =~.W-@X-@Y-@Z-@`-@.M+ ;@.;@+;@{{.%$@Be+@;@;.+(#@M> M> M> J'.XX.T*+,*.|!.YX.N|.J'.>*.9%+T*+pL.9%+C9+(,.S*+_;+_++:r.zO.2r.@t.@t.up.(m.(m.Qi.Mi.5r.3c.3c.Ba.w|+@. A( +. wm++m.ku.Zv.Ws.(r.v8+}% I>  <+~c.#m.&0.Kn.^G.;z.;z.ar.V$@0r.gu.#w.hu.8r.]h. -.4Q.5K.#;@$;@c{+9%+t~+p8+rT.sa sa q$.b&.%;@lq+&h+9|+o' 0R.-u.M`+eY `1 EM DM |! |! r| Y_ 1! M`+|>++3+[L.W_+&;@6q+*;@`3+H4+H4+_n.I@ q'  3+>I *Q.",
"=;@o(+eq <@+($+-;@^9+9) ;;@WN+>;@Rj ,;@';@);@!;@~;@!q+{;@@A.];@^;@/;@(;@_;@ ^ :;@<;@[;@j$ >> };@|;@1;@**@2;@q+.OX ]^ m4+3;@4;@5;@6;@@*@K*@C@@7;@7>.8;@9;@0;@a;@b;@^e+6$+~e <^.L8+*q.c;@d;@e;@~o.yv e;@+O f;@nJ g;@h;@i;@j;@k;@l;@m;@n;@o;@bk+F>+p;@q;@r;@s;@t;@u;@v;@w;@x;@OC 9l RT )5.#O K .n&+p@+hR.y;@z;@A;@<W+aY B;@C;@Ql.Y+.,o *c.Pv.:=@D;@F]+@!+bi.9T.E;@22+'G.+w.+w.F;@i5.HO+G;@H;@*F+/:+Q`.kk.|'+Wv.]r.K` pX s5.tR s> +1.t5._O Rt Gv Gv #2  q x( 83 fd fd fd fd `b `b L6 L6 m}.qT+I;@Tk+J;@J;@Tk+T*+T*+B( '1.%: K'..c |0 |0 wi =~.bG+K;@L;@=-@M;@N;@O;@P;@Q;@R;@~+@He+xl.Y  I( S;@A&+rf+T;@U;@ -.!S.z;.z;.KT.C9+!S.;N.;N.;N.%.+%.+4Q.5Q.Nn.wp.;w.qA.tp.Ca.@t.vp.4r.>t.^m.^m.>t.sa+sa+Qd.Rd.K@ E> :% r}+Kd.dA.@-@Yv.eu.u8+8%+0! o#.@-.lf.rf.Ln.ar.TB.gA.V;@W;@X;@Y;@xO.Z;@xO.^z.!*.)*.mp.`;@#J.Ni.DX+EY+ >@E!+co+6F P  (=.i~+d}+#,+.>@6q+:-@A] `p I6 S7 ]% ]% Y_ ${ sg.sg.Pt Pt 6F r5++>@9C+`3+Vv+Rh+_% _% h* i* pT+ 3+;I >I 7F ",
"@>@#>@$>@%>@&>@fZ.*>@z, I;  T.=>@->@;>@>>@,>@g++zD '>@xd+Yh )>@!>@~>@v3 {>@]>@^>@/>@[;@(>@_>@:>@<>@[>@~g w=+}>@O$.=W Y&@|>@1>@2>@T| 3>@`Z+4>@5>@6>@Sc.20.7>@8>@s[.9>@0>@[A+c~.a>@b>@c>@E  4o.:{ d>@e>@f>@.j./x.4)+-_+O~+k3+g>@h>@i>@j>@k>@l>@m>@n>@o>@p>@y].q>@r>@s>@t>@u>@*t v>@MX.m|.oM w>@x>@y>@{+.F@.z>@wb.~++A>@B>@C>@D>@G'.G'.d|+RU.E>@Wq.=c.d*@F>@)d+xR.i|+m}+Ax.hk.{:+G>@gL.H>@OI.I>@Td.H( if.H( r&+Is.4% ;2 ;2 wP !` Q7 t> dY Rt Gv #2 #2  q x( 83 fd 83 83 fd vP _m _m bk L6 x9+z/+=N.3Z.Tg E`.F`.!4.7%.{4.!4.#: >1.>1._*.Hv cH J>@CT K>@L>@9D+M>@N>@O>@P>@T=+xM.v- &Q.m}.ep.eT.$-+Q>@R>@A6+5Q.D`.R3+LT.)*.R3+B9+B9+B9+g%+R3+wk.Nn.7r.>t.4r.@t.@t.Ca.qf.@t.lu.wp.Nn.uk.LT.^m.mf.0Z.ua.k*  .  . L> L> S>@32+yO.hk.#m.6%.m}.=_.(m.AH.Zs.)z.)z.ar.hA.T>@zp.U>@*z.V>@FK+hu.#w.Fi.J4+4Q.nk.nk.]*.G`.+s+W>@X>@Y>@Z>@Q=+Yp `>@}2+kf+!-@dk+ ,@(L d1+fi qP S7 |! Y_ 1! ra z(.VU+VU+VU+q$.</ :/ o8+.]+.,@b@+E#+m.@+,@RW+FY+@,@Yo.qW.qW.",
"m%.#,@$,@%,@&,@R~ s^ ,) _$ *,@=,@-,@;,@>,@,,@',@),@!,@*A.Sc ~,@<c h~ m  {,@],@^,@/,@(,@&@ :q MP _,@s@ H+@w:+:,@<,@[,@Gt },@|,@1,@2,@3,@4,@|7.;[+5,@6,@7,@H_.8,@9,@0,@a,@b,@c,@d,@e,@f,@g,@h,@Xr i,@j,@k,@l,@m,@%).n,@[k o,@/2.px px 0y.p,@q,@r,@s,@t,@u,@v,@w,@x,@dl y,@|n z,@A,@B,@A$.S'+C,@zW D,@E,@F,@G,@Nq.j}+H,@[_+I,@J,@K,@L,@M,@N,@Qq.O,@-m.KP.fE.K$@U:+P,@60 $z $M 1%.Q,@R,@s8+S,@r' y9+/++c! N@ z( 9! CB.-{ D] T7 dY {` qa {O X7 2/ 2/ cE.gd x( xi xi xi a< vP %;.%;.%;.%;.%;.bk L6 {{ n4 >[.pW.o#.Ni.wk.Ni.^m..4+J4+bT.>*.cE.CJ FU.Rv+-'+1O T,@qZ+U,@V,@W,@g&+'}.+q+jO.3L N|.X,@qH.w8+ip.b>+<;+wp.>t.;w.6r.4r.r< r< 4r.>t.>t.(m.|r.sp.pf.pf.{w.rp.pf.qf.!w.'S.r< Ni.]m.r< Pi.Y,@Z,@za.{4.(;+_c.r* [c.@r.Wv.eu.Wv.Fd.@@.,} k* mf./w.{t.{t.Us.2Q.Ys.^R+DE.EE.ik.Jn.$0.ua.ua.k* M@ J4+#: (*.G> w( }V 1n.yP.`,@ '@5k (H.*}.m<..I 2X+R  7&.FU.#^.MQ {O S7 23 23 M`+x] xP.X'+t*+o$..'@7L 4m Ci k&+Qh++'@@'@#'@$'@%'@&'@*'@='@Ee+I'.",
"9]+-'@;'@>'@,'@h] d+ B^ ''@ZV+)'@!'@~'@{'@,M.]'@^'@/'@('@_'@:'@<'@['@}'@|'@1'@<;@2'@3'@4'@;X+5'@6'@7'@uy+G&+8'@9'@0'@KZ.a'@b'@c'@G&.d'@e'@f'@g'@a,@h'@i'@j'@k'@l'@m'@n'@o'@p'@q'@r'@s'@t'@u'@v'@yh w'@x'@(9 y'@MF+z'@A'@B'@_!+8)+0`.a$.C'@D'@E'@F'@G'@H'@I'@J'@2n K'@(,+L'@K +M'@l`.N'@O'@P'@Q'@R'@S'@T'@F,@U'@V'@Q%@:Z+W'@Rh+X'@Y'@Z'@`'@P> :i.{S+kU+ )@+{ W_ ;a.q<._V mk .)@+)@+)+@)@n' 3X+#)@H%@bo+,: ;{ m* 8! BB.U7 G5 qP {` pP {` G5 ]o ]o 2/ gd gd xi xi xi a< 4+.u~.%;.%;.%;.%;.bk bk PD >9 ;9 .4+>0.7r.*t.A8+Nn.Pi..-.LT.,*.}n.&{ %{ Q  ]W.e|.$)@%)@&)@*)@L( 7m n$.L`+ !+cE.bT.qH.Ex.)t.Ex.Fx.2r.tp.up.,t.Ca.(m.Ca.,t.tp.1r.(w.}G.%J.pp.FH.pf.pf.pf.Ca.tp./m.4r.6r.vk.^m.=_.]J+}b+FW.a2.7%.J4+pW.=)@Gs.U<.oH.f(+:p.Fd.{G.>4.J]+Ln.]t.(z.(z.CL.kk.CL.sk.yi.yi._Z )4.0%.:Z @2 v| M@ `o.F] ]o X7 |H.(C Wl+Pt Yp mP (H.#:.r6.7m )W.:A.dT+!'.m>.=I #^.$^.Z_ Z_ BI.C).e* Q=+%Y.*Z.8V /'.-)@q<.8&.uV+D!++'@;)@>)@,)@')@5C+Sr+=.+:J+I'.",
"Pk.IV.))@!)@~)@{)@@[ :m+9f =] ]Y.])@^)@/)@()@]-+2,+sl _)@:)@<)@[)@})@i  |)@1)@2)@3)@4)@5)@=V+6)@7)@8)@9)@0)@a)@b)@3$+0h+T0+dc.c)@d)@e)@f)@v_.g)@h)@i)@j)@k)@l)@m)@l)@n)@o)@p)@q)@r)@s)@t)@u)@v'@cj v)@w)@x)@y)@z)@5o.A)@B)@x^+6!+A>+r!+6)+C)@D)@E)@$/.F)@G)@H)@N +I)@_T.J)@]p B,@K)@xW )+.L)@M)@N)@O)@P)@Q)@~L -'.d1+{m z] 9|+R)@S)@T)@U)@V)@W)@y,@X)@Y)@,J+Z)@`)@VQ+ !@.!@r6++!@@!@#!@,V.BJ H%@$!@%!@Ml+s* '{ +: YM.U7 p4 6+.>. *9 {` M6 ]m Gv #2 #2  q .q .q .q xi 4+.u~.u~.u~.u~.u~.%;.u~.}} k< @2 bT.*0.vk.<;+<;+Li.Li.fp._,.r2.cE. p.A] uM PR+'r+&!@8N+Zt *!@`e r6.jM <L.'V.a! +-.Ex.tu.(w.^z.tu.sp.!t.~w.{w.~w.4c.4c.~w.!t.!t.~w.%J.FH.DL.qp.~w.4c.,t.!w.)t.6r.;w.Mi.xk.]m.Q>@=!@-!@b=@{4.7%.;[.Fs.BR.C&+U<.r&+=:+r&+K> ,4.;7.&0.Vs./w.su.su.kk.CL.|,+mk.q* q#.)4.)4.u| g< v| @2 >{ `  83 20 1S |H.v> _O.{M+4k ':./O.y .r6.HQ sI.cn+2&+h&+C$.)'.lN+y] m' 2! ]T.c&.;!@x4+],+>!@AX./:.,!@^/ s{..%@j~+'!@)!@!!@~!@js.|d+;h+N%@js.-.+",
"{!@vr.Z6+]!@^!@/!@(!@+- PK :0+_!@:!@<!@:L+[!@@E.Uh.}!@8h+bS.|!@!X.1!@2!@+p+3!@4!@5!@6!@7!@8!@9!@0!@a!@b!@c!@d!@23.OB+e!@f!@tc.g!@h!@Io i!@j!@k!@l!@m!@n!@n)@o!@p!@q!@r!@s!@t!@u!@v!@dK+w!@x!@y!@z!@A!@B!@C!@D!@Da E!@F!@B)@G!@,{+`]+g-+H!@I!@J!@CG.n].R^+x,@K!@gH+~p !T.L!@uP.M!@N!@h|.V@.O!@P!@Q!@R!@S!@T!@rM d&.8k :O.Mq.sW+U!@V!@W!@X!@vV+Y!@Z!@`!@DD.Am+ ~@.~@lo++~@@~@#~@$~@%~@&~@*~@lX+%3+`R.,Q.=~@-~@/+++: YM.U7 U7 5+.1=.}C +z ;} u' y| }L Gv #2 D~.D~.D~..q EM 4+.4+.4+.;~@;~@4+.4+.pi k< <% J4++-.Pi.:r.Li.Li.>~@_,.r2.|!.cE.My.*Q.d1+b&.4^+-8.L( ,~@D#+oI.J@.E(.(C (O ;[.o#.zO.|r.rp.sp.(w.rp.{w.sp.{w.~w./z.pf.4c.~w.!t.!t.FH.op.op.4c.~w.1r.qA.tp.5r.6r.vk.wk.C6+'~@)~@!~@~~@{$+_c.7%.ep.{~@dp.TP.lH.u4+g^+>7.l8.>4.1_+yi.^R+Gx.uu.Hx.+t.CL.|,+R!+)4._Z )4.@: v| f! ;9 {} Z  A~.ik }!.#z |>+<L.m' @D.#O :L.x(.u6.y .rg.-:.T@.]~@^~@h&+vJ 7&.x> x> yP.uJ %Y.+.+/~@KO+(~@_~@S@.DG ':.PR+n>.s[+:~@J@ kO.3L D> `  C] &Q.;u.qa+",
"<~@[~@}~@Kh <X |~@1~@2~@3~@4~@5~@Md /i+6~@{6+7~@8~@Yy 9~@0~@a~@b~@c~@d~@e~@f~@g~@h~@i~@j~@k~@l~@m~@a(.n~@@<.o~@p~@f0.q~@j0.r~@h` %b.s~@t~@u~@v~@w~@x~@y~@z~@.Q A~@B~@C~@D~@E~@F~@G~@=v H~@I~@,t J~@K~@L~@M~@N~@%}+O~@P~@Q~@R~@,{+i)+r,+g-+yX.C!.S~@T~@{8.U~@V~@W~@X~@Y~@): MX.Z~@`~@h|.fn+6j+ {@.{@+{@@{@'W.*T+6k t- U=.wb.!w+Ys #{@${@%{@&{@*{@={@-{@;{@|P+NA.>{@,{@'{@){@!{@~{@{{@]{@,T.u( $k+A> #h+^{@5% Z  u' ]m  q 20 dY 5+.0d |=. 2 m4 k4 A5 E| Hv Rt (m _O 6L DM EM EM EM $} $} DM DM Qg k< l* 7%.;0.^m.wk.Ni.o#.(;+ . %: >[.l}.ik A5.CJ vM IX+)S 8% /{@({@.++k&.+q+A5.l}.;0.4r.2r.sp.!t.{w.{w.!t.{w.|r.!t./z.pf.pf./z.{w.|r.^z.(w.sp.sp.rp.!t.Ca.up.vp./m.r< V*+_{@:{@<{@[{@cT.1V.[j+~4._,.=)@}{@gp._,.{c.>: >7.F> ;4.pn.mH.M]+HE.DE.1'++t.lk.+t.fk.xi.'4.>7.>} v| ;9 >9 {}  : p4 /O [/ Lq.uA aR.]i.xP.@^.3V GX.+^.m|.)W.v(.m<.&u.;V ]~@|{@E.@g`..;.<=.h`.H +MY+n6+KO+1{@2{@3{@)O.wI.xb.8V c&.8k $k+;} +2 @2 w| bk _/ 8&+{W.s5+",
"@)@4{@dn+'B.5{@3)+sM+6{@7{@8{@%,@9{@+- $x+^ +0{@ r+at+a{@b{@_P.c{@d{@e{@f{@g{@h{@i{@j{@k{@SK.l{@m{@n{@o{@p{@q{@r{@42.42.s{@t{@u{@v{@w{@x{@y{@z{@A{@B{@C{@D{@E{@F{@G{@{d.H{@I{@J{@K{@L{@J!.iy+|E M{@N{@O{@P{@Q{@R{@S{@T{@U{@l! V8+}I }I V{@T_++{.[{. 8.W{@X{@Y{@Z{@`{@ ]@u* Y~@3A+!p $}..]@+]@@]@#]@$]@EM+%]@~>+.h+!m ]:.&]@r@++I 'h+B*+*]@t4+Ys+HG.=]@-]@;]@>]@,]@']@)]@!]@~]@{]@]]@^]@/]@(]@f`+X=.3L AM 4L Tg D> 4L L6 fd 6L O@.$,.8i |} |} B5  2 A5 E| Hv Hv QW _O 6L DM DM DM 8< DM 6L D~. : k< 3/ E> 8%.xk.Qi.Mi.{4.=Y.'1.l}.l}.o4 k< gd zi vg.lN+.^.v(.(N+v(.8S TW 8k ik =Y.'7.tp.(w.!t.4c.~w.4c./z.!t.(w.tu.(w.!t.4c.4c.!t.{w.rp.(w.rp.^z.<r.1r.qf.;w._]@aO.hp.:]@<]@=!@)~@EW.)*.KT.!S..4+_,.[]@}]@_,.xp._Z r#.0%.0%.K> ra.mH.eu.Kd.>z.EE.1'+lk.jf.gk.~c.)4.(*.g< k< >9 83 ]} ;} pT.B] jO.*Q.ND ]i.VU+8&+3V ,~.F .wZ+m|.)W.)W.|]@%'+ ` |{@1]@lf+h`.g`.2]@h`.MY+;%+3]@4]@DA+5]@B@.m+@`>@oM lN+d1+hx [C W7 GT.nn.-2 w] 5k 6]@@V.7]@",
".]+_` Ae+NR+8]@>n.9]@0]@Kc+lY.a]@b]@c]@d]@e]@wy+f]@g]@h]@Q6+y< i]@j]@k]@l]@m]@n]@o]@p]@q]@r]@s]@t]@u]@v]@w]@O&. %.:%./a.x]@y]@z]@A]@B]@pz />+C]@D]@]U+D~@E]@nb.F]@ai+BV+8m 22.G]@z]@H]@I]@yC J]@_(.oq K]@f'@5(.L]@M]@N]@O]@q@.V8+P]@kl Q]@sz.R]@Aj X7+S]@T]@U]@SR.aO+aO+V]@RT 1Y %t DP W]@X]@Y]@Z]@`]@7J+W3+:E.9/.EG ^:. ^@.^@l~+mY Fz+:E.M)+<M++^@@^@#^@$^@%^@&^@*^@=^@-^@;^@>^@,^@'^@^O.)^@8Z.X$@=. nL.'1.`o.'1.>[.{} #2 QQ 2=.}! }! ,Z #M >o nK QQ wP !` 'f QW QW _O 6L 6L DM 6L 6L 6L .q  : k< 3/  . o#.8%.8%.o#.(;+9%+B( fd fd `b v| ]} <0 3m e&.'~.>O !^@ds.:=.Q=+d1+={ .4+~0.(w.nf.Aa./z.4c./z.pf.4c.{h.O`.pk.of.~h.{h.nf.Ba.4c.Fi.~^@{^@D&+'0.^*.EK+>]+:c.-0.^h.]^@}]@D5+cW.cW. -.'*.pW..4+ep..4+_,.pW.>: '4.>7.{c.Fd.^r.sa.(r..w.EE.D&+1'+gk.yi.yi.>7.-9 g< x| x( x( X7 ;} ={ ,I 8x.aR.]i.]i..p.e* lN+9&.9&.F .wZ+wZ+(` q(.*T+cn+sw+`d+2]@,V.;!@%Y.g`.,V.MY+^~@^^@Qr+Eq+[&./^@n6+&Z.a&.(L y5.(m (^@;S.>S.QD+t5./V _^@:^@<^@[^@",
"#k+}^@{%+b#@OR+CS+78+&~.b>.m$+|^@L.@1^@];.2^@3^@4^@-4+5^@6^@7^@8^@9^@0^@a^@Kw.,m+b^@c^@d^@e^@f^@g^@h^@M<.i^@ 4.j^@k^@qO T+.[K+l^@IH+%)@m^@n^@o^@p^@q^@r^@mg.%5.es+QJ.la la HW Ei $A+s^@t^@u^@v^@w^@x^@y^@z^@A^@B^@P>.C^@D^@U{@!l.]l.E^@F^@ZA.G^@H^@I^@UQ+J^@)O.TJ.{T.[S+;2.lO+QQ+7w K^@L^@M^@N^@O^@CM+yg+0s.&}.AX.5m KT p2.qd .^@A).`,@,V.dI+PC+P^@Q^@R^@S^@T^@U^@V^@W^@X^@Y^@Z^@`^@ /@l&+./@+/@@/@#/@}% mi `o.>[.5/ ]} E] |Q a%.uK Mt U6 ,Z #M >o $-.QQ !` !` 'f QW _O 6L 6L 6L 6L 6L .q .q  : k< l* 3/ ~*.;0.o#.pW.pL.4L `b IJ %} bk %T >} .q ZP.''.D +}R.$/@d+.%++%)+Vj.'Q._*.qf.!t.{h.Ba.Aa.Ba.4c./z.Aa.~h./z.4c.nf.Fi.O`.ok.Ii.Fi.)z.%/@&/@(N.(m.Q!+*/@=/@-1.J4+-/@M> M> ;/@>/@=Y./,.'*.$: 7%.BR._c.l%+-/@lH.{c.oH.Md.XI.ra.bp.Fd.h2.1'+CL.CL.fk.gk.)4.(*.v| x|  q 20 X7 G5 U7 ^,.u( ]i.]'+Xj.1n.e#@uM }=.UW UW F .9S AX.(` NF.=C+:=.1>+[=._=.1d+oW.`,@..+.;.H +='.,/@'/@Zy+zj+e}+um+N=+n' fi J6 =2 FT.6Q.-:+)/@<O pI.!/@~/@{/@]/@",
">~.~:.Xg+Re.+;.&O ql.b&@^/@a;+eX.//@:^.I.+(/@_/@:/@</@[/@x!@}/@|/@1/@2/@3/@cs+4/@5/@6/@7/@8/@9/@0/@4}.v=.a/@Z>.!H b/@c/@d/@e/@GI f/@g/@h/@j&@rZ+fF h9.#a.^d.,% HW ~L.~V %` u6.o(.i/@^+@j/@k/@l/@m/@n/@o/@p/@q/@r/@s/@t/@>H u/@v/@w/@$).8C.x/@y/@z/@#Q.A/@z,@)O.%Y.]L w<.FM.qM }O.B/@-8.C/@D/@E/@HU+qr+#d+e.@mW.GD ]S+F/@r>.fY fi )Q+ .+8k o' S3+zU.G/@H/@I/@J/@K/@L/@M/@N/@O/@P/@Q/@R/@S/@p^.T/@U/@HJ D> xp.A( E> (*.Zb +0.WO tK @M >T &J eN rU sU sU t{.QQ wP !` !` !` !` 'f QW _O 6L :m :m x|  : l* 3/ o#.8%.!4.!4.mi CM $].0< 7x.`_ }*.1!.Rt BX+.t Zs I .V/@W/@~+.Qk+WR.X/@z- )h.,0.Aa.~h.4c.pf.nf.1c.Aa.of.pk.pk.nf.Fi.pk.pf.pk.Y/@Z/@48.`/@hf.,M+ (@c5.Vd.r< (;+ep.n7+t*@r4 ^c+h%+{$+C9+pW._c.[]@A0+gp..(@I*+>: oH.~c.Y3.pn.sa.sa.h2.ik.Ax.Ax.xi.(r.y( +2  : fd fd 20 0k %z PQ |n.p$.Xj.Al..p.P  lN+}=.Fl+)2 9&./` QT F .0P s{.RV+oW.8&+8&+mf+&Y.yP.8&+]=.8&+d/.)'.n>.H +nM um++++v- ul. 4+TR.x| h< >S.>S.+(@u~.g@+Em+@(@#(@$(@%(@",
"ET 7k #I 5! W  lX+3{+v .$0+,+.w]+ZG.DV.&(@*(@=(@-(@;(@>(@,(@[d.'(@'(@%{@!a.)(@!(@~(@{(@](@^(@/(@((@_(@:(@I+.<(@[(@}(@|(@1(@2(@3(@4(@5(@6(@u9.Z)@SB+Zt n- iM B@ ^G+ZW #:.Xt fP 7/.7/.7(@u>@8(@9(@gs pq 0(@a(@b(@c(@d(@e(@f(@g(@h(@i(@!H+j(@k(@l(@m(@n(@o(@6R.>:.s{.8&.&I ;~.h@+Z-.)2.nI.p(@q(@r(@yj+s(@t(@u(@GQ 8`+&)+v(@G'.hx z5.wv.Ve.Zo.qW.m6+w(@!i+x(@y(@z(@A(@B(@C(@lW._j+9T+0S qP+D(@af.e< hi D> D| 4/ (*.l* Is.#T #T ui ua @c dN @M >T ,T rU sU sU QQ wP wP wP wP wP !` 'f QW QW ni :m  : k< 3/ E> 9%.~4.{4.E`.CM $].Ny.&7.l' Z1 ~} -2 E| uA WW .)@E(@F(@G(@3&+N=+GZ+Z^+B( r< Ca.rf.AH.Fi.V<.1c.'0.nf.qf.2Q.{^@.z.Ji.~h.!:+H(@I(@J(@!K.rk.NH+ (@fx.xa._,.bT.N|.B&+J%@qf+8=@K(@G`.KT.C9+$: ~4.TP.}{@r* l%+>: >: {c.oH.pn.pn.pn.pn.hk.Ai.`s.!m.gk._Z >} x| gd _C _C gi )I %Q.,I </ ]i.Al.Al..p.8&+d&.e&.WW )2 9&.8&.'~.3V '~.)O t*+t- +;+W%@P  L(@+h+_O.VU+wM vM uM uM tM tM TW h}+3! *{ pT. q ;9 Yl.GT.B5.QV+Ue.M(@j9+N(@O(@P(@Q(@",
"2< JQ es.%z hi t< L&@vJ vv.@V.R(@S(@c>.e;@T(@,I.Sp.U(@V(@W(@X(@Y(@Z(@y,@`(@ _@._@+_@i].@_@#_@#_@$_@%_@&_@&_@*_@NF =_@-_@;_@>_@,_@'_@)_@$M+!_@~_@%a.n- n- qg.Kj.`E DW }.@xm+pY q{.s6.}.@{_@LB #n ]_@^_@/_@0(@a(@(_@__@:_@<_@G7+Q] [_@}_@|_@1_@2_@3_@4_@2^+-:.w(.]C ~m zP.MW x<.5_@(S i/@6_@Z!@NJ.lI.t(@o .w .7_@V#+P3+,. Fv 0< ~u.jO.1L {$+{$+H`.8_@5g+9_@1J+!i+0_@(+.,O fT.D$.>` 5+.40 3k /m -} D] t`.>{ (*.{c.q#.lH.J5 +T ~{ ua lN ZO TO AK oN F).,T rU r- Sg Sg Sg wP wP !` 'f QW _O :m :m  : k< 3/ E> {4.~4.A( ,[.o4 `b JD 23 d* I6 =u.50 !I _/ TW nM gp+a_@b_@c_@#,+3} w;.L6 hd C- o8.n8.qf.(m.AH.{*.rf.|,+d_@!K./G.~0.>-+ (@e_@f_@=1.},+DU+Wd.if.=_.9%.gp.;[.|!.+V.g_@6b+h_@8g+h%+'*.C9+.4+[]@TP.iS+Gs.pW.I*+>: >: oH.pn.Y3.K> {G.Ai.`s.Nd.Nd.!m.)4.>} [C #2 X7 :0 )I %Q.CJ </ W%@+;+mf+mf+yP.c&.h>.Fl+A).EM.l>.FU.a&.FU.b&.x> &Y.2+.W%@>;+y] BI.]i.Wl+$I ^C L`+m' 2+.Sj.2+.2+.rW+^,.u' a! %: #. @. C- W7 ni Ng =:.i_@j_@k_@l_@m_@",
"n_@o( MD wg.hi 30 Vk+_L TW W^+v .4s.$0+i+.o_@=f+p_@ 8.-x+q_@r_@Ey+Z~@}n s_@t_@u_@v_@w_@o'@x_@y_@z_@1^.v]@A_@B_@C_@D_@E_@F_@3(@G_@H_@I_@t>@J_@K_@L_@dL M_@Fg HW M @3< KW ~M+/S ^5.]V M7 tw+%C+N_@#n O_@g^@P_@Q_@k!@R_@S_@T_@U_@V_@T_@W_@X_@Y_@Z_@d&+pl.%}.u$@kP /` >~.&I ^/ Xp _V `_@ :@.:@+:@z*+@:@#:@0T+&}.$:@}=.3m 'I -7.|%.+$+1L Cn+B9+%:@[j+H`.[n.@,@9C+n' 5^+Tj.Ng )I A5 >} 1_+wi.xi `_ 83  q >{  . L> :Z Md.sn.Vv.J5 eN+@7.wR uU i4 uH |3 oN [Q rU t{.^~.Sg Sg wP 'f QW 6L EM 4+.pi pi k< {} 3/ E> !4.{4.mi '1.fd 1S S7 $f ad pP  W /@@}C L(@(=.s5+&:@*:@=:@-:@d`.(% 4p+~u.qi i< r< ya.sk.~*.U*+#-.{*.;:@>:@-0.n8.-1.,:@':@):@Q3+kf.*!+Z,@;1.za.!:@~:@,*.T*+oL.-].]-@h_@8g+i%+wa+Ee+8c+r* EO+Fs.{:@l%+pW.Md.m8.{c.U<.{G.v4 1_+1_+.t.Ai.#m.Nd.r#.(*.>} Gv }L U7 zi EJ rW+r$.</ p$.{5.mf+x> c&.d&.}=.EM.Fl+h>.FU.e* u- P  u- VU+a#@L`+_O._O.-u.w> aR.1+.qd es.q$.x] 1+.xM |+.fY ID 1m 6%.<% A( _c.L@ L> #: Gv CJ &O Fu+]:@^:@/:@(:@",
"K7 T_ m$.Sj.uP wg.uP xM {:.Ci m|.m<.0* _:@::@lb.f9.<:@[:@2^+V~@gf+Y)@}:@5n |:@1:@2:@3:@4:@5:@*_@*_@1^.6:@6:@,..1(@7:@8:@9:@0:@a:@b:@c:@d:@e:@f:@/l g:@^l &v h:@i:@j:@^;+k:@:! (Z+/5.n3.u*+xm+l:@m:@n:@(l o:@p:@Ur.A!@q:@r:@s:@t:@u:@v:@w:@x:@y:@z:@A:@2R.(N+`>@F .>~.%q y(.5_@yu B:@C:@D:@E:@^A.dW.`1.F:@G:@2X+VU+v( w( 5L CM Ge+G!+H:@;N.B9+!4.=Y.m}.`   q #2 D] #2 Qg x| (*.fp.;1.6%.gd 1S gd gd F] $. ~c.lH.I:@-3+J5 7u.9..J:@7/ nN i4 K:@L:@|3 oN F).t{.^~.Sg ^~.'f _O DM u~.bk ck E5 E5 j< j< E> .. 4/ 4/ mi '1.fd q^.qP pP SQ B(.13 8< TL+SW ^T.b1+%$@.)+M:@N:@O'@B$.O:@u( i8.wi 5%+P:@CU+v8+K@ E> @r.Q:@%m.(*.K@ `:+A[+A9+~c.0%.p#.>: Md._Z 3/ l* $. >{ %: D> ]m B> :C +$+-Y.ju+R:@S:@T:@]^@;[.D- a2.BR.lH.f(+oH._Z j8.,4.j8.-)+hk..t.-)+,4.-9 g< u| Gv  2 ji ,c.G'.MQ B .y] VU+Xj.VU+t- ei !O =I !O {:.:x+e* m' VU+m' xP._O.{5.VU++h++h+xP.e* Sj.p>.]:.KT+1+.fY $f $^.yM iH 0k g< C- 8%.L@ xp.~4.(;+F] gd Q@.Q  U:@V:@W:@Sz+X:@",
"} @u(.0P nP MD Lt ;o >m 1V KQ &I q{.6m s] 6m 6Y p|.|V+oB.Z1.Y:@Z:@`:@ <@.<@+<@$b.:(.h0.@<@#<@$<@Pw+%<@&<@F6.`(.*<@=<@-<@/+@B/@<S+;<@><@,<@'<@)<@!<@~<@{<@o` ]<@^<@jE hA+#C+/<@(<@_<@oY+:<@*a.'% Ir tj <<@aV+[<@}<@|<@1<@2<@3<@TT 4<@5<@6<@t'@7<@8<@9<@0<@|]@*T+wZ+sB.!~.IX.a<@b<@c<@d<@e<@f<@>Z.Rk+;x+pU+Vs+Fq+]i.@3+(O x9+z/+07+zY+|%._R+=N.F`.'1.E> G( 73 ;7.Y^+G( ,} #: a! H'.g<@h<@s2.Tg $].E5 4/ E> q#.oH.qn.i{+P6 y( *J 9..$1.kd i<@L:@j<@j<@oN F).t{.^~.Sg ^~.'f QW DM 4+.%;.bk mi mi D5 pU 4/ 4/ A( A( mi 5L _m #z d* LQ Ot sb.>f k<@}+.g@+!W.(+.l<@m<@n<@o<@p<@!+.q<@r<@v5.s<@t<@DW+.V.t`._c.hb+u<@v<@lE.>[... 6%+<u.%. ZV (*.U<.I*+Md.{c.>1.6%.G> `o.5L m}.}n.Zo. $+Zo.X  NW+j%+w<@-/@!:@$: _,.|u.gp.f(+>: '4.q#.>4.;7.,4.j8.`s.`s.,4.;7.,} @2 [C }L Ug ,c.=4.3m Sj.2+.e* +h+a#@Nr ]T.+q+!O {:.~:.:x+-u.m' _O._O.m' m' Wl+]i.Q=+oW.1d+a&.A).x<@''.y] -u.xM MQ $^.6+.iH +z D~.}p.g(+~0.#. {4.pL.,*.`=.2/ [/ )Q+%Y.y<@z<@A<@[l+",
"T@.|]@8S QT [+.L .(:.]V HM '8.gA+wX+y<.6k 'O <A.9/.I@.Ro.B<@C<@D<@E<@J!.F<@G<@H<@tq I<@J<@K<@NL+L<@M<@'N+/..Pq GQ+N<@O<@`u [S |%+P<@`F+g/@9(@%..!<@s{@Q<@R<@,..7:@ys S+.S<@T<@U<@V<@W<@X<@^/ s] m| [R.Y<@Z<@`<@ [@.[@+[@J).@[@#[@$[@%[@8a+&[@*[@=[@-[@=F+R'+ds.Rv+;[@>[@,[@'[@)[@![@~[@qL+,p CW }E.KF.6x.+.+a|+6F A5.m}.T*+-N._R+{[@zY+][@=7.JJ $].~} [} FT.FT.+m.+(@w| m}.[n.^[@/[@([@X=.S@ n< n*  V..V.lH.M]+)]+#m.;7.wi._[@:[@&^.vR <[@j<@[[@j<@oN F).}[@13 Sg Sg wP !` 'f QW (m D~.PD >9 ;9 w|  . .. 4/ 4/ %: 4L a< ys.d* LQ ):.sb.YS R@.~5.|[@o~+1[@2[@3[@4[@5[@6[@U)@7[@8[@05.Ig.9[@+: >{ I> 9H.0[@4@@(@@,{ ,1.mi 0! t`.N@ H> >{ A( oH.*:+>1.#: _*.G] B( i8.5L Zo.Zo.8F Y7 %!@a[@r4 (,.ep.a2.~4.fp.fp.fp.>7._Z )4.q#.,4.,4.,4.,4.3k.3k.>4.;4.,} v| GG m4 Pr ,c.wg.r$.L(@-u.VU++;+VU+We.bi 7k ;` Mg y] -u.hY hY hY hY hY Vl+(C W%@0&..;.n>.OT b[@E@.lN+zP.ei wM es.F'.sA D .I6 ck ~0.)0.~0.~4.;N.P@+9++>].]o `b |H.Vl+c[@M(@2R.0<@",
"/]@(N+)S 6m q3.p{.(S /<@d[@e[@f[@wX+y<.di )'.!'.wZ+g[@<x.>R+h[@i[@j[@Ow+k[@l[@m[@n[@o[@p[@q[@r[@s[@t[@u[@&Z )D.v[@Rs `L =Z w[@x[@n`+y[@z[@_l )N A[@B[@42.vq C[@~..7:@.Z +Z D[@L3.E[@+-+<a.:o *2.=}.$r F[@G[@H[@AV+I[@J[@K[@,;.L[@^E.qb.M[@N[@O[@P[@Q[@s9.Y2+Jv+)O.'++R[@S[@T[@U[@V[@W[@X[@%F+Uy+]S+Wg h>.%{ {m /O IJ mi i8.i8.E`.Tk+2C+$)+2L JJ F5 j< h< H/.}Q.,7.i< ed Tg .$+8_@Y[@Z[@`[@G9.c3 c3 Ng.`U.oT+B[+oH.>7.di.J5 ti. }@.}@jd ;M oN ;M oN >T ,T t{.^~.wP wP k4  2  2  2 m4 m4 ]} u| u| +2 M@ l*  . n4  : gd q^.S7 @f @f IT Ev +}@@}@]V tI.N)+#}@$}@%}@&}@*}@=}@-}@;}@>}@NW xM St LI.d! ;} Hn.)r.53 cL.Gv (O Y=.BB.u' &. v' M@ '4.>7.4% ZV ZV >1.G> F] CM 0! Y=.9k s' bo+bo+(#@E&@KT.=)@a2.|u.tk.|c.;1.J` p#.0%.r#.n#.n#.u| +2 K6 K6 +2 v|  : #2 ={ F| ,c.EJ :O.{m Vl+W%@p$.p$.^% ^% @f @f LQ ^% M`+Ue.M`+M`+Z_ Z_ M`+l' }V ]'+Q  *Z.,}@:` lY n>...+Q  o>.ei 1+.W=.gY ZP.tB.b5.E> 8%.!4.=Y.pL.oL.9%+B( 5/ dE.ed %} ya+{5.~m RV+",
"'}@pb.$5.kK+e[@)}@!}@H).p- ]V /S L#+g@+x<.D$.IX+kP Rk+pB.~}@yB+{}@]}@^}@/}@(}@_}@:}@<}@[}@}}@|}@1}@2}@3}@4}@5}@dX ]n AB 6}@7}@8}@RF I3.9}@0}@a}@0/@0/@b}@c}@d}@e}@f}@B/.g}@]%.h}@hw i}@Lt j}@&)+yP.zP.hP ~p k}@+:.!2 l}@W@ MM $a.MM l| m}@G  n}@o}@}x.p}@0i+#8.EW b:@q}@}R r}@s}@t}@&D.qK Q/.j#.3%.WI C( oK ,o a3 g< ~} #. @. K@ +. $: =Y.E`.i8.mi ..  . L> L> _c. . <% mi Tg ]o /++z- I!+u}@w4 v}@ci.3A.[% Z  CM `  E] 5u.6u.w}@L$@x}@qU #c t#.L` ua s5.ek QD D] y| Gv #2 ]o ]m x;.C> 6%.r#.q#.0%.M@ l* {{ ,f MT Z1 I6 Yb LQ IT yP TQ y}@z}@9&+r(.u!+A}@B}@R;@C}@D}@E}@F}@G}@pX+Bq.6K+o%@=r.&J H}@=T #1.n2.xn.ek.ms.'V.xr+53 f! r}+#m.y( y( [m n#.>} >} [C x| CM ,1.l}.Zo.;h+8g+I}@J}@9=@BR.;1.=0.~c.<p.fk.#m.,Y.10 y( |/ ek (m sa T7 Qt Qt Qt Fv Og ZP.uP rW+r$.DJ {o </ 8x.8x.u( `p `1 `1 `1 `1 `1 `1 6L `1 33 t| eY S7 23 {'.l' L`+!~.K}@BP.Fz+oM sB.^=.)2 L}@L}@kX+2} uP C] MT %*.wa+*.+I`.G`.4L {{ ;9 K] D5 K] %K.DM s| BX+>;+p$.",
"9* M}@N}@O}@2L+)}@!}@P}@p- tA Qj.=}.(O.Pt KQ &2.I@.Po.n@+Q}@_D+R}@S}@T}@U}@V}@W}@X}@Y}@Z}@`}@ |@.|@+|@@|@#|@$|@%|@&|@@p *|@=|@-|@;|@>|@,|@'|@)|@!|@~|@R&.ly {|@]|@^|@/|@KV vE+4&.(|@_|@WJ.:|@12+o' 0&.n>.tV+<|@YQ+[|@<d.iP Ro._M+_M+}|@||@1|@2|@3|@4|@5|@6|@s/+)r+7|@8|@-_.9|@0|@a|@b|@vi #r.Qv.#r./K.c|@2% 0..7u.]G.bf.K6 Yl.,7.~0.#. 4/ ~4.~4.{4.!4.!4.~4.$: (;+!4.4/ 3/ Is. V.A9+@r.`<.a{+S<+0A.Ob. N.+: Tg l}.l}.fd GG *2 WI.'f.L$@bk.k9+&T b..*} ek GG [C 2/ Z  ]m Z  Z=.y;.lO.GR.[]@|c.oH.~c.WX.GG D~.1S s| 23 d* Yb Ev ^V 5G tA d|@Mv i`.sI.)$@e|@f|@g|@h|@i|@j|@k|@l|@m|@n|@o|@q9.r> GB.VV %1.p|@(u.q|@!,.ID zM PF.-{ +2 #m.!c.{V.ri a..0..f< ;9 dE.D| 4L `  ]o u' r|@/#@J}@mO.=Y.7%.*0./*.#m.yi.ik.[p.j8.K6 +2 [C (m sa Qt `p {m {m fi fi DJ CJ 3X+3X+DJ fi {o </ v( z5.Q@.ys.EM %^.%^.%^.%^.%^.%^.EM 4+.&} `1 S7 Z1 }V Ue.!o s|@t|@)S a/.oM F .4V u|@Tj.Xg+v|@W  /O -7.%*..$+A/+Dn+kS+I`.>9 w| }*.QV+!} c%.%^.EM `_ |H.Q@.fi ",
"w|@x|@y|@:W+z|@A|@B|@C|@C|@7i 7i yP _S NJ  { ^S D|@Rd+>@@E|@F|@G|@{<@iv.H|@I|@J|@K|@L|@M|@N|@k'@y_@O|@25.P|@O&.Q|@z9.R|@S|@<N T|@PJ S+.;n U|@U|@V|@V|@ly 0;.{|@W|@X|@`(.Y|@Z|@1O.SD XJ.`|@#I -u.vM c&.&Y.=C+$:@m @EX.SJ.m<.m<.-:.$`  1@.1@+1@@1@#1@$1@%1@Mv+4|@wQ &1@*1@:O PU.=1@p&@TU.lx.y' lx.oX 2% B| ]r.]r.z| z| WI.wi.'} -1@)} L> .. !4.pW.(;+(;+pW.~4.xp.l* 4/ 4/ @: u8+`:+`:+:p.K9.q}+S>@qn.@r.;1@vn.>1@%: ,[.D| =_.4/ r#.Ld.z| ak.pX Dv k}+b< ;2 Rr [C ]m u' nL.]o x9+=N.x9+>*.BR.za.U<.U<.hd GG D~.2S [V 23 d* Yb Ev @z TQ t] f[@,1@&2.0@+b1+'1@'_+)1@wV jH+!1@~1@{1@]1@^1@ Q.t<.kA+rH i4 J] p|@&c./u.Bd.t:.s:.p;.dL.$T K> ;4.fk 0..Vl.k}+hd f! >9 k< G> G] YM.I> (#@GX+/#@/1@9%+fp.|c.x@+q* J]+gk.eu.Y3.n#.v| k< D~.sa hx z5.{m {m fi DJ DJ DJ DJ DJ `p `p Q@.Q@.#z #z #z 2S 4+.-[.-[.-[.4+.4+.4+.[V eY Z_ _0 KT+_/ 2! Sj.XW u* KF.g[@vM.oM ub.)2 l>.(L lX+W  gi BM i8.b5.3Z.07+2C+h%+>*.{} w| kR ~} D5 UW+ck Ny.BX+<L.;I q' ",
"(1@_1@x|@:1@ai+C@ z}@<1@%#@&#@7L 8+.!:.]G+5k ~L.`[ [1@}1@|1@11@21@31@41@%n 51@61@71@81@91@01@a1@9;.b1@K+.c1@d1@U{.]I e1@qI+f1@95.g1@h1@i1@;n >n ,n j1@e/@W|@/|@a#.Z|@#G+yu TD OX.k1@u] <W+Jv >` C).8&+oW.<A.9/.l&+G .r(.YQ )W.JT+nI.l1@m1@n1@,(@r].o1@p1@r0+q1@r1@s1@bE+#f >o k}+y~+|_+YU.lx.vi vi L$@bk.WI.WI.]G.&2 ]r.P6 h< -1@)} G( 4/ ~4.~4.{4.!4.!4.{4.$:  . <% ZV lE.u8+ZV YV jn+qn.*3+V<+I:@O<+%m.jn+~c.K@ +. #. L@ L@ :% @0.>7.'r.vi e! <Z QD OD 1m  c 9! 9! u' 2/ z/+Tg b5.i8.J4+#-.q#.6%.GG hk xi `_ t| eY d* Yb SQ xP tA t] D@ V6 lP .^.&u.|L+t1@u1@v1@w1@UT x1@y1@z1@A1@F:@B1@v<.e+.(~.98+C1@D1@pR.Q#@2u.Q=.Ls.5u.1/ W7 ,} Dn.[m <C wA ~} 6(+>9 ]} &: (Z.+: H] J}@I}@+$@TW+a2.=)@/h.tk.Nd.&0.#m.{c.P6 >} x| x( .q q^.ys.z5.Or fi DJ DJ DJ fi {m `p z5.z5.ys.hx hx ys.#z JD -[.-[.-[.-[.4+.[V [V Z1 Z_ _/ _O.VU+P  d&.WW 1x+I@.So.x .u(.kP 0P l>.{:.mX+v|@pT.Zo.Tg D| $: !4.;N.!S.;[.$. v| ;9 kR UW+E1@,f Ny.ya+>;+1n.m6+y> ",
"F1@ED.w:@G1@m6.{S g' [O H1@8+.,,.I1@J1@K1@3< 'L dI+SB+_N+L1@M1@N1@O1@_H C[@P1@Q1@R1@S1@'A B[@T1@U1@|(@~..js V1@ZF =,.W1@]G+>;+X1@Y1@9H+Z1@`1@ 2@8^.8^.B/.Eb..2@Z|@ N++2@DI.H*+@2@<a.,8.#2@D).,` 1+.L`+e* Yp 5k ^W.$2@.++w(.l$.vM.l$.#r %2@&2@*2@=2@-2@Rl+;2@>2@,2@'2@ ` %)+[/ $: Q3+uD+IB.J5 z| v}@{k.|p.'r.#T @T %f Zb hd v| w| j< w| .. A( D| D| 4/  . 3/ l* 6%.v8+NI.`U.A9+.V.K6.AR.I>@)2@Sd.I>@):@>G.|,+4|+o8.4|+)h.o#.8%.'7.'7.@. dd En.ta v| |0 |/ >9 ix.&: K'.2/ 2/ y;.TW+Z=.|!.l* p#.(*.>1.1m a3 E| T7 33 I6 d* d* @f +f 7i tA (S !2@9&+.^.C*+,T.~2@{2@]2@^2@/2@O3+j(@(2@{+@4n k}@q6.h@+-}.X1 _2@:2@<2@ea.eN+ 0.3u.n< {{ v| ta vA vA wA K] E5 n4  : GG 6%+6%+YM.9! [2@-].TW+y;.bT.;1.if.if.q#.0%.)4.U<.10 +2 hk #2 .q 2S ys.Or ,I DJ DJ DJ |n.Or `p ys.#z ys.q^.sa q^.1S 2S JD %^.=u.%^.EM &} 23 M`+_/ w> {5.X'+oW.b&.B).D +0@+}2@Ro.|2@;:.*}.QT EM.12@:|@y- ik dE.xp.D`.xk.wk.Ei.@-.q* Nd.-9 f! }*.-#@0< {'.l' m' ,;+V'+4g+oN+",
"6} 22@32@zO+42@6d 52@Y].{}.xP H6 j4 l;.62@uM.Yg $M+PI+72@82@92@02@a2@b2@c2@55.d2@]<@Nj.e2@f2@g2@pI+x]@ y h2@#G+D/.qs 4L.tA z(.*z i2@j2@hA+S<@S<@k2@l2@PJ .2@PF+Uq XJ.kU+;N+m2@m2@@2@// &4.la.|=.yM >` -u.+;+Yp IX+|x+lO+=O mP Ws+dy J@.n2@o2@p2@q2@r2@s2@t2@u2@v2@w2@q[+8C+x2@B9+@t.:G.y2@|p.Rs.]G.z| J5  N.{r.@T %f $T ta ta Zb Zb Zb .c WX.6%.(*._*.ZV v8+ <+#-+#-++G.un.`U.Ov.Ng.EO+z2@aH.!:@I>@bH.>G.EE.+t.'0.AH.AH.)h.8%.9%.'7.L@  <+Rv.@T u| |0 f< n4 E] K'.>{ D> cE.Q @g! Q @J'.M@ 0%.6%.WX. c  c  2 k4 E~.S7 Y_ ${ Yb L@.-` 5G '8.5_@%q `].|J+A2@iD+B2@C2@D2@E2@9P s!+F2@G2@H2@V_+/n.:L.q( qE I2@J2@K2@L2@M2@Dv =c.*m.(} l< f< wA %T )9 wA ]} l< a3 a3 &. %. YM.u' -].-].-].E&@|u.#-.#-./*.r#.)4.r#.(*.;9 x| ]} #2 2S JD ys.,I CJ CJ CJ DJ |n.,I Qt hx 1S q^.sa sa sa q^.1S xi %K.%K.%K.DM eY Z_ x] P  Q=+[=.!'.+++h&+i&+<v+s5+} @t5 Ro.Pj.NF.`].A).N2@<L G5 mi _c._c.vp.6r.'t.Fi.O`.ju. t.;7.-2 $4.ck O2@Ve.w> ,;+v- oN+(d+(d+",
"P2@:5.Q2@R2@|<  }.%k+u6+]L.NW @z GM S2@Ie.T2@U2@V2@W2@X2@Y2@Z2@`2@ 3@.3@+3@nu @3@+G+=q `2@#3@$3@%3@5w Rw xz &3@PF+2%+DC KD #f $I +k.z).*3@=3@h}@-3@;3@4L.4L.>3@Z#+ai ;}.D9.r( 2@@nW+,3@>8.~,.(/ &;.pP LQ @f :S  .+k9.nY 5F @^. ]+9`+'3@ :@)3@Z[ !/@k8+Fh+!3@~3@{3@]3@^3@/3@k0+(3@N*+AL.m}+J5 ci.7u.%f 'r.$r.{r.I` I` k}+U#@VO n2.5T.*m.)r.Qs.5u.Gn.Gn.Z +7@@7@@02.7@@>1@03 02.0H._3@:3@<3@jb+[3@)~@I>@;<+#0.g(+N`.%0.Ji.)h.]m.]m.g%+rL.'4.B[+Es.lH.>1._*.ZV ZV G] K'.a! a! Z  Z  `=.XX.M@ +2 u| f< GG GG Hv Rt O@.S7 23 M`+d* pP L@.!o /C }3@;8.d/.e`.'Q+QB+|3@13@23@]U :I.33@:5.43@53@63@~S rg.73@{B 83@93@03@p< a3@Dn.oX $N.b3@+q KJ s2.dE.ed PD [C GG GG GG &. 6%+,D.,{ E&@E&@[2@+V.gp._r./*.-1.)4.)4.$. l* g< x| x| x( JD 2S hx ,I >` $I 1+.Ng cd qP dY dY QW QW QW QW 33 `1 t| EM md md 8< ]% ${ O  We.IX+PR+G .}R.|2+&u.T@.}2+N)+`1.n( &@@pI..++wJ e3 rW+ys.L6 D| _c.5r.ZI.z&+^z.c{+2D.$w.iu.Y^+kR ,f Ny.BX+W%@.p.Z>@PV+pa+c3@d3@",
"e3@f3@PL+Ud+Ys+*;+uq.rl.|V+vI.=}.^V 9Y g3@@;+~x+h3@i3@L{@j3@k3@l3@m3@<..@C+=z l%@1H+*q q6.n3@o3@1Y fy p3@.-+J  [8.q3@lU+ra o9.]i.r<@gU+r3@Vq SD Y#+:a.DI.p&+@2@Up ra pP &z D).D).,3@),.dH s$.xA w] w] fx =c Up =9 #f l&.iY SW 5F s3@t3@u3@%2@Y)@v3@w3@x3@y3@z3@A3@B3@C3@D3@='@E3@F3@G3@]h.yR.Sy.8A.F]+6u.H3@ta Vl.oX y' 2u.*c.*r.`M.$N.I3@Lb.!r.%r.fL.Os.4u.02.03 02.7@@03 7@@6@@k%+J3@K3@L3@M3@]c+va+dp.J` ]c.`s.BL.&0.]*.HW.vk.N3@A`.>0.:Z Es.sn.l* 6%.#-+$. G] &: &: &: ]m Z  Z=.G> [C u| u| hk hk [C .q .q P@.dY 23 Z1 ${ N  @f @f _S MD SW e* )'.Z2+O3@P3@Q3@R3@p4.B;+S3@6|@T3@U3@]n.+Q.V3@-~.Fw Vz W3@X3@Y3@Z3@`3@<C 9F  4@.4@+4@OD *} b< b< a3 1m Rr E] ,D.,D.(Z.,{ +V.+V.Q @E&@_r./*.*0.#-.q#.(*.#: 5/ l<  q `b L6 `_ q^.Qt `p |+.$I 1+.$f qP qP E~.O@.!` !` 'f dY 33 I6 eY t| $} $} FM 1! (0 {M+~~.{W.*T+$Z.@4@Ae+'T.i~+U@.#}.dW.d|.q|.Cq.#4@$4@g&.Q@.b5.dE.'7.>t.'t.z&+LH+[r.}d+On.N&@k8.H/.ed %*.ya+L(@t- V'+PV+%4@v @v @dq+",
"nI+F}@&4@*4@=4@-4@q2@W]@pA+;4@3R.vI.pI.>4@,4@'4@)4@!4@>t K_@q` ~4@FI+1O.-3@:K+/H <S+ey x(.{4@]4@^4@J>@gR.^=@dO+KU.~++NQ Wl+Ol+2! /4@(4@$q @2@>3@_4@2%+os.D9.Nt v> Ue.sA aY ),.u5.`9.C .Mt =*.t~.(/ G@ L  0d >}.CG +f Lg JT #f We.l&.:4@<4@[4@}4@|4@]j+qr+14@24@34@44@54@64@74@84@94@$$+,0.:p.@N.zR.YV DB.%f 'r.Ry.nX VO 2u.#7.%4.S=.pK iN ,o rR  0.nX Pg Pg Z +[% 7@@rY+03 I( >/@04@a4@b4@c4@{[@{[@`)+4L >9 {} f! _*.U<.;1.Pi.Nn.d4@Oi.r< ~*.tk.-0.Vd.H( l%+Fs.fp.[]@,D.G> F] G> t`.K'.]} hk <m ;2 ek vP _m vP q^.1S I6 qP cd M`+M`+LQ X].SW tl.m' +;.za+e4@*4@f4@g4@h4@WD.Up.i4@j4@43@F#@k4@f3 _:.l4@:y m4@n4@o4@p4@q4@eN+*}  2 YF.n^.)R+C( *} oi x| (} s4  : %. (Z.&: &: +V.+V.cW.N|.=0.rk.-1.;1._*._*.(*.G> a3 Gv gd X7 0k ii T7 #z R7 q$.R7 cd qP E~.'f 'f _O _O dY dY qP R7 _0 _0 Y_ Y_ ${ Zp o$.!~.9/.,O r4@a+.kf+-C+-C+s4@W@.mP.xM.oT.MX. ]@mk !m Vl+=].{{ .. 9%.6r.qA.t4@z&+sp.u4@H`+yW.Yl.)} JP.AX+Wl++h+]=. ,@N=+dk+w @/3@v4@",
"w4@x4@y4@z4@-V.A4@B4@C4@D4@<~@rP.v`.B<@_:@E4@u!@F4@G4@0j H4@I4@J4@K4@L4@M4@dN+N4@gO.)}.;[@By+:i.O4@s@+P4@KU.yA Q4@R4@tP 1+.es.-a.S4@T4@,8.m2@@2@ ^@_4@;N+// Kg $f $f hH LT la.i&.`9.0i =*.m&.}! t~.qa Y1 G@ 0d G@ z5 ${ Lt ,R+4F :S !o <T.U4@V4@W4@nq+`X.X4@Y4@Z4@`4@ 5@.5@+5@@5@#5@$5@lf.r#.U<.oH.DB. <+#T H3@5T.5T.*r.R=.>Z :*.c..>o tR ;2 QD ,o %M iN O3.ix.c< hb+hb+&. cW.r2.,*.wa+%5@&5@*5@=5@_#@Lq.jO.}!.ji X7 `b %: ~4.=_.^m.V*+_++;0.~*.[c.-5@PI.}]@|u.ep.gp.K'.G> (Z.(Z.G> a! [C [C qi <m Rt xi a< D~.q^.q^.S7 {` R7 M`+_0 1+.JT #f Wl+_/ :x+.h+f|.IU+;5@>5@,5@8t./U+p5+=@@'5@ !@)5@~;+q{..f .M !5@~5@{5@xa 9..7..,m 40 40 S@ C( pK %M b< hk  c ix.1m 6%+(Z.&: G] E&@cW.N|.|u.;1.]*.~*.+-._*.6%+6%+9! Gv 20 }/ X7 <0 <0 T7 ys.cd BI.cd cd dY dY QW QW _O dY dY qP cd q$.y] y] ^% ^% D(.@D.)O ^T.cn+%'+Ae+kf+s4@-C+-C+v!+mD+I=+zG BQ u* HX.MD hY ;;+o4 %: K@ 9%.4|+wp.nf+3r.'t./c.(c.g:.h< ed Ny.Wl+xP.u- 7&.g}+>>+u @]5@LA+LA+",
"^5@)J+/5@(5@_5@;k+:5@<5@[5@7J+Bm+}5@Jl+6(@|5@15@bj i3@J_@'J+25@35@*3@_|@i}@}x+qM :T.45@|x+aP WW 55@DL+65@F/@,3@_!.D).$f xM hY X=@75@P3+*1.`u D9.// r( jx cH =c fx aF aF fx CG &;.Aa w).G).G).X&.85@(G (!.FM |! v$.{'.Z_ es.tP es.Sj.4F Mr $t 95@05@a5@b5@ZE+c5@d5@e5@f5@&Y.g5@h5@<++i5@Fx.'7._c.~*.6%.ZV dd $r.=c.`M.SX.r:.qR )` Q7 `1 $@.tK sK :*.YF.8W.P=.,2 ,K.I] u' 0! oL.-N.-N.`)+%5@j5@k5@l5@`3+n' s*+0R.2! =7.|>+m5@0=@^-@^m.7r.w8+;w.Oi.]m.n5@o5@H( if.BR.Gs.YV v8+ZF.02.&: >[.83 vP a< D~.D~.a< 2S :0 q^.q^.Fv Og Qt #z Fv sA 1V #f R7 Q@.<L.0&.v .l8+p5@q5@r5@s5@F,+D;+t5@u5@v5@1O pk YE 2S+Jw 1G zn+*: w5@XO :*.>Z qK Jr *} =} YF.Y+.li }L x( GG Rr ,D.(Z.,{ &: BR.ep.fp.|u.#-.pH.o#.*0.ZV &. z( x;._C }!.C] &N.J6 T7 :0 Qt cd @f N  N  s- s- +1.+1.s- s- N  @f #f K@.IX.@D.Mr /V A .]>+l$.BM.;x+j|.*@@1g+&}.&}.j|.Rk+k$.*T+$2@kY k&.vM hY 'V.Ny.{{ E> K@ 9%.9%.o#.Ni.B9+xk.wm+i< kR ck tB.Wl+P  ]=.7&.b&.y/+6{+2#@.s+8_@8_@",
"w]@z[@x5@y5@`!@2/@z5@A5@qr+No.B5@C5@QB+D5@E5@F5@hH+G5@J_@H5@I5@HM.*A 2O.cy H*+J>@gO.RT :i.+I x<@'. n9.p2.D).S +D).E).fY fY >;+X=@Hl.#;.=c l9.cH w).l9.bH w).]~.%J )o fx pP 1! ${ CG =c Hg (~.X&.85@/G *[.9< FM 9< 9< S7 q>.>` Ng wM e3 5S >;+J5@K5@L5@M5@N5@tv.O5@P5@Q5@R5@S5@N> T5@U5@)S.8%.9%.>0.M@ $. $T Os.*r.-c.r:.s;.;. !I $,.t~.rK &*.**.s#.a%.8W.R/.R/.+q .: 2/ Z  -].TW+-].I}@V5@Co+W5@W>@/L k&+U'+mb+{W.C$.X5@Y5@Z5@:3@-1.;w.)S.)S.Ni.r< r< r< o#.=0.a2.{~@`5@P3.4@@DW+,D.dE.vP bk _m a< a< _m JD sa q^.sa Og 'I Qt ys.'I G'.wM 2! Or Qt |>+FU.xM.j9+ 6@.6@+6@@6@#6@$6@!F+%6@ze+YC.&6@y%@2S+^'.VV sx+-M nU .J )` qR &*.,o $M ki C( pK YF.53 }L [C GG (Z.(Z.(Z.,D.gp.dp.BR._r.Ei.{*./*.dp.6%+9! A~.!_+}!.gi TR.X=.J6 :0 sa Fv pP ad pP L  s- #{ t5.#{ s- L  @f !m 4k .h+=C+]W.|[@]>+eP I@.BM.Wk+4R.u!+fG+u!+*@@*:.:+.q(..++`].e&.Tj.6F >;+ms.$].{{ @2 :% K@ 8%.!4.!4.=Y.-N.=N.,[.ed 0< &7.Vl+P  a&.!'.PT g}+0|+si+pf+*6@$)+Ge+",
"=6@<<@-6@K>@;6@>6@j @,6@'6@)6@!6@z<@~6@el S=+yB+{6@{6@A/@%r ]6@^6@/6@+-+_|@$8 HM.Di (W.~f fU+(6@}S o9.qd -*.z~.la.i&.>}.CG ^% _4@Zu JT )o >}.*1.,R+;}.,R+*1.*1.,8.q2.e+.7i Ev @z 8L w$._6@.f x).o3.',.u>.|! s- u> #{ Z1 q>.y4 ^C A] p$._W.ZX.*O V]@:6@<6@1n [6@9s.}6@N:@|6@@)+Xo.K(@q7+~*.]*.*0.>0.<% WX.>2 fL.*c.Y+.rK fH Q7 qa X_ vE hX {G vH $@.qR Q/.P=.'o x( 83 C> b! g_@K(@Z=.ju+rT+16@26@36@;V mP.~+@}x.1g+]p 46@56@$t+>{ o#.<r.7r.*t.3r.C`.wk.wk.Mi.Oi.+-.66@`5@HW+76@Ng.<% E5 xi 4+.4+.DM xi _m JD sa q^.q^.:0 T7 Qt hx )I G'.L`+]i.ys.<0 ID ZQ+yM.2|+86@96@06@a6@b6@c6@v].0b+E#@d6@e6@#C+f6@1L+k<@(!.(G !G v] jH eH |Q qU 00 YF.p9+4T.q;.,K.6/ l< {} t`.G] WX.ZV gp.gp.za.if.4|+]*.if.gp.t`.0!  $+-Y.&N.W  5! t< J6 sa sa Fv pP pP G@ L  s- #{ #{ #{ L  N  Mg di PR+Mh+wW+wW+M(@g[@rI.nW.4R.hi+hi+fG+1g+*@@nW.rI.$:.8/.<+.~S+z] )V.ms.i8.b5.4/ L> F> r}+:% :% E> 5L JJ 2L -Y.-4.'V.<L.)Q+8&+a&.dT+2X+vJ  ,@0R.)V.2L Tg ~4.qL.",
"1C g6@cK+h6@i6@j6@k6@>C+l6@m6@sv.n6@aT+o6@p6@q6@r6@s6@t6@u6@]6@!2@,!@v6@JG 73@,1@Vr V]@$4@`Q+o9.u;.qd ~++z~.$;.N5 |=.=c &;.>m ,8.w6@Cv t>.%J ;}.$J $J ;}.,R+*1.q2.DO+4G 7i 7i w$.4G .{ v{.Zo+Hg x).',.&[.t> {% k' #{ Z1 Z_ >` wM -I 7&.za+ Q.r(.u`.]S x6@y6@z6@A6@B5@B6@N:@C6@dk+D6@GX+#-.]*.>0.#-.v8++G.)r.fL. 4@E6@t$.8i *9 (/ sH qs. @.iE.}Q `S ~p.F6@E6@(m  q }L YM.I> K(@Z=.oL.A/+ms.yY+G6@H6@I6@J6@3G+.u.o .K6@L6@B).>;+CM Rd.up.&t.8D.>w.&t.]m.Pi.Nn.^m.8%._c.`:+M6@P:@WX._c. : qi 6L _O 'f (m xi 1S :0 sa q^.q^.T7 Og Fv )I EJ B .L(@T7 |} X+.Hl.7_@Y@@N6@O6@P6@Q6@R6@S6@T6@U6@C#+V6@6u+kK+g4 W6@X6@Y6@}+.e+.n%@&z ZI ua q4@o2.E6@/m ek.'m Z6@P@ l< ed F] G> _*.>1.BR.a2.=0.=0.)h.]*.;1.|u.B( BM A~.zl.j* A> zM t< J6 sa sa Fv L  N  L  L  s- s- s- L  pP ad !m PR+.%@5x.'T.A2@)T.3R.nW.*@@fG+:Z.~i+~i+`6@k|.3R.g[@IQ y(._V Lt VJ.2L Tg b5.A( :% r}+Rd.]c.L> 3/ %: +$+2L  !+[L.[L..3+91+V'+PT 2X+k&+!U+f`.g}+co+[n.CM L@ 4r.@t.",
" 7@q^@x5@*5.K>@.7@v$@+7@m`+@7@*'.~+@{O.#7@$7@%7@4n o6@&7@Lv+$r V6 {I R<.1 @*7@=^.LM *q nY .t u;.HD qd D).'G jH 4=.4=.Yb aF Up ,R+p9.4F $J KD KD $J gS+gS+%-@%-@q9.q9.t] _S NJ rV+rV+)% ,!@)% =7@-7@',.&[.t> Q7 FM |! eY (C Ve.)Q+-'.aP -'+-C+:+.M(@~W._L.k}@;7@>7@,7@'7@)7@!7@~7@{7@_#@J4+;w.=0.]7@3p.;1@Ps.)r.oK YF.-Z 9i ~,.sH aH 3B ,G i4 uK ]G %4.qR B5 a< d< 53 nL.`  x9+h%+H'.js.ms.^7@/7@(7@_7@:7@0A+<7@[7@<&.u!+u`.C).d< (r.Ca.$t.}7@&t.>w.$t.;t.]m.C6+o#._c.Hs.3@@0O. . .. {{ :m DM _O 'f dY t| 1S :0 :0 1S 2S :0 <0 J6 J6 )I #^.#^.T7 y| ,m .^@Jv+#V.DD |7@17@27@37@S6@47@0b+57@67@jA+;;.77@E[@f6@NJ x<.4S 4F q2.9i WO V6.U:+=} ak ak ek.53 .: Gv L6 F] G> _*.>1.=0.-1./*./*.Ei.@-.*0..4+%: }n.Y  x*@y- y- j* TR.T7 :0 :0 Og L  N  L  L  s- s- s- L  pP Mg di a/.O&@b1+87@|l+2R.4R.u!+~+@~i+97@rm+Lh+`6@k|.BM.uI.$Q+p<.~I eY JJ =N.F`.pW.pH.]h.%0.wa.,Y.,} @2 `b {u.Ve.p$.]i.1n.Xd+:2+R  +++;%+S'+<v+1>+07@}L.-Y.D| Xd.pp.F9+",
"a7@b7@c7@fF (j+1O 3S+nq+OK+q9+e4@f|.d7@e7@f7@Xz+n|@/p g7@vP.Vr /6@{I ,!@h7@i7@p3.fP mr+s<.U=.u;.t;.gY rP xA jH (/ xA ya+)o Lt *1.;}.t>.;}.KD t>.$J %-@%-@%-@gS+/C 9+.tA yP e+.XJ.D$@h7@f6@Zo+=7@.f ',.GM #{ #{ t> Y_ w] Ue.fi CJ :/ &Y.*,+i~+j7@kP IQ i`.7m Dm+k7@l7@m7@n7@o7@p7@q7@g* ms.E> jE.'m.,k.r7@8W.R=.4T.=[.z'.zn.h#.T +y'.OM.x'.#D 5..!_.&M ;2 *} +0.Zb ix.t`.%: B( ]m nL.3L nN++s+oN+s7@O5@t7@LE+u7@LE+v7@ O+O&@uM %z >} ,7.&t.w7@Fn+T5@T5@Fn+Ni.Qi.+-.dp.Ov.03 dE.>{ &. =_.`b _m xi Rt 33 &} JD q^.T7 2S JD :0 0k )I T7 Fv </ CJ @3+!_+zM bi+kP hD+Gz+x7@y7@z7@A7@B7@C7@D7@E7@F7@G7@G7@Zt.bN+H7@G6.I7@Y].s6.i>.]~.qR 8f.00 ^m &h.<!.[0 }L  q ]} G] G> _*.ZV ZV 6%.$. #: #: E> B( 5/ 0! A~.J7@tW.;.+v|@ 4+%N.|n.Fv E~.E~.Q7 Y1 Yb O=.N  RQ pP SQ Mg (V !~.eP Z2+2R.AU.K7@K7@:Z.fG+u!+~i+:Z.~i+u!+v!+vv.&O PR+@D.z(.}V $].b5.dE.rL.pW.J4+#-./*.0%.#: >9 83 My.jO.W%@zP.&Y.^'+;!@,V.*Z.!U+2&+2&+sw+~'+}l+a|++3+.$+=_.(m.FH.0%+",
"Cq Zt ka &8.-F+[x.i<.5R.j<.v . C+L7@M7@N7@O7@P7@4n m`.Q7@XQ pM R7@i>.R7@}3@v<.oY Eq.mk 3=.KD +f %J cH fx aF M@.M@.CG Kg N@.aF M@.)o )m KD <S 3=.3=.3=.<S $J $J KD *1.n%@DO+%J ;}.W_ TC r<.-}.r<.x).M|.&[.*9 *9 r| Y_ eY eY eY S7 qP C).D +sM PT di SW 7k )5.qI.#}.S7@T7@U7@V7@bA+W7@X7@@D.!G Y7@>D+B` T +ns.h#.jx F=.dO+Z7@LU.A;@3x+ ^@[! Uu RM..T c^.B| {G.qx.jk.~0.p#.{c.Is.KJ `b hk F> a! gs.~'+`7@ 8@.8@+8@@8@#8@$8@zj+<z+@;.=].L6 uk.(m.-t.z8+tL.sL.Ni.wk.^-@%8@s*@Tg oL./1@h<@|%.H`.Ge++$+-7.JD sa {` 6+.iH S7 6+.,c.Og 7F C] gi ik 2L &8@*8@=8@gs.Nr 2< -8@v>+;8@>8@,8@'8@)8@_~.!8@~8@{8@]8@^8@/8@(8@_8@MB 6i :8@a* >a.sH WO qR *].v;.W  ^,.hi K'._*.u8+_*.ZV |0 E] b< Hv 33 S7 &7.|>+ p.v|@~i.UR.<8@[8@3! 3! CJ q>.qa }8@XS |8@R@.O=.18@Ev r|.(O.qP.I@._%+*@@{A.~+@s9.W3+C4+$u.rm+mq+28@_+.Py+vv.:A.B).9&.+q+{m =].!p.dE.}>+}>+L@ $: 4/ '1.4L s @sW.x @9C+cq+BY+x0+38@48@58@lr+68@!$@i~+Zy+c1+S'+V%@oN+78@(R+H`.[j+Qi.1++|++[++",
"88@}:@b`.B<@~;+u$@t(.u$@5R.s4@98@bq+08@a8@N7@b8@c8@m`.x6@45@v<.L .L .u{.Z@.Z@.XW <o Wg n%@// Aa N@.]~.fx Kg N@.RW CG =c %J aF CG )o ai KD 3=.3=.3=.3=.<S $J $J )m KD >}.%J )o N@.l9.r( o3.r<.r<.x).7L GM G@ G@ r| Y_ t| t| `1 dY E~.q>.FU.n>.8&+2! ^% #f bi .h+;x+d8@e8@f8@g8@h8@i8@2j+v*+zV j8@wu E$@E$@ )@E@ ,R+k8@DP.^=@Hl.P3+.^@l8@Jg rs.Ks.ex ^K.-)+Ax.f|+Ci.v~+C- q#.f< Rr E| k4 +2 ;} m8@n8@o8@p8@q8@r8@s8@t8@u8@v8@w8@x8@vb.ms.R3+&t.B`.y8@z8@A8@C6+HW.Q>@B8@M> 3Z.Z=.+$@`)+4Z.07+07+H`. $+ik sa {` 6+.L  G@ qP {` EJ w;.'2 ,9 ]o H5 C8@D8@E8@Gq.Ue.tw+[V+Pp.F8@G8@H8@I8@HP W_@J8@G6 K8@L8@M8@N8@O8@P8@Q8@h+.pg.R8@OJ `u `S `I Ai 4p+rW+F| [0 &. DB.tk.{c.v8+.c k4 `1 w] v> =9 gx +h+]T.bn+W'+S8@*;@`3+z> BJ 1+.&;.&[.T8@U8@V8@W8@X8@t6.r|.&` ]L.2Y 3s._I [:@ql.n6@1{+K7@Em+Y8@AU.Hu+b1+~>+O&@:=.tM (L DJ  p.w( E5 6(+}p.,7.w|+@. ~4.4/ l}.1L Yo.Oq+]5@Z8@xZ+w(@`8@0#@kq+q~+1J+87@rm+~m+,T.='+!-@/% cq+ 9@*6@3Z.D`.~z.;t.=-+:++",
".9@n(.YC.+:..}.&:.I@.$:.(N+v!+v`.ou++9@@9@#9@$9@/p nT+%9@;2.h@+)L ,a.:o 'R+.z ~S+EG u{.@f ]~.Kg N@.>}.Aa )o Nt &;.M@.]~.]~.aF &;.)o t>.t>.3=.3=.4F 3=.3=.KD $J Lt )m ai ai Kg )o =c >}.o3.o3.o3.Hg 7L GM L  L  r| r| t| t| `1 E~.P@.D .0|+07@,;+6F x] q$.bd )O nW.&9@*9@=9@-9@;9@>9@,9@'9@j2@Vq J  V_ J  Ws w6@<S )9@!9@eE+p2.R4@R4@~++_!.&4.2..|} k}+-9 fk.E~+lk.Ei.0%.E> o4 V7 Pr %z u( 2V+#,+/^@3[@~9@{9@]9@^9@/9@G%@(9@_9@:9@<9@t @%.+Fn+(m.[9@}9@|9@hp.hp.l%+M> 9%+F`.+V.TW+Tg Ge+07+07+`)+ $+ik q^.{` 6+.r| s( {` Z1 =4.>t+$k+[/ Kq.19@29@39@49@59@Vl+69@79@8t.89@99@09@a9@HP b9@4D F@ |O c9@d9@w;@e9@u]@f9@g9@qY h9@`_@jx `S 9i NQ 12+kX+i9@-. hb+u8+u8+Zb *2 k4 q^.7x.N @aD++;+SW FU.h>.W'+Bl.bn+CM.CM.BJ BJ 1+.+f TL+j9@k9@l9@K1@v5 @9 nm+oI.2Y #2._I ~+@Lh+Lh+%$@~i+mq+~+@-C+Py+1V+S3+`d+&Z.v- c7+A] (C 'V.CM s2.xp.#. wm+Rd.+. .. j< L6 ls.*Q.si+m9@}l+Wd+n9@~$@bu+bu+k+@*,+,T.1g+v!+vv.nM U%@07@si+AI.ms.b5.xp.~z.>w.P*+]M+",
"p6.ZC.o9@Dm+<x.)W.)O.r(.u(.vv.68@nP.p9@q9@r9@%{@cl s9@Xg lO+)L m%@V_ [S m9.+t lk D$.s<.+f r( &z )o )o Kg &z >}.%J N@.&z >}.aF aF Kg Lt 3=.4F 4F 4F 4F 3=.t>.KD ai )m )m ai N@.N@.N@.)o x).o3.x).MJ 8+.u>.L  L  Y1 r| t| t| 33 E~.!I wg.pT+KK+ 3+{m ,I $f C).6k rI.<j+B4+t9@u9@v9@w9@x9@Lv+DG &I h@+y9@.-+z9@Zu m9.)++A9@l8@v(@A;@l8@3+.B9@C9@ID V7 n< YV x@+_r.4|+-1.*:+a! b5.gi PQ BJ :2+S'+0_@[#@D9@E9@F9@[F G9@Y[ ql.]p H9@I9@J9@rT+'*.nf+(m.f5.K9@L9@_++n5@Fs.a2.=Y.pL.B&+N|.mi ,1.H`.`)+ $+(O w( }/ Fv 6+.G@ HG {O I6 2F wg.AI.VJ.FG >d+M9@N9@O9@]'+w> oX+P9@Q9@89@R9@S9@T9@U9@V9@OF+v6@W9@X9@Y9@Z9@MF `9@ 0@.0@xK+e6@*3@D9.mX a%.D .es.$;.af.t:.){ s4 s4 O3.B5 :0 Ue.C(.VU+Mr *2._H.,~.j&.EM.EM.=I {:.wM $I $I +f @z Wb Wb /5.s3.IW sZ+PJ.D#+#2._I {A.Lh+~i+mq+mq+sp+sp+d}+c+.T'+x/++0@vJ R  0|+&;@)Q+jO.ms.Tg D| =_.=_.,7.2K.r}+r}+j< w| `b ls.*Q.#l+Z>@}l+Wd+ek+U'+U'+1]@S3+uV+R'+R'+&T+!U+:=.V'+{,++>@|V =7.Tg A`.Mi.C`.t4@@0@",
":3 #0@Aq.$0@/n.7m %` *}.CQ )O.Rk+`g+~i+ 2.5} %0@&0@x6@Vr ;~.5_@,a.;a.,R+n%@q2.tb.tb.+t Cz *0@_4@Up L@.Up @2@=0@ ^@DO+;}.t>.>m ;o )m 2k 4F s<.D$.D$.4m 4F 3=.3=.t>.)m )m ai KD KD )o Nt x).o3.x).MJ 8+.u>.L  L  Y1 r| t| t| `1 E~.!I ID -0@ap+yl.pT.p4 'I Ng 6k pP.:Z.;0@>0@,0@'0@)0@!0@f3 :H.=O gO.]S+~0@,'.Z@.$q ^=@[T.`|@nW+nW+_!.S +x~.{0@[L o @[% .(@[]@a2.r< l%+EW+w' 'V.VJ.8x.0|+k+@&$@D4@bC.-{@]0@e)+[I.r'+^0@/0@u6+lY (0@(g+_0@R3+/m.C6+:0@<0@o5@>0.x@+ep.BR.@: M@ _*._*.l* mi -N.`)+(O (O w( _C Fv )I >. N5 >. {O XI uP $k+[0@}0@|0@X-+10@20@{'+)Q+~W.kd+30@40@50@60@70@U9@80@90@0L 00@x;@a0@mO b0@r[@c0@.0@S1@h9@d0@r( iE.rK qa Aa &z C .3%.40 .2 ,m 43 !I S7 (0 Xp &` Nv z .%` o<.iO.<+.Uo./~.JT Lg +f xP yP Wb {}.k:@@O+g3@Bn+e0@f0@f0@rl.rl.H=+H=+:Z.AU.lq+x!+O)+>%+&h+g0@V-+m8@%{ ;I xv.[n.-4..$+Tg s2.xp.=_.L@ ,7.'0.r}+,Y.}*.K] _m `_ uA )Q+yP.0&.2]@1>+Mh+Mh+.%@b#@&O b#@b#@^T. ;.7&.co+oi+)V.ms.|%.i8.A`.xk.3r._,+h0@",
"l| ei+d|.K^@q|.o(.Xt /O.i`.p(.)W.*:.&:@Mb+-V JU+i0@EQ DQ w<.l&@kA+%-@&z l9.&z KD KD :o =0@{++m2@;o L@.2k yA dO+@2@,R+ai )m ;o )m ai :S 4m D$.D$.2V 4m 4m 4F 3=.)m Lt Lt )m ai )m Aa fx o3.o3.o3.Hg 7L GM L  L  L  r| &} &} t| dY 5+.%z xl.7(+j0@x;.C> M6 Or u- &O pA+wq.k0@l0@m0@n0@o0@RR.)}.)}.s|@V#+NT ~f k9.^:.u@+p0@q0@2@@'` i#.(o ;c.Z^+bL.r0@YX.aH.-/@[]@=_.D5+s0@X/@Vk++3+W%@b&.5x.8x+t0@x<+]y.4=+:)+u0@R,.a)+Xo+ka 4V 7g+S;@~z.4r.wk.:]@v0@:]@4Q.#-.Fs._,.gp.Is.6%.r#._Z p#.$: ,1.wa+Zo.Zo.IJ ik Qt )I |=.iH qP 6+.EJ ,I w;.w0@x0@!k+y0@y0@z0@Bp+AJ vM.j9+Nu.A0@B0@C0@D0@'o.E0@F0@,1@G0@H0@I0@s>@J0@yC DF+K0@L0@h9@=z +{ nU {G s( 0F v] m#.}Q ,Z c..t$.)` D .ad /V &` o( _! M0@,% -8.`~ z .YW r{.t] 5G -` {0 N0@k:@ma |.@O0@9b+Z~ P0@s6+F#@Q0@Q0@tp+R0@~m+sp+D!+S0@,%+T0@U0@V0@/R+v`+[/ ks.JJ |%.i8.xp.E`.$: L@ ~0.,7.o8.'0.Rd.Y^+K] K] vP JD v( -u.x> Q  [=..h+^T.`>@Mh+.%@a/.)~.)O 8&+8&+,;+)Q+*Q.@3+b5.i8.D| #. >t.6r.z&+z&+",
"1&+#2.-F+_M++}.7/.U_ HT y<.xb.p(.rI.~O.Kh+A.@RL+W0@ok L @_g+@t M#@F@ sH ]~.=c Up Up ai L@.q2.t>.Up >m ad Lt t>.*1.Up Up Lt ;o ai KD JT 4m 2V 2V 2V 2V D$.4F 4F Cv Cv )m Lt Lt Lt Lt Lt o3.r<.r<.x).7L GM G@ G@ L  r| &} [V &} 33 O@.zi X0@Y0@Z0@TW+t`.Gv hx +h+v).hi+NR+/{.`0@ a@.a@+a@2n BT 9S @a@]C 6S Wg .z P3+#a@$a@z'.[!.X+.!,.jZ+[0 ^{@%a@&a@bT.Z,@*a@V*+~4.E&@=a@;Y.-a@0R.X'+oM 3s.d%@T-.kQ+Mm.;a@>a@,a@'a@)a@!a@~a@{a@8O.]a@QZ+tp.Z,@^a@/a@(a@>*.WX.&. G> K'.4% hd y( y( -9 D| ,1. $+Zo.Zo.IJ w( Qt )I Cd.%z PQ 'I z5.|>+=4._a@:a@_% <a@[a@}a@|a@:-@-I+j9+1a@2a@3a@4a@5a@mm.5).6a@J5@7a@C$@*!@PY 8a@9a@0a@F~@aa@ba@=A 3B hX nU SO G6 G6 vH @M eN u> }C CG ad /V !5.Y].Ub A>.ca@o> {/ o{.Le.g' VQ HM [O #9 5&.LW da@O0@ea@fa@^j+ga@|(+ha@yj+bh+yg+~n.ia@ja@D!+ka@la@ku+ma@1#@JW+=N.E`.mi i8.D| xp.=_._c.Qi.4r.4r.,t.,t.@t.tp.n8.^k.c%.c%.u~.[V M`+O  We.@D..h+IQ vI.l$.uI.uI.)~.~o +h+-u.m' wv.|>+~u.-7.i8.s2.~4.9%.6r.6r.'t.'t.",
"-8.<x.<x.D|@'r+!S 9Y *` [O )5.|[@s(.Rk+ql.na@oa@FQ @:.9R.u<.X].gS+=~.X_ X_ )o Aa ai ,R+ad ;}.Up >m 2k (0 +f ;o Lg @f >m )m Up ai $J 4m 2V 2V 2V 2V 2V D$.4m 4F 4m 4F t>.ai Lt Lt ai t>.r<.-}.r<.x).M|.&[.*9 *9 G@ Y1 &} ~` [V `1 E~.hi is.+5@B~.(,.6%.t`.sa 2! )~.&}.mU+pa@qa@ra@sa@ta@2n KF. ^.K}@]C HX.~f rJ Hl.jR.zn.-Z !,.Q=.P=.Os.n* [% ua@va@#-.H( Ki.wk.(;+D> QF.wa@xa@TW %Y.k$.k| ya@za@Aa@8q.Ba@Qz+^m+,a@Ca@Da@Ea@Fa@gp.Ga@Ha@zO.Q3.Ia@Ja@M> Z=.z( I> ]m 4L [C 1m 4% >} @2 }>+$]. $+}n.Zo.IJ w( hx )I )I zi ix ,c.z5.z5.gH v;.)Q+BN+Ka@[a@La@Ma@m6+..+~/ Na@Oa@Pa@Qa@Ra@Sa@Ta@Ua@&N+Va@H0@I0@Wa@G4@F4@K0@H4@Xa@Ya@H*+3B nU *M 5y DE TO AK |3 }! *9 1! O  gx E6 wP.la iM o{.o> &5.Za@o> n_@>i.7d Je.f4 ^Y+`a@[v+ea@ b@)r+^j+CS+|(+@(@.b@YH++b@7J+@b@#b@D!+X)+)z+$b@k5@%b@*'@&b@=_./m.Xd.r< 5r.4r.4r.vp.up.up.up.up.,t.@t.tp.n8.^k.*b@c%.u~.&} Z_ O  o$.IX.6k =}.(H.]>+ZX.&++IX+{M+_/ Ue.l' =].;;+*7.F5 dE.A( 8%.;0.;w.wp.1r.'t.",
"FX.u6+Cm+[E.]S s] y<.UQ N0@*a.GT !O.IF.=b@-b@$9@_I e<.y .r{.tA kA+=~.=c ]~.=c M@.L@.+f Cv Cv 3=.3=.1V #f ;` 4m :S !o ;` JT JT !o ;` l&./~.%q %q 5F D$.D$.D$.s<.4F 4m Cv 4m )m ai )m Lt -}.o3.Hg MJ M|.8+.G@ G@ L  Y1 `1 &} [V &} 33 p4 is.;b@I'.(,.@: #: xi KT+8&.;x+mN+>b@,b@'b@)b@!b@K +~b@GD @a@{b@]b@ t l~+D(@^b@/b@pd ki aW.Kr 18.7u.jL.(b@G>@&F+Q!+x@+.4+,{ /++_b@:b@<b@xQ /H.l}@[b@}b@=o.'*+|b@1b@2b@3b@gb.4b@5b@6b@ t ep.7b@IY+D&+8b@9b@FW+nL./++X=.&N.0b@&N.1S T7 k4 qi E5 D| $].Ny.*7.-7.IJ ik C] TR.^,.TR.)I Fv cd LT $a@ab@B .bb@CZ+Y-+cb@O9@ .+.;.j9+db@eb@fb@gb@hb@Ej ib@jb@fy kb@lb@mb@j3@nb@6(@&)@aE+]6@cG+E@ uE wH kd _Q _Q mH VV F).,,.G@ N  bd !m ':.r6.B@ ob@pb@=o Av qb@,r+0V E]@rb@[.@:v+|F+sb@_W+tb@D#@ub@9* ga@]9@vb@wb@xb@aq+yb@W)+zb@j~+M=+s`+Ab@of+='@_0@Bb@(m.pf.4c.!t.{w.{w.!t.,t.~w.up.up.,t.@t.'t.qA.pH.nn.*b@b%.-[.EM eY ${ D(.o$.)O lP lP lP *O $Q+~o ra Ue.3F |H.MT bk o4 E5 %: E> ~*.#-.@-.n8.'t.2r.",
"kP #` [E.RJ.]L.s] N0@#9 na *` 8Y !O.IF.A.@Cb@Db@`1.DP %` &2.(V @z !:.M@.Nt aF ad +f Lt l&.l&.4m 4F 1V Mg !o JT OW ;` :S JT OW !o ;` %I MD nP jM jM /~./~.2V 2V 3=.4F 4m 4m )m )m Up ;o o3.Hg Hg MJ M|.&[.Y1 r| t( M  &} [V [V &} 33 J6 6Z.Eb@a=@fp.q#.(*.Rt Or 8&+b#@Y2+Fb@Gb@Hb@Ib@Jb@Kb@fT.8S F .]b@Lb@r@+&]@B9@-m.q;.,m ,o =c.<C W7 qn.=3+Mb@>G.hf.U*+Vd.>[.9k Nb@Ob@X=+F*+iP ~A.Pb@Qb@Rb@Sb@AC.Tb@Ub@Vb@Wb@Xb@i9+ZA.Yb@Zb@h<@nf+`b@ c@.c@ta+z( /++;.+rT.V  {i.&{ u( |n.)I q^.0< |%.Ny.*7.-7.-7.IJ ik C] pT.zM X=.PQ Og _0 hH E).NQ $I uW++c@@c@#c@$c@AI.Al.`o+%c@&c@*c@=c@bI+d>@-c@H3.Ty+;c@>c@aK+,c@cD+(p 'c@{;+Di OJ W_ O7 )c@;T (y 3G _Q RS oN F~.qa L@.#f c/.:H.q6.=8.ob@O .!c@Av 6o+>^.M}@l6.Jt+0V _:@fa@tb@~c@d4 Z~ Pb@|^+Jy+{c@]c@^c@aq+$8@>W./c@(c@+l+zZ+_c@:c@f8+i8.=_.r< pf.'$+wH.vH.qp.qp.!t.~w.~w.~w.,t.@t.tp.'t.qA.Ei.nn.*b@c%.k}.4+.Z1 1! gx We.@D.l3.mP mP $Q+$Q+{M+M`+23 JD `_ _m bk n4 n4 E> 3/ #-.;1.=1.pH.qA.!w.",
"i`.qI.qI.{L.7Y *a.N0@#9 {0 s3.KW IW D#+<c@[c@}c@9<@pB.ok :L.*2.X].8L ;o Lt Up Lg L@.;` JT OW JT Cv Cv JT OW JT 1V JT JT 1V JT :S OW /~.MD nP nP jM jM %q /~.2V ;8.s<.4m Cv Cv Cv 1V >m <O E .MJ Hg ',.8+.G@ r| t( t( &} [V [V [V t| q^.J`.4R+J'.J4+:Z )4.;2 Fv t- a/.=F+K6@|c@1c@2c@3c@4c@1x+3{+)2 5c@6c@.^@7c@A>@D>@X+.P=.)r.Uv.Ob.wi.h^+=3+8c@9c@I*+@: 8O.+$+rT.0c@.r *:.4Y i3.h~++B.ac@bc@cc@dc@ec@fc@O~+@1+j)+gc@hc@ic@k~+^[@jc@kc@lc@`[@M6 TR.w;.=Q.=,+2V+mc@c7+8&+:x+C).x] <L.ya+~u.-7.IJ -7.(O }n.*N.|L y9+pT.ID Cd.sA ,` Kg N  ;}.nc@oc@pc@qc@Do+s @e#@}x.Gz+rc@sc@tc@uc@vc@wc@l2@-p ;3@8l xc@yc@^+@Xa@zc@o@+Ac@u] 3B &D lB *: PE |G iX -f SL+k' *9 Ng ;` jM Eq.q6.5Y EW ,i.n- 9m W{@Bc@Cc@Dc@Ec@Fc@Gc@Hc@A@ h/.k6.Ic@yj+Jc@Kc@Lc@Y4@Mc@Nc@Oc@Pc@H<+oN+0j+pf+G!+&.+2++!$+~z.;t.'$+a%+}++}++qp.qp.~w.~w.,t.,t.!0.'0.4|+)h.Ei.]c.,Y.Qc@K] PD vP |H.l' _O.+h++h+We.~o ~o Yp {~.Pt Z_ 2S `_ MT L6 L6 {{ {{ M@ #: F> wm+o8.)h.V<.lf.",
"=}.eP eP ^S s] r|.na <1@{0 Rc@@9 IW g&+&k+Sc@Tc@3+@Uc@0S BT <+.L .t] Lg >m )m Cv OW #f :S ;` ;` 1V 4F 3=.4m l&.1V 1V 1V 1V JT JT l&.D$.%I jM %q %q 5F 5F D$.D$.s<.D$.l&.l&.Cv Cv 1V JT Vc@<O x).x).G).(~.(/ *9 r| Y1 33 t| [V s| s| `_ A/+g<@|!.(;+J` wi.OD 'I `P.B).Eu+Wc@Xc@Yc@Zc@.Q.`c@S/@EM. d@&)+T=.MQ ,3@#:+dY+l4 gN En.!k..d@b3 k* +r.+d@@d@#d@Kq.Ml+;u.:2+%O XQ+}L+$d@%d@MR.&d@*d@=d@-d@;d@>d@Hu.Yf ,d@C4+'d@7/.4k &;@[Z+)d@!d@~d@/} X=.y- {d@*;@#k+G +U%@G +1>+ ;.b&.Q  mf+p$.=].IJ IJ IJ (O Zo.8F Jq.Jq.J7@1} jk gY $;.Aa Yb ]~.j}@]d@^d@/d@(d@`=.%N.}2+_d@:d@<d@[d@f0+V_@}d@|d@{Q *p L3.hA+EI+J4@9l Ya@B/@fR.OM.qE ;G 1d@2d@3d@kZ+Pz nN ZO dx {O >` 4F *I =O iO.rg.Kj.nb.&a.Za@wQ 4d@.a.5d@6d@7d@i6+8d@t$@9d@KR.ZN+0d@ad@bd@uo+Nc@cd@eu+dd@ed@4g+#)+i7+wa+{$+qL.nu.&t.&t.ZI.wH.wH.}++}++pp.~w.~w.up.,t.!0.'0.4|+)h.)h.]c.]c.,Y.QV+QV+dk bk =].|>+Wl+m' xP.+h+{M+Nr Nr VU+_O.#z JD MT %} L6 `b {} k< #: @: J]+r}+4|+{*.lf.V<.",
"jY IQ ]>+IQ JQ r|.Wb ZJ+fd@LW }.@IW OJ.2G+gd@hd@id@jd@kd@di+S@.Qj.^/ OW Mg D(.#f JT D$.:S ;` ;` OW Cv 4F Cv OW OW JT JT :S :S OW l&.2V %I jM jM %q %q 5F 5F b/.2V /~.%I %I l&.Cv l&.1V TL+Hg -}.o3.(~.G).}C qa Y1 L  dY `1 [V ~` s| `_ s @5Z.]o <% -9 P6 pX T7 U=.)'.6x.[|@);+ld@md@$2.n&+'. U=.#;.3x+nW+Vg ID RU.xn.s4 3A.c3 nd@od@WI.=_.Z6@bn.-K.pd@v|@i* g* vo+qd@rd@KR.Gz+Dj+sd@td@ud@vd@wd@xd@yd@zd@mT+Z)@6u+q<.w] JD F| Ad@Bd@Cd@Vk+gi |S Dd@o' N=+9p+Ed@n6+*,+1V+<v+O&@za+bR.Rv+uA `_ IJ -7. $+(O J`.js.J7@-h+ S.jk sA cd Yb Y6@O=.t>.iu+SW+Fd@Sr+(;+20 -T.Gd@Hd@Id@Jd@+l.Kd@Ld@WF.)y Kz by 2O.Uq <8.Md@Nd@H*+CI.Vu rE E( Od@9H 3d@kZ+TV kd @c eH ~O W=.Bi WW ]L :L.%` +}.5Y Pd@Eg gD+6<@Qd@,^.=%+1*@zg+Rd@.K+Sd@Td@Ud@Vd@14@Wd@Xd@Yd@Zd@`d@ e@^7@pf+.$+-N.F`.Mi.5r.up.up.up.!t.~w.~w.4c.4c.~w.up.)0.)0.!0.wm+Rd.r}+]c.L> '} L> ,Y.'} '} {{ L6 -7.~u.<L.}L.}L.e#@xP.xP._O.w> Wl+uA ls.~u.~u.IJ 83 x| hk 3/ $. gk.fk.Ax.Ai.$0.2K.",
"7k g@+lP =}.Qj.r|.Wb ZJ+fd@.e@3< IW +e@@e@#e@$e@%e@Gy.i0@di+mr+B<+RC *z p9.Zp a#@!m lk JT JT :S !o :S 1V OW Mg JT l&.JT ;` Mg ;` JT MD ^` ^` ^` nP nP jM jM %q 2V /~.%I %I l&.l&.1V JT E .=~.i' Hg 8+.8+.qa L  Y_ r| `1 t| [V [V t| hx sW.FG 0! M@ 73 ,} -2 MT |+.h>.0/.-;+&e@*e@=e@KX.-e@A;@tP _0 LT _u.;e@St E6@nX #T $r.<=@>e@,e@18.ik 'e@Nb@v|@)e@!e@Wd+%;@~e@;F+{e@]e@^e@/e@4C.(e@)v _e@>K ho+:e@<e@[e@'}.}e@s5.QV+di.In.|e@1e@2e@_b@ p.rW+Ob@#k+V%@3e@4e@sp+5e@sp+sp+}2+}2+5x.,V.Vl+`_ IJ *7.+$+BM nN+J`.8F J7@1} xr+$f l' <H.}H.`{.pP =,+RW+*5@6e@;w.]m +++qr+7e@8e@9e@0e@ae@be@Gs ce@;D uw `L 3f.de@L4@[8.[8.Vu pE ;G Od@ee@fe@ge@he@ie@c^.WO {_.FJ v;.U=.`P.nP #O wI.o(.Wr =8.h9.NM .a.Y7+s!+je@|{+yX.ke@le@me@ne@oe@pe@qe@re@se@te@ue@+,@.s+|V 4Z.=Y.{4.n8.@t.!t.~w.4c.4c.4c.~w.Ca.4c.Ca.Ca.up.,0.,7.w|+wm+r}+L> G( G( '} h< r}+L> '} {{ >9 IJ ls.@3+wv.}L.)Q+e#@m' _O.w> ND VJ.~u.~u.ls.w( _C  q hk $. <% C- @0.BL.b++wa.wa.",
"Mg (O.(O.(O.*2.{}.Wb y).d|@ve@m| uM.we@xe@Ly+ye@wS+l@+ze@_A.o<.qP+o`.Ae@J-@Vt ;8.MD jY %I /~.MD SW 7k /~.2V MD ;8.k9.lk MD 7k E(.MD E(.^` 8&.^` nP nP jM jM jM s<.2V /~.%I 1V JT :S ;` !:.o3.o3.B(.}H..'@*9 Y1 M  M  &} ~` s| ~` t| Qt 7F VJ.IJ [C -9 i< D5 bk Q@.n' 2X+Be@Ce@De@Ee@Fe@Ge@He@D .>. '` NU.Ie@R/.D~.ni hd @T bi.,f.Je@'r.=4.Ke@:b@a|+C' yT 1J+Le@Lo.Me@t0+Ne@.y.Oe@Pe@Qe@Re@a9.Se@Te@Ue@Ve@We@Xe@Ed.-9 'h.Ye@a{+RP.|p.n^.jk wg.lX+}^@Ze@>%+O'@5e@3J+3J+z`.98@0_@`e@s4@F.@Wl+MT -7.Ny.JJ JJ A/+nN+-.+s @TR.zM R7 Ue.RQ GM  f@X&._L .s+Dn+.f@zO._*.1d++f@@f@#f@O6@ON.$f@%f@&f@*f@=f@;D bB 0B 3B +{ +{ 3B yn.)Z 0H 2d@-f@-f@xa he@ie@o2..T t:.jk e1+V=.@;.5F >~.lP IQ [o EQ b`.TO+CS+;f@$B.1l+<F JJ.>f@,f@'f@)f@!f@~f@{f@]f@^f@$b@/f@(f@.$+Tg E`.9%.o8.!0.nf.Hi.%J.%J.qp.!t.Ca.r< (m./m.Xd.~0.w|+wm+wm+K@ '} G( Dn.K] }*.h< r}+o#.L> B( B( Zo.s @rW.*Q.oi+oi+oi+)Q+}L.wv.ND @3+@3+jO.A5.ik _C x( x| _*.E> w|+C- $0.v~+Pd.N`.",
"D(.NW UJ.(V Mr Wb &n+y).d|@xm+DW PJ._f@:f@`@@<f@[f@}f@~}@J^@)S ':.&I s3@t@+|f@Ae@Vt @D.E(./~./~.iY MD ;8.k>.k>.Uy+Vt rJ s<.MD /~./~.MD nP nP jM jM /~.%q 2V 2V ;8.s<.2V %I JT :S !o #f sg.!:.<O xI.1f@r| qa {` Y1 I6 &} MT 0< 0< MT 2S C] ~u.83 1m 1/ v| 1!.J6 Q@.e#@ ;.`q Q)@2f@3f@4f@5f@_!.eY eH ;. Q/.6f@7f@|} .q QD >2 F]+Og.JB.$r.uA bn+8f@..+vW+C@.nP.9f@0f@B(@af@bf@8&@cf@df@ef@ff@l( Gz+gf@hf@2x.j&+o8+V7 >7. t.-h.%]+f}.L$@qi ]` HD Fl+TW k&+]~@(+.nu+z`.if@UH+jf@kf@O5@l<@%;@Xd+@3+~u.%*..$+.$++$+wa+qW.-Y.My.*{ v( (C Z1 s>.p| vK jk |L y;.$-+]*.,1.(=.lf@mf@nf@of@F^@pf@qf@rf@sf@*f@tf@E/.>G O7 O7 %9 ^0 xE )Z VI uf@vf@wf@xf@:[@00 8..8W.q;.&h.>c.81+D`+`Q+EG 4k lP Eq.{;+TJ y]+|< cC.[F yf@qA+>f@zf@Af@Bf@Cf@+!@yn+tT+Ar+Df@Ef@.$+|%.3Z.=Y.$: /m.(m.Ca.Aa.Ba.%J.qp.!t.~w.Ca./m.(m./m.Xd.,7.w|+Rd.wm+K@ '} ,} Dn.K] }*.h< :% :%  . B( fd }n.[/ 7F Lq.xv.xv.>I 8x.8x.uA |>+A5.[/ [/ _C 83 `  {} 5/ l* @. J]+Q!+rx.lf./z.4c.",
"_S zP _V TQ }+.<O B(.&n+]V Y]._%+3s.'n.Dz+Ff@Gf@Hf@If@B$@aE+@:.pM &I %I 4m p9.s3@Z@.;8.5G 5G TQ t] X].9+.r9.,a.:V :o <S JT B .Sj.Sj.2+.vM vM vM vM B .+q+wM Sj.g&.g&.#^.Sj.wM $I 2+.C).Pt (0 O  O  ra l' v> uA Z1 Qt &7.{u.}/ |%.s2.X7 Z  5L 9O.Jf@I4+9! #2 [/ Ve.I@ g}+Kf@Lf@Mf@Nf@4f@Of@Pf@G@ {% 'Z  T iE+-k.r;.1S %} Rt =c.oX J> ^Z =7.12@AG +.+tV+Qf@[6@Q0@2|+2F.Rf@Dj+Sf@Tf@Tu.|D+<>+Uf@1[@Vf@ds.^=.z] `p d3 >9 ed c< R=.ak Og BI.;8.k&.F .0@+&T+i~+%]@Wf@Xf@Yf@Mo.Zf@`f@ g@ %@.g@Y>@F!++g@2L $].CM CM l}.*7.-4.AI.VJ. p.gi }/ }} p4@@g@#g@kn.q* :Z fd .p.rP.<#@$g@%g@&g@*g@=g@ky 6L.-g@;g@>g@,g@'g@Dv.Iw rE BE US jX jX Vz )g@%1.=T x4 =c.D` R=.3k C .z~.~++=a.12@h>.]=.6k ,~.YQ 4_@h~+Ic@|(+!g@~g@{g@{g@]g@^g@/g@(g@Ae+:=.mf+|V |%.E`.E`.F`.{4.~4.'7.#. ~0.~0.~0.~0.~0.~0.~0.~0.Ca.Ca./z.(m.Ca.,0.!0.n8.ua.ua.ua.ua.Y^+G( G( G( G( ;9 ;9 >9 _m IJ =].=].=].|H.3F 3F JD MT bk ck >9 >[.>[.l* $. |u.J` 8%.rk.mk.CL.jp.~m.^z.nf.~w.",
"D(.IT 5G xP sb.&#@<O <1@UQ o( u6+[:@_g@:g@<g@2(.[g@}g@J[@L0@q6.WQ (:.OW JT 4m 3=.2V MD TQ #9 TQ 5G 5G TQ TQ tA OW 1V JT ;` 2+.wM Sj.B .$I $I $I $I B .wM wM Sj.#^.#^.#^.Sj.B .$I C).L(@Pt gx O  O  hY Vl+uA uA 'V.|H.A5.My.:C A~.A~.Y  B( FW+|g@Jf@`  |%.w( W  =7.m6+o8+1g@2g@3g@4g@5g@6g@BV RW s- .J )Z p%@7g@W+.q>.}V Or s:.l4 vi 8W.Vl+Al.m$.9/.k$.;4@1{+/d+Xf+8g@9g@MR.0g@ag@DB+bg@cg@dg@.]+eg@4p+wg.T7 :0 ,f .q RD x5.BG kk 12+@;.]L )S sI.:+.;x+hi+s9.C4+fg@Yf@Zf@gg@hg@i@@ig@jg@kg@O9@#)+lg@$].dE.mi F5 w( ls.@3+*Q.JV+8F AM F] mg@wT.&:+ng@AW.g< #z Z>@d7+og@pg@qg@rg@>t sg@sQ+4E.tg@ug@vg@!5@Vz [y jX ;G 'g@2y 2y 2y 2y jX kN  T Q=.R/.@q q;.:!.D).qd 0Y #;.ei ]=.u- 7&.TW sI.&8.wg@Pb@xg@yg@zg@Ag@~f@Bg@Cg@Dg@vo+1d+v> -#@i< #. '7.'7.9%.9%.'7.'7.#. #. #. #. #. #. #. #. ,7.up.~w.4c.4c.)0.!0.'0.AH.ua.ua.ua.ua.Y^+Y^+G( G( K] K] PD _m _m MT =].=].=].|H.`_ JD vP _m dk n4 w|  . k* J` *0.+-.Ei.o8.]h.]h.2r.!w.sp.{w.!t.!t.",
"Ng Mg ;` ad ^% E .E .IG /S ]S 1&+Q'+Eg@Da@Fg@Gg@Hg@Ig@Jg@H{@9R.^5.8L 2k Lg :S ;` SW !m tA TQ 5G yP _S ^V Mg Mg Mg ;` $I C).2+.B .wM $I $I $I $I $I $I B .wM Sj.Sj.Sj.wM wM $I 2+.L(@L`+=9 ra x] x] hY hY v( z5.=].|H./O My.%*.*7.Zo.+$+5/ 1u.Kg@jE.CM *7.-7.Lq.>I r5+L}@Lg@Dl.Mg@Ng@Og@Pg@Qg@:S v> 0d s$.Rg@Sg@Tg@]T.-I tJ :b@Q@.Pr *].^L 1>+Ly.Ug@lP.(+.X7@Vg@Wg@Xg@Yg@Zg@Y7+`g@*~. h@.h@+h@@h@#h@$h@TR.2S _m D| S@ k#.E'.gY NQ T=.Wg J@.q(.r(.t(.3R.hi+3R+W3+xq.%h@m<@&h@*h@=h@-h@;h@>h@W>@,h@v6++$+CM ,[.l}.Kq.v`+JV+sW.qW.v`+ju+K'.u| n#.-)+-)+n#.G>  p.'h@)h@!h@~h@{h@G[@]h@IS Ns ^h@/h@(h@_h@F/.3d@tg@VI 0H 0H 0H 0H 0H 8H ;G G` q|@~p.`+.r;.2..D'.2@@NQ #f We.Nr Yp 6k 'O /` kP t5 %k+jf+w0+*;+c@@A<@:h@(x+ia@<h@u`. .+yi !} ;: #. '7.'7.9%.9%.'7.'7.#. #. #. #. #. #. #. #. ,7.,t.!t.Ba.Ba.!0.'0.AH.Ji.ua.ua.ua.ua.G( G( G( G( K] K] PD _m _m MT =].=].=].=].MT `_ _m _m dk n4 w| F> :Z J` ~*.8%.,7.~0.'0.!0.,t.Ca./z.4c.{w.(w.",
"fY |+.B .;` L@.=` 8L #9 (d.pI.Po.O3@[h@}h@|h@1h@2h@rh 3h@4h@lx '8.x).Nt M@.+f SW @^.@^.tA tA TQ 5G yP yP ;` ;` :S OW wM B .$I $I 2+.C).2+.2+.2+.2+.$I B .wM wM B .B .B .$I 2+.L(@y] 2! )i.ra x] x] _/ _/ Q@.`p 3F #z TR.}!.s2.Ny.U7 AM m}.&. (Z.mi fd D] ik -4.%N.r5+L}@5h@6h@(i.7h@8h@9h@0h@EG tl.(0 Lt D`+T:+b[@;!@(% Fl.G,@2V+6F -'.2]@E(@h`.ah@}2+bh@ch@dh@97@g @>V.4Y eh@#5.HF.-k+fh@ug.VR.{i.pT.20 D~.Hv Kr oK -Z N5 MQ p9.s3@pM $:.t(.rI.3R.2R.N)+OR+|l+mq+98@Qi+nu+)t+gh@hh@ih@'t+jh@EY+kh@ks.5L '1.B( `  Kq.FG -.+1L i%+H'.Q @]m ]m GG 6%.K'.3L p8+cq+lh@mh@nh@S)+oh@]!.ph@>D qh@rh@rh@sh@F/.th@=: 9H nB 0H 0H 0H 0H 8H ;G {Z !Z ~p.XF.2.. v ,3@n%@Cv VU+{~.IX.>~.0P 9S Pe.>:.sl.<x.`C.4Y -V uh@e.@c$.28@n6+_=.}L.%} j< vh@+m.,7.'7.'7.9%.9%.'7.'7.#. #. #. #. #. #. #. #. ,7.@t.{w.1c.nf.AH.AH.Ji.!h.ua.ua.ua.ua.G( G( G( G( K] K] PD _m _m MT =].=].&7.&7.%} %} bk bk dk w| :% J` p#.:Z 8%.=_./m.Xd.,0.,0.,t.Ca.4c.{w.|r.}r.",
"Fv ,I d1+$I wM :S E(.y(.(H.pI.} @e&+wh@|y.xh@yh@5o+zh@Iy+;z Wt =7@G).s( 0d Lg 7k ^` nP t] =` 7i -` +f L@.L@.L@.Lg Lg xM es.xM 1+.q$.q$.Ng Ng Ng Ng Ng 1+.>` |+.>` >` 1+.Ng BI.KT+x] _/ )i.ra x] KT+_0 _0 R7 cd |H.#z %z Fv =7.TR.Ah@o @b5.nL. q L6 Gv gd w( TR.|>+p$.-'.G,@Bh@Ch@Dh@Eh@({ Fh@;[@mf+a#@7k Fl+Zs `q s5+q~+Gh@Hh@Ih@Jh@R  +.+&u.&u.bT+<h@(9@Kh@&e@5x.&:.FX.J@.:H.h@+o|.iY q' >u.yl.-h+M6 #2 A5 Kr >Z rK m&.aF JT L .DG z .2Y 3s.2R.2R.2R.N)+'T.'T.b1+%;@l+@Lh@Mh@Nh@Oh@-t+'t+NA+=h+MU+UU+,1.F`.pL.z/+i%+I`.*.+`)+2C+C~.g! 8g+6Z.x;.I&@N%@5Z.Ph@RW+oN+Qh@Rh@Sh@3%+5E.Th@Uh@Vh@Wh@Xh@Yh@Zh@`h@ i@.i@+i@@i@1y 1d@w5@8/ jB {Z {Z =r.bU wE ~% >}..{ #f Nr di ,~.GX.9S ds.AX.K}@CQ CQ sI.~b@$Z.I .um+T%@^'+.p.|>+`b f! ua.(c.Ba.,7.'7.'7.9%.9%.'7.'7.#. #. #. #. #. #. #. #. ,7.@t.@t.'0.AH.Ji.Ji.Ei.Ei.]c.]c.L> L> '} '} '} '} w| w| {{ L6 L6 -7.-7.-7.*7.*7.o4 o4 n4 n4 w| w| :% F> p#.F> o8.(m./m.~0.(m.Ca.up.,t.,t.tp.1r.!z.",
"X7 Q@.)Q+P  c&.jY @^.)5.p(.JF.{A.gi+~C #i@$i@%i@i_.sh Iy+&i@^5.C|@(G F~.}C Lg iY nP jM t] =` -` @z @f ^% O  O  ^% O  BI.|+.|+.BI.KT+q$.q$.q$.q$.q$.BI.BI.Ng 1+.Ng Ng Ng BI.KT+x] hY Vl+=9 (0 KT+BI.cd $f $^.fY 'I )I zi Qt ;;+hx ix PF.-7.nL.fd  q ;} $].Ny.gi =7.*Y.Bl.*i@w>@=i@-i@zW I=+|]@(` ..+&Y.>~.TW :%+;i@>i@,i@'i@)i@c`.#++!i@~i@5x.{i@]i@V)@^i@/i@(i@Ag.)2 ei U=.E).7+.dx RD _i@H5 ;{ *. .: a3 *} Jr UO }! xA .{ x<.9Y &` Pj.ei+lv.lv.N)+N)+'T.5x.1]@1]@1]@(M+q~+q~+P)++)+:i@Ar+<i@48@@l+v6+.$+E`.!4.F`.qT+8++2C+07+qT+z;.Zd+[i@6Z.is.KU+5Z.,u.Ph@}i@ku+|i@1i@,3@Ll.2i@3i@4i@5i@Wh@6i@7i@8i@Y3@ i@9i@0i@ai@ai@1y w5@w5@*D zE Uu +v uE ~% r<.@z 'i.VU+IX.3V +^.AX.>O *T+*T+>O D +d/.d/.d/.l>.-I 6F [L.{u.JJ dE.#. v~+{h.(c.{h.,7.'7.'7.9%.9%.'7.'7.#. '7.'7.'7.'7.'7.'7.'7.'7.,t.@t.'0.AH.Ji.!h.Ei.)h.]c.]c.L> L> '} '} '} '} w| w| {{ L6 L6 -7.-7.-7.*7.*7.F5 F5 E5 n4 w| w| :% k* J` L> ,7./m.~0.n8.qf.qf.Ca.up.,t.@t.'t.qA.",
":C yv.#l+07@PT oM )~.tI.)W.(n.Ey.jf+DD.bi@ci@di@lT+'N ei@2s.]V k;.P7 k' 4=.2k E(.nP nP 5G xP ad @f ^% O  (0 (0 Wl+Wl+_/ 1+.r$.{m u( {o u( u( u( u( {o {m fi fi fi fi {m {o u( 8x.wv.ND l' Z_ R7 $f $^.q>.D .yM ,` hH 6+.S7 {` Z1 tB.3F C] p4 |%._C y| F5 %} -4.BX+{m U=.AG W=+fi@gi@,/@ h+wW+^T...+di k&.uJ :=.2&+hi@Pc@ii@ji@)h@ki@li@9h@h`.$2@mi@ni@oi@Xe@#k+pi@vg.|>+q^.[C 6(+)} (*.J'.9++,*.N|.,{ 1m QD 43 dY (/ w$.)% /S KW ~V sN+#5.Em+Ey.OR+N)+5x.qm+],+E.@~'+vY+(M+bu+o@@c1+g8+qi@ri@s5+si@ti@2L F`.pW.;N.qT+8++ui@I;@vi@ -.(,.C~.wi@xi@yi@zi@*5@k5@Ai@Bi@Ci@Di@r;.Ei@Fi@Gi@Hi@Ii@Ji@Ki@Li@Li@^f.Mi@Ni@Oi@Pi@Pi@&c.h8.j}.r:.-p.2E.kK Qi@Ri@<O ra Rj.Mr (O.':.J@.*}.0@+cn+uV+!U+(% mc@AJ fs.>I A5.$].s2... '7.Xd.Ca.Aa.{w.nf.'0.,7.'7.'7.9%.9%.'7.'7.#. '7.'7.'7.'7.'7.'7.'7.'7.,t.@t.'0.Ji.)h.)h.)h.)h.L> L> L> L> '} '} '} '} w| {{ {{ L6 L6 -7.-7.-7.Ny.Ny.$].$].ed ~} '} '} r}+]c.r}+wm+,7.,7.4|+pH.(m./m.up.@t.tp.qA.)t.Ex.",
"v`+9C+E!+r[+xT uV+_Z.rI.iP sV+mN+jf+>O.Si@Ti@Ui@Vi@Wi@I[@Xi@[O 1L+P7 {% 4=.2k MD nP ^` IT Ev LQ LQ LQ LQ @f @f Vl+Wl+x] >` :O.{m </ u( </ </ </ </ u( {o {o {m {m {m {m {o </ 8x.ND <L.Ue.Z_ cd $^.q>.D .sA hH D .D .I6 iH 0i `9.qP {O =].TR.ls.X7 gd CM :0 JD ;;+u( wM }=.[=.4} Yi@Yi@zG b#@s{.IX+<o 0}+uJ ;!@B$.Zi@`i@ j@.j@&h++j@@j@O4@^` Wg #j@$j@%j@_d.Ke@kX+%N._C B( <% r#.[p.*!+A0+S;@J4+;[._*.KJ qi 2S *9 Up X<@)2.o- DW :W+,4@M)+ub@Em+:Z.hi+5x.1]@],+Wd+~'+@$@1]@f+@m+@i~+Wg+&j@*j@$$@0#@_d+[n.z/+XX.!S.!S.vi@vi@ui@O@+LT.4Q..-. -.9++=j@-j@;j@ma@>j@,j@'j@)j@Py.S#@!j@~j@{j@Ki@]j@^j@]f./j@Mi@Mi@Oi@(j@_j@T#@(u.oU jx.zn.#].uu _G :j@[H.Ev Pt Xp p( *2.=}.xb.9/.DP+,O <j@x/+r*+FY+p$.|V .$+,1.A( ,7.'0.!0.1c.rp.'t.tp.4r.r< #. '7.'7.9%.9%.'7.'7.#. '7.'7.'7.'7.'7.'7.'7.'7.5r.,t.'0.AH.)h.)h.)h.4|+L> L> L> L> '} '} '} w| {{ {{ {{ L6 L6 -7.-7.-7.Ny.Ny.$].mi pU ~} '} G( ]c.r}+wm+,7.,7.n8.pH.]*.,7.o8.'t.1r.!z.<r.tA.dZ.",
"&{ zP.&Y.MK+[j@~,+Ae+*@@7o+3S+ql.z*+}j@|j@1j@o4.2j@|e.K0@7G+D@ C|@8+.4=.CG Lg 7k 4k o$.Lg &;.RW Yb 1! l' v> l' }V (C v( z5.Q@.Q@.z5.v( |>+|>+uA v( Q@.`p Or Or Q@.`p `p `p Q@.v( |>+(C eY I6 S7 6+.1=.iH rP ,` fY D .M@.M@.M@.aF CG q>.wg. p.{u.Ny.a< D~.vP Ny.b5.M`+_/ p$.'O Fh@3j@4j@:W.v). .+AI.+t 2B l~+a&.<%+i&+>V 5j@6j@Rv+Gl.mX+>m Nt gY r>.7j@8j@=4.e1+*{ #h+x;.B( (*.#-.'7.~*.(;+fp.[]@gp.G> Gv ^m &h.o%@p9./S qP.T1 2<  b@#5.ub@9j@`o+0j@OR+5x.1]@1]@58@vY+sw+5x.Eu+v`.H=+aj@9J+{c@Yf@s4@S  {d@A~.9%+1V.bj@cj@dj@ej@bj@S*+O|.=1.#-.XX.nN+fj@s~++,@gj@hj@ij@_a@zn.{p.jj@-G.kj@lj@mj@nj@oj@Ni@pj@qj@80 fH.rj@7p.!_.D'.#2@K-@Kv o3.j9@[H.sg.sg.z(.Xp (O.@^.>~.'~.v).v).k&+nM U%@^7@sj@+s+IV+Ge+F`.9%.6r.@t.{w.@t.tp.>t.%:@~$+qL.#. #. #. #. #. #. #. #. #. #. #. #. #. #. #. #. 6r.6r.)h.)h.Ei.pH.~*.>0.K@ K@ K@ :% j< w| w| w| %: >[.5L 5L ,1.5L +$++$+l}.,1.mi ,[.E> L> r}+wm+Qd.2K.+m.g(+Ca.Ca.~0.,7.,7.n8.lu.'S.b>+tj@b>+'S.",
"0|+>%+p .uj@kf@vj@wj@0T+4{@^n.+7@xj@yj@zj@Aj@Bj@Ux Cj@VB+(I 8Y 9L <O RW pP L@.!o SW !m O  Yb N  N  Yb d* Z_ _0 v> Ue.Q@.`p Or Or `p Q@.}V (C |>+v( z5.`p Or Or `p `p `p `p Q@.v( uA |>+eY I6 qP >. +z |=.,` ]` D .yM Nt Aa Nt fx aF |+.3m V   p.[/ `_ bk ,f Dj@Ny._0 KT+e* #4@%D+Ej@Xe.fT.Fj@p@+P4@Kv Ut -a.`P.m>.!'.Gj@Hj@Ij@W'+Re.<L E=.bk Dj@5p.6p.jk C'. S.~u.v`+UM.Jj@N|.>*.EW..-.{4.,*.YX.9! 63 xr+PW `|@u{.jM qP.oI.sN+g&+)r+Kj@_2+9}+Lj@W3+;4@'T.vo+k+@lr+vo+'T.pA+mv.j9+a%@LJ.Mj@Nj@Oj@Pj@xT AT+Jq.>].{$+O@+cj@Qj@Rj@Sj@S;@o#.Kn.q* a! FG &;@Z8@ek+n9@Tj@Uj@Vj@2W.~G xs.Wj@Xj@Yj@Zj@`j@ k@.k@+k@@k@fH.X9.#8 =r.PX.;N+#k@ci+~S+.{ <1@S2@xP yP Ot p<.K@.di 8V >~.vJ !'./% 2]@He+zZ+_c@DX+$k@3Z.E`.Mi.>t.@t.@t.tp.>t.%:@~$+w4+[j+$: #. #. #. #. #. #. #. L@ #. #. #. #. '7.'7.'7.6r.6r.)h.)h.Ei.pH.~*.~*.:% :% :% :% j< j< j< j< %: >[.5L 5L ,1.5L +$++$+5L CM mi 4/ :% L> Rd.w|+wa.Qd.g(+P<+qf.(m.~0.o8.4|+{*.JT.'S.:r.,S.w8+:r.",
"`d+@t+%k@h8+&k@*k@=k@M7@6J+4s.}#@-k@;k@Mw.Rp.<!+pz.>k@[G+,k@o(.VQ TQ Mg ^% D(.#f Mg Mg @f RW $^.$f _0 Ue.l' v> }V (C uA v( Lq.Lq.jO.jO.(C |>+uA v( z5.Q@.`p Or `p `p `p Q@.Q@.v( uA |>+eY S7 6+.1=.|=.h&.Wp Wp M@.Nt Kg )o <! A(.8L 2k F'.#I ZP.Qt `_ ,f A( Dj@33 qP O  iY KI+'k@)k@3j@46@!k@~k@-D+)Z.h#.<W+Tg@!O ^L {k@]k@R)+kk |H.43 M` t#.M` fE.R/.pd 'm p4 6H.^k@;Y./++|d+y;.H'.z/+z( YM.B> r' #3+:|@u;.WW oM ^T.2Y oB.f&+D#@/k@jf+(k@(k@_k@:k@3R+!$@l+@l+@1J+y @`o+]j+i6+6|@<k@[k@[(+}k@,L.XH+cs.9&.qT.|d+!S.(,.jb+Zd+ef+|k@Q @J4+Ai.-)+ q u( 0&.F.@5x.b1+6R.1k@2k@3k@A` 4%.zB.=D.;p.X9.4k@Uz ug@5k@7H NP.TS XF.Us Ws N4@NT m|.IQ NW ):.n|.IT IT D(.We.o$.!m uM FU.g}+v- ep+^'+0j+5R+6k@7k@H:@J;@[j+xk.xk.>t.xk.xk.qL.[j+J;@J;@J;@~4.'7.'7.'7.'7.'7.'7.'7.L@ L@ #. #. '7.9%.9%.8%.6r.lu.)h.)h.Ei.pH.~*.~*.:% :% E> E> j< j< j< j< %: >[.5L 5L ,1.5L +$++$+,1.,1.,[... L> ]c.Qd.v~+Qd.v~+@m.P<+(m.,0.Ji.mf.pH.=1.<;+)S.Ni.^m.uk.HW.",
"OK+VH+8k@9k@0k@ak@bk@ck@#u.o .-k@}#@@Q.ll.dk@ek@rz.Ig@H~@fk@0S r6.':.!m K@.D(.bd @f @f CG CG q>.cd Z_ l' v> v> (C |>+uA v( Lq.Lq.Lq.jO.Q@.Q@.Q@.Q@.Q@.`p `p `p `p `p Q@.Q@.z5.v( v( uA eY S7 >. iH h&.N5 Wp Wp M@.Nt Kg )o <! A(.8L 2k $I BJ DJ Qt 2S _m UW+E1@'f w] N @E(.*D+gk@hk@ik@jk@!k@kk@Tr ]~.{,.2@@`|@o9.#k@lk@mk@{o Dd.xi Qg v#.Xj@(u.nd Y+.4T.-7.uT.nk@^k@r' =7.s' ok@BB.'{ |%  S.#3+Se.nX+_d.l>.!'.y$. h+k|.pl.ql.t!+pk@F#@(k@JR.`t.Fu+qk@87@lq+28@Qi+FU+i6+rk@sk@tk@o,+b/+uk@vk@wk@xk@Jl+ ^.z] qW.-].6c+yk@;].&.+x9+-].,D.n#.ni Ue.`,@Pl+:Z.O3@A.@Mo la zk@Ak@Bk@A` pa ]H `3.iB Ck@2G Dk@;G Wz `3.3E.#v cy t<.Xt sI.1&+sI.6&.'i.z(.z(.gx D(.bi ~:.e* AJ AJ 9C+m6+2#@qa+ 9@OO+vS+='@Ek@B0+{$+B9+qL.xk.qL.qL.[j+[j+&.+&.+&.+~4.'7.'7.'7.'7.'7.'7.'7.L@ L@ #. '7.9%.8%.o#.o#.lu.lu.)h.Ei.Ei.Ei.~*.~*.L> L>  . E> j< ~} ~} ~} %: >[.5L 5L ,1.5L +$++$+,1.'1.E> L> ua.ua.va.Qd.g(+g(++m.2K.!h.V<.Kn.Jn.Ei.^*.IT.wp.Oi.Qi.Ni.]m.",
"uq.Fk@Ag@Gk@Hk@Ik@Jk@Kk@Si+.]@uh@as.oq+}*@Lk@Mk@cs+}g@w!@P] Nk@1&+CQ #O jY :S Lg CG &;.6+.6+.{` qP S7 qP )I %z 'I 'I TR.TR.TR.TR.TR.TR.TR.pT.&N.gi C] /O }!.}!./O }!.}!.My.My.[/ [/ 3F &} 33 5+.2=.N5 cY Wp jH M@.fx .{ w$.2S+=7@p- -` $I d1+{m Or dY 6L k}.UW+;~@Tg ms.JT *D+46@Ok@Pk@Qk@Rk@Sk@Z@.m2@ps.q0@`|@z;@T4@Tk@@:+2F Qt qi ek 9F QD .2 ii ix Og ys.Uk@Vk@jO..$+IZ+-. /++1% Xq.Cd.V=.kk o>.A).X=+9S |]@'W.Ul+rm+n6@Wk@W]@DM+:^@Xf+JR.W]@Oo.qk@qk@~m+~e@Xk@Yk@QC+Q^+YG.jF.o)+Zk@dy.`n.I;+mC.!L.k$.P  @3+I`.h_@`k@(#@h<@}n.3L G5 0< (C ci TU+ l@.l@+l@@l@#l@,i.F$.$l@%l@p~.+h.Mw xI 4B &l@Qu *l@>G =l@dK gX cy jA+y .52@`C.4_@d|.)5.7k SW SW 7k ei $I d1+*Y.+>@+>@-l@(R+DX+v6+*6@Ek@B0+B0+B0+;N.{$+[j+u~+B9+{$+[j+[j+[j+u~+E`.E`.~4.'7.'7.'7.'7.'7.'7.'7.#. #. '7.9%.8%.o#.o#.;0.lu.lu.o#.;0.;0.;0.;0.;0. .  .  . E> n4 E5 E5 E5 %: T*+-N.-N.=N.-N.-N.-N.T*+pL.7%.>0.{*.mf.Fi.Fi.Ba./c.)Q.ju.lk.+t.+t.+t.o8.)h.Ni.Mi.Oi.Qi.Qi.=_.",
";l@>l@t2@,l@'l@)l@!l@~l@{l@sv.0T+bs.j3.]l@zv R> It+((.^l@/l@(l@l}@i<.v).3V l&.Aa xA xA 1=.1=.{O 6+.{` >. %z Cd.ID ID t< t< t< t< 5! 5! t< ^,.X=.pT.&N.C] /O }!./O }!.My.My.[/ My.My.My.JD 33 5+.)` cY cY jH s( M@.M@.8L 8L H).p- IG 5G !O Tj.d1+|n.O@.QW -[.-#@$c CM |V :S V#+H@._l@:l@_l@<l@0P 4k :V q2.gY Nl+z;@[l@@:+wv.Or b5.Kr Kr ji Ed.ID Dd.DJ 8x.}l@|l@EJ ZP.Ed.1l@/m -} 43 ak ;*.Bi 2l@3l@OT h&+j7@kf+_Z+%$@FU+Xf@Yf@Mo.+f@4l@gT.+f@7J+5l@6l@qk@zU.tp+%o+7l@8l@B_+9-+Z&+~M.N,+O,+f=+-o.L>+QL+oB.Yp *Q.ms.h<@N%@js.FG Jq.20 =].=7.u*+2Y h3.9l@0l@pq+al@F  bl@cl@dl@JM @A +M (K+hy K8@@A PI f @'y Mu 7N el@V#@3< 2< MM FW TO+Ey.wI./~.2V =I {:.Tj.A] W_+AI.AI.AI.*6@*6@$)+$)+_0@{$+B9+qL.qL.qL.u~+u~+u~+{$+{$+{$+[j+u~+rL.~4.$: '7.'7.'7.'7.'7.'7.'7.'7.'7.'7.9%.9%.8%.o#.o#.;0.wp.wp.;0.;0.;0.;0.;0.;0.E> E> E> E> n4 n4 n4 >[.%: T*+-N.-N.=N.-N.-N.-N.pL.9%+>0.~*.!h.!h.Fi.Ii.0Z.iu.=h.gf.1'+kk.Kn.rf.~0.,7.Oi.=_.Qi.xk.Oi.r< ",
"fl@gl@hl@il@jl@kl@ll@ml@0A+nl@ol@w .!V pl@ql@Lt+T^.rl@sl@u'@tl@Jl+@}.<j@'O 7k &;.*9 Q7 >. {O {O >. 6+.{` Og 'I PQ PQ TR.TR.TR.TR.TR.X=.^,.X=.TR.pT.&N.gi C] C] /O }!.My.[/ [/ My.My.}!.`_ q^.5+.)` cY cY s( xA MJ MJ =` =` p- p- 9L tA f&.L}@vg.wg.5+.'f R@ e/.X{.%;.v> Mg >~.8S uP.ul@vl@,x+9S #O s<.l&.F'.Bi T=.wl@': BJ e1+/m XV od Or :b@xl@tJ AT+vb.yl@vg.=7.T@ af.sa $@.rR c^.**.WJ.5m HX.7S 8S &T+5x.!$@ou+%h@m<@x`.#!@zl@Al@Bl@4l@Ko.Cl@tp+6l@Dl@6l@Gu+CM+LR.H;+`}+n3+A%+El@Fl@Sm.N~+ZG.l( +7+lv.5k wv.'V.|%.|%.|%.-4.jO.#z _/ E6 D6 1< tm+Gl@ ~@UK.Hl@Il@=g@Jl@Kl@Ll@Ml@Nl@Ol@Pl@Ql@ME Nq 4d.Rl@$p JM Zt.z|@O0@#a.Eg $8.h~+/k@.^.h>.d&.]=.P  0R.)Q+Ve.AI.lg@lg@$k@Ge+_R+f8+u~+wk.>t.>t.Mi.xk.B9+;N.%.+=Y.=Y.!4.{4.~4.'7.#. #. 9%.9%.9%.9%.9%.9%.9%.9%.9%.9%.8%.8%.8%.o#.o#.o#.^m.^m.;0.;0.;0.;0.o#.o#.E> E> E> E> n4 n4 n4 >[.%: T*+-N.-N.=N.-N.-N.-N.T*+pL.;0.o#.'0.AH.of.Sl@'h.,.+-h.gf.kk.Jn.rf.mf.~0.,7.Oi._c.=_.Mi.D`._c.",
"Tl@Ul@Vl@'f@Wl@Xl@Yl@4l@!n.0T+Zl@$}.`l@ m@.m@+m@@m@#m@$m@%m@&m@[6@*m@0+..h+Nr )i.(C tB.ya+|>+Z_ |n.$^.|n.Og Og )I )I pT.&N.&N.&N.pT.pT.pT.pT.pT.&N.&N.gi gi gi /O }!.My.[/ [/ My.}!.}!.IJ }/ <0 Cd.ix ]` rP fx Aa .{ =` 7i IG p- H).8L l&.],.0Y ^C D .6+.P@.dx |! s>.1! #f mf+JX.l&+=m@-m@;m@kP 8V /~.@f O  y4 -a.u;. .+#I [!.3k }} ^} EJ Vj.>m@p' ': @:+*Y.v;.,m@|S cY 2..-Z rK a%.O@.JT 3V /` 9/.0+.a+.yU.'m@)m@7J+!m@!m@Al@~m@{m@Bl@]m@`f@^m@/m@$u.}5@x5+(m@LR._m@E_+:m@<m@{}+pe.H-+[m@}m@Yp.'B._g@,y+;!@*Y.ls.IJ [/ B] ND ]'+]i.)O r] |m@1m@>_+2m@Xu.Xf 3m@4m@5m@{Y+6m@7m@8m@Hq 9m@0m@am@bm@cm@iw KM KM TQ+~M+3< M0@r] Mj.mN+ l@#}.D +lX+:/  .+AI.xv.&Q.Iq.1L nN+wa+2C+B0+I;@I;@N@+lu.'t.6r.wk.Ni.!*. -.KT.T*+=Y.=Y.{4.~4.~4.#. #. +. 4/ +. 4/ +. {4.+. {4.8%.!4.8%.!4.o#.pW.o#.o#.;0.;0.;0.;0.;0.o#.o#.o#... .. .. E> n4 {{ {{ %: pL.T*+=Y.-N.F`.-N.=Y.=Y.=Y.pW.8%.'7.~0.,0.~h.Ii.O`.nk.ku.lk.Jn.nk.V<.mf.,7.o8.Qi._c.r< Oi.Qi.xp.",
"dm@H;+G;+em@fm@oq+EP Gy+8% n<.kP *}.gm@o*+hm@im@jm@km@lm@mm@nm@'1@l<.ZX.u*+a#@aD+Rj.aD+</ yv.u( yv.{m &{ $k+*{ &Q.$k+*{ *{ pT.TR.^,.5! yl.yl.yl.yl.|L |L |L |L 8F v`+Zo.BM BM  $+Zo.}n.l}.9k }0 m5@>t+V=.rW+|+.|+.;o ;o 2k E .o3.qW+X&.7L Nt t>.4m E(.4k bi SW BI.R7 q>.Vl+w> t- UW om@oP+AI+!2@Mr SQ Yb N@.)o cY |=.Fv sa }0 ,K.P@ ]m E4+pm@w;.zv.A> qm@rm@m5@%z %Q.),.}T.<W+p2.F'.2+.MD Ci fT.-T.j<.rm+Oo.Cl@sm@YH+ l+ l+ l+4l@+b@Bl@tm@]f@um@ia@1{+42@vm@wm@u'+xm@ym@F-+*&+zm@Bt.Am@Bm@;O.]e@Cm@]n.6]@t*+<L.-4.&7.uA _O.mf+%Y.M(@_I Dm@Em@'z Fm@Gm@Vp.Hm@Im@t'+Cy..X Jm@Km@Lm@Mm@Nm@3L+Om@rw+Pm@Qm@^G+Wr T_ qP.Y].kP kP ^T.6x.:A.OT XR.TR.A5.{u.w( A~.cE.h%+-N.B0+B0+ui@O@+Rm@N@+w4+rL.'7.9%.!4.pW.(;+XX.,*.pL.T*+=Y.F`.E`.E`.E`.mi E5 E5 ~} E5 pU ,[.pU ,[.E> >[.E> >[.pW.T*+pW.pW.pW.E>  .  .  .  . E> E> 4/ 4/ .. E>  . 3/ l* l* F`.[j+{$+{$+B9+[j+qL.rL.B9+wk.xk.xk.6r.wp.2r.zO.Ex.JT.V<.JT.:r.IT.;w.vp.r< r< r< 5r.4r.vp.>t.xk.",
"Sm@Tm@&'._g@Kj@A*+{f gP L @[+.(H.i`.`C.cC.Um@Vm@7N+Wm@Xm@Ym@Zm@|g+Rk+&++`m@tl.Rj.z(.Pt :/ fs.fs.fs.yv.Th+rT.&{ $k+*{ %N.%N.pT.&N.pT.TR. n@ n@ n@ n@J7@*N.8F FG qW.s @BM JJ JJ +$+BM (O Z  I> |% vm+'2 v|@:L BJ #;.],.)m ;o Hg 85@zK *^.TO 6< -` MW JQ 8/.oM t*+]T.$I F'._/ Wl+)Q+co+ d@xz .n@+n@t3.H1@E .x).4=.t> 8i U6 l4 .2 dL.Z6@UM.=~@@n@Jq.,9 #n@T/@6! /} B'.$n@%n@!++2+.vM =I XW ,~.9/.&:.=k+as.Gu+Mo.^c@0d@&n@Yv+*n@*n@=n@-n@Zf@;n@>n@,n@Dg@}g+'n@)n@!n@8m.h[+~n@{n@Q;+]n@^n@/n@(n@_n@:n@:^@%]@mb+&Y.Ve.l' M`+L`+IX.uI.<n@ka .:.Em@EF.[n@tk@I!@}n@kQ+|n@x;+1n@'v.2n@3n@4n@5n@6n@fa@+e@)r+t5 &!@e|.JF.qI.p(.'~.'~.TW uJ Xd+%)+q' ,9 9k cE.D> F] >{ |!.>*.2++2++w4+7n@8n@9n@0n@Bb@rL.{4.{4.!4.pW.7%.XX.,*.pL.T*+-N.=N.=N.=N.=N.,1.E5 E5 E5 ed ed ed ed ed '1.'1.'1.'1.=Y.=Y.=Y.=Y.4/ .. E>  . 3/ 3/ 3/ 3/ 4/ .. .. E>  . 3/ l* l* F`.[j+qL.qL.qL.rL.A`.A`.wk.xk.Mi.xk.6r.wp.7r.JT.wp.lu.lu.;w.'S.'S.7r.6r.5r.5r.4r.vp.6r.wp.7r.)S.",
"an@iT.6|@Y[ +a.}:@CT }o r6.wI.tI.NF.dW.bn@cn@dn@en@fn@gn@hn@IU+in@+:.#:.E6 jn@=9 ra Pt A] ;I fs.fs.yv.yv.yv.Th+zI.$k+%N.%N.pT.&N.&N.pT. n@ n@ n@kn@Jq.8F qW.s @1L !_+JJ |%.|%..$+JJ +$+9! d! GJ xr+_b@2} rW+:L ^C Nl+tP xM CG 0d t~.F~.@M u> @f !m HX.[%+8`+m$.mf+D(.2k hY hY t- Q=+m$.fy 2X 8l ^5.h7@w$.E .Wp }! ZI s;.t:.d3 ak 'm 1%.PF.M`.PF.ln@@/@'m :0 dY+mn@Gv.nn@WJ.gx iY 2V ]L u(.&}.{A.4s.lf@on@0d@&n@vb@pn@Ud@ZH+qn@rn@sn@tn@un@vn@!i+$u.w0+~H.D,+wn@xn@yn@zn@An@Bn@Cn@Dn@En@Fn@Gn@Hn@mN+Pl+%Y.VU+z(.ad ;` y(.]S Lj.D4+wQ In@Jn@Kn@m)+_I.Ln@}~@8V+=y.Mn@Nn@'y.fh V^.On@Pn@Qn@pb.nB.ZC.Lj.:3 JF.'r+tI.i`.!~.b&.0|+e#@Xj.p$.+3+*N.2/ 0! `  D> 4L pL.T*+;N.u~+u~+!S.8n@8n@ui@Oi.qL.{4.!4.pW.(;+7%.XX.XX.pL.T*+-N.-N.=N.-N.-N.5L E5 E5 E5 ed ed ed ed mi ,[.,[.,[.,[.F`.F`.F`.F`.E>  .  . 3/ l* l* 3/ 3/ .. E> E>  . 3/ 3/ l* l* F`.F`.~4.~4.$: D| D| xp.#. #. L@ #. o8.n8.)h.pH.o8.,7.,7.4|+pH.{*.Ei.n8.pH.pH.Ei.)h.4|+4|+4|+4|+",
"Rn@Sn@22@h~+*5.,5.iM Pj.pI.sI.FX.m<.Tn@kd+`A.Un@Vn@Wn@Wm@Xn@Yn@(5@Zn@M0@(d.u3.~I [H.(0 A] ;I fs.fs.yv.Th+Th+rT.7F zI.$k+%N.pT.&N.&N.&N.&Q.Iq.kn@kn@*N.FG qW.s @!_+-Y.JJ |%.|%.|%..$+JJ #2 -} d! [0 1} >t+e1+kk tP ^C F'.q>.*9 (/ F~.k' r- F~.2k /~.`n@ o@x>@]C X'+o$.;` Rj.D(.+q+)O QT &N+I7@.o@vE+1O.)% Zo+3%+pa lK wE j#.jx.Te.RD ,c.)f +o@@o@ID ix C'.#o@$o@%o@LT ^C g&.2V ~S+nP CQ Aq.4G+Gh+yg+&o@*o@pn@=o@-o@=o@;o@;o@Ud@.b@sn@hG+d#@LK+&:@:k@>o@,o@o-+'o@)o@E-+zn@!o@~o@{o@Nn@+k+I^@mN+:E.Pl+4^+g@+jY MD p( [+.HQ Pd@7q+]o@^o@i,@/o@(o@_o@:o@5I.<o@(I.<o@|{+[o@gh k(@}o@TB+n-  b@'O. D.(n.Oj.JF.$:.tI.s{.IX+Q=+.p.e#@)Q+[L.>;+ !+ $+D> cE.0! 4L 5L =N.-N.z;.8++u~+2++N@+_J+uS+3++{4.{4.!4.pW.(;+7%.9%+XX.pL.T*+z/+z/+z/+z/+x9+m}.E5 E5 E5 E5 ed ed ed ed '1.'1.'1.'1.=Y.=Y.=Y.=Y.<% <% <% <% l* l* 3/  . E>  .  . 3/ 3/ l* l* <% F`.F`.~4.$: D| xp.=_.=_.=_._c._c.=_.~0.,7.o8.n8.4|+o8.o8.n8.4|+4|+o8.~0.{*.pH.)h.4|+o8.,7.,7.,7.",
"|o@&'.}*@zc+t|.{/ EW JF.sl.$2.<d.wT |g+0i+x1@>y.2M.1o@2o@3o@4o@F)@VE+%5.{V u3.<H.5o@<H.x] :/ :/ :/ {o {m fi DJ Q@.,I y5.y5.Og Qt hx /O 7F 7F B] B] My.[/ A5.ls.~u.{u.Ny.%*.yi yi %*.%*.ck (m l4 RD /m FJ FJ XI G'.<L =4.uP 1=.iH 2=.dx QQ fH MQ vM F .6o@GD '~.5F /~.tA z(.Mr ^` *O .++7o@BV+8o@9o@h2@0o@ao@#v 3%+Jg  v D'.PX.nW+C .E).E).PW ,3@_!.bo@co@do@eo@cH LQ iY 5F [+./O.wI.(N+Hn@fo@R(@A4@qn@go@ho@io@jo@jo@ko@lo@mo@no@oo@po@lr+h`.rP.}L+qo@ro@so@to@uo@uo@vo@wo@xo@<F.yo@}V+-I++.++.+c[@IX+8V _H.:L.y .iM C#+zo@Ao@pJ .R Bo@Co@Do@Eo@Cy.Fo@sw.Go@Ho@T-.OR.rn+Io@Jh+Mj.*8.$` u$@:+.t(.&O a/.oM 8V c&.xP.W%@Ve.)V.Lq.[n.!_+!_+m}.0! Z  Z  cE.4L x9+Cn+G`.Cn+B0+&.+Jo@Jo@&.+Tk+{4... E>  . 3/ 3/ B( B( %: %: l}.l}.m}.4L D> D> n4 oi oi oi E5 E5 E5 E5 B( B( B( B( 9%+9%+9%+9%+l* <% M@ M@ M@ M@ <% <%  . 3/ 3/ 3/ l* l* <% <% =Y.F`.$: D| xp.=_.=_.xp.L@ L@ L@ #. ,7.o8.n8.n8.8%.9%.9%.9%.8%.8%.9%.'7.L@ L@ #. '7.9%.o#.~*.>0.",
"={@Jo.h~+)U+nl.g0+r] /n.Z1.mW.Zl@Ko@gi+Lo@Mo@f3.UK.Jz.No@'U+ B.Oo@Po@O .1X+Qo@<H.Ro@w] hY )Q+)Q+6F u( {m fi DJ |n.y5.ZP.|n.hx 3F |H.|H.@3+@3+VJ.VJ.~u.~u.~u.~u.ls.ls.-7.*7.Ny.Ny.Ny.F5 dE.pi ;2 |} 40 ak d3 YI ,c.G'.=4.uP {O +z !I P@.5+.7+.|+.X'+Rv+]W.a/.]W.rA 5F x<.Xp A .JQ |[@ok Qo 6a@So@M$@b:@hA++2@To@Us Us q&+y'.D9.F/@A;@7c@o9.L`+p>.|L.Uo@Vo@Wo@:S :V 2V K .QT vI.FX.)W.|4@Xo@KR.yg@Yo@Zo@`o@jo@ p@ p@.p@aJ+2Z.Me@*o@YH+{n.wY+,V.)k+:^@+p@@p@#p@$p@%p@&p@*p@=p@OP+d%@-p@ '@u*+a#@a#@X'+5k |[@qI.Oj.t5 &5.B>.;>+;p@>p@y{.vt..X Jt ,p@'p@X@@F1@)p@OR.!p@tq.uq.-k@|4@5R.u .sI.Ly.],+^T.:=.PT Qk+d&.(L 6F +3+X3+1L Zo.BM 5L l}.5L 4L cE.cE.`   $+`)+wa+i8.4Z.*.+*.+B0+&.+J;@z/+,[...  . 3/ l* l* B( %: %: %: m}.m}.4L D> `  0! PD PD dk dk {{ {{ n4 n4 `o.`o.`o.`o.,*.,*.,*.,*.3/ l* <% #: $. @: @: @: l* l* l* l* l* <% <% <% =Y.F`.$: xp.xp.xp.xp.D| 9%.9%.8%.8%.)h.)h.Ei.Ei.'7.9%.9%.8%.o#.o#.;0.;0.'7.9%.9%.8%.o#.~*.>0.+-.",
"[h@|&+t6+Za@6d MM $a.n8+9T+A:@ql.yq.}g+aS ~p@'p@{p@J!@]p@x,+KG.jH+eo+^p@/p@(p@@}@_p@k<@Vl+}L.}L.}L.8x.</ u( {o Or ,I ,I Or ys.3F 3F #z 7F Lq.@3+X3+{u.{u.~u.ls.A5.ls.IJ -7.-7.*7.*7.o4 dE.PD qi Hv  2 RD ek.]O %z ,c.,c.PQ 'I )I Fv #z S7 cd y] mf+%Y.Mh+:A.%Z.Z].6&./V Mr y<.:p@!O.L:+<p@[p@}p@|p@G0@1p@yu :a.$[.wu $v >3@u] KT Ws ,'.`n@k&.m$.mk W#+<S+p3@g@+:T.,:.'}.r(.=:.l|.sP.1{+2p@3p@E9@,z+Mv+$V.Yl@Yl@4p@4p@~l@[Z.5p@on@ck+Lj@Eu+o~+Mb+Jy+6p@7p@8p@9p@0p@ap@VA.=B.cC.bp@FT +;+z(.VU+Q=+JX.{W.cp@lv.f0@'n. a.Fe..X dp@ep@ep@fp@gp@hp@:X+Mo@;p@ip@FD.>'+tn+dh+~G+W@.T@.>O 2X+u`.2]@%++!'.y/+n' ul.3X+qT.7F 1L  $+oL.pL.F`.=Y.9%+mi ,[.l}.l}.+$+JJ Ge+$k@|%.$)+nN+-.+i%+wa+`)+z/+'1.E> 3/ l* <% l* B( %: %: %: m}.4L D> `  cE.cE.}} }} }} }} >9 >9 >9 >9 F] F] F] F] >*.>*.>*.>*.#: #: $. $. $. $. $. #: l* l* <% <% <% <% <% <% =Y.E`.$: xp.xp.D| $: ~4.8%.8%.o#.;0.Ei.Ei.Ei.Ei.9%.8%.8%.8%.8%.8%.;0.~*.>0.>0.~*.;0.;0.o#.;0.;0.",
"CS+)U+jp@&8.Mj.ZC.e4 `1.4Y ql.OG 5l@)n.kp@lp@mp@6).np@op@Bj@WK.Pv pp@qp@rp@^Z+o&.sp@tp@Vl+}L.*Y.*Y.ND ND wv.wv.uA v( Q@.Q@.ys.hx Fv 'I *{ zI.7F @3+~u.~u.A5.[/ ls.ls.IJ -7.-7.*7.*7.o4 dE.}*.pi Qg Hv l4 .2 pd ^m ix ix ,c.zi %Q.Fv z5.v> Wl+xP.8V  ^.,O >O *T+wI.t*+E6 (O.s6.7Y jQ+Q7@s^@up@vp@wp@>c@mu TD +2@2 @xu $v kU+Y#+Wq hU+k&..^.xp@:W.y$.FX.'}.*}.r(.n<.pP.l|.IR.k|.yp@pA+z<@l8+[~@zp@Ap@xk@Bp@B4@2p@<>+Cp@XB+Dp@/d+7]@Lj@mv.&:@v`.2|+Xk+ro@Ep@Fp@Gp@Hp@Ip@Jp@Kp@(k@lv.]>+IX.0&._=.2]@_Z.oP.Em+Gh+Pb@Lp@p_@Mp@uU.Do@Np@Op@Pp@Qp@Rp@Sp@J7 Tp@]o@gD+]H. 2.w .v!+*,+u`.x4+Fq+zP.y/+.>@2V+6{+si+fs.yv.)u.s @ $+z/+pL.pW.{4.(;+;[.'1.'1.5L l}.BM !_+A/+IV+Bv.t~+IV+A/+Up@i%+Cn+x9+'1.E> 3/ l* <% l* B( >[.%: %: m}.4L D> 0! cE. q pi pi pi pi {} {} {} {} F] F] F] F] >*.>*.>*.>*.>1._*._*.(*.$. <% 3/  . <% <% <% <% <% <% <% <% =Y.E`.$: xp.xp.D| ~4.{4.'7.9%.9%.8%.)h.4|+4|+4|+~*.~*.;0.o#.9%.'7.'7.9%.8%.8%.8%.o#.;0.~*.+-.*0.",
"1^+e&+(j+f&+OJ.ei+oB.|4@[:@ql.:j+!n.pk@e0@5i Vp@Wp@Xp@Yp@Z:.kH+>{.Zp@;i.`p@ q@.q@IE .O+x] }L.W%@W%@wv.</ </ </ |n.Or `p ,I PQ %z zi )I Or `p z5.z5.#z #z #z #z &7.&7.%} %} 0< 0< 0< ck s2.E5 ed dE.Qg 43 li RD ^m ID +z yM $^.hY l' x] (0 !o jM J@.$:.3R.t(.%:.l$.$Q+_@@5S GT wP.u`.s9@+q@@q@j@+#q@n`.uB+ss zA q~.4 @w[@1%+FL+_S+$q@'}.k<.=k+IR.IR.=k+k<.l<.l<.g<.%}./]@w .yU.Wg+'m@/m@Ev+h7+fo@(k@71+`X.o .*k+6s. 2. 2.%q@aT+Ko@:Z.pA+mv.j9+p5+&q@*q@=q@-q@;q@>q@,q@9@+p5+Ac+'a.rI.O&@*,+y4+/^@z`.'q@Si+)q@=4@8o+x]+)n@!q@.X ~q@~q@ql@{q@]q@^q@q&.M[@1< @2.j|.nW.wW+lf+Be+}l+m9@0j+p$.9C+@Q+gs./q@CX+sW.s @`)+|%.G`.,*.!4.~4.;0.Pi.!*.T*+pL.4L 4L  $+ks.^M+Yo.|V pf++g@lg@[n.-Y.-Y.:C >9 ;9 w| w| w| j< n4 n4 n4 {{ `b fd 83 83 83 83 :m :m :m Qg k< {} {} {} `o.5/ 5/ `o.r2.J'.J'.r2._*._*.6%.@: #: <% 3/  . E> 3/ <% M@ M@ M@ l* 3/ ,[.,[.4/ 4/ .. .. .. .. L> :% K@ +. wm+Rd.]c.C- F> l* l* l* l* l* l* l*  .  . 3/ 3/ 3/  .  . E> ",
"n(@ol.ka K7 (q@ei+[x.|4@[:@rl.:j+wq.pk@_q@5i Mo@Ww :q@<q@[q@}q@|q@1q@2q@3q@4q@e[@5q@TL+x] )Q+}L.}L.u( {m {m {o ,I ,I ,I y5.zi ID ID ID ZP.,I Q@.z5.ys.ys.#z 3F =].=].%} %} %} 0< 0< 0< JP.{{ oi E5 ni 40 'o ek.Ug )I $f BI.KT+_O.-u.Mg SW 5S :L.)W.i<.j|.sP.&:.eP ]>+mP 6&.$Q+TJ.u`.6q@7q@8q@WY NI+us 7E +].Sy+8E 4 @9q@GV zz 0q@RT (L.@}.Uf@Uf@g|.Ko@v .sP.xM./]@/]@7o+_Z+ C+aq@bq@cq@.]@!n.OG ^n.|L+v .j|.;x+<x.Oj.sl.sl.u$@nW.dI+Eu+2|+zg+&q@H;+G_+Nu.Rb@dq@eq@=y. :.X1.s6+@V.97@:#@fq@gq@x`.!m@Tl+hq@iq@jq@&'.kq@+k+lq@mq@nq@5m@{q@+#.n- pb.)A.oq@sl.rI..%@bR.%Y.^'+{,+6{+Oq+,h@|V CX+x @JV+)u.ks.1L wa+4Z.-N.pL.T*+{4.9%.8%.wk.rL.~4.=Y.4L (O 1L [n.(R+kh@-l@pq@qq@rq@Hq.^M+=7.+$+>9 ;9 w| w| w| j< n4 n4 n4 {{ `b fd 83 83 83 83 Qg Qg Qg pi {} {} >9 >9 5/ 5/ 5/ `o.|!.r2.r2.|!.@: @: @: $. M@ l* E> 4/ 4/ ..  . l* <% l* l* 3/ '1.>[.E> E>  .  . 3/ 3/ F> k* L> :% r}+ua.C- :Z J` <% <% M@ M@ M@ M@ <% <% <% l* 3/  . E> .. .. ",
"sq@nq+@2.-F+1&+IF.[x.|4@[:@[:@ql.tq@t!+>^.A@ n> UG.uq@vq@wq@xq@yq@nq@zq@Aq@z|@wX+NJ ^V L(@L`+L`+L(@1+.1+.Ng BI._0 cd $f $^.>. {O +z iH wg.|n.z5.v( hx Qt ys.|H.|H.=].MT MT %} 0< 0< 0< L6 D> L6 o4 gd .: .2 St E~.I6 z5 ra Pt {M+!m p( q{.W-@@:._M+n8+9T+`1.Ro.$:.i`.':._@@E6 j&.Rv+Fh@Bq@Cq@Dq@m&+/S+cO+YF+Cz {++BV Eq@Fq@s .G- wU.cs.*'.ZZ Gq@4{@uv.uv.(+.U@.kf+U@.Hq@Iq@Jq@Kq@[&.Xv+~m+Hu+'T.~>+&O ^T.<A.t*+9&+9&+$Q+lP ]>+ZX.~W.0<@[l+Lq@Mq@Nq@Oq@go+b-+Pq@Qq@5I.,y.wh@Eg@`P+7J+&j@Rq@Sq@Tq@Uq@Vq@bJ+Yo@jq@%d@G9@+7+Wq@Bc@,;.=o ng.:3 {S HQ f<.NF..h+5k mf+X'+.p.&;@Xo.:n.;j@EX+Ef@t~+-.+I`.wa+`)+wa+z/+Tg T*+E`.i8.=Y.(;+!4.~4.$: D| F`.x9+Cn+1L [n.ti@.s+Xq@Yq@Zq@`q@2} Th+VJ.{u.{{ w| w| w| w| j< n4 n4 n4 {{ `b fd 83 83 83 83 pi pi pi }} {} >9 >9 >9 5/ B( B( 5/ >*.|!.|!.>*.M@ #: #: M@ <%  . .. A( A( 4/ E>  . 3/ 3/  .  . %: %: 3/ l* l* <% M@ M@ :Z :Z J` F> C- J]+@0.0%.p#.#: $. $. $. $. $. #: $. #: <% 3/ E> .. .. .. ",
"Ey.dW.l}@(n.<x.&@@1&+} @dW.{A.pl.zq.f0@d4 C4+ip@qz.E;. r@.r@+r@@r@3<@qp@#r@I_@Nv p( @^.ei B .wM wM xM |+.1+.BI.M`+R7 $f $f qP S7 6+.{O wg.|n.v( v( hx Fv hx 3F 3F |H.`_ MT MT %} 0< *7.Zo.i%+x9+5L D> p4 hi Og eY M`+(0 gx o$.*2.r{.p3.$r@-^.Fi qA (%+%q@3S+Po.r(.IQ [+.X'+@D.^` &Y.%r@&r@*r@=r@U#+4T+65@-r@ab@j^.;r@2T+>r@,r@6S+A$.N'@Uf@Gq@as.`y+Ul+-C+kf+T@.WJ+ ` *~@T'+gp+'r@d#@)r@Ed@~'+ek+f* c7+,;+]i.>;+C(.)i.z(.Xp E6 lP 7Y ,y+[l+Lq@_m@o-+CA+!r@~r@`f {r@]r@^r@/r@22@B4@~l@(r@_r@:r@<r@[r@}r@k8+]d+|r@Ud+QL+eL S]@@0+$a.oq@sl.s(.l$..h+)~.Yp +;+]'+>;+ND xv.zv.kO.T$@1r@2r@of+wa+h%+h%+x9+T*+oL.x9+3Z.F`.s2.i8.pL.XX.T*+T*+9%+~4.!4.pL.wa+ks.(R+-l@2#@G4+Yq@3r@4r@L&@Th+Lq.My.{{ w| w| w| w| w| {{ {{ n4 {{ `b fd 83 83 83 83 Qg Qg pi pi k< {} {} {} 5/ B( B( 5/ ,*.>*.>*.,*.#: M@ <% 3/  . E> E> E> E> E>  .  .  .  . E> E> B( B( l* <% <% M@ #: #: p#.p#.:Z :Z J]+@0.q* q#.0%.@: (*.(*.(*.(*.@: @: @: #: <%  . E> E>  .  . ",
"~+@`6@v .&@@IF.<x.Ro.(n.`C.[x.@2.@2.ol.5r@@Q.6r@jH+F^@(q.7r@8r@9r@}<@0r@N}@lg.7/.)S QT =I #;.#;.#;.es.>` BI.q$.R7 $f q>.$^.S7 I6 qP 6+.ZP.Or v( v( hx Fv Qt #z #z #z JD `_ MT %} %} *7.`)+='@07+H`.i%+3L G5 ys.23 _0 Mg 4S &2.[o 9R.z4 %M+E{@WC.fF hc@)8.(E.Aq.%:.4^+%q {M+K@.yP.Q  ar@br@`j.cr@5n.dr@er@$a@fr@Il.gr@hr@U#+.)@X@.ir@jr@&$@kr@0_@s4@v!+c1+S'+!U+dT+N=+R  PV+Be++l+38@+l+u @lr@FY+/q@Lq.ls.;;+Ny.t| eY ${ Zp p<.mP 7Y b%@|< mr@(I.nr@or@@j.pr@a/+!o.bm.qr@Fo@rr@>_+q1@sr@tr@ur@vr@fW.wr@xr@yr@zr@-5.i3.3S+Dm+5R.j7@&O &Z.%Y.oW.Q=+Xd+]i.aR.ya+-4.w( }n.AM Y=.j0@6Z.5Z.|d+'1.3/ 3/ >[... %: >[.mi mi mi 5L 4L 4L m}.4L cE.7%.7%.9%+wa+UU+kh@Oq+RW+:~@3} tW+Tj.A] ND BX+|H.dk }*.}*.}*.}*.}*.dk dk oi dk _m vP a< a< a< a< :m :m :m Qg  :  :  :  : 5/ B( B( 5/ ,*.>*.>*.,*.(*.$. l* E> .. E> l* <% <% <% <% l* 3/  . E> .. >9 {} f! @2 @2 v| v| v| -9 -9 -9 -9 >4.,4.,4.K6 W7 >} f< |/ f< >} u| +2 g< @2 f! w| w| ;9 @2 v| ",
"w .`g+u!+|V+|V+<x.(n.(n.&@@&@@Po.Qo.@2.hD+$0+El+6j F;.Ar@!H+1e.o/@Br@Cr@!x+la q(.ds.wZ+XJ+Ol+],.#;.xM Ng q$.KT+q>.fY fY q>.6+.{` 6+.>. y5.,I Or Or Qt Qt Qt hx ys.ys.2S JD `_ MT %} *7.H:@Dr@vS+LD+;h+[i@pT.Qt Z_ +f t] q3.WQ I5@^G+[R.Er@C{@rY Fr@Gr@Hr@Jh+|4@So.4^+jM :x+:x+1n.sW+Lg@Ir@Jr@U'@Nq.Kr@Lr@$n@Mr@Nr@Or@y;@VW i&+Pr@Qr@jr@,T._+.Py+ h+sw+f`.(=.07@a|+91+.p.Fq.si+m6+m6+Oq+Rr@Sr@Tr@LU+Cn+4L 4L {} E| O@.*9 LQ p<.9&+Ur@Vr@.a.kq@C7@Xp.2E+Wr@U-+v'+Xr@!o.d-+ u sz.Yr@2F.Zr@Z@@-4@`r@q2@ s@PP+~2.=5.1< Po.l<.cn+!U+G +x0+.s@5g+6g+Al..3+[L.@3+ik x( t`.G] &: nL.Q @[i@N%@Z=.$: K@ :% A( A( E> .. dE.'1.m}.m}.BM (O AM 3L 2/ J4+J4+XX.Cn+[n.kh@Oq+yY+.s@>>+n' %)+co+)Q+BX+;;+oi kR kR }*.}*.}*.dk dk oi dk _m vP a< a< a< a< :m :m :m :m x| x| x| x| `o.5/ 5/ 5/ >*.|!.>*.,*.(*.$. l* E> E>  . <% #: #: #: M@ <% l* 3/  .  . {} {} @2 @2 @2 @2 @2 @2 -9 -9 -9 K6 ,4.,4.,4.K6 >} f< |/ |/ f< u| g< @2 f! f! ;9 ;9 f! v| g< +2 ",
"q9+u!+OR+3R.*:.#` Oj.JF.({@#` (n.D|@@2.mI.PR.+s@@s@#s@qy $s@%s@&s@*s@=s@BV+f<.:+.&u.h&+h>.g&.#;.#^.>` BI.q$.q$.q>.$^.$^.q>.{O 1=.1=.{O q>.D .yM fY {` I6 I6 I6 I6 eY &} [V ~` s| %} -7.vS+-s@OD+;s@6Z.j0@gi ys.$f 1V KQ pY 1k 9N+>s@ym+bl@,s@'s@5<@)s@;R+v3@Aq.sl.tI.^` ]T.L`+0R.!s@~s@{s@]s@^s@/s@(s@F/+_s@:s@<s@[s@U@ k~+J=+}s@gu+|s@Zy+1V+1]@U'+(=.Q  .p.p$.aR.AI. !+qW.Jq.|L 8F kS+1s@2s@3s@4s@P@+,*.<% v| <m wP qa L@.6&.mP ~L.sZ+qb.`t sw.kQ+a=+5s@6s@_e p{+7s@v,+<I.3m@8s@Fn@^d+VJ+tq.zr@GF.4d@vU.9s@dL qg.Y1.0/.:=.E!+yr+0s@59@zZ+.s+]'++g@!_+}n.G> G] v8+ <+u8+&. ,D.u' :C ]o #. Rd.Rd.@. +. E> E> mi >9 fd o4 yi X7 xr+xr+Y  7%..4+,*.I`.^M+kh@.s+zZ+ep+g>.as@s*+e#@A] l' {'.oi kR kR }*.}*.}*.PD PD oi dk _m vP a< a< a< a< Qg Qg Qg Qg x| x| x| x| F] `o.`o.`o.|!.|!.>*.,*.#: M@ l* 3/ 3/ l* <% M@ M@ M@ <% l* l* l* l* l*  :  : v| v| @2 @2 @2 @2 -9 K6 K6 W7 j8.j8.j8.W7 >} GG KJ KJ ]} x| {} {{ >9 {} {} k<  : x| x| [C ",
"5s.sq@~A.|V+Ro.[E.#` ({@<n@2Y sl.D|@} @v3@bs@cs@ds@es@fs@gs@hs@is@js@sb@ai+f<.)O.W^+*T+c/.MD %I OW !o @f @f Ng $f R7 _0 cd {O ID +z fY yM tP Nl+tP q>._0 Z_ _0 _0 _0 eY 23 w] s| %} %} kS+3s@Eo+2r@zl.Iq.jO.Ve.;` 3S Mv Ke.ks@4h@ls@^p@td 's@ms@ns@os@Wq@NM S_ 1&+*}.^` t- 2! #I ps@qs@Yq@rs@ss@H,@Te.tT.ts@us@vs@ws@bn+w- &h+6x+ j@3e@{L PT uJ x> xP.Wl+ya+.$+~u.Ny.-7.2/ ^} YM. q H`.xs@<J+ys@6e@ -.>*.M@ v| .q qP L@.UJ.tI.t(.`C.Z[  R zs@sw.kQ+As@Bs@nD.Cs@Ds@w>+u'+Es@F1@1F.*{@Fs@ u.*k+A.@Tn@e4 Lj.e|.$r /O.3V FU.n' 9C+S5@Gs@Hs@ix+pf+|V .$+JJ D> K'.WX.DB. <+u8+ <+(Z.K'.`  B( @. r}+]c.K@ :% 3/ 3/ '1.fd ik %*.ms.5! 6H.(s@#3+'1.9%+0! A~.qW.[n.+g@ .+J@ 2e@w[+6F ms.v( ys.MT oi kR kR }*.}*.dk PD PD oi bk _m vP a< a< a< a< pi pi pi pi  :  :  :  : >{ F] `o.F] >{ r2.>{ F] 3/ l* <% <% <% l* 3/ 3/ l* 3/ 3/ 3/ l* <% M@ M@ [C [C g< g< v| v| @2 @2 +2 u| n#.n#.n#.n#.n#.n#.>} GG GG GG hk  : {{ E5 {} {} k<  : x| x| x| x| ",
"iF _j+ka l| ob.m}@wM.!2.nB.Ro.&@@<x.Ro.[1@t6@n@+6(@Is@Js@Ks@g/@gO+;z $5.Ls@g' :p@qP.:p@YW r3.)2.]V tA -` SQ d* S7 qP Og 'I ZP.Vk+%Q.%Q.xM #^.]:.}S Ms@:x++h+vM ],.-u.Ve.R7 $^.7x.%*.`_ |%.}n.G5 /O z5.u( -u.+;+A .FT ~L.Ns@4h@do+C{@Os@Ps@Qs@ns@( @Ao@yo@(! o9@`[ Pj.n$.{M+(0 QX.Rs@Ss@Ts@iX+@o@FJ +z ]O zn.Us@Vs@-a.~:.a&.B).mM mM tM {o #z |H.&7.0< Ny.!p.Dj@!p.,f ck {{ PD >9 PD m}.Fe+HA+Ek@x9+5/  : Qg 4+.L  5G wI.&@@pl.`X.Ws@HU+Ho@Xs@Ys@Zs@`s@ t@oo+.t@+t@@t@#t@7]@&9@`6@ h+*,+&'+H<+.j@!-@Be+g* bb@bn+Mq.dc+B] /O :C AM |d+ju+BM +$+CM CM l}.G> %. jE.&. [% v' [% ,D.G] a! F] ,} G( i< }p.}p.D5 pU n4 o4 -7.ik 5! rm@ZR.S,@{u.ik Kq.o4 o4 x( {} n4 [C Fn.fL.s4 n4 mi hk ]} n4 >9 {{ n4 {{ k<  : {} o4 83 fd L6 -7.w( _C 20  q [C [C x|  :  :  : x| x| {} {} {} {} k< `o. : >{ .. E>  . 3/ l* l* l* l* l* <% M@ #: #: #: #: #: F] >{ a! >{ F] `o.F] >{ >{ a! @: (*.6%.6%.(*.@: t`.G> a! >{ F] `o.B( >[.B( 5/ 5/ `o.F] F] >{ >{ ",
"$t@m(@%t@ b@ob.&t@mO+*t@`C. D. D._M+Bq.G  =8.`~ =t@Qm@F[@%3@Va@Ir _! m| Ls@a* o- o- xm+'% '% ve@-t@9L {0 B(.d* Y1 qP Og 'I %N.Vk+Vk+V  Ng C).{:.f&.+;.u- u- lN++h+P  y] KT+Ue.(C Z1 33 a< X7 2S -4.Z_ U=.lk A .`,@vM.;t@o{.8=.>t@u!@,t@1` E' ut.'t@)t@B>.rb.f9.oq@oI.To.x<.]~.!t@~t@~p.UO UO )` O@.eY >. 3+.}T.7c@HD ~:.d&.l>.EM.e&.8k `_ dk oi E5 ed ed mi mi E5 E5 oi oi oi oi dk `b 07+_0@Tg 5L x( E| $,.aF yP <+.$` Tn@.u.{t@]t@@t@Mq@7y+Rn@^t@/t@qM.(t@_t@a@@<#@:t@1J+<v+N=+ ,@.l+yr+0j+26@+,@t`+Vo.zT+CX+zv.1L +$+m}.B( >[... E> B( B( B( B( `o.t`.%. FW+,D.&. v' &. (Z.t`.G> @: K6 10 G( i< D5 D5 pU E5  q Tg ik Ah@<t@[t@%N. p.pT.C] x( gd @2 pU W7 h(+%_.`<.{G.K> @@.h< j< f< k< {} >9 {} k< k< `b o4 fd fd ik 20 G5 M6 M6 X7 ]} ]} [C x|  :  :  :  : {} {} k< k< k< k< k< k<  .  .  .  .  .  . 3/ 3/ <% <% M@ M@ M@ M@ M@ <% F] >{ >{ >{ F] `o.F] >{ >{ a! G> K'.t`.t`.K'.G> G> a! >{ F] F] `o.5/ B( 5/ 5/ `o.`o.F] >{ >{ >{ ",
"^{.}t@=F+|t@:8@41@1t@1t@|V+x .SJ..I v(.'r+^H.jQ+!O.i/@[n 2t@'5.!S :p@]/ _:.s6._:.s6.YW xm+xm+r3.r3.b* #9 B(.d* r| S7 Og 'I %Q.%Q.W   4+>` 2+.]T.t- u- u- c&.lN++;+:x+C).Vl+ya+}V 7x.AX+`_ sa ~` BX+Up z9@Z-.:H.4^+la Fi AO+Iy+3t@3t@4t@5t@u:@6t@TT 9% 7t@qb.pb.cx 6Y YW (:.DO+9k.-Z 6L 0< MT JD JD 3F Fv =4.XI 8t@lX+d1+-'.AT+bn+CM.6F %*.$].CM CM Tg CM CM CM $].o4 o4 F5 $].o4 x( Z  Z=.P@+z/+4L Gv Ug Kg /C r3.}o n(.Jh+j6@9t@]t@0t@-R+at@@B.Mv+bt@ct@dt@<Z.rm+NK+-,+x4+1d+0R.A] fs.s`+et@ft@|0@<8@t @CX+^M+zv.8F AM ]o F] %: ..  . 5/ `o.F] >{ a! t`.(Z.%. t`.(Z.&. %. &: K'.K'._*.y( j8.10 '} i< pU ~} E5 x| s2.IJ -. dn.TR.-4.My.}!.ls.fd  q @2 @2 oa.nd@px.^r.-)+bp.(Z w| j< hd  : k< k< k<  :  : 83 `b o4 `b }/ M6 U7 U7 G5 }/ KJ GG ]} [C  : k< k< k< {} k<  :  : k< {} >9 {{ 3/  . E> .. .. E>  . 3/ M@ M@ M@ M@ M@ <% l* l* 5/ `o.F] F] `o.5/ `o.F] F] >{ G> K'.t`.K'.K'.G> F] F] F] F] F] `o.`o.`o.`o.`o.`o.F] F] >{ >{ >{ ",
"gt@D4+|t@~W.4^+s|._L.^H.$:.u(.u(.CQ NF.|[@*O ht@%Y.To.gO.hO.]>+_:.=}.&` JQ YW Z].U_ Nv Nv xm+r3.VQ NJ tA TL+d* r| S7 {` 'I %Q.%Q.W  :L g&.g&.ei t- ]=.FU.lN+c&.]T.]T.y] m' hY Z_ w] ms.[V {` >. sA m9.it@8T+6m Le.G  AP+~x+<R.,t@,t@ms@jt@ms@TT $[@9% ,;.NG pb.`e T1 To.x<.7i s( FM Ny.`_ JD 2S 1S hx hx Or ,I gH {o {m :O.CJ DJ z] +3+yi $].$].CM Tg Tg CM $].$].F5 o4 F5 F5 `b Gv YM.+V.r2.D> w( Fv es.3S [o CP {/ D4+V=+Fs@q2@Bp@fW.'L.Dv+sM.!8.'c+-k@sq@6]@-I+%Y.yP.6F 8x.Lq.A5.)u.@,@2#@~_+ap+i7++g@Iq.,9 ,9 8! N@ I> &: >{ 5/ `o.%: 5/ F] >{ >{ >{ a! G> F] t`.(Z.,{ K'.>{ G> _*.n#.,4.;7.G( h< h< h< j< ;9 {{ `b ik _C ik -7.-4.{u.yi L6 gd [C Zb Vy.kt@Fd.^r.Y3.y( |/ hd |/ +2 k<  : x| [C ]} GG }L Gv gd  q M6 hi ={ 30 p4 X7 KJ GG ]} [C x|  :  :  : k<  : x| x|  : >9 n4 E5  . E> .. 4/ .. E> 3/ <% $. $. $. #: M@ <% 3/ 3/ B( 5/ `o.5/ B( B( 5/ `o.F] >{ a! K'.K'.K'.G> G> F] F] >{ F] `o.`o.`o.F] F] F] F] F] >{ >{ >{ a! ",
"5S+} @'r+Y].IQ ]>+p(.)S wZ+8S /` >~.8V Yp @^.(O.Yp A .5F Qj.t*+p( c/.*2.^` <+.wJ [+.=}.7/.Nv r3.VQ q<.tA !:.N  Y1 S7 $f $^.ZP.%Q.:L :L wM #^.{:.vM d&.h>.lN+8&+lN+t- L`+$I 1+.KT+Z_ R7 >. (/ N@.q2.m%@Uo.:p@]L.qg.lt@mt@Fr@$[@nY+Il@nt@DA ot@ot@G$.nx qb.C#+ca@52@IW Nv 4S 7i 0d ]% P@.2S My.[/ My.My.My.A5.ls.X=.Lq.Lq.zI.Lq.@3+@3+=7.*7.m}.m}.5L CM CM ,1.l}.l}.l}.l}.,1.,1.m}.2/ u' >{ fd -7.|>+y] #O r6.0* tM.@8.|&+pt@qt@;l@=4@=2@)L.}F QR.rt@+:.$:.$Q+Nr Ve.ys.ii ^} ]} `o.B( D> -Y. p.E4+E4+%N. S.Z^+T/@30 6! 53 .: }L 83 fd {} >[.B( F] >{ F] `o.5/ 5/ B( >{ K'.K'.>{ `o.>{ (*.;7.;4.l8.,Y.,Y.'} '} w| f! hk {} s2.b5. q #2 %*.w( IJ x( gd a3 In.Sy.st@10 bf.ta.73 +2 ta E] k<  : [C GG a3  c E] 63 -{ -{ 63 $2 6! e< 6! C5 30 ]} hk [C x| x| x| x| x|  :  : x|  : k< >9 E5 mi .. .. 4/ 4/ .. 3/ <% #: (*.(*.@: $. #: <% 3/ 3/ >[.%: B( B( %: %: B( 5/ F] >{ a! G> K'.K'.G> a! >{ a! G> a! `o.5/ 5/ `o.>{ >{ >{ >{ >{ a! a! a! ",
"pl.#` CQ _H.!5.lP QT +^.F .'O !~.di !m tl.bd ;` D(.z(.We.o$.Yp 2V %q nP jM EG wJ ,~.!~.J@.7/.Nv r3._V tA Lg RW L  L  $f q>.ZP.%Q.:O.r$.L`+L`+]T.ei h>.+;.FU.c&.uM uM ei Sj.q$.>;+BX+_0 L  N  ;o :V _V ci JW M0@Fg sH+UE+7t@tt@ut@vt@>v.wt@2C xt@Os@Kt =o yt@zt@ob.|.@_:.[O ;a.i' t( eY |H.ls.~u.ls.My./O /O /O t< [/ ls.ik Ny.%*.Ny.Tg m}.D> `  4L 5L ,1.l}.D> D> m}.5L ,1.,1.5L m}.4L }L J6 y5.]T.PR+rI.ka v3@$9+ga@At@sM.xk@Bt@d<.Ct@o .[6@Dt@Et@;O Mg M  DM kR W7 sa.[p.gk./*./*.N|.cE.p4 6! }0 93 T/@_s@-K.}/ U7 m4 }L 83 fd fd fd %: 5/ F] >{ F] `o.`o.`o.5/ `o.>{ >{ F] `o.`o.M@ ,Y.GT.,Y.,Y.,Y.,Y.G( G( 73 w| ~} {{ k< x( {} o4 `b -7. q Gv ^o Ns.Ft@Rs.73 -9 K6 u| f< s< a3 GG ]} KJ 1m Rr ix.O3.53 d< d< 53 6! $2 V7 V7 ={ hi [C [C x|  :  :  : x| x|  :  :  : k< {} {{ E5 mi .. .. .. E>  . l* M@ #: (*.(*.@: $. M@ <% 3/  . ,[.'1.%: %: >[.>[.%: 5/ `o.F] a! G> K'.G> G> a! a! K'.t`.G> F] 5/ `o.>{ a! a! a! a! a! a! a! a! ",
"&}.$:.TJ.5S 4k 8&.Ci Ci tM 8&+e* L`+x] aR.hY KT+x] hY _O.-u.e* Sj.@;.e3 XJ+l>.}=.l>.#O /O.7/.&2.Qj.^/ tA 2k Lg pP pP $^.q>.>` >` CJ CJ $I bd bi E(.^` di >~.,~.c/.jY !m !m ;` :S @f =9 xI.xI.Ev TQ [O &` lg.CT DH+Gt@3h@4d@)t@Ht@k! Ao@It@>z Jt@Kt@y|@Me.n- ca@ob.ZW To.UQ @t i' AX+AX+ls.^M+^M+)u.v`+*N.Y=.x;.t' Kq.(O `  l}.5L l}.Tg l}.(O }n.Zo. $+BM Zo.A~.Zo.BM JJ +$+(O }n.(O *7.zi rP e3 (` *:.1{+Xo@cC.$B.gf@|c+Lt@Mt@Nt@Ot@)L.PC+cs.m @^W.1V `1 =u.'w+<V.<Q.zW.xx.ku.+t.0}.=)@t`. : ]}  c .: d< ){ m4  q y| y| gd w( _C }/ x( 5/ <% M@ M@ <% <% M@ #: $. M@ <% <% #: #: <% k* ,Y.GT.GT.GT.Y^+Y^+Y^+,} '} D5 pU v| g< {{ pU {{ $].b5. : l< O3..$@Pt@$T u| v| g< f< |/ GG GG l< GG l< 1m 1m a3 l< D] m4 .: -} 30 30 hi U7 M6 X7 [C [C x|  : k< k< k< k< x|  : k< {} >9 n4 E5 ed 3/ 3/ 3/ 3/ l* l* <% <% $. #: #: M@ l* 3/ E> .. A( 4/ .. E> .. ..  . 3/ <% M@ $. @: @: @: $. $. >{ K'.G] t`.>{ F] a! K'.G> G> G> G> a! a! a! a! ",
"iP )S [+.%q @^.K .rA 9&.c&.P  L(@cd Z_ Ue.v> v> Z_ _0 x] x] L`+2+.U=.Bi @;.ei lN+h>.l>.:L.6m ':.':.x<.^/ >m 2k RW RW q>.q>.>` 1+.CJ Ng :V OW ;` %I ^` IX.#O mk jM di +;+{M+m9.iU+@2@L@.Vc@SQ yP zP ]V q{.`E ,% M_@%)@Qt@Rt@5<@Gi X_@St@Tt@Pn@Ut@::@`W O .ob@Vt@Wt@`E Xt@r3.,a.e+.xI.&;.jO.)u.)u.^M+1L s @Kq.A~.s' Kq.4L 0! B( B( B( mi JJ  $+}n.Zo. $+ $+Kq.:C (O +$+JJ (O :C x;.3L [/ |>+]T.`].k<.^n.~/ KR.Yt@8}+Zt@`t@ma+ u@.u@+u@y`+:Z.|{@C$.{:.R7 pi |Q.ng@(Q.@u@Ri._m.Ii.1'+q7+Gs.m8.4% z' $T hd [C l< Rr ;} m4 y| ik IJ _C }/ 83 B( l* l* l* 3/ l* M@ $. 6%.$. <% <% $. @: M@ L> Y^+k8.k8.k8.Y^+Y^+Y^+Y^+h< 73 g< @2 ;9 ;9 f! f! {} i8.x|  c 1m _'+%r.Rr [C KJ |/ [C [C l< l< hk GG KJ l< GG x| {} `b fd m4 m4 30 30 ={ hi M6 X7 hk [C x| k< {} >9 {{ {{ x|  : k< >9 {{ n4 n4 E5 <% <% <% <% <% l* 3/ 3/ <% <% <% l* 3/ E> .. 4/ $: A( .. .. .. .. E> 3/ <% M@ #: @: @: @: $. $. F] G> G] t`.a! >{ K'.&: G> G> G> G> G> a! a! a! ",
":+.)S Rv+c/.<o wJ 'O Q  x> P  KT+>. h&.hx 3F |H.`p Or u( </ u( CJ Re.4p+#u@vb.R)+-'.d&.wI.TJ._H._H.MD E(.Lg +f N  d* &;.M@.1+.|+.g&.B .KD bd Rj.iY 3T+*I 8&.8V 8V >~.c/.XW $u@%u@&u@:S IW+}+.TQ ^/ ]5. f.iA+=q E7@sH+>5.;5.*u@FP =u@YD ::@-u@N}@pb@Hy+N}@%5.Jj.]d.`E hO.^6@'8.=7@8L 2k xv.+g@)u.9x.s @s @*N.3L 8! `  B( K'.F] %: 3/ >[.|%.1L s @-Y.s @-h+X  |L v`+s @!_+!_+1L s @s @VJ.2+.3V &:.q9+lf@:n@,L.;u@>u@,u@'u@)u@!u@~u@{u@]u@_+.!-@g}+z] hx x| >4.<Q.^u@/u@wx.@w.kk.ip.^-@dp.z' &f vT.L$@7T.k}+K` ;2  2 E| q^.JD %} &7.&7.IJ >{ <% 3/ 3/ <% $. 6%._*._*.6%.@: @: @: #: l* L> vh@,Y.Y^+,Y.;: Yl.,Y.Y^+G( '} '} h< h< '} G( ;9 {{  :  c +0.4u.~r.+q I] }L ^} ^o 63 }L x( k< x|  c KJ x| {{ n4 >9 x( #2 53 63 30 p4 M6 X7 20 _C ]} hk [C x|  : k< k< k< {{ {{ n4 n4 n4 n4 {{ {{ 3/ l* <% <% l*  .  . 3/ <% l* 3/ E> .. 4/ 4/ A( A( A( A( A( A( 4/ .. E> ..  . l* M@ $. @: (*.6%.&: t`.>{ F] >{ a! G> K'.G> G> G> G> G> G> G> G> ",
"..+&++<+.9V k&./` PR+sB.7&.t- x] I6 O@.eY 3F #z ,I |n.Or u( u( {o CJ Re.mX+Bl.L}@bn+l>./` CQ 8/._H.jM MD :S Lg CG Yb RW Lg BI.1+.wM L(@;o Lg 4F s@+J-@W#+k&.>~.~m 3V ^` @^.Xu $u@(u@#f xP 8L t] TQ ^5.BP '5.kv.B@ r] dL _u@M[@9m L[@UE+:u@<u@!x+[u@[u@G{@rb@es+`E Wr U_ (d.[O X<@gS+;}.</ v6+^M+9x.1L s @*N.*N.B> 4L D> K'.F] %: B( %: (O FG FG qW.*N.,9 ,9 |L *N.v`+ks.!_+1L v`+FG yv.d&.a/.4R.H=+)L.LD.}u@|u@Vu.[(+}u+8}+ u@5p+G!.1u@2u@f* 2V+#I ^,.KJ >4.$_.ef.ff.)z.+t.<;+_++/,._,.n#.3% 3u@bk.ak.k}+K` b< (m D~.2S `_ =].&7.=].IJ [C #: <% <% #: (*.6%.6%.$. @: @: @: $. <%  . E> 73 ;4.l8.,Y.Yl.'} Y^+G( !} !} i< ,} -9 K6 ,} j< _c.x| (} ~r.%r.)m.1% -} -} m4 Gv 83 L6 `b [C l< GG hk  : >9 >9 k< #2 }L m4 ;} G5 X7 X7 20 20 }/ hk [C x|  : k< {} {} {} {{ {{ n4 n4 n4 n4 {{ {{ 3/ <% #: M@ <% 3/ 3/ 3/ 3/  . E> .. 4/ A( A( A( 4/ 4/ A( A( A( 4/ 4/ .. E>  . l* M@ $. (*.6%.6%.&: t`.a! a! G> K'.t`.t`.a! a! a! a! a! a! a! a! ",
"Bq.*q Ws+:L..++XQ wZ+9/.'O di gx w] [V eY l' M`+$f q>.BI.KT+KT+_/ q$.$I wM wM wM Sj.{:.'~.v).QT m$.jM MD OW :S ;o ad +f Lg ad :S l&.;` @z sb._S LD }3@oY &2.JQ i`.x(._H.$Q+5S v<.KQ n|.L@.+f IT ):.zP oY !}.[o }o ,2.4u@,~@g9.b`.5A+Zt 5u@6u@7u@8u@ks@;z Xi@cL 9u@0u@-z f4 ^5.0o@rV+tb.{o Ve.)V.yv.@3+jO./O }!./O *7._C y| x( o4 fd 83 C] $k+$k+&Q.W  '2 E4+$k+*{  p.jO.VJ.jO.B] &Q.BJ m>.4j@au@bu@cu@du@nr+Yk+eu@eu@8}+OP+'L.fu@;R+^n.E.@ ,@U  hY+0b@^} 6%.@0.h2.h2.hf.jf.#-.J4+>*.G> ta.3u@8p.2% L$@e! vA ni vP vP JD JD |H.|H.|>+ls.x| M@ <% M@ #: $. $. #: 3/ M@ $. $. <% E> .. E> 73 '} !} !} i< j< h< w| @2 f! ;9 @2 +2 u| +2 v| @2 |0 @T Pg +0.P@ ){ hi M6 }/ Ny.|%.CM `b  q y| x|  : {} {{ >9 {} x( gd gd x( w( ik _C }/ }/ }/ x|  : k< {} >9 >9 >9 >9 >9 {{ {{ n4 n4 {{ {{ >9 l* M@ $. $. M@ l* 3/  .  .  . E> .. 4/ 4/ .. .. .. 4/ 4/ A( A( A( 4/ 4/ .. E> 3/ <% M@ #: $. $. G> a! >{ a! G> K'.K'.G> >{ >{ >{ >{ >{ >{ >{ >{ ",
"gu@hu@*q ~L.r(.ic@iu@)W..^.)O Pt z5 M  ${ hY hY q$.Ng BI.q$.Ng q$.BI.C).L(@L(@L(@2+.vM 'O .^./` /` nP ^` :S ;` Lg ^% @f L@.#f :S Cv OW w$.-` IT NW 4S y(.[+.n$.:L._W.JQ lP r{.y(.VU+MW ad @f (0 'i._S L .DG _H._W.mr+i/@i/@,2.$` =8.88+R8@^8@Yt.6u@F$.cL >;.>;.7a@G0@jA+O5 ju@73@]G+/C Ng +3+)V.yv.@3+jO./O My.~u.-4.}!.U7 ik -7._C _C &Q.$k+|n.*{ EJ '2 EJ  p.|n.zI.z5.jO.z5.zI.y5.3X+tM l&+ku@lu@|/@mu@nu@2F.mC.ou@pq+MJ.tm+]H.bp@Wk+vJ Tj.{d@dc+&N.M6 t`.6%.r#.)4._Z _,.J4+.4+J'.,{ wi.Qr &f *c Dv ;2 :m vP vP JD 1S q^.hx ys.v( A5.{{  .  . 3/ l* l*  . .. .. l* M@ l* .. A( .. 3/ @2 j< )} ~} w| w| j< w| f! u| hd hd +2 f! f! v| ]r.v}@%2 l< x| m4 C5 X7 |%.Ny.w( _C gd x( fd `b {} >9 {{ n4 E5 ed $].$].`b L6 -7.IJ ik _C _C ik k< {} >9 {{ {{ {{ {{ {{ >9 >9 {{ {{ {{ {{ >9 >9 <% #: @: (*.$. <% 3/ 3/ 3/  . E> E> E> E> E> E> E> .. 4/ A( A( A( A( A( $: A( 4/ E>  . 3/ 3/ 3/ B( B( 5/ `o.a! a! >{ F] F] F] F] F] F] F] F] F] ",
"&r B@ CT iM 1&+`C.-F+(n.$:.]>+Mr <H.${ @f Pt z(.Zp bd bd #f ;` #f #f LQ ^% O  ^% ad 7k s{.0/.'O '~.^` c/.;` ;` @f (0 @f L@.Zp #f OW !o 8L 8L t] (:._V y(.':._H.TJ.8/.|[@|[@[+.!5.l3.)L *1.OQ Nl+Up Lt 4m 1V !m nP jM r{.[+.&2.wI.o( Nv pu@qu@qu@w{.ru@|C jv.Ie.$r@$r@YE y%@su@tu@d:.9+.|+.wv.wv.u( wv.wv.`p z5.BX+BX+Or )I 3F =].ys.Q@.`p {m q$.DJ xM rW+>` u( q$.{m KT+{o KT+fi 1+.$I jY xQ RR+}@@I| j3.zO+QL+tm+uu@Hr@vu@tM.1&+-I+&++$I |n.Q@.uA ls.IJ w( 83 >9 `o.>{ <% 3/ l* (*.Is.;9 ~} ~} pi qi qi ni D~..q sa T7 'I Og Qt z5.A5.E5 K@ K@ :% L> :% +. #. :% k* k* K@ L@ L@ :% M@ u| {} ;9  :  : >9 {{ {} n4 l< c< ix.x| n4  : hd z| |p.'r.KJ k< ;} 30 /O {u.&N.F| xr+V7 X7 L6 $].n4 n4 n4 n4 E5 ed CM Tg `b L6 -7.IJ w( ik w( IJ {} >9 {{ n4 n4 n4 n4 n4 >9 >9 {{ {{ {{ {{ >9 >9 M@ $. @: @: #: <% l* l* 3/  . E> .. 4/ 4/ 4/ 4/ :% K@ +. @. @. @. @. @. L@ #. @. +. K@ :% :% E> '1.>[.%: 5/ F] >{ F] 5/ `o.`o.`o.`o.`o.`o.`o.`o.",
"}:@EW &!@r] {/ Mj.`1.FQ -8.o(.UJ.sb.Y6@Mg We.Nr o$.bi bd Mg ;` #f bd LQ ^% O  @f Lg 1V s{.0/.'O '~.^` ^` :S ;` 2k 2k t>.t>.;` Mg OW ;` -` 7i t] _V x<.*2.!5.!5.IQ wI.wI.wI.JQ =}.u<.gR.F/@_!.~++3x+*1.$J Lt OW bd bd #f bd K@.!m x<._V z}@wu@xu@N .yu@zu@BO+&C+rH+rH+cN+y%@Au@V#@;;.0L MQ u( </ {o 8x.</ Or z5.}V }V ,I ZP.v( wv.Or u( _/ KT+BI.1+.|+.xM >` BI.BI.Ng Ng Ng BI.BI.1+.B .;8.m$.IQ qI.e|.+:.TJ fF M[@`Q Pd@#` q6.[+./V ;` {` J6 J6 T7 C] My.ls.*7.-7.`b D> B(  . 3/ :Z >} )9 }} PD pi :m D~.(m sa q^.:0 'I )I 'I Qt z5.=].w| :% :% L> k* k* :% +. :% L> :% @. #. @. k* #: hk {} >9 {} {{ mi E5 x| (} (} ix.[C E5  : (} Rv.v}@v}@Zb k< >9 C5 GJ IZ+1} IZ+$t+ln@6! X7 `b L6 E5 E5 n4 {{ >9 >9 `b `b `b `b IJ IJ ik ik IJ -7.>9 {{ {{ n4 n4 n4 n4 n4 {} >9 >9 {{ {{ >9 >9 {} M@ #: $. #: M@ <% M@ M@ l* 3/ E> 4/ A( $: D| D| K@ +. +. @. @. @. +. +. @. @. +. K@ :% :% :% E> E> >[.%: 5/ F] >{ F] 5/ 5/ 5/ 5/ 5/ 5/ 5/ 5/ 5/ ",
"AO+Bu@)A.r^@TJ (E.EP Q> DP %` VQ p- -` SW IX.IX.jY c/.SW !m SW ;` !o ad LQ Yb pP CG 1V !'.2X+B).Y-.jM jM JT OW Up KD Cu@Cu@/C TQ 3S q<.4G 4G /C (:._V r{.Z]./O.xb.8/.;O mr+:H.!}.[S+x[@Du@Vg Vg Dd.gY rP sA F'.hY hY hY _/ KT+|+.t>.kA+/<@Eu@Fu@Gu@Hu@4D I3.Iu@ba@l:@cN+jA+Ju@F7@M .AP t>.BI.x] q$._/ x] BI._/ hY Vl+BI.1+._/ -u.BI._/ O  @f Lg ;o ;o >m ;o Up Lg 2k Lg L@.@f ad Lg ;o ]:.@;.%q Eq.DQ #r 5>+88+la lg.o- y<.)% A(.7L u> 'f ;2 B5 |} ii Og #z =].~u.-7.o4 n4 j< h< ,Y.'} od !` 'f QW _O 6L EM ~` &} eY S7 qP cd Z_ l' &7.;9 k* L> k* J` J` k* L> K@ K@ K@ K@ :% k* F> <% x( o4 $].o4 $].$].#2 d< Z6@d< [C n4  : E] .0.En.]G.bf.f! D| n4 $2 dn.X$@[t@[t@IZ+F| M6 w( `b `b E5 n4 {{ >9 {} {} fd fd `b L6 -7.IJ ik w( IJ *7.{{ {{ n4 n4 n4 n4 n4 {{ {} {} >9 >9 >9 >9 {} {} <% M@ M@ <% l* <% #: @: $. #: l*  . 4/ $: D| xp.+. +. @. @. @. +. +. K@ @. @. +. K@ K@ K@ K@ 4/ E> >[.>[.%: 5/ `o.5/ B( B( B( B( B( B( B( B( B( ",
")r+WC.a7@~N+Ku@f' (E._E.Lj.Pj.WQ 3L.i}@*2.di jY r{.~}.Qj.(V (V (S _V #9 _S Ot IT @z x<.p(.y$.9/.0P /O.[+.r{._V NW X].J  fR.L .zP (:.(:.^V 5G q<.3S Uo.[+.xb.]>+6m TJ.S@.RT ;2.[S+0q@Z@.W=.F| ]O ID Fv Z1 Z1 S7 tB.tB.}V (C Z_ M@.&z u] Lu@ } ]8@#C+yu@O5 Mu@I7@$r@Gg  f Nu@Ou@ds+F7@D@ :V C).y] BI.x] KT+BI.x] KT+_/ Ng 2+.-u.e* :x+xP.#f :S Cv 4F X].l&.9+.>a.q<.q<.tA _S IT ^V tA 4F E(.e3 'R+5m h@+Eq.WQ lx y<.r|.Ot Ev TL+L  ]% 4+.(m Gv y| p4 M6 C] My.A5.{u.+$+$].,[.j< :% ;: !} }*.pi %K.ni 6L .q [V %} {'.|H.23 ys.eY 3F 7x.0< 5/ 3/  . k* F> J` F> k* +. +. K@ k* :Z M@ <% B( cE. $+o4 4L D> 2/ c=@Pu@z( >{ >[.6%..V. V._*._c.+. =_._c.4/ G> }% P@ 1A.93 }0 ={ 20 `b F5 E5 E5 ;9 3/ w|  . w| >[.n4 l}.n4 l}.o4 (O w( Zo.IJ o4 {{ {{ n4 n4 n4 n4 {{ {{ {} {} >9 >9 >9 >9 {} {} <% <% <% l* 3/ l* #: (*.>1._*.@: M@  . .. A( $: @. '7.@. '7.@. 9%.K@ o#.L@ #. @. '7.@. '7.@. #. .. ,[.mi ,1.l}. $+ $+z/+m}.pL.pL.pL.pL.pL.x9+x9+",
"Qu@It@xt@g9@Ru@v* /E.Su@Tu@Uu@Xg Vu@Wu@GL+5_@LD 4< V#@LW Xu@.#.Yu@Zu@`u@ v@Xu@{~..v@Kt+]d.{S B@ 88+=t@];+!A.6m !S &` &q YW E6 Mv ^6@~}._V /~.KQ &I Mv q{.z .6m 7d 9R.+v@@v@B<+p3@#v@n9.}0@'Q.1A.$v@/} 0< s2.a< yi Ny.{'.v> 1! -` %-@$8 AA ,1@tu@ f.jA+lx -o DQ nk [o 6m Xt 9R.fP [o q{.5F SW o$.#f ad LQ ${ d* @f LQ D(.gx Nr ~o !~.8&.!5.':.<+.Eq.r3.UJ.Mv HM.I  VQ N0@[O HM ]V d|@HT ,}.)2 aP +I ~f lk MD :S :S Cv )m Lg ^% x] x] Q@.@3+rW.JV+zv.9x.v`+1L !_+.$+=N.l}.T*+E> pW.L> F> ,} ,} 1!.g< qi }L :0 X7 q^.20 q^.}/ 1S _C 2S 83 cE.,*.9%+7%.>0.+-.@-.@-.)h.4|+;0.+-.bT.XX.T*+-N.-N.TW+m}.L] j%+%v@&v@*v@S;@{$+!*.q7+_]@)S.L@+'t.r< #. 8%.#-.dp.Fs.6%.<% 3/ 3/ 3/  . E> .. j< j< :% o#.:% o#.:% pW.E> T*+4/ F`.'1.z/+m}.G`.D> `  k< {} {{ n4 E5 E5 n4 {{ n4 {{ {} {} {} >9 {} k< #: <% 3/ <% $. (*.(*.$. >1._*.(*.$. <% 3/ E> .. '7.Mi.'7.Mi.'7.xk.o#.^m.;0.wk.'7.Mi.9%.wk.8%.8%.9%.(;+G`.Up@ra+OO+Ef@=v@Cn+B0+%.+C9+P@+J;@_0@{[@",
"-v@;v@>v@,v@Qt@I[@~_@4A+*8.e|.CP >2.Di FM._g+D@ !2@.#.N .'v@)v@v5 !v@~v@{v@]v@6u@^v@/v@gO+Yg mx Vt@XC.aa@zc@(v@ZW lg.Vr Xt ]/ To.YW &I KQ s<.oP oY Wt WQ -z Ke.7d iA+'Z.fy _v@:v@<v@wb.ln@'Q.2A.HJ d! #2 PD b< 4+.4+.v$.tB.X6@@z w5 *3@I  lx &q &q WQ q{.9R.PE+9R.W-@y .u6.u6.r6.o(.:L._H.@^.o$.K@.D(.(0 z5 ${ @f @f #f bi bi di #O /` ,:.J@.o( Y].&` s] To.-c WQ s6.v5 9Y .e@ve@[v@CV+j&.7V VW  t e3 $I q$.BI.>` MQ ]` MQ |+.L(@-u.]i.v6+}v@KA+fj@LU+TP+G!+Ge+3Z.=N.T*+T*+pW.pW.(;+.4+;4.;4.10 u| KJ D] D] U7 p4 U7 hi hi ;} }L  q cE.0! h%+XX.XX.+-.+-.@-.{*.{*.pH.~*..4+J4+XX.x9+-N.Z=.-].Z=.|v@1v@M3@2v@3v@/,.4v@5v@6v@:K.y&+f%+7v@'S.HW.C6+r7+66@H( Ud.za.k* 0%.>7._Z p#.L> !} K@ r}+)h.)h.)h.o#.o#.pW.pW.{4.{4.=Y.T*+x9+oL.G`.G`.k< {} >9 n4 n4 n4 {{ {{ {{ >9 k< k< {} >9 {} k< #: M@ <% $. _*.WX.>1.6%._*.6%.(*.$. M@ 3/ E> 4/ '7.Qi.=_.Oi.Qi.wk.Ni.^m.xk.xk.xk.wk.^m.]m.^m.^m.#-.YX.8g+8v@Ab@sj@EX+9v@Sr+*.+P@+.f@6e@0v@k6+e8+",
"e9@o:@`<@av@bv@bv@ <@>R+oq@D|@ok CU.xb.;2.dy pD+hO.w{.cv@dv@ev@fv@gv@hv@Jl@iv@jv@kv@cL {_@XC.lv@F0@bD+V6@mv@nv@ZE 1k 9R.!S s6.Nv &` h@+KQ s<.LD u<.^6@lx ^;+ds+ov@a:@uB+pv@qv@1L.kx qd ,Q.`k@J%@mO.&. G> >9 ]} ni DM s>.tB.(C ad gS+fR.V6 -c @v@@v@hO.Ur Di &N+DQ 9R.q6.u6.r6.]S #:.:L._H.c/.7k 7k #f gx (0 LQ LQ ad :S E(.MD nP m$.,~.=O YW _:.L#+(d.y<.VQ Wt q3.*2.:! MW UQ (S p{.M:+Fl+rv@tW+vb.3X+8x.ND z5.,I ZP.zi ZP.ZP.r$.{m )V.!u.ra+IV+IV+A/+G!+H`.Ge+=N.z/+pL.pL.(;+(;+.4+J4+;4.;7.-9 >} a3 .: 63 $2 t< 5! $2 $2 .: m4 }L 2/ 0! h%+,*.>*.#-.*0.{*.Ei.]*.@-.~*.(;+7%.XX.G`.oL.]m `  Zo.sv@tv@sv@/#@I`.G`.A&+]J+uv@:r.(m.Ca.)t.;w.vk.O|.X,@H( |c._r.-1.@. J` )4.r#.'} }p.-1@+. Rd.4|+8%.o#.o#.o#.pW.pW.!4.!4.T*+T*+pL.9%+oL.G`.k< {} >9 {{ n4 n4 {{ {{ {{ {} k< {} >9 >9 {} k< M@ <% M@ @: >1.ZV WX.6%.#: #: $. $. #: <% 3/  . ;0.'7._c._c.#. 8%.o#.o#.9%.9%.9%.o#.>0.+-.+-.>0.<% ]o J7@p8+vv@Ai@wv@Ab@'u.HV+Ee+z;.9++2C+vS+='@",
"aV+kj I[@15@xv@Ku@Q> yv@zv@Lv+q|.r(.4^+J@.aO+1d.aG+F$.Av@cl@Bv@Cv@Dv@cl@Ev@Fv@`1@Gv@ks@>s@Hv@&v u>@lb@Iv@];+h9@ba@ZE o( FT YW To.&` t<.4m 4F q9.LD AP ^6@U1 Nu@;#@bX Jv@Md@}x+1L.+k.OQ Kv@ok@-].H'.G] F] ed {{ Qg Qg 4+.v$.7x.pP =c %F+Wt Ur @v@zk@@v@hO.'5.'5.CW L @'2.u6.T_ 6Y ]S :L.[+.5F lk ;8.l&.!o @f L@.LQ !o JT 2V b/.5F Ci Ci s6.Nv To.Mv Mv q3.VQ r{.~}.zP (V E(./~.D$.<S k>.Ob@Lv@Dd@mX+r$.z5.|H.|H.hx ys.MT &7.ys.ZP.%Q.&Q.[n.TP+TP+IV+A/+Up@wa+wa+z/+oL.XX.XX..4+.4+bT.p#.73 73 v| ]} 1m 63 e< e< ^,.t< C5 C5 ^} D] y| Gv `  h%+>*.|!.|u.#-.{*.)h.{*.>0.;0.!4.9%+r2.y;.]o 2/ .$+Tg s* r0@Mv@8! I`.h<@`=.J'.A;.Pi.6r.r< /m.=_.Ni.C6+X,@Ud.-1.o#.#. #. +. K@ @. Nv@Nv@)} G( Rd.8%.8%.o#.o#.;0.(;+(;+pW.pW.T*+pL.pL.pL.oL.4L >9 >9 {{ n4 n4 E5 E5 E5 {{ >9 >9 {{ n4 n4 {{ {} l* 3/ l* #: 6%._*.@: M@  . 3/ <% #: $. $. #: M@ *0.o#.L@ =_.'7.;0.~*.;0.>0.;0.8%.o#.~*.+-.#-.;[.a! :C Iq.t @s`+Ov@PO+([@Av.h<@>].z;. -.qT+Ek@Pv@",
"Qv@dD+Rv@Sv@Tv@Q> kO+i0@cl 8% :+.Pl+!W./H.r6.]6@h9@Uv@%C+Vv@Wv@Xv@Yv@Zv@Zv@`v@ w@lu 3}..w@+w@@w@#w@Iv@5>+e6@Va@<n $w@pY YW qM qM r{.w<.:o :o @t )L 0L ^6@%w@%w@&w@*w@~D+3L.m%@CP.BV z~.8%+y;.=Y.F`.$. M@ ..  . u| ni pi ck %} {` ma. ^@/:.cG+zk@bG+=w@=w@ f.hO.Vr '5.fP [o ET !O.6Y /O.Z].k&.$4@~f .z /~.:S :S #f ;` l&.s<.EG b/.%q %q (d.q3.I  0o@oP (:.^/ ^/ KQ 1V 1V ],.U=.Ol+^C Mq.bi+~i. 4+*{ &N.&N.20 ik _C w( o4 Ny._C X=.X=.gi s @s @1L ks. $+ $+4L 4L '1.>[.3/ 3/ 3/ 3/ J` :Z G( K] -2 :m od B5 Pr Cd.PQ )I )I 'I J6 J6 A5 ;} `  0! >{ a! @: #: k* K@ +. :% K@ 4/ B( t`.nL.u' }/ {u.;;+5! -w@;w@m5@*N.|L Y=.]o r2.|u.#-.~*.#. /*._,.dp.l%+dp..4+A( $:  . .. D5 6(+pU j< w| ;9 K@ K@ :%  . 3/ 3/ l* l* %: %: %: %: %: %: m}.m}.n4 n4 n4 n4 E5 E5 ed ed E5 n4 n4 E5 ed E5 n4 >9 <% l* l* M@ $. $. <% E> 3/ l* <% M@ #: M@ M@ M@ J4+(;+{4.!4.7%.;[._,._,.a2.;[.(;+!4.pW..4+;[.a! D] zM HZ+>w@,w@!e@'w@Oq+9x.}n.`o.|!.>*.x9+wa+i%+",
")w@!w@S=+S=+~w@c8@{w@&0@/p ]w@Pl+-'+k$.#` wM.PJ.cx ^w@/w@(w@_w@:w@(w@<w@[w@&M+}w@|w@1w@2w@e2@0K+bD+zc@:@@3w@##@4w@6O+5w@5w@7E 8K+M:+i>.,8.n%@F$@V_ {I AP ;;.z>.2d.wE+XF D@ ,a.r3@j^.z~.:C y;.pL.=Y.M@ l* $: A( s< f< pi ed !p.E~.9i OF.1L.6w@zk@ f.bG+fy :n Ya@L @Xt z .7/.ET ]L.ET 6m <+.wJ $4@ci+rJ ;8.1V JT :S 1V D$.s<.b/.5F %q r{.CV+I  i7@p{.x<.4S zP E(.4F #;.Ol+bi+W=.{i.r$.4! &{ B] VJ.~u.}/ ;} y|  q k< gd gd  q y| 30 G5 ~u.qW.s @1L ks.BM BM l}.l}.dE.,[... .. .. .. L> ;9 K] dk dk vP D~.T7 )I PQ 'I Og Fv Qt sa T7 A5 D] x( 0! >{ a! @: #: k* K@ #. :% E> .. 5/ C> nL.G5 =].|H.Fv ZP.PW 7w@W  jO.%N.y9+B> u' >{ (;+l* _,.~:@=)@BR.a2.bT.{4.4/ 3/  . .. pU w| @2 f! ~} xp.4/ .. E> 3/ l* M@ #: $. %: %: %: %: %: >[.l}.l}.n4 n4 n4 n4 n4 E5 ed mi E5 E5 E5 ed ed E5 {{ {} $. M@ <% M@ $. #: l* E> $. $. #: <% l* 3/ 3/  . pW.(;+.4+bT.|u.a2.BR.dp.dp._,.7%.!4.!4.7%.J4+>{ -7.Or UR.3} $p.8w@X_+m6+JV+Zo.5/ M@ F] XX.G`.h<@",
"!l 9w@pX+pX+0w@2n bl ]O.yM.xM.rP.Eu+l<.Qo.<n@aw@oq@uj bw@H|@cw@2l dw@ew@fw@/9 gw@hw@7o@iw@zP+e6@9u@OC jw@Qw <n J5@zq kw@2k@o&+lw@)L oP ;}.$J ;a.,a.,!@0L d:.d:.d:.mw@ N+<c+kA+F$@ps.N5 8%+GR.YX.,*.J4+{4.r< L@ @@.>}  : n4 ck sa ek.2@@i>.ju@ju@I  Wt ,1@zk@+v@hO.p3.z .[o [o z .[o Xt pM n$.pM 9V t<.h@+L .L .KQ L .oP L .KQ (:.(:.(:.4< *7@0L HM yP TQ 1V JT ai tP 3m 2} W  9x.Lq.sW.)u.s @ks.BM }n.C> ,{ t`.<% a! K'.]m C> 9k AM BM ik ik w( IJ -7.*7.F5 $].dE.ed E5 E5 ~} ~} w| ;9 -2 PD oi bk `_ ys.hx Or Or Or hx ys.1S q^.(m #2 20 A~.cE.a! $. #: F> :% +. F> <%  . 5/ Z  ]o -7.-4.AX+q>.$^.,` W=.<L.{o r$.%N.^,.U7 `b xp.ed K'.va+cW.pL.pL.>[.dE.mi 5/ mi mi ed E5 {{ n4 mi s2.,[.'1.%: 5/ F] G> K'.t`.B( B( B( %: >[.>[.>[.'1.{{ >9 >9 >9 >9 {{ E5 ed E5 E5 n4 E5 E5 {{ k< [C @: #: <% <% #: $. M@ 3/ @: $. M@ l* 3/  . 3/ l* (;+;[.ep.BR.a2._,._,.fp.ep.|u..4+(;+(;+7%..4+5/ Tg |V 1n.k~+nw@Kf@ow@&;@B] ik k< #: $. F] >{ Z  ",
"pw@qw@rw@^p sw@+:.+:.$}.sP.~O.rP.U:@N)+0<@yp@+e@:1@Me.S1@tw@uw@vw@ww@#F+xw@'L Oo yw@*t zw@{f mv@%3@Va@>c@9l <n  f.vB+Aw@Bw@<T.5_@L .9+.+f CG =` .{ Cw@{I Dw@XE ;;.h}@|U PF+CI.F$@o%@{O x;.GR.E&@>*..4+!4.#. k* '} @2 x| x| xi D~.0k h&.F(.>p bH+<8.Ac@-~.=w@Vu@ f.Ur Xt 9R.L @L @L @DQ -O x$.!}.lO+w<._g+h@+i>.o|.o|.o|.oP 3S (:.(:.3S *7@*7@AP ^5.X].r9.3=.JT ^C rW+:O.4! 9x.[n.!u.^M+8F J7@:C Kq.0! ]m ,{ _*.<% >{ >{ `  0! 3L 3L Kq.}/ _C _C ik IJ -7.F5 $].E5 n4 {{ >9 {{ >9 f! k< Qg vP ck 0< =].v( z5.z5.z5.z5.#z #z 2S JD _m bk 20 AM cE.2/ a! #: F> L> L> $. @: B( 4L cE.(O i8.tB.O2@fY fY es.>` <L.sP V=.CJ  p.gi w( i8.s2.k< K'.F`.xp.F`.B( '1.,[.B( ed ed ed dE.dE.ed {} [C ed '1.%: `o.a! K'.G] ,{ B( B( B( %: >[.>[.'1.'1.{} {} k< k< k< >9 {{ n4 n4 n4 {{ n4 {{ {} x| ]} #: <% 3/ 3/ M@ #: M@ <% M@ <% 3/  .  . l* #: $. |u.dp.=)@l%+fp.7%.pW.(;+|u.;[.J4+.4+J4+J4+7%.%: My.aR.AI...+Ew@Fw@Gw@Fq. p.ik k< +2 @: $. @: G] ",
"CT Bq.-8.e<..}.&@@1&+xM.&}.hi+;4@OR+fG+nq+D#@E#@C#+NB Hw@s!@3`+Iw@Iw@Jw@ls@x;@|p@Kw@Lw@kv.`E -o ZE '5.nk pY To.y(.B<+.N+|A+;` ;` 3=.l&.ad RW -` =` '8./;+d:. } TQ+hw zA +2@bw X[@bH N5 V7 BB.9! C> K'.>{ @2 f! ;9 ;9 [C KJ xi JP.JD |=.l&@OJ cG+V6 BP AA HM.HM.Ur &q Xt@zk@&N+'p 4w@2t@8T+;2.!}.!}.x$.x$.lO+t<.h@+DG ~}.r{.KQ KQ TQ ^V A|@f[@gA+HM t] X].l&.:S |+.rW+#I rT.rW.JV+JV+rW.gi C] 20 ik fd x( [C [C {{ dE.{} #2 83 w( 20 }!.%} `_ 2S 1S 2S JD `_ `_ bk ck ck ck ck ,f oi bk _m JD `_ 'V.'V.|>+v( wv.fi DJ y5.Qt 2S `_ a< .q ik M6 y| 83 {} [C g< j< g< w| j< {} L6 CM *7.20 Z1 M  }V $^.xM q$.#^.#^.kX+:L y5.Og G5 20 Gv ;} cE.D> l}.5L m}.D> 83 x( `b `b L6 `b vP .q Rt y| gd gd  q  q #2 }L 1m E] x|  : {} {{ n4 n4 n4 n4 ed E5 n4 >9 >9 >9 {{ n4 n4 >9 >9 E5 dE.mi >9 hk 6%.l* ..  . l* 3/ .. ..  . l* #: @: (*.@: #: M@ 6%.@: M@ 3/  . 3/ l* <% Is.WX.6%.$. <% 3/  . %: X7 v( }L.c7+9|+f@+:~@;u.ls.83 +2 n#.r#.$. M@ l* ",
"HW f<.JF.pI.#` sl..}.$0@=k+dW.fG+dW.3Y f0@n(@&5.Ku@|5@Qv@ 7@Mw@og.Nw@Ow@aK+yc@Oo Pw@Qw@mv@]6@ f nm+FT JW ]/ U_ y(.(O.(V /V Mg 4m OW |%.Up Lt A(./C Cw@D@ d:.n| Rw@hw qs e:.[i.>3@Kg ;*.t< B> 30 nL.;} KJ KJ f< hd l<  c 63 A5 xi :0 N5 V_ 73@HM.,1@V6 ,1@,1@BP zk@zk@bG+:n (H n`.(H 'p }S+x$.<+.n$.lO+;2.lO+lO+=O DG DG oY o|.oP X].9L gA+;;.]5.^5.q<.9+.3=.4F ;o F'.r$.yv.Lq.9x.zI.7F My.My.My.}/ X7 #2  q x( GG x( #2 X7 IJ [/ $k+zI.ys.Qt :0 Qt q^.1S q^.sa sa q^..q 2S a< `_ vP JD sa zi ID y5.Q@.</ </ </ u( {m |n.,I ys.JD a< xi w( IJ fd x( k< {{ ~} ~} ~} 6(+mi {}  q Gv hi ^m |=.X_ +z ,` sA Ng ^C Ol+:O.:L EJ gH $2 6! -{ 63 9! C> ]o 2/ 2/ Z  }L }L gd gd x( x( xi .q (m Hv Gv Gv #2 gd x( x( [C ]} {{ n4 n4 n4 n4 n4 n4 {{ {{ >9 {} {} {} {} >9 {{ mi n4 {} >9 n4 n4 {} x| (*.<% l* $. _*.(*.$. #: WX.>1.6%.@: M@ l* 3/ 3/ l* 3/  .  . 3/ l* M@ $. 6%.6%._*.6%.(*.$. M@ 5/ D~.3F wv.,;+n' y/+si+Ve.My.gd +2 0%.:Z k* .. A( ",
"lg.ZW HW kv.M0@iM p6.}:@+:.6d nq+4_@:M+GW wQ Sw@Tw@`<@!J+Uw@Vw@CA zK+Ww@gw@^G+0u@gP $w@gP CW '5.W-@YW U_ r{.r{.o|.(:.l&.4m )m ,R+;}.Lg KD KD e+.r9.,!@0L n| #C+8l Sw pL+'[@9q@J  >m y4 EJ y- %z ={ ji  2 *} *} Jr wi 9F .2 S@ 0k ji ~O kU+1O.Xw@1O.pv@pv@<8.Md@Md@pD+Yw@Zw@7w 7w PC Rw Di Xt !S W-@Vr Di CW L @nk Ur AA ju@4< ,!@_6@)% AP ,1@i7@]5.3S L .o|.u{.3=.Ol+wM 8k fi V  rW+#I |n.Or ,I PQ ,c.Ug J6 q^.Rt J6 ID %Q.Q@.DJ BJ ND $^.$^.>. q>.{` {` 6+.>. {O {O O@.qP 33 S7 33 I6 {O gY LT $;.q>.KT+x] -u.w> hY Z_ Z_ Z1 s| %;._m }/ Ny.F5  q hk n4 D5 w| j< ~} {} KJ .: 53 m< 4T.-Z *4.AB.B9@-*.F'.kX+CJ fi rW+w;.w;.}0 /o I] -{ nL.C> 2/ cE.cE.]o Gv Gv  q  q D~..q xi xi D~.(m M6 G5 X7 }/ fd fd 83 x( o4 L6 >9 k<  : x| [C [C [C [C [C [C [C x|  : k< k< [C KJ l< ]} x| x| x| $. <% $. ZV YV YV u8+YV <u.v8+6%.<% E> .. E>  . '1.'1.>[.%: B( 5/ F] F] 5/ F] K'.G] &: K'.>{ `o.Qg JD Lq.oi+m6+si+W_+ !+Kq.F] J` C- ]c.9%.$: D| ",
"]6@0u@h9@h9@h9@5>+AK+`w@Su@(%+:M+|m@hc@#M+#M+3h@/5@xt@It@^p@Mw@'A oI+ x@9N+Yt DQ o@+6O+$w@.x@2t@4w@Yw@Ya@qM ;~.i>.)L ^:.^:.Lt >m ,R+,8.KD <S ,a.)L 0o@,1@Au@tu@UD kE XF ;p CP.|S+Up +f Nl+V=.rP ,c.iH ji $-.k4 1Q  2 $-.St fH Pr )` gY %F+Nd@-3@Nd@|O.|O.6w@HM.^6@I  Xt@@v@zk@ f.-c Ur nk 6m o( W-@i/@Xg *q CW CW PE+|O.Ac@rV+,!@v{.,!@3L.Ac@6w@/6@o|.LD LD LD o|.<S 4F #^.Sj.#;.t;.WJ.t;.kX+xM EJ ]` Ed.+z )I 6+.%z ,` :L 2+.V'@(6@2l@xM sA ,` ]` ,` rP ,` ,` hH ,` rP sA sA rP rP hH ,` E).3+.t;.^C Sj.$I L(@-u.2! x] Z_ 23 23 t| t| T7 }/ x( Gv ]}  : f! v| w| v|  c +0.+q 1l@$v@2%.2%.C` jx.0i '` G'.2F :L :O.Wj.>t+zM V7 /} -{ ;} Z  cE.D> 4L `  cE. q #2 x(  q (m D~.xi a< .q q^.q^.20 X7 20 gd gd  q Gv gd  q GG l< a3 1m 1m 1m l< KJ KJ GG ]} hk [C [C l< 1m Rr 1m KJ x| k< {} E> .. 3/ _*.v8+YV lE.`:+v8+WX.$. 3/ .. E> 3/ <% B( 5/ 5/ `o.5/ 5/ B( %: >[.B( >{ G> K'.G> >{ k< f!  : }/ B] >I oi+xv.qW.4L 3/ ]c.Ei.)h.o#.o#.pW.",
"Bu pj +x@@x@#x@$x@gO+%x@Js@&x@vj fD+/l@iO+iO+*x@3h@u!@'4@MB _l <l 31@f/@_H Db.Rw Rw Xq PC Zw@GI+fy :v@B<+qv@=x@9*@tb.;}.q2.;}.;}.l9.,R+DO++t m%@}3@3L.cG+UD 00@cN+.o@|O.HM.1L.}x+4F :S tb.u;.:V y4 )o 7+.t~.2=.eN 8i u> )` =*.h&.Wp =c X].]5.D@ gA+^5.]5.^6@Wt Wt ^6@Ur -c -c hO.&q p3.fP W-@u6.'2.$r !A.$r *q gP o@+4.@Ac@<c+]G+v6@EI.-~.Ya@:n B/@-~.HM.ju@_g+u<.R7@5_@k>.lk u{.Zu z9@EP.-a.4F ^C t>.]` Kg ,` ,R+OQ :V !O b/.-x@;x@>x@g&.y4 t;.Du@Du@qd t;.t;.0Y t;.<V NQ t;.3x+:d.WJ.OQ <V <V HD u;.]:.p>.=I Sj.B .1+.$f 6+.{O !I 8i J6 zi ii (m :m ek ek :m PD qi ex =c.R/.s:.s:.~_.)R+C( A5 T7 PQ gH BG $3+E4+w;.0b@zl.Y=.Y  u' ]o 9k :C 20 20 G5 p4 hi 30 T7 <0 ii <0 33 &} &} 1S 2S hx Qt Qt q^.sa Hv E| Rt Hv od b< *} *} b< b< l< l< KJ ]} hk hk [C [C ]} ]} hk  : >9 n4 E5 E5 .. $: $:  . #: @: >1.DB.>1.6%.$. M@ <% M@ #: @: x| [C hk hk [C  : {} {{ k<  :  : x| [C [C [C g< 10 0%.K'.3L JV+sW.JV+ju+XX..4+pH.!w.7r.Pi.uk.4Q.",
"oj oj Bu Bu ,x@67@lv@H{@q^@'x@o^@xh n^@[D+)x@[D+!x@nI+~x@{x@C_@1l M<@GI k&@Au 'Z.:S+7T+Rw Yw@Vu@bG+FM.FM.1L.]x@^x@^:.lU+m2@m&@@2@o%@m&@9*@hU+:4@FM.Ac@+v@oh@oh@b:@35@6w@$t o&+lw@[S Vt rJ rJ q( +t *1.]~.~,.@{  J @{ @{ 0F HG HG %J ;}.{I 4< i7@D@ D@ i7@cG+HM.HM.Ac@bG+J5@=w@J5@+v@+v@CW CW Xg #r i/@q6.@:.ST Xg gP bG+-~.ZJ.JG 5< To@|O.fy Yw@Yw@>p 0H+pv@pD+6w@N4@-3@=x@Nd@*A #t /x@JU.(x@Vt ^:.^:.m9.n%@$q _x@Yu ,'.0}+|x+=N+qE+:x@2V y4 <V Du@Du@<V OQ HD p>.Bi T=.HD ]:.=a.}S -a.y4 Nl+#;.g&.U=.]:.o>.`P.#;.Sj.|+.>` {O +z 2=.2=.Og ]O /m 0k (m od od ni OD *} hN (=@1..ek.ID X+.ki Jr <m S@ ek.r' #3+y- _b@te+z*@y9+9k x;.C> ]m BB.Y  p4 p4 hi ={ V7 $2 Pr pd /m RD 5+.33 t| `1 Fv Og 'I 'I T7 :0 Hv E| (m Rt ek ek ek ek qi qi KJ GG ]} hk [C x| x| x|  : k< >9 {{ {{ >9 {} k< (*.M@ 3/ l* <% <% $. >1.ZV WX.>1.>1._*.6%.6%.6%.hk hk ]} GG GG ]} hk [C GG ]} hk [C [C hk ]} f< !m.!m.)4.]o A~.-.+-.+h<@J'._++<r.<r.zO.'S.HW.5Q.",
"f}@Z1@<x@{|@C[@ w@[x@[E+~x@}x@Vw |x@x!@9a@1x@2x@~=@3x@kj Z<@tw@|l 4x@5x@kb@6x@4.@=x@_v@J5@=w@Vu@:n Z-.B<+:4@dN+m9.w6@@2@@2@cH // <W+F/@Ws ,'.|A+N4@B/@=w@.o@kb@k&@xc@:n us 7x@QC ,'.t@+1L.J>@=z F(.Z#+8x@c* c* ~% 1S+1S+~% ~,.]~.l9.q2.1 @JG 73@i7@i7@73@=z d0@V6 ,1@AA AA -c -c f/.@v@9l o@+9x@0x@{;+ax@ST ST i/@CW zk@-~.i}@=A 3f.Tq Z-.aO+&N+6O+Zw@zq zq 'Z.,@@Zw@4&.bx@wE+YF wE+vE+1W.QC _v@'@@'@@qv@Y#+'@@.-+Z-.QC |B cx@ ]@): dx@'R+m9.^:.w6@[S +t p9..z .z s3@s3@u{.u{.rJ rJ k9.#;.^C Ol+g&.f&.''.e3 =I #;.#^.es.F'.7+.7+.2=.dx %z FJ 2%.s:..2  2 b< *} iN ek l4 Bd.dY+0k 3F ^m Pg (} O3.ex@1%.5! TR.*N.,9 y9+z*@fx@]{ [2@y;.u' t' ^,.pT.&N.pT.X=.t< t< ,c.YI FJ [L 7+.{O >. {O zi ID ,c.,c.ji ji ji Ug  2 k4 b< ;2 ;2 ;2 <C &T a3 l< KJ ]} ]} ]} ]} ]} hk [C [C [C ]} GG KJ l< DB.WX._*.>1._*.6%.>1.DB.v8+DB.DB.Is.ZV WX.>1.>1.]} ]} GG KJ l< l< KJ KJ KJ GG ]} hk hk ]} GG |/ hk.+t.rk.J'.Z=.ju+|d+:J+S*+DW.3Q.gx@hx@ix@:;+jx@",
"pI+X9@Bu _H mj U1@31@;t Qv@]U+2x@ij kx@o^@lx@0a@'x@mx@nx@ox@px@%<@qx@rx@jE a:@Yw@<8.0H+PC 'Z.Zw@Rw GL+7T+:v@|A+1A+1A+Wu Wu Cu@_4@dO+w6@Yu J>@J>@}S+=w@2t@65.7a@>c@3w@4w@o@+dy 0q@Z-.7T+:n fy B/@=z /:.V_ ;a.e+.e+.kA+8x@kA+;}.*1.n%@^:.1L.:v@4.@FM.-~.|O.4.@4.@@v@ f.zk@zk@ f.gP bG+sx@6O+sx@o@+tx@ux@vx@5u+Xg DQ f/.-~.d0@=A D$@wx@xx@Xq B1@sx@o@+<n yz Aq %t yq Qw J4@n`. y 5w a:@J4@,p dy 0q@Ow /H 7T+:v@:S+(S+_v@0q@yx@s|@zx@NX.B1@_S+gR.FL+z).1L.Yu 1L.Xu 1L.Ax@qv@rJ 5_@Uy+t<.k9.3=.T=.m9..t k9.Ms@12@''.p>.p>.NQ t;.LT '` ~O 7+./m s:.B;@ts@R=.43 QD iN QD xp.!p. 4@o^.ii 1S Bx@.0.s4 l< I] }0 AM B> Ml+8%+I&@J}@Cx@6b+/1@`=.y;.6! 5! hi pT.p4 TR.U7 TR.J6 Cd.ak [L ;. iH 2=.h&.Cd.]O YI YI ek.ek./m ak ki =} .2 40 Jr Q@ Vp Vp E] Rr  c a3 a3 a3 1m 1m l< l< l< a3 1m  c 1m a3 &: G] >1.,D.Is.(Z.Is.[% DB.6%+Is.(Z.ZV ,{ ZV (Z.KJ KJ l< l< KJ KJ KJ KJ hk hk hk hk hk ]} ]} 6%.gk.lk.q#.fp.C> Q @Q @cW.a2._r.w8+3Q.w8+DW._;+_;+",
"Dx@$A+Qo Qo $A+Ex@,c@Fx@(D+Qv@j3@t{@Gx@Hx@E|@PY qz qz (D+nO mb@px@u>@u>@N_@Ix@3w@##@FI GI+yx@yx@yx@yx@0q@Jx@Z-.J>@p3@N4@B<+B<+B<+N4@p3@B<+Vu@Vu@&N+6O+Kx@Lx@hu@hu@Mx@Nx@Ox@tx@tx@&N+6O+&N+Px@=w@J5@bG++v@Ac@Ac@rd rd G(.}x+Vt 1A+1A+Qx@Cy+Rx@Sx@Tx@B1@B1@Sx@Ux@)V )V 9K+bO+<n 8R.sx@.x@xc@65.aG+G0@iA+iA++v@+v@-~.Ac@dN+J  r3@Vx@u] J  ~T.+D.NX.): LF.MF.RR++D.MX.!p #q@Wx@#q@Xx@#q@<B )V 9K+Yx@Yx@<S+uP+Xq yx@<S+uP+0q@dy [S+vP+vP+vP+N4@Z-.>p :S+>p 7T+pD+Z-.Ty+:v@*3@:4@=z G(.73@y9@rd ci+qM ci+qM QP+Uy+s3@+t [S 3x+:d.z~.3+.LT '` /m d! ,K.Zx@;K.-{ m4 P@ y| Gv Gv ;} .: x' 63 ^} 6/ H] Z  AM 9k BB.B> [i@Z=.H'.H'.C~.z;.KT.8c+GR.1% ak 40 St 43 Pr k4 :0 k4 ji l4 St S@ Pr |} ji ^m Pr Ug Ug Pr RD pd ek.pd St Ug Pr 40 =} =} .2 -{ 63 -} ^} D] ;} y| y| y| ;} ;} ;} y| }L #2  q u' ]m G> 2/ G> ]o a! cE.G] C> &: u' &: C> K'.K'.`o.<% M@ M@ <% l* B( %: >[.B( `o.>{ G> K'.t`.t`.(*.(*.f< t`.KJ G] G] G] K'.(*.(*.(*.6%._*.&: ,{ ",
"Xx@O +`x@C$@ y@.y@rw@+y@@y@+y@^l d:@#y@$y@)w@%y@Fx@&y@Cq ,c@k3@aK+aK+h:@m:@IL+*y@*y@Va@%t qP+<S+yx@Jx@[S+8T+gO.gO.8T+}S+vP+[S+$q@$q@$q@:n :n &N+&N+8R.Nx@Nx@al al >Z.nT+s9@=y@=y@%9@Qw@]6@]6@CW Vr Vr Vr Vr Vr }S+}S+vP+[S+S/@S/@{S+ ]+mi@eR.-y@-y@Fh@Fh@;y@X~@!T.!T.Ux@Sx@8R.vx@Qw@5u+G0@iA+>y@jA+YE YE ,1@AA =z OJ m%@,a.w$..{ 8L ^/ J@.)S CU.XQ ;:.|E.): !T.,y@'y@)y@)y@!y@~y@~y@!y@!p `{@{y@Pw 1Y ]y@^y@^y@RQ+II+P +QQ+uP+yx@7T+dy J5@=w@Vu@fy :n Yw@>p pv@bx@bH+@C+#t TD *3@*A Ac@7T+Jx@7T+7T+Z-.:v@,'.,'.KT KT F/@R4@aY 3+.E).ma.s:.,2 Z6@Z6@I] D] ;} .: 53 -{ -{ d! w@+P@ w@+I] 30 x;.:C x;.B> 8! }% F&@Q @-].E&@1V.S;@(,.8c+B&+I] .2 S@ l4 S@ 43 |}  2 E| A5  2 |} l4 l4 |} B5 :0 sa q^.1S q^.sa sa sa 0k J6 T7 J6 ji St St St ^} m4 D] ;} ;} y| ;} ;} y| y| y| }L }L Gv #2  q ]m Z  ]o ]m nL.YM.z( z( C> u' nL.nL.nL.u' C> ]m G] _*._*._*.>1.WX.,{ (Z.,{ &: G] t`.K'.K'.t`.t`.1m a3 l< KJ KJ l< 1m  c KJ KJ l< a3 1m  c Rr Rr ",
"F[@#w@V6@V6@V6@zc@zP+#w@V6@lb@Qm@lb@V6@0K+F[@zP+#w@0K+7o@Va@7a@c:@c:@7a@9u@65.65.65.65.J5@}S+8T+8T+gO.-O :T.9V :T.:T.-O [O.gO.}S+vP+[S+GI+$C+8*@Px@mv@zc@lb@RB+Ei AK+8m CT zw@zw@];+]6@z4 z4 z4 z4 ^G+^G+Vr Vr o@+sx@[S+$q@dy Jx@Jx@cx@/y@~i@(y@_y@NI+NI+*++3A+hu@hu@hu@hu@Mx@Nx@V6@zc@:y@mv@aG+G0@G0@G0@J5@J5@pD+4.@dN+/:.V_ V_ V_ 5_@M:+pM lO+9V RT |W.>}@^y@<y@`e.[y@`e.}y@}y@3A+|y@`e.`e.[y@[y@`e.}y@1Y 1Y SF SF '++}B Ow <S+Xq yx@7w n`.Qw 'p Yw@:n Yw@GI+.F+EI $t bH+yu yu Xw@bH+$t PC 'Z.Zw@_S+GL+lw@.-+^x@EP.;N+;N+Q4@D(@S +),.X+.o;.q;.ak ^m /m ak RD p9+ak ak 4T.t:.3k s:.1l@/} [0 }0 }0 [0 ;{ b! CB.b! J%@D&@va+D5++V.E&@(Z.-}  2 E| E| k4 B5  2 A5 (m Hv A5  2 |} |} |} |} Ug Ug Ug ji ji ii ii ii :0 sa q^.sa T7 <0 0k <0 m4 D] ;} }L Gv Gv Gv Gv Gv #2  q gd gd gd gd gd 0! `  `  cE.]m nL.YM.z( }% N@ *. b! b! *. N@ N@ 6%+,D.(Z.,{ &: &: &: ,{ t`.K'.G> a! G> G] (Z.6%+ c a3 GG ]} ]} KJ a3  c hk ]} GG KJ l< l< a3 l< ",
"kb@aG+I7@l:@6u+ba@aG+kb@sx@I7@Di $w@$w@PE+Di l:@gP G0@sx@35@bG+35@bG+;#@zk@y%@ f.y%@ f.lO+lO+lO+;2.lO+lO+x$.x$.pM !}.!}.pM x$.;2.:T. f.;#@00@l:@6u+];+zw@zw@CT `e `e G  G  =t@zw@];+]6@nv@nv@nv@nv@nv@nv@iA+gP o@+o@+J5@vP+vP+[S+[S+~T.!T.1y@3j@3j@!p !p NI+2y@Lx@Lx@Lx@Lx@Mx@Nx@zP+V6@7a@7a@9u@Px@Px@Px@fy fy Ty+pD+|A+]x@fR.H*+XJ.|A+:4@1L.]x@qv@7T+GL+_S+8K+[S+[S+[S+[S+[S+[S+aO+aO+B1@NX. ]@Y~@SR.u* (W.RT cx@>}@9K+^y@qP+qP+uP+Xq 3y@4w@9l .x@zk@ f.@v@f/.AA cG+|O.Ty+#t @C+XF $t us us zq 7w 1B 8K+Wq FL+z9@EL+Ut Ut 7c@7c@/=@q0@i#.dY+C` q;.jx.B;@`+.s:.r;.!,.r;.o;.An.~_.An.p;.p;.o @dn.1%.1A.Xq.dL.(@@4y@O%@7@@0=@kE.I( n7+[% -{ S@ S@ 43 40 40 S@ B5 |} l4 43 40 =} =} =} =} ^m pd ek.ek.pd pd pd pd ak ak /m /m /m /m ek.[0 d! x' 63 -} D] y| }L Gv  q gd x( 83 83 83 x( x( cE.`  4L 4L D> 0! cE.cE.cE.2/ Z  ]m ]m ]m Z  Z  K'.K'.t`.t`.t`.t`.K'.K'.K'.K'.G> K'.G] (Z.%. [%  c 1m a3 l< a3  c ix.O3.Rr Rr E] E] E] E] Rr Rr ",
"5y@5y@!8@jA+O5 hO.@v@+v@}S+=w@[S+[S+:v@B<+|A+*3@|A+-3@=x@pD+Z-.pD+:v@4.@N4@|O.p3@|O.}S+}S+2A+(W.V]@{T.S@.;O _W.x(.iO.iO.,:.iO.x(._W.9R.^;+ru@Yo+[` ks@&i@'L mx (I (I 6y@E7@}` [R.7y@sD+sj sj jb@sj 8y@&6@0u@0u@nv@%9@PE+gP gP gP gP RT 9y@o|@|E.}E.|E.|E.Uu@{;+s9@s9@0y@u6@u6@Ei AK+AK+Iv@Iv@Iv@];+*q *q CW CW 9V 9V w<._g+i>.LD D$./~.X].q9.@t |S+r3@fR.1L.:4@G(.G(.rd qM FM.J>@p3@vP+SR.MF.MF.di+}E.}E.Dq.Dq.XQ w(.)}.{T.{T.S@.;O x(.{T.)}.{T.V]@2A+~T.[S+[S+}S+[S+_v@8K+ay@zz zz 7E HI+1K+by@cy@zq 5w@/H QC <T.RC *z z9@dO+}e@ ^@jx !G bY l#.0i !G i#.sH N5 v] T<.v] C .Jg i#.Jg E'.o;.!,.t:.s:.o;.Rl.`[@p @)m.dy@7@@7@@8O.03 03 1u.ex@ex@ey@Z6@Z6@ex@+q w@+P@ P@ +q +q dL.dL.dL.dL.fy@gy@U/@U/@-K.-K.T/@7H.gy@gy@6^+6^+6^+gy@gy@6^+Z6@XM.O%@7%+2A.HJ c=@CB.H] +: z( YM.YM.z( +: +: N@ H] 9! u' C> u' u' C> }% N@ *. CB.CB.CB.b! *. a! K'.,{ %. [% v' [% &. hb+jE.FW+H> v' %. 6%+,D.63 63 x' 53 d< I] 6/ w@+dL.dL.dL.+q +q P@ 1% 1% ",
" _.hy@hy@iy@UD cG+rd FM.p3@N4@W#+W#+hU+_x@_x@r3@_x@fR.9*@1L.hU+1L.hU+:4@Qx@FM.ci+FM.gO.RT RT V]@Ws+)}.S@.mr+;O iO.iO.iO.iO.iO.iO.x(.fP ds+ru@Yo+F$.a0 {_@-^.E7@jy@jy@jy@jy@[R.[R.Uv@Uv@$F+gw@gw@gw@>s@[R.LM Ir I5@I5@L @L @'5.'5.'5.'5.XQ YQ ;:.;:.YQ YQ ST EQ 0S Lv+ky@ky@CT CT CT CT =t@=t@=t@=t@$r $r '5.'5.!}.pM v<.v<.)L oP /~.MD tA .{ <! gS+F$@F$@V_ >a.V_ V_ i>.5_@/:.y9@y9@w<.zx@di+di+MF.LF.): NX.B1@bE+`{@Yx@9K+cx@~T.(W.Ws+S@.mr+45@V]@~T.cx@0q@Jx@vP+dy GL+/H zz o`.GM.ly@7w 1d.5w@,@@'Z.Zw@:S+GL+Wq Wq z9@^x@_4@}e@@2@@2@y'.)G sH {,.{,.~,.4%.4%.4%.HG 0F 0F 0F 0F 0F 0F -Z p9+/m ak 'm 2%.8W.ex@dL.w@+Pg 03 8O.7@@9H.#d@ex@ey@Z6@Z6@ey@,2 my@+q ,2 ,2 ,2 ,2 ,2 ,2 ,2 ex@/o 1l@-. 1l@/o GJ 93 -. Xq.dn.0L.Rl.gy@6^+U/@T/@ny@oy@Pu@i.@#/@#/@#/@#/@Jj@R$@R$@R$@R$@R$@R$@Jj@t8+XM.>D.2A.2A.5% 7%+7%+w' w' 5% 7%+7%+5% 2A.w' c=@03 1u.7@@7@@1u.z- jE.>1@>1@03 z- FW+v' %. ,D..: 63 x' d! ){ 6/ w@+w@+my@dL.+q P@ 1% 1% P@ P@ ",
"py@qy@qy@oh@00@J5@8T+gO.NT ~f  d@ t 12@p>.NQ tb.u;.tb.u;.k9.Ms@5F XJ+%q )'.,~.)'.,~.`].ub.ub.ub.Pe.Pe.ub.ub.+^.F .F .GX.+^.ub.ub.ub.x(.Ou@7=.ry@Av@%C+[R.>s@lv@sd sd sd sd $F+>s@7y@Uv@%M+ym+ls@sy@>s@ty@-^.{_@7(@7(@Ir Ir LM I5@L @L @DU.@r Dq.@r o|@9y@L:+x6@Uu@Uu@Ei AK+AK+Ei Ei Ei uy@uy@8% 8% Uu@Uu@@r @r )}.{T.NT V#+O4@Qx@Qx@Vt ^:.,8.m9.w6@Zu ^:.m9.+t 'R+Z@..z Z@.5m 5m nY mk xQ tV+tV+}R.wU.:W.GD dx@dx@+r vy@vy@1x+{b@]C wy@]C 7S +^.ub.wy@]C 6S rA ,}.mk 6S NT 0}+S/@xy@Xq :n 6O+6O+6O+fy Vu@B<+N4@]x@]x@H*+H*+ ^@@2@@2@}e@Us 3%+Dw Ew 3%+3%+3%+Ew tD+W_ +{ +{ W_ W_ tD+!G =[.s;.`I {_.3%.d3 ,m ,m C( d< (} n* Z +5u._'+Qs.6/ I] I] ){ I] w@+dL.,2 ey@ey@ey@Z6@,K.,K.Kg.)m.o @0L.yy@Xq./o m< Bx@/o }0 GJ $v@1%.dn.yy@fy@6^+zy@zy@ny@oy@Pu@Pu@Pu@oy@W$@Pu@Pu@oy@oy@oy@Pu@Pu@-~@Ay@|j+^{@'Q.|j+UM.UM.S@+S@+-~@|e@|e@-~@S@+TM.'Q.(@@>D.5% w' c=@b! *. H] H] [% [% v' I4+I4+H> .: V7 V7 V7 $2 e< [0 }0 m< }0 [0 /} [0 m< GJ 93 ",
"By@Cy@iA+rH+9R.Ws+{T.]C K .3l@VW 4V Fl+#;.],.U=.e3 e3 ''.o>.A).^L aP VW Je+Je+Dy@Dy@H| 7S Pe.ub.+^.`].QT '~.'O QT 0P F .+^.ub.Pe.Pe._W.ov@O}@Yo+Yo+a0 {_@-^.4h@lv@sd sd F0@90@90@i:@i:@d9@#F+yK+[x@8y@90@gw@$F+^G+];+]6@h9@nv@Ey@sx@sx@|W.Y~@~T.I +u* di+%9@{;+{;+=y@&6@u6@u6@u6@0y@0y@s9@s9@s9@s9@=y@Uu@Dq.@r V]@V]@Fy@Fy@ci+Qx@O4@Yu Wu 9*@Zu Vt hU+,'.,'.Xu z).S/@]S+S/@{S+Gy@V#+#4@.r xp@BQ |F |F |F dx@+r dx@.r n`+Cy+,r@Fj@=N+=N+Hy@8`+#4@^W.1x+/W.|x+Fy@:i.:i.:i.:i.W#+W#+]S+]S+[S+9l 9l 2t@Ya@Ya@N4@N4@:4@}x+F(.[S DO+,R+;}.;}.=~.F@ !% K  K  F@ q- Hg F@ 8x@!% !% 8x@F@ F@ l9.lK k#.An.jx.s;.9i 'o )R+E6@'o +0.Z +_'+5u.Gn.Gn.w@+I] d< d! ){ +q )m.LI.Iy@Iy@Iy@LI.bn..4@+4@cL.7H.7H.U/@o @93 }0 }0 Bx@$v@dn.Rl.6^+6^+-K.T/@Jy@oy@Pu@i.@Ky@z9+R$@R$@R$@O%@O%@XM.;D.;D.XM.dy@dy@^{@O@ c! ;{ ;{ c! |% s* c! m* m* |% m* c! '{ ;{ t' BB.B> 9! YM.H] }% *. z( z( ,D.,D.%. v' FW+c=@53 e< V7 C5 C5 $2 /} }0 GJ Bx@m< m< GJ -. 1%.o @",
"rw+&i@`~ Ub pI..++CQ 0/.s{.PT !'.g* g* Fl+f&.!O d&.+;.d/.UW W=+Xe@vW+E +Y@..)@Ly@Ly@Ly@wy@rA mk mk ,}.wJ ]L j&.wJ k&.j&.Ci Ci Ci ]L <+.ds+ru@F$.R8@cL -^.}` XC.jy@Pm@sd sd gw@gw@67@5D >s@>s@[R.[R.>s@[R.z4 LM I5@Ir nk 9R.'5.DQ L @L @Ws+1x+<` ^W.;[@$2@V]@u* Dq.Cq.,2.ax@=y@JH+=y@vP.My@My@My@My@MF.di+Dq.@r By+/W.]b@:i.W#+0}+55@T#+z).z).z).S/@W#+W#+W#+Gy@Gy@]b@Fy@Fy@|x+8`+G*+O] Ny@Oy@Py@m&+Rx@=r@Qy@Ry@Sy@=N+*D+n&+KI+:i.|x+Fy@S#+K .k&.j&.k&.rA S#+NT Qx@O4@O4@0}+Yu 1A+Uy+~f -O 8T+[S+[S+N4@J>@:4@:4@w6@Zu Cu@yA bH ,. gY N@.r<.r<.o3.o3.o3.o3.r<.-}.MJ x).=~.K  Ty@+{ Dw F=.vd.C` Z+.r;.-Z 3%.li li ki li n* .0..0.n* Pg (} w' 2A.2A.2A.w' 2A.7%+>D.(@@O%@O%@(@@>D.7%+7%+>D.^{@^{@1j+m* 7! B> 9k x;.BB.s' ;{ s* 1j+1j+O@ s* HJ r4 Uy@Vy@qf+]-@nO.nO.nO.nO.J%@J%@L] mO.g! -].BB.s' /++;{ ;{ ;{ 7! s' m* '{ 7! 7! /++;{ '{ c! vm+x*@z*@s' 8! 7! ;{ m* *. z( &: &: %. v' &. YM.x' [0 Bx@1l@$v@1A.1%.1%.yy@o @1%.1%.1%.o @fy@gy@",
"$)@$)@/{@e<.D|@qI.g[@]W.Gl+2]@*Z.ek+PV+QR+QR+d&.^=.d/.C$.Xe@W=+E +E +|J+|J+|J+|J+E(@B$.#4@<` 5m S#+Wg 6S <o rA EG ]L EG k&.*I k&.*I Eq.=^.zu@Av@Av@%C+ty@[R.jy@XC.Pm@lv@lv@>s@>s@7y@sD+[R.ty@}` -^.-^.Ir Yt Wr 7(@fP Xt fP nk nk fP Eq.mk  d@ci+V#+Fy@<` <` V]@~T.SR.zx@RR+Kx@hu@hu@Mx@0l }n Wy@nT+): :g+B1@Ux@Ry@Ry@6K+KI+Xy@Xy@5c@-x@Sk@Yy@Yy@Sk@5{+KI+6K+6K+n`+n`+8`+Cy+[%+}%+Zy@Zy@`y@ z@.z@`y@5K+{4@+z@+z@CL+CL+KI+ ]+0}+NT ~f <` Fy@S#+K .rA nY HX.~f ~f 0}+W#+s@+Ax@(x@gR.P4@J-@_v@dy B<+0}+FM.rJ LD Cv 4F 0Y ;}.r>.$;.=4.sA yM Aa Hg E .E .E .Hg o3.r<.Ty@W_ Ew A` bE cw s'.>D+!Z.%7.jx.9i )` T7 a< bk Rt Gv hk hk hk [C [C x| D> 0! cE.2/ ]o ]m nL.YM.u' 9! YM.YM.9! 9! YM.z( B> BB.t' B> Y  Y=.Y=.Y=.Zo.}n.Kq.Kq.Kq.AM x;.8%+y;.-].[2@[2@-].-].Q @g! H'.Z=.TW+g! ^c+J%@J%@J%@;{ '{ '{ c! c! m* m* m* m* m* |% |% m* ;{ 8! z*@z*@X  ,9 _i@c! /++s' s' u' I> 03 >1@jE.I4+FW+z- P@ $v@,2 dn.Z6@dn.ex@1A.ey@1%.,2 Xq.dL.Xq.ex@dn.",
"@z@@z@#z@J^@$z@ic@(L.tV+ds.vW+<z+vW+mM GX.+^.rA ^W.#4@1x+#4@dx@+r +r dx@GD :W.wU.tV+AX./=.Fl+e3 EM.@;.XJ+=I }=.=I XJ+@;.Fl+''.u|@e3 *I WQ ov@ f  f kv.M0@`~ =8.,% =8.G  cx =q Bv LM LM ]6@];+^G+^G+^G+Vr L @9R.CW ;2.;2.9V 9V 9V lO+pM !L %z@#k@DL+pi@%j@%j@KI+S#+{b@{b@dx@RT SR.Y~@:g+!T.MX.MX.+D. ]@ ]@Qy@Qy@CL+CL+xy@~0@&)+&)+#k@%j@5c@&z@<b@&z@6V pb+*z@*z@=z@-z@;z@>z@*G+fH+,z@'z@)z@!z@eH+!z@eH+~z@5V cr@Fa@{a@Fa@{z@l~+AG `Q+AG +I AG  d@HR.1F  d@2l@.t 1F 1F -a.=a.}S sJ `|@&]@Xu Qx@s3@ZQ+Vt -a.3=.xM q$.y5.fY PQ )I &N.Qt Qt G@ L  L  G@ qa 0d Wp 4%.'G {,.)G  v !G l#.l#.l#.C` o^.2%.X+.pd ji E| Gv 83 `b E5 mi s2.dE.mi ,[.Tg CM ,1.,1.CM ,1.5L m}.D| b5.CM ,1.5L l}.m}.D> 8%+BB.8! 7! /++;{ '{ m* c! m* s* |% |% O@ 'Q.Ay@]z@j%+%v@6b+]-@F&@mO.mO.GR./1@[2@Q @Q @Q @TW+y;.t' X  y9+y9+y9+y9+X  z*@qW.FG *N.Jq.J7@Jq.*N.8F *N.rW.^M+sW.FG v`+A~.3L 5% ;D.^#@0H.>1@v' u8+H> c< d! c< x' ix.-} a3 ;} 1m D] l< }L ]} #2 [C  q ",
"^z@^z@/z@!y@)y@,y@3A+&D+Oy@Hy@*z@(z@_z@Ag.Hy@JI+Fj@n&+Fj@,r@Hy@Ry@Cy+Qy@8`+BP.+r GD ^W.HR.2l@T=.2l@Bi Ms@u;.o>.U=.e3 U=.''.p>.o>.HD u{.Mv q{.Ke.z ._! +}.88+$` `e q|.CT 0S {f L:+0u@5u+e6@%9@I7@PE+o@+o@+PE+[O.}S+}S+}S+:i.N4@]b@qM 5m V'@:z@v;.bi+bi+#u@2l@kM  t E@.S#+yQ 6S ^W.vy@<z@zx@LF.RR+I +u* DU.wy@ub.6S HX.5m 5m `Q+`Q+[z@[z@AG +I +I +I +I x<@}z@|z@1z@1z@2z@ k._i. k.2z@y>@<b@cr@-x@&z@3z@5c@{a@55@r@+'. &)+&)+&]@T:+4z@T:+l~+[z@2l@.t Bi .t ]:.u;.u;.HD y4 ^C tP tP ,` ^C U=.@;.],.nX+]:.sP tP %Q.v( }!.Qt gi G5 3L 20 X7 P@.1=.xA cY ~,.T<.Jg bY  v E'.)G la.sH ma.4%.N5 ek.ek.ek.ek.ek.[0 d< d< .: YM.&: K'.a! a! G> K'.u' nL.nL.nL.u' u' 9! YM.+: }% CB.HJ 2A.5% >D.(@@bE.-~@RF.5z@Jy@WM.6z@7z@8z@9z@0z@az@az@8z@bz@6z@cz@]z@dz@Vy@]-@^c+K(@g! Q @y;.`=.h%+h%+h%+h%+i%+8%+J7@8F qW.!_+.$+Tg Tg |L Jq.FG 1L !_+!_+1L qW.Iq.rW.[n.^M+s @1L (O }n.]o 0! 5/ 5/ `o.F] M@ <% |/ GG u| [C +2 hk f< KJ |0 E] |0 E] 1/ a3 |/ GG ",
"ez@fz@gz@`E+M#+hz@iz@8X BL+jz@kz@#v@9`+QC <S+_S+Xq GL+yx@0q@0q@N4@p3@J>@FM.rd w<._g+nY o9.o9.WJ.-a.Du@T=.<V Bi OQ HD Nl+Ol+^C U=.NQ :o _g+lO+DQ )}.Xg }E.{;+6q@My@lz@}n Et@v>@:g+tx@NX.PE+RT  f.-O -O :T.;2.nY XW XW XW A).k9.u|@D$.=I &{ 9x.7F xv.xv.yv.{m 8k (L V-+}=.{%+l>.9&.)2 kY K}@'}.w(.45@45@S@.mk ,}.Qx@0}+'. &)+Hl.mz@4z@sJ P3+}S ZQ+[z@1F ZQ+(6@RO++I AG kM +I ^i.{+.pb+nz@%j@.k.RO+.k.#k@RO+!L `Q+o9..^@4z@&]@D(@n9.F/@sJ :b@N2@bi+Mq.W=.4p+Se.Se.v;.Se.G'.gH wg.uP zi uP :O.Xg+rW+v|@:L $k+`p My./O :C U7 Y  u' Q @nL.nL.ak 4T.s;.o;.Z+.dY+`+.o^.2..2%.r;.q;.k#.q;.r;.2%.ek.}0 Bx@/o 1l@-. dL.(@@5% 2A.03 >/@oz@D&@0/ I( J%@nO.]-@g_@g_@L%@r4 Vy@B&@|v@pz@*v@&v@m0+qz@rz@sz@tz@uz@vz@vz@wz@xz@yz@wz@zz@sz@sz@Az@Bz@Cz@Cx@g_@L%@qf+Vy@Dz@Dz@Uy@Vy@r4 g_@F&@/1@[2@-].y;.;h+|%..$+-Y.8F J7@Jq.J7@-h+ks.1L ks.!_+!_+s @8F |L ^M+pf+[n.JV+JV+^M+-Y.JJ 2/ `  >[.'1.%: 5/ l* 3/ pU D5 }p.6(+h< g< P6 .c &2 %f 7u.3A.yR.'r.yR.3A.",
"|y@}y@Pw 1Y }B P +Ow QC _S+(x@Ax@Wu fR.5_@v<.)L LD LD o|.)L i>.q9.q9.9+.9+./C X].t] ;o >m F'.F'.F'.F'.es.es.xM F'.xM 1+.BI.BI.>` F'.#;.XW pM 45@{T.@r di+MF.Ez@Fz@Fz@6q@_A.9y@;:.w(.S@.x$.!}.=O <+.:H.m$.c/.di {~.Q=+VU+VU+VU++;+Xj. .+jO.s @v`+9x.zv. p.7F )V.>;+Al.e#@c7+0|+mc@/Y+9&.+^.)S /O./O.iO.45@Fy@:i.Sk@Yy@7K+hR.Hl.wb.D`+<V t;.;*.^C es.>` |+.MQ Nl+L`+2! -u.y] ~:.{:.f&.@;.e3 e3 e3 e3 e3 @;.g&.wM L(@B .tP y4 y4 ^C tP MQ 3m :L DJ {m {m DJ CJ ZP.|n.|n.|n.Og Og 'I )I )I y5.V  {i.j* *{ zI./O *N.Y=.9k nL.g! [2@+V.B&+(++63 RD /m p9+p9+d3 ek.pd ek.ek.ak d3 p9+4T.4T./o Bx@GJ 93 -. Xq.|j+O%@dy@CB.g_@>/@>/@oz@D&@D5+n7+GR.GR.K(@g! Q @-].-].Q @-].g! mO.L] J%@nO.nO.]-@[b+Gz@`k@Hz@Gz@Gz@Gz@`k@[b+h_@GX+(#@h_@E- h_@q4 qf+r4 Vy@B&@dz@dz@B&@Dz@dz@Dz@L%@F&@/1@Q @Z=.|d+Y  *N.*N.J7@FG ms.b5.b5.ms.!_+s @s @!_+ms.|%..$+Iq.i7+|V |V |V |V -Y.s @A~.]m (Z.&: a! F] $. 6%.,} '} !} }p.}p.h< 73 K6 G( 73 W7 P6 z' 'c.b3 ]r.",
"PR+8V >~.^` nP (V MW Ot Ot }+.sb.[H.ra _S (V Ot ):.):.Ot Ev SQ TL+TL+GM GM u>.u>..'@Y1 &;.q>.q>.fY fY q>.$^.$^._0 Z_ Ue.Ue.Z_ cd fY es.5F j&.ub.7S Fz+Iz@Iz@4j@-T.$Z.Jz@<j@*T+&O 0/.'~.,~.jM ^` c/.jY di o$.xP.+;+{5.p$.p$.W%@p$.]'+|V -Y.`)+wa+-.+5Z.zv.JV+Yo.p8+q' UR.Xq@Qe.!k+Kz@0g+F ./O.Z].Z].]L mk Wg QP+[z@1F ]:.U=.F'.1+.{o </ w] 7x.AX+ms.b5.b5.Tg .$+(C BX+ya+ya+Ve.aR.aR.aR.]i.w> _O._O.]i.W%@aR.aR.Ve.<L.l' l' v> (C }V (C uA (C BX+BX+}V |>+|>+=].-4.-4.;;+%} MT `_ `_ |H. p.9x.9x.*N.Jq.Jq.:C ;h+h%+>].|!.KT. -.LT..-.|!.fd fd 83 83 fd `b L6 o4 y| y| ;} ;} ;} ;} y| y| ik Kq.AM :C x;.9k u' Q @y;.y;.YX.8c+(,./,.z;.z;.H'.`=.>].x9+=N.b5.b5.b5.-N.oL.>].H'.H'.H'.`=.H'.;h+N%@I&@I&@;h+ju+ju+;h+N%@N%@N%@I&@[i@lO./#@GX+ef+Zd+a=@B~.C~.:J+8++Tk+J;@&.+&.+J;@qT+Ee+9++|d+B> -h+#h+Ll+uW.Lz@Mz@Nz@Oz@Pz@Pz@Qz@Rz@Sz@Tz@;Q.Uz@{-@/R+Yo.UU+=7.ms.2L i8.i8.dE.dE.mi ,[.3/ <% wi.{G.-)+,4.;4.l8.l8.Y^+,7.w|+;: Y^+;4.>4.,4.j8.",
"yP.{~.xP.Nr Pt gx (0 (0 ${ Yb Y1 :O }H.N  LQ LQ ^% O  ${ 1! 1! G@ G@ t> t> t> s- t5.#{ 23 M`+eY Z_ eY Z_ M`+M`+_0 _0 R7 $f fY sA ,` y4 lk ,}.rA ^W.{b@@a@:W.4j@Jz@|]@0+.0@+:A..^.9/.`].c/.c/.jY lN+iY ei ~:.]T.+q+3X+BJ BJ BJ q' CJ $k+:C `=.I`.|d+I&@Vz@B/+(Y+Wz@KV+j7+G| !i.Z3+W'+5^+Ci <+.n$.!}.~S+5F ^` @^.`P.=I Sj.es.F'.rP |S YI ji |} >o  2 wP T7 dY :0 [V JD [V #z eY ys.Z1 |>+v> </ KT+</ wv.(C uA z5.z5.z5.3F &7.ya+ya+BX+(C BX+ !+;;+VJ.|H.A5.=].~u.0< -7.MT IJ _m *7.,f %*.s @-Y.Tg |%.+$+BM 3Z.i8.b5.s2.2++7++xp.=_.xp.D| >[.5L ,[.CM ed 5L o4 L6 i8.b5.Tg CM $].$].$].$].,1.H`.l}.`)+5L =N.Tg b5.=N.=N.u~+u~+u~+[j+[j+[j+=Y.z/+pL.oL.9%+G`.>].H'.x9+h%+H'.y;.Z=.`=.>].>].h<@|d+;h+ju+|d+h<@h<@|d+wa+ju+8g+I&@Cn+|%.|%.H`.h%+8++z/+B0+P@+Ee+Ee+P@+qT+B0+Tk+Tk+;N.8++!S.qT+h<@ $+}n.B> x*@#h+bo+Xz@a++Yz@Zz@`z@Pz@ A@.A@+A@@A@#A@$A@%A@&A@*A@=A@-A@9z@RF.CB.(Z.,{ &: <% $: _c.Xd.w|+Rd.Yl.r}+vh@w|+l8.ua.Y^+]c.Yl.Rd.;: wm+",
"0R.e* :/ 2! x] q$.cd $^.6+.{` dY E~.O@.E~.dY qP S7 I6 Z_ Z_ M`+_0 cd I6 Z1 ~` &} EM u~.MT =].`_ |H.`_ |H.=].=].&7.=].=].=].(C |>+uA </ t- ]=.]=.uJ <=.H +,V.-,+MY+E.@U'+1>+*Z.(=. ;.QR+lN+~:.~:.(L $I _L BJ 8k _L V  V  4! dc+Sh+W  ;A@/#@J}@>A@7c+7c+,A@,A@'A@H&@2r@x @fs.&;@e#@u- uM !m !m SW @^.!m K@.e* P  P  e* BJ rW+gH zi ii |} OD 1m OD Rr b< [C pi gd .q #2 Rt 20 `_ %*.|%.yi |%.|%.yi *7.-7.L6 F5 CM Tg b5..$+ $+1L ks.IV+)u.s @ks.*7.!_+-7. $+-7.BM $].l}.fd `  {} l}.E5 ,1.5L l}.l}.l}.z/+-N.F`.F`.=Y.pW.!*.!*.^m.Ni.^m.!*.!4.=Y.{4.F`... pL.B( 5/ mi mi Tg CM $].$].CM b5.Tg &.+E`.J;@=Y.;N.;N.%.+{$+{$+;N.!S.'*.'*.%.+{$+pL.9%+7%.9%+(;+=Y.E`.i8.i8.F`.z/+z/+-N.=N.=N.=N.+$++$+BM BM BM BM  $+ $++$+BM BM (O Zo.Kq.AM 3L Z  y;.]o H'.>].G`.pL.T*+F`.D| D| u~+B9+[j+rL.{$+=Y.pL.z/+>].8%+y9+-h+)A@$3+Wj.'2 A> zI. p.|n. p.x @/R+Sh+R,@@n@!A@~A@Lz@5z@{A@]A@^A@/A@ny@^#@4c+jn+Wd.g^+ya.{c._r.F> 9%.k* >0.J` #-.0%.-1.r#.;1."};
