/* XPM */
static char * Tile 19 _ 128x128_xpm[] = {
"128 128 1917 2",
"  	c #403528",
". 	c #47382E",
"+ 	c #483C30",
"@ 	c #493C31",
"# 	c #493C30",
"$ 	c #4B3D31",
"% 	c #392D24",
"& 	c #43362B",
"* 	c #4C3D31",
"= 	c #3A2E25",
"- 	c #382C22",
"; 	c #4D3D32",
"> 	c #473C31",
", 	c #483C31",
"' 	c #443A2F",
") 	c #43392E",
"! 	c #463B30",
"~ 	c #483B31",
"{ 	c #463B31",
"] 	c #453A30",
"^ 	c #3B3329",
"/ 	c #1A280D",
"( 	c #324027",
"_ 	c #ADA398",
": 	c #B0A499",
"< 	c #B3A499",
"[ 	c #AF9E93",
"} 	c #B09F94",
"| 	c #AE9E92",
"1 	c #AF9E92",
"2 	c #B19F91",
"3 	c #AF9C8E",
"4 	c #AF9C8D",
"5 	c #AC9A8B",
"6 	c #AD998A",
"7 	c #AD9A89",
"8 	c #AE9989",
"9 	c #AD9988",
"0 	c #AB9686",
"a 	c #AC9788",
"b 	c #AD9A8A",
"c 	c #B09C8D",
"d 	c #B19D8D",
"e 	c #B09C8B",
"f 	c #B8ACA4",
"g 	c #BBB0AD",
"h 	c #BAAFAC",
"i 	c #B4AAA5",
"j 	c #B1A7A0",
"k 	c #B4AAA4",
"l 	c #B3A79F",
"m 	c #67524A",
"n 	c #4F3A33",
"o 	c #342924",
"p 	c #322923",
"q 	c #332A24",
"r 	c #342B24",
"s 	c #332B24",
"t 	c #312923",
"u 	c #312823",
"v 	c #322924",
"w 	c #342B23",
"x 	c #362C24",
"y 	c #4C3E32",
"z 	c #4D3E32",
"A 	c #4B3E32",
"B 	c #4C3E33",
"C 	c #4D3E33",
"D 	c #382C24",
"E 	c #372C24",
"F 	c #493A2F",
"G 	c #3A3424",
"H 	c #5B4B40",
"I 	c #A99A8A",
"J 	c #B39F8F",
"K 	c #B3A191",
"L 	c #B5A192",
"M 	c #B5A193",
"N 	c #B4A294",
"O 	c #B8A699",
"P 	c #BBAA9D",
"Q 	c #BCACA0",
"R 	c #BEAEA3",
"S 	c #BFAFA5",
"T 	c #BFB0A6",
"U 	c #BEB0A6",
"V 	c #C0B1A7",
"W 	c #C1B2A9",
"X 	c #C1B2A8",
"Y 	c #BCADA3",
"Z 	c #BEAFA5",
"` 	c #BCADA2",
" .	c #BBAA9F",
"..	c #BAA99C",
"+.	c #B9A89B",
"@.	c #B9A79B",
"#.	c #B8A597",
"$.	c #B6A395",
"%.	c #B5A395",
"&.	c #B8A396",
"*.	c #504938",
"=.	c #3F342B",
"-.	c #2F2B24",
";.	c #2E2A24",
">.	c #2E2B23",
",.	c #2F2B23",
"'.	c #302B23",
").	c #312B22",
"!.	c #2A251D",
"~.	c #28231B",
"{.	c #2F2920",
"].	c #29241B",
"^.	c #272218",
"/.	c #25211A",
"(.	c #262119",
"_.	c #2D271F",
":.	c #312B23",
"<.	c #2D2A24",
"[.	c #2C2A24",
"}.	c #2B2924",
"|.	c #2A2824",
"1.	c #2B2925",
"2.	c #2D2A25",
"3.	c #2C2925",
"4.	c #282724",
"5.	c #262523",
"6.	c #393227",
"7.	c #9F958B",
"8.	c #DEDEDB",
"9.	c #DCDBD7",
"0.	c #DBD9D4",
"a.	c #DAD7D1",
"b.	c #D9D6CF",
"c.	c #D7D3CB",
"d.	c #D5D0C8",
"e.	c #D3CEC4",
"f.	c #D1CBC0",
"g.	c #D1CABF",
"h.	c #CEC7BA",
"i.	c #CCC4B6",
"j.	c #CCC4B5",
"k.	c #CDC5B6",
"l.	c #CDC6B8",
"m.	c #CCC5B6",
"n.	c #CEC7B9",
"o.	c #CDC5B7",
"p.	c #D0C9BD",
"q.	c #C3BBAE",
"r.	c #DAD6CF",
"s.	c #E1DFDB",
"t.	c #E3E1E0",
"u.	c #E1DEDB",
"v.	c #DDDAD4",
"w.	c #DAD7D0",
"x.	c #A8988C",
"y.	c #2C251E",
"z.	c #1F1C19",
"A.	c #1D1B18",
"B.	c #211E19",
"C.	c #231F19",
"D.	c #201D19",
"E.	c #1E1C18",
"F.	c #1C1B18",
"G.	c #1C1A18",
"H.	c #181715",
"I.	c #1A1817",
"J.	c #1A1917",
"K.	c #221F19",
"L.	c #3F372E",
"M.	c #372F27",
"N.	c #2E2921",
"O.	c #29231A",
"P.	c #302B22",
"Q.	c #383027",
"R.	c #45372C",
"S.	c #867667",
"T.	c #CBC3B5",
"U.	c #CDC6B7",
"V.	c #CEC6B8",
"W.	c #CFC8BB",
"X.	c #D1CABD",
"Y.	c #D4CFC4",
"Z.	c #D8D4CC",
"`.	c #D9D5CE",
" +	c #DBD8D2",
".+	c #DEDCD7",
"++	c #DFDEDA",
"@+	c #E0DFDD",
"#+	c #E0DFDC",
"$+	c #DFDEDB",
"%+	c #DFDDDA",
"&+	c #DDDBD7",
"*+	c #DEDDD9",
"=+	c #DEDCD8",
"-+	c #DCDAD5",
";+	c #D8D4CD",
">+	c #D7D2CA",
",+	c #D5D0C6",
"'+	c #D4CEC4",
")+	c #D5CFC6",
"!+	c #D4CFC6",
"~+	c #AA9181",
"{+	c #463B33",
"]+	c #362F26",
"^+	c #242019",
"/+	c #252018",
"(+	c #252118",
"_+	c #201E19",
":+	c #1F1D19",
"<+	c #2C2A25",
"[+	c #2B2825",
"}+	c #282624",
"|+	c #483B33",
"1+	c #9D8E84",
"2+	c #E0DFDB",
"3+	c #DAD6CE",
"4+	c #D8D3CB",
"5+	c #D8D3CA",
"6+	c #D8D4CB",
"7+	c #D6D1C7",
"8+	c #D2CCC0",
"9+	c #D0C9BB",
"0+	c #CFC7B9",
"a+	c #CFC7B8",
"b+	c #CFC8B9",
"c+	c #CFC8BA",
"d+	c #CEC7B8",
"e+	c #D1CBBE",
"f+	c #D2CCBF",
"g+	c #D1CABC",
"h+	c #D3CDC0",
"i+	c #DCD7CF",
"j+	c #DFDCD6",
"k+	c #E5E4E2",
"l+	c #E0DDD8",
"m+	c #DAD6CD",
"n+	c #9E8C7F",
"o+	c #2F2722",
"p+	c #1A1816",
"q+	c #1F1D18",
"r+	c #1B1A17",
"s+	c #1C1A17",
"t+	c #312920",
"u+	c #242018",
"v+	c #2C271E",
"w+	c #2E2920",
"x+	c #252019",
"y+	c #42342C",
"z+	c #7F7268",
"A+	c #CCC5B7",
"B+	c #DBD8D1",
"C+	c #DFDCD8",
"D+	c #E1DFDC",
"E+	c #E1E0DD",
"F+	c #DFDDD8",
"G+	c #DAD7CF",
"H+	c #D9D5CD",
"I+	c #D6D1C6",
"J+	c #D5D0C5",
"K+	c #D7D2C8",
"L+	c #D5D1C7",
"M+	c #A78E7C",
"N+	c #453B32",
"O+	c #211E18",
"P+	c #342D26",
"Q+	c #2A2825",
"R+	c #493C33",
"S+	c #DDDBD5",
"T+	c #D9D5CC",
"U+	c #DBD7D0",
"V+	c #D4CFC3",
"W+	c #D2CBBE",
"X+	c #D3CDC1",
"Y+	c #D3CCC0",
"Z+	c #D2CBBF",
"`+	c #D4CEC2",
" @	c #D7D1C6",
".@	c #DEDBD4",
"+@	c #E1DED9",
"@@	c #E5E3E0",
"#@	c #DFDBD5",
"$@	c #DAD6CC",
"%@	c #D9D4CB",
"&@	c #9A887A",
"*@	c #2E2721",
"=@	c #252119",
"-@	c #1F1C18",
";@	c #28241C",
">@	c #352B24",
",@	c #7D736B",
"'@	c #B7AFA5",
")@	c #DAD5CC",
"!@	c #D0C8BA",
"~@	c #D5CFC4",
"{@	c #D7D2C9",
"]@	c #E1E0DC",
"^@	c #E0DEDB",
"/@	c #DFDDD9",
"(@	c #DCD9D3",
"_@	c #D6D0C6",
":@	c #A98F7D",
"<@	c #232019",
"[@	c #191816",
"}@	c #181716",
"|@	c #262118",
"1@	c #2F2A24",
"2@	c #292825",
"3@	c #272624",
"4@	c #252522",
"5@	c #9D8F84",
"6@	c #DCD8D2",
"7@	c #DCDAD3",
"8@	c #D9D5CB",
"9@	c #E0DDD7",
"0@	c #E2E0DC",
"a@	c #E4E2DF",
"b@	c #E2DFDB",
"c@	c #DFDCD7",
"d@	c #9F8D82",
"e@	c #2E2722",
"f@	c #1B1917",
"g@	c #181816",
"h@	c #312A21",
"i@	c #342D24",
"j@	c #342A24",
"k@	c #817670",
"l@	c #DBD7D1",
"m@	c #DDDAD3",
"n@	c #CEC8BE",
"o@	c #D9D4CA",
"p@	c #D3CCBF",
"q@	c #D0C9BC",
"r@	c #D3CDC2",
"s@	c #DCD9D2",
"t@	c #DEDBD6",
"u@	c #E0DEDA",
"v@	c #DFDED9",
"w@	c #A78D7C",
"x@	c #3A3229",
"y@	c #171715",
"z@	c #151514",
"A@	c #171615",
"B@	c #322B22",
"C@	c #28231A",
"D@	c #27231A",
"E@	c #292724",
"F@	c #242422",
"G@	c #D9D4CC",
"H@	c #D7D3C9",
"I@	c #D6D1C8",
"J@	c #D0C9BA",
"K@	c #E6E5E3",
"L@	c #E1DFD9",
"M@	c #E2E0DB",
"N@	c #E2E0DD",
"O@	c #A08F84",
"P@	c #2D2622",
"Q@	c #27221A",
"R@	c #393128",
"S@	c #40362D",
"T@	c #332924",
"U@	c #827872",
"V@	c #E1DFDA",
"W@	c #DDDAD5",
"X@	c #D1CBBF",
"Y@	c #A78D7B",
"Z@	c #453A32",
"`@	c #121211",
" #	c #121111",
".#	c #221F18",
"+#	c #39332A",
"@#	c #3B332B",
"##	c #252422",
"$#	c #D7D2C7",
"%#	c #E3E1DD",
"&#	c #E4E3E0",
"*#	c #E7E6E5",
"=#	c #E7E7E5",
"-#	c #E5E5E4",
";#	c #A39188",
">#	c #2C2521",
",#	c #141312",
"'#	c #141413",
")#	c #131312",
"!#	c #141313",
"~#	c #2E271F",
"{#	c #151414",
"]#	c #7F756F",
"^#	c #DDDBD6",
"/#	c #DEDAD3",
"(#	c #C7BDAE",
"_#	c #A58B78",
":#	c #473C33",
"<#	c #29241D",
"[#	c #10100F",
"}#	c #101010",
"|#	c #111110",
"1#	c #221E19",
"2#	c #25211B",
"3#	c #483B32",
"4#	c #DEDBD5",
"5#	c #DCD8D0",
"6#	c #E3E2DE",
"7#	c #E8E8E8",
"8#	c #E7E6E6",
"9#	c #A4938A",
"0#	c #2B2420",
"a#	c #111111",
"b#	c #131212",
"c#	c #231F18",
"d#	c #827772",
"e#	c #E5E3E1",
"f#	c #DDDAD2",
"g#	c #D8D3C8",
"h#	c #D5CFC5",
"i#	c #A58A77",
"j#	c #483C34",
"k#	c #26221B",
"l#	c #1A1916",
"m#	c #151413",
"n#	c #302920",
"o#	c #29251D",
"p#	c #4A3C34",
"q#	c #9D8E83",
"r#	c #DEDCD6",
"s#	c #E0DED9",
"t#	c #C6BDAF",
"u#	c #A4928A",
"v#	c #2B2421",
"w#	c #111010",
"x#	c #2B271F",
"y#	c #3E342B",
"z#	c #3F362D",
"A#	c #161614",
"B#	c #807570",
"C#	c #E8E8E7",
"D#	c #A38775",
"E#	c #493D34",
"F#	c #201D18",
"G#	c #30291F",
"H#	c #352E24",
"I#	c #2C271F",
"J#	c #292824",
"K#	c #272623",
"L#	c #493C34",
"M#	c #E2E1DF",
"N#	c #D5CCC1",
"O#	c #DDD9D2",
"P#	c #E0DED8",
"Q#	c #E4E2E0",
"R#	c #312A20",
"S#	c #352E26",
"T#	c #161615",
"U#	c #352A24",
"V#	c #80766F",
"W#	c #E3E1DE",
"X#	c #E7E7E6",
"Y#	c #E6E5E2",
"Z#	c #A38876",
"`#	c #332B22",
" $	c #342E26",
".$	c #332C23",
"+$	c #2F2921",
"@$	c #373027",
"#$	c #4B3D34",
"$$	c #9E8E83",
"%$	c #E2E1DE",
"&$	c #CEC5B7",
"*$	c #DFDCD5",
"=$	c #99887B",
"-$	c #2F2823",
";$	c #161514",
">$	c #322A21",
",$	c #1C1B17",
"'$	c #3E3229",
")$	c #797068",
"!$	c #CCC6BB",
"~$	c #D2CCBE",
"{$	c #D4CEC3",
"]$	c #A38976",
"^$	c #483D34",
"/$	c #3C342A",
"($	c #312C24",
"_$	c #2A251C",
":$	c #383129",
"<$	c #9E8E82",
"[$	c #E2E0DE",
"}$	c #E3E2E0",
"|$	c #D2CBBD",
"1$	c #D4CABE",
"2$	c #CDC3B6",
"3$	c #CFC9BE",
"4$	c #DBD6CD",
"5$	c #D1CABE",
"6$	c #A28775",
"7$	c #362D26",
"8$	c #2C2720",
"9$	c #2C261F",
"0$	c #28241D",
"a$	c #312A23",
"b$	c #504036",
"c$	c #766B65",
"d$	c #DCD8CF",
"e$	c #D4CEC1",
"f$	c #DDD9D1",
"g$	c #C0B8AB",
"h$	c #A18674",
"i$	c #483D35",
"j$	c #302A21",
"k$	c #262623",
"l$	c #9D8D82",
"m$	c #E4E3E1",
"n$	c #9F8572",
"o$	c #2D2820",
"p$	c #3B332A",
"q$	c #514137",
"r$	c #7C7169",
"s$	c #DAD6D0",
"t$	c #CFC5B8",
"u$	c #A08674",
"v$	c #3F352C",
"w$	c #272219",
"x$	c #252523",
"y$	c #DCDAD4",
"z$	c #E2E2DF",
"A$	c #E3E2DF",
"B$	c #CFC9BC",
"C$	c #A18774",
"D$	c #3C332A",
"E$	c #2D261E",
"F$	c #322C24",
"G$	c #514037",
"H$	c #7C7069",
"I$	c #C6BEB1",
"J$	c #C9C2B7",
"K$	c #C8C0B4",
"L$	c #B8AEA0",
"M$	c #C2B9AB",
"N$	c #D2CCC1",
"O$	c #A28876",
"P$	c #373028",
"Q$	c #201E18",
"R$	c #26221A",
"S$	c #352E25",
"T$	c #CEC6B7",
"U$	c #A18673",
"V$	c #483C33",
"W$	c #524137",
"X$	c #807065",
"Y$	c #CAC3B4",
"Z$	c #D0CABD",
"`$	c #C0B2A3",
" %	c #C7BEB0",
".%	c #C8BDAE",
"+%	c #C8BBAB",
"@%	c #D3CDC3",
"#%	c #A38977",
"$%	c #2F2A22",
"%%	c #9E8E84",
"&%	c #E3E3E1",
"*%	c #E3E2E1",
"=%	c #E4E4E2",
"-%	c #CEC7B7",
";%	c #A38875",
">%	c #837265",
",%	c #CCC4B7",
"'%	c #CEC5B8",
")%	c #BAAD9E",
"!%	c #C6BEB0",
"~%	c #D4D0C6",
"{%	c #272119",
"]%	c #3B342E",
"^%	c #9F9086",
"/%	c #E2E2E0",
"(%	c #E4E3E2",
"_%	c #CEC2B4",
":%	c #9A8779",
"<%	c #867467",
"[%	c #CEC7BB",
"}%	c #D8D3C9",
"|%	c #D9D3C9",
"1%	c #D5D0C7",
"2%	c #A48978",
"3%	c #473C34",
"4%	c #29231B",
"5%	c #473B32",
"6%	c #A09187",
"7%	c #E3E3E2",
"8%	c #998678",
"9%	c #847567",
"0%	c #D2CEC5",
"a%	c #CEC1B3",
"b%	c #C3BCAF",
"c%	c #D4CFC5",
"d%	c #2B251C",
"e%	c #40372E",
"f%	c #A19288",
"g%	c #E4E4E3",
"h%	c #CABEAE",
"i%	c #9A8679",
"j%	c #3C322B",
"k%	c #887A6D",
"l%	c #D5D1C9",
"m%	c #D1CBBD",
"n%	c #A18776",
"o%	c #493D35",
"p%	c #2C261D",
"q%	c #E5E5E5",
"r%	c #D7D1C7",
"s%	c #9B8576",
"t%	c #897A6D",
"u%	c #D5D2CA",
"v%	c #CEC6B6",
"w%	c #BBAD9D",
"x%	c #D3CEC5",
"y%	c #A08775",
"z%	c #493E35",
"A%	c #9F9187",
"B%	c #E5E6E5",
"C%	c #E6E6E6",
"D%	c #E6E6E5",
"E%	c #C4BAAC",
"F%	c #C9C2B8",
"G%	c #998578",
"H%	c #504037",
"I%	c #88796C",
"J%	c #D9D6CE",
"K%	c #CABFB0",
"L%	c #D4D0C7",
"M%	c #98806F",
"N%	c #29241C",
"O%	c #2D281F",
"P%	c #A09188",
"Q%	c #E6E6E7",
"R%	c #C8BDAF",
"S%	c #9E8674",
"T%	c #332C22",
"U%	c #3E352C",
"V%	c #8A7B6E",
"W%	c #DBD8D0",
"X%	c #C4BBAC",
"Y%	c #D5CFC3",
"Z%	c #C0B6A7",
"`%	c #D4D0C8",
" &	c #947D6C",
".&	c #2B261F",
"+&	c #E6E7E7",
"@&	c #9B877B",
"#&	c #8F8073",
"$&	c #D6D2CA",
"%&	c #9A8372",
"&&	c #9E8F86",
"*&	c #A48977",
"=&	c #3E332C",
"-&	c #383229",
";&	c #4F3F36",
">&	c #928276",
",&	c #D5D1C8",
"'&	c #D6D3CB",
")&	c #A38B7A",
"!&	c #463C34",
"~&	c #252423",
"{&	c #4A3C35",
"]&	c #9B8D83",
"^&	c #C7B8A8",
"/&	c #9C8677",
"(&	c #363027",
"_&	c #393129",
":&	c #4F4036",
"<&	c #D6D2C8",
"[&	c #D7D4CD",
"}&	c #A68E7D",
"|&	c #453B33",
"1&	c #4C3D35",
"2&	c #9B8C82",
"3&	c #E1E1DF",
"4&	c #9B8575",
"5&	c #928275",
"6&	c #D7D3CA",
"7&	c #D8D5CD",
"8&	c #A78F7E",
"9&	c #4D3E35",
"0&	c #9C8C81",
"a&	c #E1E0DE",
"b&	c #E5E4E4",
"c&	c #D2C7BA",
"d&	c #988474",
"e&	c #3D332B",
"f&	c #4E3F36",
"g&	c #938276",
"h&	c #A88F7E",
"i&	c #9B8B81",
"j&	c #E5E4E3",
"k&	c #D1C7BA",
"l&	c #988576",
"m&	c #2C2924",
"n&	c #4D3E36",
"o&	c #908275",
"p&	c #A99080",
"q&	c #453C34",
"r&	c #D3CEC3",
"s&	c #E4E4E4",
"t&	c #CFC8BD",
"u&	c #383128",
"v&	c #4E3E35",
"w&	c #968477",
"x&	c #D9D6D0",
"y&	c #A89080",
"z&	c #3F332B",
"A&	c #958577",
"B&	c #DEDDDA",
"C&	c #DEDCD9",
"D&	c #E0DEDC",
"E&	c #E1E0DF",
"F&	c #E0E0DE",
"G&	c #DFE0DE",
"H&	c #E1E1E0",
"I&	c #E0E0DF",
"J&	c #DDDDDB",
"K&	c #DCDAD6",
"L&	c #D9D5CF",
"M&	c #9B806E",
"N&	c #3E332A",
"O&	c #322C23",
"P&	c #241F19",
"Q&	c #42352C",
"R&	c #8E7C6C",
"S&	c #D3CFC5",
"T&	c #D7D4CC",
"U&	c #D8D5CF",
"V&	c #D9D7D1",
"W&	c #D1CBC1",
"X&	c #CFC9BD",
"Y&	c #D4D1C8",
"Z&	c #D6D3CC",
"`&	c #9A8473",
" *	c #2E2F1B",
".*	c #352D25",
"+*	c #3D352D",
"@*	c #403730",
"#*	c #403830",
"$*	c #423931",
"%*	c #413931",
"&*	c #433A32",
"**	c #463B32",
"=*	c #463C33",
"-*	c #443B33",
";*	c #443A33",
">*	c #3B312A",
",*	c #48382E",
"'*	c #514336",
")*	c #8D7664",
"!*	c #8F7A67",
"~*	c #917B69",
"{*	c #927B69",
"]*	c #907B68",
"^*	c #907A68",
"/*	c #907B69",
"(*	c #8F7A68",
"_*	c #8E7968",
":*	c #8C7866",
"<*	c #8A7765",
"[*	c #877563",
"}*	c #816F5E",
"|*	c #867261",
"1*	c #877361",
"2*	c #86715F",
"3*	c #806D5A",
"4*	c #856E5C",
"5*	c #86705D",
"6*	c #89725F",
"7*	c #88725F",
"8*	c #87715E",
"9*	c #85705C",
"0*	c #866D59",
"a*	c #614740",
"b*	c #5B3E3C",
"c*	c #3D3229",
"d*	c #3A3029",
"e*	c #2E2620",
"f*	c #2D2620",
"g*	c #2D2520",
"h*	c #2C2520",
"i*	c #352D26",
"j*	c #443A32",
"k*	c #443A31",
"l*	c #3D322B",
"m*	c #4A392F",
"n*	c #4D4132",
"o*	c #866F5C",
"p*	c #897360",
"q*	c #8B7562",
"r*	c #8C7663",
"s*	c #8D7763",
"t*	c #8E7764",
"u*	c #8E7765",
"v*	c #8B7663",
"w*	c #887361",
"x*	c #85715F",
"y*	c #836E5C",
"z*	c #85705E",
"A*	c #84705E",
"B*	c #836F5D",
"C*	c #816D5A",
"D*	c #85705D",
"E*	c #8B7461",
"F*	c #8B7561",
"G*	c #8A735F",
"H*	c #86705C",
"I*	c #836C59",
"J*	c #826A58",
"K*	c #836B58",
"L*	c #7D6856",
"M*	c #7A6654",
"N*	c #776250",
"O*	c #3F3C28",
"P*	c #4D4938",
"Q*	c #B4A79B",
"R*	c #BBABA0",
"S*	c #BBACA1",
"T*	c #B9ABA0",
"U*	c #B7A99E",
"V*	c #B8AAA0",
"W*	c #B6A99E",
"X*	c #B5A79B",
"Y*	c #B0A396",
"Z*	c #AD9D90",
"`*	c #AE9D90",
" =	c #AD9B8D",
".=	c #AB998B",
"+=	c #A69688",
"@=	c #A29385",
"#=	c #A6978A",
"$=	c #A49588",
"%=	c #A8978A",
"&=	c #A39587",
"*=	c #AA978A",
"==	c #A79589",
"-=	c #A59588",
";=	c #A7958A",
">=	c #A9998E",
",=	c #A89A8E",
"'=	c #9E8F82",
")=	c #AC9B90",
"!=	c #A8998E",
"~=	c #867769",
"{=	c #42392A",
"]=	c #353221",
"^=	c #4A3C33",
"/=	c #463A30",
"(=	c #463A32",
"_=	c #483C32",
":=	c #4A3D33",
"<=	c #4C3E34",
"[=	c #4B3E33",
"}=	c #493A30",
"|=	c #503B34",
"1=	c #614D44",
"2=	c #A28F80",
"3=	c #AC9F95",
"4=	c #B3A69F",
"5=	c #B5A9A3",
"6=	c #B4A8A1",
"7=	c #B9ADA8",
"8=	c #B3A69E",
"9=	c #A89384",
"0=	c #A69383",
"a=	c #A89485",
"b=	c #A49183",
"c=	c #AA9789",
"d=	c #AB9A8C",
"e=	c #AE9F91",
"f=	c #B1A193",
"g=	c #B2A193",
"h=	c #B2A092",
"i=	c #AC988A",
"j=	c #AC998B",
"k=	c #A79586",
"l=	c #9E8C7E",
"m=	c #9A897A",
"n=	c #A89587",
"o=	c #AB9A8B",
"p=	c #AE9A8C",
"q=	c #A99689",
"r=	c #A19082",
"s=	c #8A7669",
"t=	c #493B2F",
"u=	c #3C3526",
"v=	c #40362C",
"w=	c #493C32",
"x=	c #493D33",
"y=	c #4C3D33",
"z=	c #4B3D33",
"A=	c #4A3D34",
"B=	c #4B3E34",
"C=	c #4B3D32",
"D=	c #4A3D32",
"E=	c #4E3E33",
"F=	c #4E3F33",
"G=	c #4D3E34",
"H=	c #473930",
"I=	c #3D3526",
"J=	c #988B7F",
"K=	c #DAD8D2",
"L=	c #DDDCD8",
"M=	c #DFDFDC",
"N=	c #DBD8D3",
"O=	c #D2CDC4",
"P=	c #D0CABF",
"Q=	c #D3CEC6",
"R=	c #D9D7D2",
"S=	c #DAD7D2",
"T=	c #DAD8D3",
"U=	c #D8D6D2",
"V=	c #7D6E5E",
"W=	c #39312A",
"X=	c #45372D",
"Y=	c #938476",
"Z=	c #CBC4B5",
"`=	c #CFC7BB",
" -	c #D7D1C8",
".-	c #CCBFB3",
"+-	c #D8D2C9",
"@-	c #CCC3B5",
"#-	c #D6D2C9",
"$-	c #D2CCC2",
"%-	c #D0CABE",
"&-	c #CFC8BC",
"*-	c #CEC7BC",
"=-	c #876D5F",
"--	c #3D332A",
";-	c #2E2A25",
">-	c #43362D",
",-	c #97887C",
"'-	c #DBD9D3",
")-	c #9D897A",
"!-	c #453C35",
"~-	c #938173",
"{-	c #D0C9BF",
"]-	c #C4BCAF",
"^-	c #C4BCAE",
"/-	c #9E8473",
"(-	c #9A8B7F",
"_-	c #DCDDDA",
":-	c #453B34",
"<-	c #232322",
"[-	c #242322",
"}-	c #928173",
"|-	c #C9B5A5",
"1-	c #CFC5BA",
"2-	c #9D8473",
"3-	c #493E36",
"4-	c #9B8C80",
"5-	c #DDDCD7",
"6-	c #9A8678",
"7-	c #453B35",
"8-	c #222221",
"9-	c #242423",
"0-	c #928073",
"a-	c #CEC5B9",
"b-	c #DBD7CE",
"c-	c #C7BFB4",
"d-	c #D9D6CD",
"e-	c #A28878",
"f-	c #262524",
"g-	c #9B8C81",
"h-	c #DEDEDC",
"i-	c #998677",
"j-	c #232221",
"k-	c #938275",
"l-	c #D4CDC1",
"m-	c #CAC0B2",
"n-	c #9C8474",
"o-	c #493B32",
"p-	c #9B8D82",
"q-	c #A18D7E",
"r-	c #948376",
"s-	c #9B8272",
"t-	c #262624",
"u-	c #DDDDDA",
"v-	c #A18C7D",
"w-	c #908175",
"x-	c #D3CEC2",
"y-	c #997F6F",
"z-	c #DDDCD9",
"A-	c #9B8778",
"B-	c #463C35",
"C-	c #4F3F37",
"D-	c #8C7E72",
"E-	c #998171",
"F-	c #9C8C80",
"G-	c #DCD9D4",
"H-	c #DBDAD6",
"I-	c #9D8879",
"J-	c #4F4037",
"K-	c #8D7E71",
"L-	c #D7D3CC",
"M-	c #9D8575",
"N-	c #9B8B80",
"O-	c #A28C7C",
"P-	c #473D35",
"Q-	c #D8D5CE",
"R-	c #917C6C",
"S-	c #483D36",
"T-	c #9B8374",
"U-	c #4E3F37",
"V-	c #908074",
"W-	c #9C8777",
"X-	c #9A8B80",
"Y-	c #D8D4CE",
"Z-	c #977F70",
"`-	c #918276",
" ;	c #9A8575",
".;	c #4C3D34",
"+;	c #938578",
"@;	c #9D8777",
"#;	c #998A7F",
"$;	c #DFDEDC",
"%;	c #9D8475",
"&;	c #C1B8A9",
"*;	c #978071",
"=;	c #473D36",
"-;	c #222120",
";;	c #4C3E35",
">;	c #97897E",
",;	c #9C8475",
"';	c #483E36",
");	c #938376",
"!;	c #DAD9D4",
"~;	c #958172",
"{;	c #988A80",
"];	c #988272",
"^;	c #918073",
"/;	c #BEB5A6",
"(;	c #C6BCAF",
"_;	c #988575",
":;	c #4B3D35",
"<;	c #97897F",
"[;	c #998474",
"};	c #8E7E71",
"|;	c #CABEB0",
"1;	c #DAD5CB",
"2;	c #96887E",
"3;	c #958171",
"4;	c #89796C",
"5;	c #D2CDC3",
"6;	c #CEC5BA",
"7;	c #C9BEAE",
"8;	c #C9BDAE",
"9;	c #DCDBD8",
"0;	c #988B80",
"a;	c #DCD8D1",
"b;	c #9F897A",
"c;	c #8A7A6C",
"d;	c #D7CDC2",
"e;	c #E5E4E1",
"f;	c #A59081",
"g;	c #4B3C35",
"h;	c #9B8E83",
"i;	c #DBD9D5",
"j;	c #9D8677",
"k;	c #8B7A6C",
"l;	c #CBBFAF",
"m;	c #C4B8AA",
"n;	c #A69081",
"o;	c #443B34",
"p;	c #493B33",
"q;	c #9D8F85",
"r;	c #E2E2E1",
"s;	c #9E8677",
"t;	c #857568",
"u;	c #CEC8BB",
"v;	c #DDDDD9",
"w;	c #222121",
"x;	c #9E9086",
"y;	c #A58C7D",
"z;	c #897A6C",
"A;	c #D0CABC",
"B;	c #CAC3B9",
"C;	c #CBC2B5",
"D;	c #A38E7E",
"E;	c #232321",
"F;	c #212120",
"G;	c #473A33",
"H;	c #9E8F85",
"I;	c #A68D7E",
"J;	c #CDC1B2",
"K;	c #D6D1C5",
"L;	c #D8D2C8",
"M;	c #C9C0B4",
"N;	c #D3CCC1",
"O;	c #A58F80",
"P;	c #473A32",
"Q;	c #A68D7D",
"R;	c #473C35",
"S;	c #867668",
"T;	c #CBC4B6",
"U;	c #C9C0B2",
"V;	c #BDB1A2",
"W;	c #C6BEB2",
"X;	c #CCC3B6",
"Y;	c #D1C8BD",
"Z;	c #DCD9D1",
"`;	c #A38D7D",
" >	c #E3E4E3",
".>	c #D9D6D1",
"+>	c #A1897A",
"@>	c #877667",
"#>	c #B4A797",
"$>	c #C8C0B5",
"%>	c #CAC3B8",
"&>	c #9E8A7A",
"*>	c #9D9086",
"=>	c #84766B",
"->	c #A18B7B",
";>	c #E3E4E4",
">>	c #998373",
",>	c #807470",
"'>	c #E6E6E4",
")>	c #A48D7C",
"!>	c #9C8F85",
"~>	c #947F6F",
"{>	c #352B25",
"]>	c #7F746F",
"^>	c #E8E7E7",
"/>	c #CBC4B9",
"(>	c #A58B7B",
"_>	c #342C23",
":>	c #E3E3E3",
"<>	c #9C8576",
"[>	c #362B24",
"}>	c #80756F",
"|>	c #DFDCD9",
"1>	c #A58C7A",
"2>	c #958679",
"3>	c #DFDFDD",
"4>	c #988372",
"5>	c #3B322A",
"6>	c #44372E",
"7>	c #695D53",
"8>	c #D2CDC2",
"9>	c #CCC3B4",
"0>	c #9D8472",
"a>	c #373128",
"b>	c #272118",
"c>	c #342C22",
"d>	c #323922",
"e>	c #8C7764",
"f>	c #8E7967",
"g>	c #8F7967",
"h>	c #8F7B68",
"i>	c #8D7967",
"j>	c #8D7866",
"k>	c #8C7865",
"l>	c #8A7563",
"m>	c #897563",
"n>	c #8A7663",
"o>	c #8A7664",
"p>	c #8B7765",
"q>	c #8B7866",
"r>	c #8C7967",
"s>	c #8E7A67",
"t>	c #907A67",
"u>	c #8D7966",
"v>	c #8D7764",
"w>	c #433E2B",
"x>	c #2B2E1A",
"y>	c #3A312A",
"z>	c #423932",
"A>	c #423A32",
"B>	c #413831",
"C>	c #433931",
"D>	c #413830",
"E>	c #453A31",
"F>	c #463A31",
"G>	c #49392F",
"H>	c #524035",
"I>	c #725F4F",
"J>	c #7E6959",
"K>	c #806C5B",
"L>	c #816D5C",
"M>	c #816D5D",
"N>	c #836F5F",
"O>	c #847060",
"P>	c #826E5E",
"Q>	c #7D6A58",
"R>	c #7D6857",
"S>	c #866F5B",
"T>	c #89725D",
"U>	c #87715D",
"V>	c #856F5C",
"W>	c #846E5A",
"X>	c #856F5B",
"Y>	c #836D5A",
"Z>	c #856D59",
"`>	c #846C59",
" ,	c #876F5B",
".,	c #87705C",
"+,	c #886F5B",
"@,	c #534336",
"#,	c #4C3931",
"$,	c #3C3229",
"%,	c #2E2720",
"&,	c #2E2621",
"*,	c #2D2621",
"=,	c #41372F",
"-,	c #332A23",
";,	c #433A31",
">,	c #383029",
",,	c #282D17",
"',	c #343221",
"),	c #473C32",
"!,	c #45382F",
"~,	c #3E3526",
"{,	c #494534",
"],	c #998C7F",
"^,	c #B4A398",
"/,	c #B2A497",
"(,	c #B2A396",
"_,	c #B0A094",
":,	c #B5A497",
"<,	c #B0A296",
"[,	c #B3A497",
"},	c #B4A397",
"|,	c #B3A193",
"1,	c #B2A091",
"2,	c #AF9B8C",
"3,	c #AC9483",
"4,	c #B3A59C",
"5,	c #B5A8A1",
"6,	c #AD9E93",
"7,	c #AF9B8A",
"8,	c #B09B8B",
"9,	c #B09E8E",
"0,	c #AF9D8D",
"a,	c #AE9B8B",
"b,	c #A49484",
"c,	c #A69484",
"d,	c #A89282",
"e,	c #6B514A",
"f,	c #573D39",
"g,	c #322A20",
"h,	c #352C23",
"i,	c #352C24",
"j,	c #2E2521",
"k,	c #2E2520",
"l,	c #302722",
"m,	c #332824",
"n,	c #352A25",
"o,	c #372B26",
"p,	c #44362C",
"q,	c #4A3D31",
"r,	c #4A3A30",
"s,	c #503B33",
"t,	c #684E49",
"u,	c #928372",
"v,	c #A99586",
"w,	c #A79483",
"x,	c #AA9687",
"y,	c #AB9F96",
"z,	c #A89B97",
"A,	c #AEA19D",
"B,	c #B4A7A4",
"C,	c #AB9E99",
"D,	c #AC9F9B",
"E,	c #B4A7A3",
"F,	c #B7ABA7",
"G,	c #B1A49E",
"H,	c #AB988C",
"I,	c #A99385",
"J,	c #B09D8E",
"K,	c #AE9D8F",
"L,	c #AD9B8E",
"M,	c #AB998D",
"N,	c #9F8E81",
"O,	c #AC9B8F",
"P,	c #A49789",
"Q,	c #A39589",
"R,	c #AB9E92",
"S,	c #AEA195",
"T,	c #B2A398",
"U,	c #B5A79C",
"V,	c #B5A59A",
"W,	c #41442F",
"X,	c #8A7E72",
"Y,	c #D7D4CE",
"Z,	c #B6AB9F",
"`,	c #D2CDC1",
" '	c #D1CCC1",
".'	c #CEC6B9",
"+'	c #AB917E",
"@'	c #40342B",
"#'	c #282219",
"$'	c #48382D",
"%'	c #8B796C",
"&'	c #CAC3B3",
"*'	c #E0DDDA",
"='	c #CBC3B4",
"-'	c #CDC5B8",
";'	c #DCDBD6",
">'	c #DDDBD8",
",'	c #917F6F",
"''	c #8B7E71",
")'	c #D8D6D0",
"!'	c #BFAD9C",
"~'	c #C7C0B4",
"{'	c #C5BEB1",
"]'	c #A68B77",
"^'	c #3E332B",
"/'	c #362E25",
"('	c #847164",
"_'	c #DFDDD7",
":'	c #C6BFB3",
"<'	c #9E8979",
"['	c #8C7E71",
"}'	c #CFC7BA",
"|'	c #A48976",
"1'	c #322922",
"2'	c #24201A",
"3'	c #121212",
"4'	c #372F26",
"5'	c #2C261E",
"6'	c #817162",
"7'	c #C8BCAD",
"8'	c #E4E3DF",
"9'	c #E9E9E9",
"0'	c #C7BFB2",
"a'	c #BFB6A7",
"b'	c #86786B",
"c'	c #D3CFC6",
"d'	c #C5BBAA",
"e'	c #D6D0C5",
"f'	c #D3CBC1",
"g'	c #C3BAAB",
"h'	c #231F1A",
"i'	c #847264",
"j'	c #C8BEAF",
"k'	c #D5CEC2",
"l'	c #A58D7D",
"m'	c #857769",
"n'	c #CDC6BA",
"o'	c #CDC7BC",
"p'	c #A68B78",
"q'	c #2E271E",
"r'	c #8B7A6B",
"s'	c #A68F7F",
"t'	c #87786A",
"u'	c #CBC4B7",
"v'	c #A58B79",
"w'	c #27231D",
"x'	c #8A786A",
"y'	c #CFC6B9",
"z'	c #A68F7E",
"A'	c #8C7B6D",
"B'	c #C4B6A7",
"C'	c #A58D7C",
"D'	c #2A241C",
"E'	c #877466",
"F'	c #D1C5B7",
"G'	c #C4BDB1",
"H'	c #A68E7E",
"I'	c #8A7769",
"J'	c #C4B9AB",
"K'	c #A48D7D",
"L'	c #352D24",
"M'	c #302A22",
"N'	c #2E2820",
"O'	c #89786A",
"P'	c #8B796B",
"Q'	c #CDC2B5",
"R'	c #D9D4C9",
"S'	c #C7C1B6",
"T'	c #DBDAD5",
"U'	c #232018",
"V'	c #342E25",
"W'	c #2B241C",
"X'	c #CEC8BC",
"Y'	c #887566",
"Z'	c #C8C0B3",
"`'	c #A38C7C",
" )	c #877668",
".)	c #CDC6B9",
"+)	c #AD9D8C",
"@)	c #524037",
"#)	c #7F736B",
"$)	c #C8C2B6",
"%)	c #C1B8AC",
"&)	c #A68E7F",
"*)	c #877769",
"=)	c #514036",
"-)	c #81746B",
";)	c #C7BDB0",
">)	c #CCC1B5",
",)	c #A48E7E",
"')	c #2D271E",
"))	c #8B7B6D",
"!)	c #8B7A6D",
"~)	c #312A22",
"{)	c #262117",
"])	c #2E281E",
"^)	c #A78C7B",
"/)	c #8F7D6E",
"()	c #A38B7B",
"_)	c #8C7C6F",
":)	c #917F71",
"<)	c #A48C7D",
"[)	c #1D1C18",
"})	c #8D7F73",
"|)	c #DEDBD7",
"1)	c #A38A78",
"2)	c #3D342C",
"3)	c #3A332A",
"4)	c #28221A",
"5)	c #918173",
"6)	c #4D3F36",
"7)	c #8F8276",
"8)	c #9F8672",
"9)	c #2F2822",
"0)	c #908073",
"a)	c #A89181",
"b)	c #908377",
"c)	c #C3B8A9",
"d)	c #C6BDB0",
"e)	c #998779",
"f)	c #191716",
"g)	c #8F7F72",
"h)	c #D9D7D0",
"i)	c #29251C",
"j)	c #D6D0C4",
"k)	c #A19085",
"l)	c #2B2320",
"m)	c #89796B",
"n)	c #A9907F",
"o)	c #DFDDD6",
"p)	c #A7968D",
"q)	c #A98F7E",
"r)	c #928478",
"s)	c #EAEAEA",
"t)	c #A8978E",
"u)	c #2C2421",
"v)	c #BEB2A5",
"w)	c #A88F7D",
"x)	c #908376",
"y)	c #E9EAEA",
"z)	c #2A2320",
"A)	c #332D25",
"B)	c #2D2921",
"C)	c #867566",
"D)	c #C2BAAD",
"E)	c #C9BFB0",
"F)	c #918377",
"G)	c #8C7768",
"H)	c #CCC3B8",
"I)	c #D0C7BC",
"J)	c #D0C6BB",
"K)	c #D1C9BB",
"L)	c #A78C7A",
"M)	c #473B33",
"N)	c #2A2420",
"O)	c #362F27",
"P)	c #8D7B6C",
"Q)	c #DBD7CF",
"R)	c #C9BEB1",
"S)	c #958579",
"T)	c #8E7C6E",
"U)	c #9F8C7F",
"V)	c #312822",
"W)	c #948579",
"X)	c #503F36",
"Y)	c #D2C9BC",
"Z)	c #9F8D81",
"`)	c #302723",
" !	c #908276",
".!	c #E8E8E9",
"+!	c #A7978E",
"@!	c #918072",
"#!	c #DEDAD5",
"$!	c #9C8A7E",
"%!	c #2F2723",
"&!	c #221F1A",
"*!	c #8E8175",
"=!	c #C7BBAA",
"-!	c #C3BAAD",
";!	c #E7E7E7",
">!	c #2B231F",
",!	c #948375",
"'!	c #D1C9BF",
")!	c #9E8C81",
"!!	c #2E2723",
"~!	c #8F8175",
"{!	c #E8E7E8",
"]!	c #2B261D",
"^!	c #4D3D33",
"/!	c #9E8C82",
"(!	c #2E2622",
"_!	c #3C342B",
":!	c #8F8176",
"<!	c #C8C1B5",
"[!	c #E6E5E4",
"}!	c #28211C",
"|!	c #27231B",
"1!	c #3F3329",
"2!	c #8C7A6A",
"3!	c #D2CEC4",
"4!	c #D1CCC3",
"5!	c #D0CCC4",
"6!	c #CFCCC3",
"7!	c #D0CBC2",
"8!	c #D0CAC0",
"9!	c #D3D0C7",
"0!	c #D1CCC2",
"a!	c #D0C9BE",
"b!	c #D5CEC4",
"c!	c #DDD9D4",
"d!	c #938074",
"e!	c #29221D",
"f!	c #322B23",
"g!	c #473D34",
"h!	c #41352D",
"i!	c #887A6B",
"j!	c #C7BBAD",
"k!	c #C7BEB1",
"l!	c #E3E1DF",
"m!	c #9D8B81",
"n!	c #533935",
"o!	c #271F1A",
"p!	c #2A241F",
"q!	c #3F352D",
"r!	c #453931",
"s!	c #453930",
"t!	c #443930",
"u!	c #3A2F26",
"v!	c #453830",
"w!	c #443931",
"x!	c #423930",
"y!	c #3A3028",
"z!	c #2C2E19",
"A!	c #433D2B",
"B!	c #826D59",
"C!	c #846E5B",
"D!	c #7B6554",
"E!	c #776352",
"F!	c #7C6856",
"G!	c #7B6755",
"H!	c #766453",
"I!	c #776554",
"J!	c #7A6755",
"K!	c #746250",
"L!	c #7B6655",
"M!	c #7C6956",
"N!	c #7F6A58",
"O!	c #7F6C59",
"P!	c #806A58",
"Q!	c #806B57",
"R!	c #846D59",
"S!	c #836D58",
"T!	c #846D5A",
"U!	c #7A6754",
"V!	c #664A44",
"W!	c #29221C",
"X!	c #41382F",
"Y!	c #423830",
"Z!	c #433932",
"`!	c #3C322A",
" ~	c #2F301C",
".~	c #4F4134",
"+~	c #87725F",
"@~	c #8D7865",
"#~	c #8B7664",
"$~	c #86725F",
"%~	c #806B58",
"&~	c #846D5B",
"*~	c #836C5A",
"=~	c #796654",
"-~	c #7E6B59",
";~	c #826F5C",
">~	c #816F5C",
",~	c #806C5A",
"'~	c #836E5B",
")~	c #846F5C",
"!~	c #816C59",
"~~	c #786351",
"{~	c #786452",
"]~	c #766250",
"^~	c #7A6452",
"/~	c #7B6553",
"(~	c #816B58",
"_~	c #876F5A",
":~	c #786554",
"<~	c #7E695A",
"[~	c #6F4E4B",
"}~	c #644F49",
"|~	c #B3A8A6",
"1~	c #BEB4B2",
"2~	c #B4A9A3",
"3~	c #B3A8A0",
"4~	c #AE9C8E",
"5~	c #AA9786",
"6~	c #AB9786",
"7~	c #AC9887",
"8~	c #AE9A8A",
"9~	c #AE9B8A",
"0~	c #B09C8C",
"a~	c #B19C8C",
"b~	c #B3A194",
"c~	c #B19C8B",
"d~	c #B39E8E",
"e~	c #B39E8F",
"f~	c #AF9D8E",
"g~	c #B09E8F",
"h~	c #B3A092",
"i~	c #B29F91",
"j~	c #B3A294",
"k~	c #B09F90",
"l~	c #4E4736",
"m~	c #33311F",
"n~	c #42372D",
"o~	c #4D3F34",
"p~	c #362C23",
"q~	c #342A23",
"r~	c #523B35",
"s~	c #54483C",
"t~	c #998D84",
"u~	c #AB9887",
"v~	c #AC998A",
"w~	c #AD9B8C",
"x~	c #AD9D8E",
"y~	c #AF9E8F",
"z~	c #AE9C8D",
"A~	c #B1A091",
"B~	c #B2A293",
"C~	c #B3A192",
"D~	c #AE9B8C",
"E~	c #AF9A8B",
"F~	c #B19D8E",
"G~	c #AE9D8D",
"H~	c #AB9788",
"I~	c #B09C8E",
"J~	c #AEA093",
"K~	c #ADA093",
"L~	c #B2A498",
"M~	c #B5A69B",
"N~	c #B3A69A",
"O~	c #B3A599",
"P~	c #AFA195",
"Q~	c #A59386",
"R~	c #4F4737",
"S~	c #41362A",
"T~	c #3D352A",
"U~	c #4A3E33",
"V~	c #40342A",
"W~	c #332923",
"X~	c #5B3F3C",
"Y~	c #817571",
"Z~	c #DDD9D3",
"`~	c #D1CCC0",
" {	c #D0CBC1",
".{	c #2E2B24",
"+{	c #211D1A",
"@{	c #302621",
"#{	c #817671",
"${	c #D8D6CF",
"%{	c #D8D6D1",
"&{	c #302620",
"*{	c #807164",
"={	c #C9C1B6",
"-{	c #A28675",
";{	c #393229",
">{	c #322823",
",{	c #857B75",
"'{	c #DEDDD8",
"){	c #7F7062",
"!{	c #C9BAAB",
"~{	c #D3CABE",
"{{	c #D1C6B8",
"]{	c #C3BAAE",
"^{	c #837566",
"/{	c #837873",
"({	c #CDC5BA",
"_{	c #998676",
":{	c #847566",
"<{	c #9F8472",
"[{	c #827871",
"}{	c #CBC3B9",
"|{	c #BFAF9F",
"1{	c #A08A7B",
"2{	c #847465",
"3{	c #9F8471",
"4{	c #30281E",
"5{	c #837872",
"6{	c #CCC5BA",
"7{	c #A18C7C",
"8{	c #857465",
"9{	c #C3B9AB",
"0{	c #CAC4BA",
"a{	c #3B3229",
"b{	c #827771",
"c{	c #D0C7BB",
"d{	c #A28B7C",
"e{	c #382C25",
"f{	c #887768",
"g{	c #C4B8A9",
"h{	c #9E8471",
"i{	c #4A3D35",
"j{	c #373129",
"k{	c #827671",
"l{	c #C5BDB2",
"m{	c #BDB2A3",
"n{	c #C1B7A8",
"o{	c #D6D2CB",
"p{	c #A18A7A",
"q{	c #45372E",
"r{	c #877768",
"s{	c #C5BEB2",
"t{	c #9C8371",
"u{	c #7D716A",
"v{	c #B9AEA0",
"w{	c #CAC0B4",
"x{	c #B3A495",
"y{	c #A28A7B",
"z{	c #BFB7A9",
"A{	c #D5CDC2",
"B{	c #9F8574",
"C{	c #7D726B",
"D{	c #CAC1B6",
"E{	c #C9C1B5",
"F{	c #C0B8AA",
"G{	c #84776D",
"H{	c #C7BEB2",
"I{	c #C5BDAE",
"J{	c #A08675",
"K{	c #342C24",
"L{	c #362B25",
"M{	c #7F746D",
"N{	c #C8BFB1",
"O{	c #C0B7A8",
"P{	c #8C7A6C",
"Q{	c #857970",
"R{	c #A08778",
"S{	c #8C7A6B",
"T{	c #7C716B",
"U{	c #9F8777",
"V{	c #C5B9AB",
"W{	c #C2B4A6",
"X{	c #CCC7BD",
"Y{	c #9D8271",
"Z{	c #4A3E35",
"`{	c #41342D",
" ]	c #7F726D",
".]	c #E2E1DC",
"+]	c #C5BCAE",
"@]	c #A48B7B",
"#]	c #D0CBBF",
"$]	c #997D6D",
"%]	c #7D716C",
"&]	c #A28B7B",
"*]	c #8E7D6F",
"=]	c #9B806F",
"-]	c #3A3228",
";]	c #7B7069",
">]	c #C6BFB2",
",]	c #D4CCC1",
"']	c #C3BAAF",
")]	c #BCAFA0",
"!]	c #A48C7C",
"~]	c #908072",
"{]	c #CEC6BA",
"]]	c #987E6D",
"^]	c #7B6D63",
"/]	c #DAD5CE",
"(]	c #C8BFB2",
"_]	c #BFB1A1",
":]	c #A18979",
"<]	c #918174",
"[]	c #987C6C",
"}]	c #827264",
"|]	c #E2DFDA",
"1]	c #CCC3B7",
"2]	c #D1C8BC",
"3]	c #977B6C",
"4]	c #7E6D5F",
"5]	c #C5BDB1",
"6]	c #CEC3B6",
"7]	c #8F7F73",
"8]	c #998070",
"9]	c #3C342C",
"0]	c #2E2A23",
"a]	c #827469",
"b]	c #DBD6CE",
"c]	c #CCC2B4",
"d]	c #967D6E",
"e]	c #2D261D",
"f]	c #372C25",
"g]	c #7B7068",
"h]	c #C8BEB0",
"i]	c #D5CBBF",
"j]	c #C7BFB3",
"k]	c #9E8878",
"l]	c #8E7F73",
"m]	c #937D6D",
"n]	c #3C352C",
"o]	c #7E736D",
"p]	c #D7D1CA",
"q]	c #B0A79B",
"r]	c #CFC4B7",
"s]	c #8D7D71",
"t]	c #7E726D",
"u]	c #DAD6D1",
"v]	c #CFC6BA",
"w]	c #A58E7F",
"x]	c #1D1D1B",
"y]	c #201F1D",
"z]	c #907F73",
"A]	c #A08C7C",
"B]	c #786F68",
"C]	c #CAC2B3",
"D]	c #CABEAF",
"E]	c #D2C8BB",
"F]	c #CCC2B6",
"G]	c #D2CBC1",
"H]	c #DAD9D3",
"I]	c #A78F80",
"J]	c #1A1A19",
"K]	c #1D1C1B",
"L]	c #252320",
"M]	c #9F8A7B",
"N]	c #3A3128",
"O]	c #7D736D",
"P]	c #DEDBD3",
"Q]	c #A89081",
"R]	c #242321",
"S]	c #22201C",
"T]	c #8F7E70",
"U]	c #A18B7C",
"V]	c #807671",
"W]	c #C7BCB0",
"X]	c #A78F7F",
"Y]	c #211F1C",
"Z]	c #8F7D6F",
"`]	c #A48F80",
" ^	c #817673",
".^	c #DEDBD8",
"+^	c #262522",
"@^	c #907D70",
"#^	c #E0E1DF",
"$^	c #A28E7F",
"%^	c #7F7570",
"&^	c #221F1C",
"*^	c #907E71",
"=^	c #E0E1E0",
"-^	c #A08C7E",
";^	c #796E6A",
">^	c #E5E5E3",
",^	c #A38877",
"'^	c #867565",
")^	c #CCC5B5",
"!^	c #E0E0DD",
"~^	c #9A8778",
"{^	c #1E1C19",
"]^	c #181615",
"^^	c #2D251F",
"/^	c #73665F",
"(^	c #E0DEDD",
"_^	c #E0DDD9",
":^	c #E5E3E2",
"<^	c #CDC7BA",
"[^	c #927C6A",
"}^	c #2B2824",
"|^	c #4E4032",
"1^	c #8C7561",
"2^	c #8B7460",
"3^	c #8A735E",
"4^	c #8A725D",
"5^	c #8B745F",
"6^	c #89715C",
"7^	c #88715C",
"8^	c #87705B",
"9^	c #88705C",
"0^	c #8A7460",
"a^	c #8B7662",
"b^	c #917C6A",
"c^	c #907C6A",
"d^	c #917B6A",
"e^	c #2C371C",
"f^	c #202B14",
"g^	c #443830",
"h^	c #544037",
"i^	c #786556",
"j^	c #806C5C",
"k^	c #7D6959",
"l^	c #7A6756",
"m^	c #7B6757",
"n^	c #7E6A5A",
"o^	c #7D6859",
"p^	c #776454",
"q^	c #7C6858",
"r^	c #7F6B5C",
"s^	c #7C6959",
"t^	c #7C6857",
"u^	c #796553",
"v^	c #7B6654",
"w^	c #836D59",
"x^	c #826C5A",
"y^	c #816A57",
"z^	c #836C58",
"A^	c #856F5A",
"B^	c #544336",
"C^	c #3F3528",
"D^	c #41372E",
"E^	c #40372F",
"F^	c #3F362E",
"G^	c #3F372F",
"H^	c #3E372F",
"I^	c #3E362F",
"J^	c #43372F",
"K^	c #433830",
"L^	c #392F27",
"  . + + @ + @ @ # $ % & $ $ * = - ; $ @ @ > , ' ) ! ~ { ] ] ^ / ( _ : < [ } | 1 2 3 4 5 6 7 8 9 0 a b 6 c 4 d e f g h i j k l m n o p q r s t u q q v p u p w x y z A B C y B C D E C z z z F G H I J K L M N O P Q R S T U V W X T Y Z Z `  ...+.@.O #.$.%.&.*.",
"=.-.-.;.>.,.'.,.).).!.~.{.].^./.(._.:.'.-.<.[.}.|.1.2.3.|.4.5.6.7.8.9.0.a.b.c.d.e.f.g.h.i.j.k.l.m.m.n.o.p.f.h.q.r.s.t.u.v.w.r.x.y.z.A.B.C.B.D.E.F.A.G.H.I.J.K.L.M.N.).).).'.'.'.(.O.P.P.).Q.P.R.S.T.U.V.W.X.Y.Z.`.a. +.+++@+#+$+#+%+&+*+=+&+-+b.;+Z.>+,+'+)+!+~+",
"{+-.;.'.).'.P.P.'.]+^+K./+(+^+B._+:+C.P.'.;.<.3.3.3.<+2.[+4.}+|+1+#+2+.+ +3+4+5+6+7+8+9+0+a+b+9+9+b+c+d+e+f+g+h+i+j+k+s.l+i+m+n+o+C._+B.C.B.E.p+E.A.q+r+A.s+K.t+u+u+N.v+'.P.P.'.w+w+P.P.N./+x+y+z+A+c+b+b+X.Y.5+5+6+B+C+D+E+E+E+E+2+F+F+F+F+.+ +G+H+5+I+J+K+L+M+",
"N+-.-.P.P.v+u+C.u+B.O+s+K.K.B.:+B.D.B.P+'.,.;.2.<+<+3.1.Q+4.5.R+1+$+2+S+T+6+r.U+r.6+V+W+W+X+Y+h+f+f+Z+W+`+X+9+ @.@+@k+@@#@$@%@&@*@=@K._+B.K.A.J.-@A._+:+:+:+B.K.D.B.u+(+;@P.P.P.P.P.P.P._.u+K.>@,@'@)@h+0+!@Y+`+~@{@B+C+s.E+E+E+]@^@/@.+/@F+.+(@r.H+{@_@V+7+e.:@",
"N+,.'.P.w+<@E.A.A.G.[@}@q+C.B.C.u+<@u+|@P.'.,.1@;.2.3.1.2@3@4@R+5@%+.+6@H+H+3+7@6@H+{@7+7+K+7+_@X+8+7+J+V+`+g+8@9@0@a@+@j+b@c@d@e@D.B.:+_+D._+f@}@J.g@r+:+B.F.F.E.C./+C.h@'.P.P.).P.i@:.u+q+G.j@k@l@m@n@o@p@q@f+r@K+s@t@/@s.D+D+/@u@v@.+/@/@.+s@3+3+7+X+`+J+r@w@",
"N+'.'.P.x@B.[@y@z@[@A@g@E.B@].C@D@D@u+C@'.P.P.,.;.;.3.1.E@5.F@|+5@++C+v.H+H+3+m@B+H+3+G+U+r.G@5+K+H@5+K+I@X+J@o@0@k+K@@@L@M@N@O@P@:+E.s+J.s+E.A.F.r+G.A.E.K.s+s+:+u+_+B.Q@]+R@).S@Q@u+B.r+A@A@T@U@l@j++@V@i+c+X+J+H@T+U+S+/@2+u@F+t@W@v.S+F+.+W@G+H+_@f+Z+f+X@Y@",
"Z@'.'.v+^+E.H.`@ #z@J.J..#v++#@#(+(+h@/+u+D@'.'.-.;.<.3.E@5.##|+5@@+^@C+s@H+r.B+U+U+U+(@m@(@s@(@(@v.U+H+6+J+W+$#9@%#&#k+*#=#-#;#>#,#'#)#!#[@r+_+K.:+B.r+A.E.E.:+K._+F.F.B._+^+~#Q@B.B.:+F.{#A@j@]#^#&#K@b@/#(#Y+J+I+J+6+G+(@.+F+F+(@T+r.m@v.v.v.B+H@`+f+8+W+p._#",
":#'.P.<#-@}@)#[#}#|#}@A.K.N.).'.h@u+/+u+1#2#P.'.,.;.;.3.Q+3@##3#1+#+D+s.t@G+G+U+G+B+S+t@4#F+/@u@c@S+v.U+G+6+W+$#/#/#5#6#*#7#8#9#0#[#}#a#b#y@A.B.u+u+c#E.J.F.F.E.J.[@f@G.s+J.:+K./+s+s+r+E.p+G.T@d#.+e#K@0@f#g#0+X+h#`+~@{@G+s@s@(@H+6+T+B+3+3+s@B+T+r@V+f+X+p.i#",
"j#'.).k#l#`@}#}#}#}#m#f@B.(+'.v+n#u+^+o#D@v+P.'.'.;.;.<+1.4.5.p#q#$+D+D+t@U+U+s@W@r#.+r#F+E+D+s#/@u@F+6@s@T+X+t#m+9@j+j+a@K@8#u#v#w#)#!#s+:+B.K.x#y#z#q+J.A@f@E.[@H.A.F.r+F.A.E.E.H.A#A@F.:+:+o B#W@0@C#&#j+o@b+J@`+I+h#J+K+5+{@5+{@h#{@G@K+6+G+v.3+{@J+8+X.W.D#",
"E#).P.N.F#)#[#[#[#[#|#A@B.|@G#H#I#N./+^+:.w+P.P.'.-.;.2.1.J#K#L#q#++D+s#S+s@s@(@W@F+u@u@E+M#s./@u@D+2+.+S+r.V+!@N#O#P#j+V@V@Q#;#P@A@A#z@O+R#C@|@S#).P./+q+l#T#J.J.F.[@A.J.J.J.s+r+[@J.A@}@A.1#U#V#6@W#X#Y#.@W+9+g+W+W+r@J+V+W+Z+X+Y+h+7+K+7+7+r.v.U+3+I+V+f+p.Z#",
"j#'.'.P.u+A@}#[#[#[#}#[@F#_.`# $P.'..$/++$@$'.'.,.-.<.3.Q+4.4.#$$$/@2+u@F+S+.+v./@2+D+%$E+%$E+/@u@E+s..+W@U+_@W+&$)@*$i+f#O#U+=$-$D.H.;$q+C.(+>$P.).P.S#C.F.,$F.s+s+s+E.q+B.A.A.A.r+[@A@H.E.k#'$)$C++@W#l+!$J@h+Y+9+c+9+b+9+~$b+g+X.X+J+{$5+6+3+U+v.v.G+7+{$X@]$",
"^$'.'.P./+r+)#}#w#|#'#r+<@/$($_$x#:$P.P.w+'.'.,.-.<.1.Q+J#3@3@#$<$^#.+F+t@4#v.t@u@[$M#}$}$M#M#]@2+]@s.C+(@B+H+`+c+|$1$2$3$4$5$6$7$^+_+E.B.K.v+8$P.).P.P.w+9$0$a$E.A.1#u+<@K.^+A.-@E.[@[@}@f@C@b$c$t@O#d$e$g+V+{$Z+c+!@b+I+f$f#g$h+b+9+X+{$V+K+G@G+U+s@s@6+7+X@h$",
"i$,.'.)._$A.;$)#z@A@A.E.C.j$(+^+C.N.P.'.'.,.'.-.;.3.Q+E@3@5.k$p#l$(@.+C+t@W@.+u@2+D+E+%$}$m$}$%$[$%$D+u@W@B+H@`+8+g+X.a+W+c+l.n$^$~.^+u+_$B@o$P.'.'.'.'.'.'.'.P.8$N.i@'.w+v+p$Q@K.E.A.r+A.B._.q$r$s$i+t$g+J+5+5+{$!@!@d+%@j++@o@g#p@!@Y+f+`+{$G@H+3+B+3+6+_@X@u$",
"^$'.'.).N.K.s+}@E.B.K.B.Q@v$w$^+<@{.'.-.-.-.,.;.;.3.2@}+}+3@x$p#l$y$C+/@C+u@C+F+D+2+E+z$M#A$M#%$N@}$M#D+F+v.G@_@`+`+b+b+b+Z+B$C$:#).'.D$'.).'.'.P.,.-.,.'.'.,.'.P.P.'.'.'.'.P.P.E$K.D.1#v+v+F$G$H$'+I$c+W+K+6+G@~@X.!@a+J$*$j+K$L$M$0+W+W+X+{$6+G@H+H+G+3+{@N$O$",
"E#)._$P$).Q@B.Q$B.R$'.]+P.'.'.v+S$P.'.-.1@1@-.;.<.3.2@}+}+3@k$p#l$.+2+^@2+2+D+u@E+[$]@%$%$%$%$%$%$}$}$E+u@t@U+K+5+7+9+T$!@9+n.U$V$).'.'.P.'.'.'.,.-.;.;.;.;.;.-.'.'.'.,.,.-.,.'.N.I#/+S$'.'.).W$X$Y$Z$f+X+K+H@5+7+X.!@a+`$+@M@5# %.%+%9+Z+X+_@3+3+3+H+s@G+H+@%#%",
"^${./+|@P.P.$%_.C./+P.P.).'.'.'.'.'.'.-.-.-.-.;.<.2.1.2@3@3@K#p#%%#+[$D+2+E+%$D+%$%$E+%$%$E+M#&%*%=%&%E+/@v.G+6+V+~@!@-%9+T$k.;%j#).P.,.,.,.,.,.-.;.<.2.;.;.;.;.;.,.-.,.-.-.'.'.'.P.P.'.-.'.'.q$>%,%V+`+X+{$J+`+7+Y+!@T$'%j+l+5#)%g#%@!%J@f+K+6+3+3+B+B+s@w.~%#%",
"E#{%u+c#R$]%).Q.u+Q@P.'.'.'.'.,.'.'.-.;.;.,.'.-.2.2.3.[+E@}+5.R+^%/%*%M#s.]@E+A$M#%$D+M#}$%$A$&%(%(%}$D+r#t@t@B+J+7+W+!@b+T$_%:%j#:.'.-.-.1@-.,.;.;.<.2.;.;.;.<.;.-.-.-.,.,.,.'.'.P.P.'.-.,.'.q$<%[%{$h#`+~@{$r@~@f+J@J@b+h#5#)@o@}%|%X+g+7+H@H+U+s@v.v.B+G+1%2%",
"3%_.4%F#B.C@P.'./+v+P.,.,.-.-.,.,.-.;.;.;.-.,.;.;.<.3.1.Q+4.5.5%6%7%m$}$M#M#M#}$(%}$E+}$(%}$M#&%}$}$M#u@S+s@v.U+K+J+`+V+Y+c+U.8%j#:.-.-.-.-.-.;.;.;.<.2.;.;.;.;.;.;.,.,.'.,.,.'.'.'.'.,.-.-.'.q$9%0%{@{@J+,+J+~@h+W+9+b+a+`+a%a+b%b+c+!@f+5+6+6+6@W@t@v.B+Z.c%#%",
"i$d%|@B._+C.v+'.e%'.'.'.-.,.,.-.-.-.<.;.<.<.;.;.;.3.1.1.Q+4.K#3#f%&%(%}$}$m$(%g%-#(%&%(%m$}$M#&%m$z$E+u@4#(@U+3+6+K+7+`+Z+h%X+i%j%'.-.-.-.-.,.-.;.;.2.<.;.;.;.;.;.-.-.-.'.'.,.'.-.'.'.-.;.;.'.G$k%l%r.H+H+{@H@V+Z+g+d+-%a+m%b+a+!@9+0+g+8+I+5+T+U+v.t@v.r.{@e.n%",
"o%).9$K.C.C.p%{.P.P.'.'.-.;.;.;.;.1@;.;.<+3.3.;.2.3.3.1.J#3@5.L#6%*%=%&%&%-#q%q%-#g%g%(%(%(%&%=%(%z$]@/@S+S+6@B+6+Z.I+Y+a+m%r%s%q ).'.,.-.'.'.-.;.;.2.<.;.<.<.;.-.,.,.;.'.'.'.'.'.,.,.-.;.-.,.G$t%u%r.6@U+6+7+~@Z+a+v%g+b+w%!@X.g+!@9+9+9+~@{@T+U+W@t@v.B+4+x%y%",
"z%:.w+u+C.q+B._$P.P.P.'.-.;.<.<.;.1@;.<.3.Q+Q+1.3.1.1.Q+4.3@4@|+A%7%-#-#-#B%C%D%C%C%q%g%g%(%=%g%g%&%%$u@W@t@.+S+U+6+_@m%q@E%F%G%t ).).P.'.'.'.'.1@-.<.<.2.<+2.<.;.1@-.'.'.'.P.P.'.,.,.-.-.-.'.H%I%1%J%6@U+H+{@J+g+J@X.W+h+X.Y+8+g+b+K%W+!@Y+K+5+3+v.v.6@3+6+L%M%",
"z%).).N%C.q+A.O%).P.P.'.-.-.-.<.;.;.2.3.1.J#4.E@1.1.Q+Q+2@3@x$|+P%g%q%D%D%C%C%C%C%Q%C%D%q%-#-#=%(%A$[$u@F+/@u@c@B+G@`+9+R%O#5+S%t ~.C@u+T%'.P.'.-.,.;.2.3.<+<.<+3.2.;.'.P.U%C@B@'.'.,.,.,.,.-.H%V%1%Z.W%3+T+J+X+8+h+_@6+J+7+7+{$X.X%Y%Z%b+Y+{@6+G+s@B+U+3+J%`% &",
"z%'.P.P.i@.&k#C@P.P.P.'.'.,.,.;.;.;.<.1.[+Q+J#2@Q+[+[+1.Q+3@F@|+^%7%B%C%q%C%+&+&Q%+&C%+&+&C%q%=%}$M#E+E+D+N@[$F+(@H+h#9+~$5#6@@&t ^+C.E.K.C@P.'.-.'.-.<.1.3.3.3.1.<+;.,.).v+K._+v+'.,.'.'.-.;.H%#&1%{@H+H@J+X+Y+I+,+I+H+6+6+I+W+b+b+b+0+X.`+5+U+H+H+s@B+B+U+$&%&",
"i$,.'.'.'.P.p$N.P.P.'.P.'.,.-.-.;.<.2.1.1.Q+Q+Q+2@Q+Q+Q+4.5.F@|+&&7%C%C%q%C%+&C%C%C%C%C%+&Q%-#(%}$%$%$}$%$}$%$[$t@H+I+q@f+$@{$*&=&d%(+C.^+/+-&'.'.'.-.;.3.1.3.1.1.<+<.-.'.P.p%u+v+P.'.,.-.-.;.;&>&,&4+H@X+9+Y+Y.K+K+5+G@6+7+X+`+Z+Y+g+!@9+~@5+5+G@H+B+s@B+G+'&)&",
"!&-.,.-.;.-.'.P.'.).P.P.'.'.'.'.;.<+3.3.3.<+3.1.Q+E@Q+Q+}+5.~&{&]&/%-#B%q%D%C%q%g%-#B%C%C%+&q%g%(%}$&%}$A$}$N@E+.+3+`+g+^&m+X@/&V$(&_$C./+_&P.P.'.-.;.<.2.1.3.3.3.2.;.;.'.'.P.'.P.'.'.,.-.-.-.:&>&1%{@I@r@f+~@5+H@{@5+H@5+<&7+I+`+`+9+J@X.`+K+3+B+W%T+H+B+B+[&}&",
"|&;.;.<.<+2.-.-.'.'.'.'.'.'.'.-.;.3.1.1.3.2.<.1.[+Q+Q+Q+4.3@}+1&2&3&g%-#D%C%D%=%m$g%q%C%C%C%C%D%-#g%g%(%}$*%E+2+.+G+`+g+!@o@s@4&V$).N.|@|@_$).P.'.-.;.<.3.3.1.<+2.3.<+;.,.'.P.P.P.'.-.1@;.-.-.;&5&$&6+7+K+K+5+5+H@K+G+H+H@5+{@6&J+h+W+f+f+V+T+s@(@G+H+H+U+B+7&8&",
"!&<.3.1.Q+1.2.;.;.-.,.'.'.'.'.,.;.2.1.1.1.3.3.3.1.Q+Q+1.E@4.J#9&0&a&=%-#b&-#-#m$}$&%-#q%D%D%C%+&D%q%-#g%z$E+D+v@v.K+f+!@X.c&v.d&e&+$P./+Q@{.P.).'.-.;.;.<.<+<+<.;.2.2.<.,.P.).P.'.'.;.-.1@;.<.f&g&$&5+{@6+G+3+5+7+5+U+U+T+H+6+5+_@m%8+Y+r@V+G@(@S+(@U+G@U+w.Z.h&",
"|&}.[+Q+Q+1.2.2.<+;.;.'.P.P.'.'.;.<.2.3.3.<+<+3.1.1.Q+1.Q+Q+4.9&i&$+}$(%(%g%=%&%}$&%j&q%-#q%C%+&C%C%-#&%M#]@/@v.3+J+m%c+k&4$5+l&j#).P.P.P.'.).'.'.,.;.-.;.;.<.;.;.<.<.;.1@'.P.'.'.'.,.-.;.;.m&n&o&d.{@T+H+H+3+6+6+H+B+B+G+B+r.5+J+f+Y+m%W+`+6+v.(@(@(@U+3+U+;+p&",
"q&E@J#4.E@1.3.2.<.;.;.,.'.'.'.'.-.;.<.2.3.<+3.Q+Q+[+1.1.Q+Q+J#1&i&$+[$%$M#%$%$A$A$&%b&-#j&-#-#C%Q%C%q%&%D+F+S+3+H@{$g+9+c+K+5+;%^$).P.P.'.).P.P.P.'.'.'.,.1@;.<.;.;.<.<.;.'.'.'.-.-.-.;.;.;.<.f&g&r&7+6+G+6+3+r.G+U+6@6@m@W@m@T+K+,+X+{$Y.~@6+U+B+r.U+H+3+w.7&p&",
"q&E@4.3@4.Q+Q+3.<.;.-.'.'.,.'.,.-.;.;.2.3.3.1.1.Q+Q+Q+Q+Q+Q+|.1&l$#+E+a&D+u@^@E+E+z$g%g%g%=%g%s&q%-#=%a&=+v.s@Z.7+h#X+X+!@~@t&Z#E#).P.P.P.'.L.u&'.P.P.P.,.-.;.<.;.;.<.;.;.'.,.-.-.;.;.<.<.;.;.v&w&c%J+_@H+5+r.U+(@ +H+G+B+W@v.w.H+{@I@J+J+_@I+Z.T+K+{@{@Z.r.x&y&",
":$J#4.K#4.E@E@|.3.<.;.-.-.-.-.-.;.<.<.3.1.3.2.3.Q+Q+J#1.1.Q+J#z&A&B&%+*+=+.+C&++++D&#+a&E&F&F&G&H&I&J&K&0.L&;+,+e.e.c%e.p.U.W.M&N&).O&h@i@~#P&1#I#).).'.-.;.;.;.<.;.;.-.-.,.-.-.-.-.-.;.;.<.;.Q&R&S&c%L+c.T&Z.w.a.x&U&;+x&V&b.[&,&,&~%e.@%'+e.!+e.N$W&X&W&Y&Z&`&",
" *.*+*@*#*$*$*%*$*&*|&N+**|&|&|&=*|&|&|&|&|&|&|&|&-*;*-*-*;*>*,*'*)*!*~*{*{*{*{*]*^*^*/*(*_*:*<*<*[*}*|*1*2*3*4*5*6*7*8*9*5*0*a*b*c*d*e*e*f*g*h*i*Z@N+N+N+N+Z@j*Z@k*k*N+N+N+|&|&N+j*Z@N+|&|&l*m*n*o*p*q*r*s*t*u*v*w*x*y*z*A*2*B*C*D*p*p*E*F*E*G*H*I*J*K*L*M*N*O*",
"P*Q*R*S*T*U*V*W*X*Y*Z*`* =.=+=@=#=$=%=&=*===-=;=>=,='=<$)=!=~={=]=U%3#3#{ #$^=3#/=5%5%3#V$V$V$5%5%(=5%_=_=:=:=<=B B <=[=[=B }=|=1=2=3=4=5=6=5=7=8=9=0=a=b=c=d=e=f=g=h=i=j=k=l=m=n=o=3 p=q=r=s=t=u=v=:=w=x=y=z=z=:=z=x=#$:=:=A=#$B=:=:=z=C=D=C=B B C E=F=C G=H=I=",
"J=K=-+L=B&$+M=8.K&N=x&$&~%!+c%L%`%O=O=W&p.P=W&O=Q=[&R=V&S=T=U=V=W=K#3@4.4.J#1.E@4.K#x$5.}+}+5.x$x$5.K#E@3.2.2.3.2.<.;.;.<.<.<.X=Y=Z=`= -G@.-_@7++-q@@-l.f.e.,&l%,&#-e.$-f.f.g.%-f.N$&-B$g.f.*-=---<.}.|.1.3.2.;-2.3.1.Q+|.|.1.3.3.1.1.m&;.;.-.-.'.:.:.'.'.-.;.>-",
",-'-F+D+D+D+E+E+2+u@.+U+3+3+Z.J%w.a.H+{@X+8+J+7+6+3+W@W@++#+9.)-!-5.5.5.x$5.4.4.3@x$~&5.5.5.x$5.5.3@4.J#3.2.2.3.3.3.2.2.3.3.m&;&~-l.Z+{-]-d+ @o@}%^-5$8+,+J+_@7+6&5+K+J+{$X+Y+W+f+X+q@e+8+r@g./-z%<.1.Q+J#J#1.3.3.1.1.Q+4.4.2@1.1.1.1.1.<.;.-.'.'.).'.'.'.<.<.9&",
"(--+/@E+E+2+u@2+[$D+F+7@v.(@B+G+v.7@6@H+J+_@{@4+G@6@S+S+u@E+_-)-:-<-[-[-[-~&5.5.5.x$~&~&x$x$5.3@3@4.2@Q+3.2.3.1.1.3.3.1.1.1.3.v&}-V.9+|-1-9+9+c+b+W+h+Y.H@H@K+K+{@H@_@J+`+9+9+g+g+8+`+X+V+Y.x%2-3-<.1.Q+E@4.4.2@Q+J#2@4.}+3@4.J#E@J#1.3.<.;.'.P.'.'.'.,.;.<.2.^=",
"4-5-2+E+v@.+/@u@u@/@F+.+S+v.v.t@t@6@B+G+G@H+3+G+B+r#t@W@s#a&J&6-7-8-8-8-<-[-x$5.x$x$F@9-~&5.3@E@4.E@1.3.2.2.3.3.1.3.1.Q+Q+Q+m&;&0-n.a-b-c-9+0+9+9+f+{$J+d-6+H@T+6+6&K+{@V+W+9+W+f+V+K+7+K+<&L%e-o%<.1.Q+E@3@3@}+3@5.3@3@f-}+4.4.}+4.Q+1.2.,.P.P.'.'.P.1@;.<.<.p#",
"g-M=E+2+t@v.v..+.+F+F+F+/@.+v.t@t@s@s@U+v.G+s@.+u@2+C+S+^@M#h-i-!-j-8-j-<-~&3@3@3@5.x$~&5.3@4.J#Q+Q+1.1.3.3.2.3.3.3.1.Q+Q+Q+3.;&k-U.l-m-W+0+-%9+b+X.`+_@6+G@5+5+6+3+G@3+5+`+g+W+Z+V+{@K+6&H@d.n-i$<.1.2@J#}+3@5.5.5.5.5.x$3@4.3@4.E@Q+3.2.,.P.'.'.'.'.;.<.2.[.o-",
"p-$+E+u@t@3+B+v.S+r#/@/@/@u@/@u@/@t@W@.+.+v.C+2+%$D+u@u@E+/%h-q-!-F@<-[-[-x$3@E@4.3@f-5.5.3@Q+[+Q+Q+Q+[+1.1.3.1.<+1.J#E@E@J#2.;&r-p.b+a+g+J@a+0+J@Y+`+~@5+H+6+H+r.G+H+H+I@~@`+h+h+`+V+I+H@3+$&s-3-3.1.1.Q+4.t-~&~&~&~&5.5.5.t-3@5.4.Q+1.<.,.'.-.-.,.,.;.<.2.}.#$",
"g-++[$^@.+G+r.3+s@S+/@r#s#D+E+%$D+u@F+D+2+^@%$}$z$D+]@D+%$%$u-v-!-x$~&~&x$t-4.Q+2@E@3@3@4.E@Q+Q+Q+Q+Q+1.1.3.3.<+1.Q+4.4.}+E@3.f&w-L%x-9+c+!@W+Z+{$I+~@H@H@B+U+6+6+K+~@7+K+{@{@X+W+Z+X.{$K+6+!+y-3-2.Q+Q+Q+E@5.~&~&~&~&x$5.5.5.5.x$3@4.Q+<.;.-.-.1@;.-.;.<.2.m&p#",
"g-&+^@u@t@(@6@s@(@C+/@.+u@u@E+M#%$M#%$M#}$*%m$&%M#E+D+2+E+a&z-A-B-3@}+f-3@4.Q+1.3.Q+2@E@2@1.1.Q+[+Q+Q+1.1.[+3.3.3.[+4.4.}+E@|.C-D-Z&6&J+{${$7+_@{@5+{@H+G+B+U+~@Y.Y+W+~@J+I+7+X+Y+Z+Y+~@{@6+d.E-3-<.1.Q+E@4.3@~&~&~&~&f-5.5.5.x$x$5.}+Q+1.3.;.1@<.<.;.;.<.<+m&^=",
"F-G-.+/@F+W@v.S+t@t@t@r#C+u@u@]@A$*%&%&%g%=%&%M#[$2+/@/@/@/@H-I-B-E@4.4.E@Q+1.2.<.3.1.1.Q+Q+1.1.1.Q+Q+1.Q+1.3.1.1.2@E@4.E@Q+|.J-K-L-`.K+J+7+5+{@7+I+6+U+U+G+6+`+f+X.m%`+J+Y.`+~@{$X+~@6+H+G+'&M-3-2.1.E@E@4.3@5.~&~&~&~&5.5.~&~&5.3@E@4.3@Q+3.2.<+<.2.<.<.<.<+#$",
"N-&+2+E+u@v.s@.+t@v.v.t@t@.+v..+N@z$&%&%=%&%}$M#E+u@C+/@/@t@T=O-P-J#E@4.E@Q+3.3.3.2.3.3.1.1.<+1.1.1.1.Q+Q+1.1.3.1.Q+E@E@Q+Q+3.C-w-Q-w.Z.K+H@5+T+_@7+H+H+Z.K+Y+W+b+9+X+X+X+X+f+V+K+J+7+{@3+w.U&R-S-<+1.E@}+4.f-5.~&F@[-9-5.~&[-~&5.3@3@5.5.4.Q+Q+Q+3.3.3.<.2.<.^=",
"0&*+[$A$%$/@4#.+^@t@v@u@t@C+W@t@^@2+[$E+[$%$%$[$2+D+D+2+C+(@x&T-P-J#1.1.1.1.3.[+1.3.2.3.3.1.3.3.3.Q+Q+E@4.Q+1.1.Q+Q+Q+Q+Q+Q+1.U-V-;+U+H+7+X+K+H@7+K+T+H+5+~@W+9+9+m%g+e+9+q@h#~@6+H@K+5+s@(@a.W-P-Q+Q+E@E@3@5.5.F@[-8-<-~&[-<-[-~&5.~&~&5.3@4.E@Q+1.3.2.<+3.}.#$",
"X-$+%$m$=%&%%$M#M#N@D+u@F+F+/@u@^@2+2+D+%$D+s#u@2+]@^@F+r#G-Y-Z-S-Q+3.3.3.3.3.1.1.3.3.3.1.1.1.3.3.1.Q+E@E@Q+Q+2.3.3.1.Q+Q+1.3.f&`-7&B+G@J+Z+W+`+X+`+I+K+K+7+X+X+Y+m%9+g+W+X+f+h#K+G@H@3+S+S+S= ;P-J#E@4.E@3@f-5.F@[-j-j-<-j-8-8-j-F@F@F@~&x$3@3@J#1.3.2.3.3.}..;",
"X-M=}$g%g%g%*%(%&%&%M#%$]@D+/@u@E+%$E+E+N@s#4#/@D+u@s#.+C+^#U&T-S-3.3.3.1.Q+1.1.3.2.<+3.1.1.1.1.Q+[+Q+Q+E@2@1.3.3.3.<+3.1.1.1.f&+;[&Z.J+m%b+9+X+X.V+6&{@Y.~@J+`+X+m%q@a+0+9+X.Y.H+6@B+(@(@(@x&@;P-}+3@3@E@}+3@5.x$F@[-j-j-8-8-8-8-[-[-~&[-F@x$f-J#1.3.<+3.1.|.#$",
"#;$;7%-#-#=%g%j&(%(%}$%$]@E+F+t@u@E+D+D+F+S+W@.+/@W@6@s@v.W@V&%;3-1.1.Q+Q+E@Q+Q+1.2.3.3.3.3.2.1.1.1.[+Q+Q+Q+Q+1.1.1.3.2.1.3.}.f&+;;+H+Y.m%a+a+m%X.W+J+7+Y.{@_@Y.{$`+c+X.`+&;q@7+6+B+.+v..+t@R=*;=;4.}+4.4.4.3@f-5.x$~&<-<-[-8--;8-j-[-[-F@9-x$3@E@1.3.3.1.Q+|.;;",
">;M=&%g%-#g%q%q%g%(%}$M#N@E+/@.+/@u@2+u@v.S+v..+c@v.s@B+v.^#R=,;';1.Q+Q+E@4.E@Q+3.3.3.3.3.1.3.3.1.1.Q+1.3.Q+Q+1.1.1.1.3.1.3.;.H%);,&I@`+b+0+|$b+m%X+r@{$J+~@_@r@~@f+m%b+9+c+f+I+3+S+t@t@.+/@!;~;P-4.J#2@2@4.3@3@3@5.5.9-~&9-[-8-8-8-8-[-~&x$3@}+4.2@Q+Q+E@3@3@1&",
"{;F&&%-#j&g%g%-#=%m$}$%$E+D+/@.+.+^@s.u@v.(@S+v.(@(@v.(@v.^#S=];S-1.Q+E@E@4.3@4.Q+Q+1.Q+1.1.1.3.Q+[+[+[+1.1.Q+1.1.Q+1.1.1.3.<.f&^;8+X+9+/;|$g#(;a+J@`+X+g+~@J+X+{$e+q@!@9+q@r@K+3+v.W@v.t@u@K&_;B-J#Q+1.Q+1.Q+E@4.3@3@5.5.~&[-j-j-8-8-<-F@5.5.3@3@4.E@4.f-5.x$:;",
"<;@+&%-#g%=%g%-#g%}$E+]@2+u@u@.+u@u@u@.+B+(@S+6@s@(@B+v.t@t@K=[;P-1.Q+}+3@3@4.3@3@4.J#E@E@E@2@Q+Q+Q+1.1.[+Q+Q+Q+Q+Q+Q+Q+Q+1.}.C-};e.V+X.|;1;.@P#5#c+9+q@b+X.W+g+X+{$9+g+X+Y+X+`+7+H+(@v.W@=+0.A-!-4.Q+Q+1.1.Q+Q+2@4.}+3@5.5.x$~&F@<-<-<-[-~&9-9-5.f-f-~&~&F@F@:;",
"2;F&(%-#g%g%=%g%g%}$z$E+u@/@F+S+.+/@u@.+v.s@v.(@(@(@B+W@.+.+T=3;P-Q+Q+4.3@3@3@3@3@4.E@4.E@J#Q+Q+4.E@E@Q+E@4.E@E@E@Q+Q+Q+Q+Q+}.H%4;5;J+g+$#O#.@V@%#f$6;7;8;J@9+W+Y+X+`+{$~@{$Y+f+<&3+(@7@t@/@9;v-q&E@Q+1.3.3.1.3.Q+J#2@E@3@}+3@3@5.~&<-<-[-[-j-j-[-[-F@[-<-j-[-:;",
"0;H&-#-#(%=%g%(%=%&%&%%$/@F+(@s@t@t@u@.+W@a;(@S+r#.+S+.+^@/@K&b;=;1.1.E@4.3@3@4.4.J#J#E@2@E@E@4.3@4.E@Q+E@4.4.4.4.E@2@Q+1.1.<.H%c;%-r@q@g+|$d;l+M@e;+@4$1;W+!@g+J@e+~@J+`+h+X+~@H@3+6@t@t@F+9;f;q&4.Q+Q+1.<+3.3.3.1.Q+1.Q+2@E@4.3@5.x$~&F@[-j-j-j-j-j-<-8-8-8-g;",
"h;/%s&j&=%g%=%}$}$}$}$M#]@F+t@S+v.S+.+C+s@r.v.F+/@2+2+N@E+/@i;j;P-1.1.2@4.}+4.3@3@4.3@4.E@}+3@E@4.4.E@Q+Q+E@E@E@E@E@J#2@[+2.;.G$k;&-8+g+0+l;m;b-9@e;.@$@b-h+b+9+W+f+J+h#K+J+5+6&H@Z.r.s@t@F+L=n;o;3@}+4.1.<+1.Q+1.2.3.<+1.Q+Q+E@3@}+5.~&9-~&[-j-8-8-8-8-8--;8-p;",
"q;r;g%m$&%(%}$z$M#}$}$}$M#u@/@r#.+W@.+F+v.(@S+u@D+%$M#}$D+.+V&s;P-1.3.Q+4.}+4.3@3@}+4.4.E@}+}+E@E@E@Q+3.1.Q+1.Q+E@2@[+1.1.2.-.H%t;u;8+Y+!@e$d$5#9@0@5#'+$#9+e+m%f+f+X+J+K+G@3+G@H@r.r.G+t@u@v;n;q&k$4.4.Q+3.2.1.<.<.;.;.<.3.1.1.Q+4.3@3@~&[-[-8-8-8-8-8-w;w;8-|+",
"x;/%(%g%g%(%m$z$E+M#}$}$A$u@S+.+F+v.t@/@.+.+F+c@E+&%*%M#D+.+a.y;P-<+2.1.Q+J#4.3@}+3@J#Q+2@J#E@4.2@Q+1.<.3.3.3.1.Q+Q+1.3.3.2.;.H%z;X&A;!@9+B;5#d$.@O#f$1;C;q@X+~@~@X+X.Y+`+5+6+5+5+G+r.3+S+^@L=D;q&3@4.E@1.<+<.<.;.;.,.,.-.<.3.3.[+4.3@3@5.~&F@j-8-8-E;w;8-F;-;G;",
"H;3&&%(%(%g%(%}$z$N@M#}$E+t@(@v..+r#.+2+2+/@u@2+%$m$&%[$s.F+N=I;i$2.<.3.1.Q+2@J#4.4.E@Q+2@Q+Q+2@Q+1.<.;.;.2.3.1.Q+1.1.3.<+<.<.H%9%A+T$d+J;4$K;L;d$5#b-M;N;!@`+X+~@~@{$`+J+3+3+H+6+H+7+G@6@=+9.O;q&4.4.2@1.;.-.;.-.,.'.'.,.;.<.<+1.J#}+3@3@3@x$F@<-<-<-8-8--;F;P;",
"q;r;g%g%g%g%(%A$E+D+2+[$2+.+W@t@s#t@/@%$2+2+E+A$M#}$&%M#u@.+x&Q;R;3.2.3.1.Q+J#J#4.4.4.Q+Q+3.3.1.1.<+<+;.;.;.;.3.Q+1.1.3.<.<.;.H%S;T;U;V; @W;C;X;Y;o@Z;|%g+!@8+`+I+J+J+J+_@5+H+U+H+H+7+K+G+(@0.`;B-4.E@1.<.,.'.'.'.'.'.'.,.;.;.<+1.E@}+3@}+3@5.~&~&[-j-8-8-8--;P;",
"q; >C%C%q%(%M#E+D+E+^@s.^@/@u@s.M#E+D+}$A$M#M#M#E+[$&%M#u@t@.>+>P-3.1.1.Q+4.4.4.3@3@3@E@Q+1.<+<+3.<.;.;.;.;.<.3.1.3.3.2.-.-.,.H%@>#>$>Z;f#b-%>d$t&o@/#5#X.g+h+f+_@~@~@<&7+7+T+6+6+I@7+{@H+6@R=&>B-J#1.<.-.'.'.).P.).'.-.;.;.<+3.1.2@4.3@3@3@3@~&5.[-<-j-j-8-8-P;",
"*>s&+&+&q%m$N@^@D+D+u@2+u@2+2+%$&%&%&%(%g%*%E+[$E+E+%$%$2+^#T=+>P-1.Q+2@2@3@5.5.3@5.f-4.1.3.<+<+3.;.-.,.-.;.3.1.1.1.3.;.-.'.).G$=> +W#K@k+b@j+j+b-j+9@5#c+f+{$Y._@I+J+7+h+`+I@6+7+I@H@6+3+(@V&->B-}.3.<.'.P.'.v+Q@:.'.-.;.;.<.3.3.Q+Q+4.4.J#4.5.3@5.[-<-j-8-E;P;",
"q;;>Q%+&C%=%%$2+u@/@F+u@u@u@E+m$(%j&-#-#-#(%M#%$E+E+}$&%[$/@!;>>P-1.J#E@4.3@x$5.5.5.3@E@1.3.3.<+2.;.'.'.'.-.<.3.1.3.2.;.-.'.N.y+,>D&*#*#=#'>@@f#f$+@V@o@X%W+r@~@K+{@7+_@X+r@~@~@X+~@G@G+s@B+;+)>R;<.<.;.'.N./+u+|@w+'.'.,.,.;.2.3.Q+1.[+Q+1.E@4.3@3@5.F@[-F@[-P;",
"!> >C%C%q%j&&%N@D+/@.+/@u@2+A$g%g%b&-#-#-#g%(%}$}$%$%$&%%$2+!;~>P-1.Q+E@E@}+5.5.x$3@E@J#Q+1.3.<.;.'.P.P.'.,.-.;.<+2.;.;.;.'.v+{>]>^@*#^>C#^>e;9@l+0@%#j+/>9+f+~@K+5+{${$`+X.Y+W+Z+{$6+G+U+U+T&(>3%-.;.-.'.v+_>v+'.'.P.P.'.P.,.-.2.3.<.2.<+2.1.2@4.}+5.~&~&~&##|+",
"q;:>q%q%s&g%&%M#E+F+C+++u@E+*%g%g%g%s&s&g%&%}$%$E+D+E+}$a&E+0.<>P-|.Q+E@E@4.3@5.5.}+E@J#Q+3.;.;.-.'.P.'.'.,.,.-.-.-.;.-.-.'.N.[>}>|>&#K@X#X#K@&#P#W#e;P#X+0+X.~@6+H@Y.h#X+9+X.b+9+Z+,+K+6&5+,&1>^$'.'.'.).).P.P.P.S$_$v+C@o#P.'.1@;.;.;.<.<.3.Q+E@3@3@5.5.5.F@P;",
"2>I&3&3&F&F&@+$;&+-+K&&+C&8.@+H&3&3&3&I&3&3>$;B&*+*+$+$;B&B&T=4>5>|.|.|.E@4.4.3@3@E@1.}.m&<.-.:.'.:.).).'.'.'.'.,.-.-.,.,.'.).6>7>G-c@N@N@%$k+A$m$k+N@N@v.W.h.N$,&1%8>5$W.n.n.i.9>V.W.q@5$8>8>0>c*,.'.'.).).P.P.a>|@|@|@C@b>c>'.'.'.-.;.;.;.2.1.|.4.4.3@5.5.<-M.",
"d>e>f>g>h>i>j>k>l>w*m>n>o>p><*q>q>r>:*<*r>i>f>^*s>t>u>s>u>k>v>w>x>y>&*z>A>z>$*B>%*C>C>D>C>E>E>F>E>N+(=F>E>E>k*k*k*Z@j*N+|&N+N&G>H>I>J>K>L>K>M>N>O>N>P>M>Q>R>S>T>U>5*V>W>X>Y>Z>`>S> , ,.,., ,+,@,#,$,******N+Z@%,&,*,*@=,-,*,&,Z@****j*;,j*j*|&|&;*j*&*&*z>z>>,,,",
"',S@R+3#] { 5%V$V$R+_=V$_=_=5%**5%5%(=F>F>E>{ ] { 5%] ] ),w=!,~,{,],^,/,(,_,:,<,[,},%.|,1,2,3,4,5,6,7,8,d d 9,0,4 a,o=b,b,c,d,e,f,g,h,i,h,`#p j,j,k,l,m,-,n,o,p,z y C B B C E=C z y * y q,z r,s,t,u,v,w,w,x,y,z,A,B,C,D,E,F,G,H,I,a J,K,L,M,N,O,P,Q,R,S,T,U,V,W,",
"@#1.|.E@4.E@4.3@4.4.4.3@E@E@4.4.E@4.k$x$k$4.4.4.4.4.J#|.|.3.2.6>X,Y,b.Q-$&1%,&$&,&!+$-W.o.o.K+a;U+Z,n.%-`,5$N$5$q@B$X@ 'W..'o.+'@'{.#'+$|@C.f@!#`@`@)#}@A@m#}@C.{.).'.'.'.'.'.).:.'.).P.).).).$'%'T;o.i.&'o.6+W@M#t.t.*'u.C+r.{$='-'p.f.@%l%[&U&U&.>0.;'>'C&H-,'",
"B-|.Q+J#Q+Q+2@4.4.}+4.E@Q+1.Q+E@J#E@4.4.E@E@E@E@4.E@1.1.1.2.[.J-'')' +5+7+Y.7+,+J+r@9+a+T$!'.@+@~'h+{'X+,+,+J+7+{$X+Y.h#W+q@n.]'^'{%Q@C@u+D.A.}@A@ #a#|#|#[#b#;$O+v+'.'.,.'.P.P._$/'v+P.P.).).W$('i.9+c+V.{$m@a@X#X#k+9@_')+:'0+A;e+8+{$7+r. +B+ +s@W@/@2+E+L=<'",
"B-|.E@J#Q+Q+Q+2@4.4.4.E@1.<+1.Q+Q+Q+Q+E@J#4.E@E@E@Q+1.1.1.3.<.J-['Z&H+K+J+`+W+X.9+Z+X.0+Y%4$+@O#X.a+b+`+H@5+5+K+J+~@7+7+`+W+}'|'1'2'u+(+C.r+A@[@f@A@ #}#[#[#[#3'A@F#i@'.'.'.4'Q@5'C.v+P.P.P.).W$6'l.9+X.7'f$8'X#9'C#k+#@b-0'a'9+X+{$V+I+G@s@s@U+B+6@(@.+^@2+i;O-",
"P-|.E@E@2@J#2@4.E@Q+Q+1.<+2.1.J#2@Q+J#2@2@Q+Q+Q+1.1.3.3.3.3.<.H%b'c',+`+`+X.0+-%c+a+d'e'.@.@P#f'g'g+m%7+3+H+6+I+K+7+6+K+~@f+%-i#e&h'K.(+K.f@y@J.r+}@`@}#[#[# #m#J.E.k#).P.'..$K.<@C.Q@).P.P.).G$i'l.9+g+j'j+0@&#X#e#%#.@4$b-k'9+V+h#J+H+B+S+U+3+3+r.3+(@4#t@'-l'",
"P-|.J#E@4.4.4.3@}+E@Q+3.<.<+1.Q+2@Q+Q+2@Q+1.1.Q+1.<+2.;.<.<.<.H%m'f.X+W+9+a+f+n'X+6;4$+@&#b@.@o'b+g+I+U+W%7@(@r.G+U+G+G@7+`+X@p':#!.Q@^+-@}@}@T#`@b#`@w#[#[#a#A@F.:+q'_$P.'.N%_+K./+u&P.).'.'.G$r'u;g+m%!@m+9@V@9@~@1;f$}%$#!@q@~@K+5+r.S+W@B+3+6+6+K+T+H+B+'-s'",
"!&}.Q+2@E@E@3@5.f-4.Q+2.<.<.3.1.3.1.Q+Q+1.3.<+1.1.2.;.;.;.<.;.H%t'%-W+0+b+R%o@4$4$/#9@a@=#e#d$u'0+f+H+(@B+(@r#W@s@W@6@G+d-{@'+v'^$'.'.v+w'D.s+y@,#;$}@;$`@`@A@q+C.1#|@/+'.'.v+B.B._$P.P.'.'.,.G$x'A+f+X.c+k&/#f#l-9+b+y'b+b+J@g+h+7+H+U+v.(@(@G+H@7+~@J+5+G+x&z'",
"!&}.1.Q+2@4.4.}+3@4.Q+3.2.<.<.<+3.<.3.1.3.<.<.3.3.2.-.-.-.,.,.H%A'h.c+B'j+9@V@P#*$*$M@6#%#.@4$!@X.J+T+(@v.t@c@t@S+.+.+S+U+G+7&C'3%'.'.'.P.Q@B.-@F#C.C.:+s+E.D./+/+4%D'v+P.P.N.C.u+w+P.P.'.,.-.G$E'i.Z+g+9+X.F'G'a+Z+W+X.!@q@9+b+{$~@6+G+s@B+H+6+5+_@7+{@T+3+Q-H'",
"3%m&3.3.[+Q+Q+J#E@J#Q+1.3.<.2.<.2.<.3.3.3.<.2.3.<.;.,.,.'.'.'.G$I'J'}%.@M@&#e#k+K@9@b@V@9@4$ @!@r@h#H+v.S+F+/@F+/@/@/@.+W@(@K=K'!&-.-.'.'.P..&0$L'U%'.D@K.K./+^+C.C@B@P$).).M'N't+'.'.'.,.;.,.H%O'A+0+a+0+0+c+0+g+m%X.Y+g+T$!@a+c+W+,+6+H+H+K+7+K+K+{@7+6+G+7&H'",
"!&[.3.<+3.1.Q+Q+J#2@Q+1.<+;.;.<.;.<.<+2.2.<.<.<+;.-.,.'.'.P.:.G$P'Q'{$f$+@a@=#'>*#%#*$R'd$S'c+J@x-5+G+m@W@t@.+u@D+^@]@^@u@++T'`;q&;.;.-.'.'.P.P.P.'.,.P._>d%_$K.U':.'.O&'.V'_$Q@W'P.'.-.;.;.-.G$S;X'q@T$!@J@g+h+Y+X.b+8+W+a+0+-%b+c+h+`+5+I@_@~@K+5+G@{@6+G+;+H'",
"!&<.1.3.3.<+1.Q+Q+1.1.3.2.;.;.;.-.;.<.;.;.-.-.;.-.,.,.'.'.'.:.G$Y'5+.@f#f#+@l++@j+%@e$Z'`+e+a+Z+Y._@H+6@(@(@.+2+2+u@D+D+E+D+L=`'3%m&3.;.;.'.'.,.'.,.,.'.v+ $O&C.C.N.4'K./+M.C.u+u+j$'.-.;.<.;.G$ ).)c+0+h+Y.{${$Y+X.8+X+X+9++)a+a+b+0+Y+~@Y+~@5+G@3+H+H+H+B+Q-H'",
"-*}.3.3.3.;.3.1.1.3.2.;.;.;.;.;.;.;.;.-.,.-.-.-.-.-.-.'.,.'.).@)#)4+9@0@/#4$Y+$#$)%)0+c+0+g+T$X.X+{@H+H+G+S+v./@/@v@2+s.D+E+K&&)!&}.1.<.;.-.-.,.-.-.-.'.'.P./+C./+^+K.A.B.K.E._+B.u+'.,.;.;.;.H%*).)b+X.{$I+h#X+h+m%X+X+J+m%0+0'9+0+0+f+J+I+J+K+r.3+r.3+U+B+Z.8&",
"=*<.;.;.<.;.<.<.2.<.;.-.;.-.,.-.;.<.;.;.-.-.,.,.'.-.;.,.,.'.:.=)-);)o@5#>)p@0+!@W+b+9+g+c+9+a+W+f+~@G@T+B+S+W@t@C+/@]@D+]@[$9.,)!&1.3.<.;.;.-.;.;.;.-.'.P.w+_$/+/+D.A.[@r+r+r+F.C.^+')P.-.;.;.H%))%-Y+{$V+J+`+Y+{$7+{$7+7+g+c+9+d+b+W+W+X+_@_@K+5+3+B+W%U+G+1%w@",
"3%'.-.-.-.-.;.;.-.,.,.,.;.;.-.-.;.<.;.;.;.,.'.'.,.;.;.-.'.'.'.=)!)j.0+0+d+!@f+9+a+!@f+f+X.c+a+X.W+Y+H+3+s@S+S+s@v.u@D+2+2+2+-+`;R;}.3.3.;.;.;.-.1@1@-.'.).C@~){)/+B.g@)#'#y@[@J._+u+])'.'.;.;.H%))e.6&G@K+K+X+_@7+~@{@T+K+h+b+J@b+!@q@!@8+{@7+{@6+T+H+B+3+5+r&^)",
":#).'.'.'.'.'.,.'.'.P.'.'.-.-.;.<.;.;.;.-.'.'.,.-.;.-.;.,.'.'.=)/)n.g+W+f+W+X+9+!@W+~@J+{$9+9+a+c+Y+5+r.r.r.s@B+B+.+^@u@/@/@N=()P-3.3.<.<.;.;.;.-.'.'.'.P.|@|@_$u+-@;$w#`@m#;$z@A./+/+w+'.1@<.H%_)'&(@s@3+H+5+_@~@{@T+5+I+W+g+X.f+W+!@!@Y+I+5+6+3+3+r.T+5+7+e.v'",
":#{.v+v+]+w+w+'.'.P.P.'.P.P.'.,.1@;.;.;.-.-.-.-.-.-.-.;.;.-.'.b$:)X@Y+`+Y+~@{$V+`+~@7+5+6+h+d+d+d+W+`+7+T+G@G@H+H+v./@2+s#F+N=<)P-2.<.<.<+<+;.;.-.'.'.P.w+u+u+K.B.A@!#[#|#z@H.H.[)C./+w+'.;.<.f&})V&|)t@s@T+{@J+K+H@5+5+I@`+X+`+V+7+X+X+X+~@7+I@T+3+6+K+~@X+X@1)",
"2)2'B.B.B.D.C.C@3)4)N'Q@p%w+P.,.-.-.-.;.-.-.;.-.-.;.;.;.;.1@,.b$5)S&`+f+r@~@{$V+7+{@6&6&6+`+c+b+9+W+V+7+J+~@J+K+H@s@r#.+v.(@K=s'R;2.2.<.;.<.;.1@'.P.P.P.w+k#C.K.s+;$m# #'#A#J.F.B./+N.'.'.-.<.6)7)T=.+C+7@G@~@7+K+7+6+G@T+I+5+{@Y.~@V+7+Y.~@K+~@J+J+`+Y+W+X.o.8)",
"9)B.G.F.l#E.q+K./+C.:+q+B.<#'.-.;.-.-.;.;.,.;.;.;.<.;.;.<.;.-.;&0)S&V+f+f+X+f+I+6+3+d-6+K+{@{$X+{$`+W+f+X+f+`+5+6+T+(@s@U+B+K=a)!&3.<+<.-.;.;.-.'.P.'.P.'.w+|@K.s+}@;$)#'#A.K.B.K.D@'.'.,.-.[.f&b)T=y$B+r.H+6+K+H@{@G@3+G+7+6+T+5+{@_@,+`+8+`+h+`+W+e+!@c)f+d)e)",
"*,f))#m#H.l#s+f@q+E.f@f@C.P.'.'.'.-.-.-.-.,.-.-.;.;.<.;.<.<.;.;&g)8>Y.g+9+a+g+I+5+H+G+H+H+5+K+_@~@J+X+X+V+~@7+J+H@K+T+H+H+H+h)y&!&[.<.<.;.;.-.-.'.'.'.'.'.'.w+C@B.A.s+A#A@C.b>o$i)'.P.'.-.;.}.f&7)U&r.H+T+r.H+_@7+K+H+H+3+5+6+6+H+G@T+J+f+`+`+~@`+g+b+j)6#M@s.k)",
"l)[#[#`@`@A#J.}@}@r+F.q+K.v+'.,.,.-.-.;.,.'.'.'.-.-.;.;.;.;.<.H%m)u;X.c+a+g+Y+~@6+T+H+H+U+3+G@G@K+5+V+~@K+K+`+{$`+7+6+5+K+7+T&n)!&;.;.;.-.-.,.'.'.'.-.-.,.,.'.'.P.h@C.-@B.k#P.P.P.P.'.'.-.;.}.f&b)Q-T+3+r.U+6+{@5+7+7+{@T+6+K+6&H+6+H@r@W+g+8+X+V+f+J@o)7#9'7#p)",
"0#[#[#[#w#w#!# #!#H.A.E.C.{.P.,.;.;.-.-.'.'.'.'.'.'.-.,.-.;.;.G$S.m.b+J@e+Y+~@{@6+G+6+G@U+U+s@6@U+G+3+r.6&J+{$X+W+V+{$r@`+~@1%q){+-.;.;.,.P.'.'.,.-.;.;.;.;.;.-.'.P$(+v+j$w+P.'.'.'.'.-.;.<.m&6)r)L-6+r.B+B+6+7+_@`+W+{$7+~@7+K+6+H@7+f+X.W+9+f+X.q@W+b@9's)7#t)",
"u)[#[#[#[#[#[#}#}#|#l#K./+_$P.,.-.;.-.'.P.P.P.P.P.P.'.'.'.-.,.G$ )v)a+b+g+f+{$_@6+T+H+T+B+W@(@B+B+U+B+U+3+{@W+J@b+c+!@9+X.`+c%w)Z@;.-.,.'.P.'.'.-.;.<.-.;.;.;.;.'.P.).).).).P.'.-.-.;.;.<.3.}.6)x)L-6+H+3+3+{@_@K+X+8+Y.V+X+V+K+5+K+7+m%q@b+b+c+W+c+f$X#s)y)7#t)",
"z)[#[#[#[#[#[#[#[#`@[@K.R@A)P.'.;.;.-.,.P.'.B)'.).P.P.'.'.'.'.G$C)D)E)0+0+X.`+I+5+G@T+r.U+v.r.H+3+U+U+U+r.6+W+b+W+b+a+c+0+W+N$M+j*;.,.P.'.P.'.'.-.;.2.;.;.;.;.-.'.).P.P.).P.P.P.,.;.<.2.<+1.|.6)F)Q-U+U+H+H+{@<&K+Y+Y+{$Z+8+~@I@6+H+7+g+b+a+c+9+J@g+.@'>s)y)7#t)",
"0#[#[#|#[#[#[#[#[# #l#B.v+'.'.'.-.-.-.'.P.'.P.P.'.'.P.P.'.'.:.=)G)H)I)q@q@!@X.`+J+{@T+3+U+B+3+T+r.H+U+J%6&I+X+!@J)%@K)9+q@c+W.L)M),.'.P.'.'.-.-.-.-.;.;.;.-.,.,.'.'.,.'.'.'.P.,.-.<.<.<.<+[+J#n&F)Q-B+G+H@6+K+_@{$Y+h+X+X+W+h+K+H+5+J+h+W+q@q@9+g+f+f$'>s)y)7#t)",
"N)[#[#[#[#[#[#[#[#a#A@.#O)P.'.,.-.-.,.'.).P.'.P.'.'.P.'.,.'.).=)P)N;L;J@a+a+g+{$5+H@6+s@(@H+H+r.G@G@5+5+K+K+X+0+m+i+$@b-Q)5#R)i#|+).P.'.'.'.-.-.,.,.-.1@-.-.-.;.,.'.,.'.'.'.,.-.;.2.2.3.1.Q+J#;;S)Q-w.G@5+H+H+H@V+J+,+7+~@V+V+7+T+_@h#X+X.m%`+f+9+0+4$Y#y)y)7#p)",
"0#[#[#[#[#[#[#[#`@y@-@/+P.P.'.,.-.'.,.'.'.P.P.P.P.'.'.'.'.'.'.=)T)l.b+b+b+f+V+6+r.r.G+s@s@G+r.3+5+K+J+~@V+Y+q@a+6;#@V@9@9@6#c@U)V)4'B@Q.'.'.-.;.;.;.-.;.;.-.;.;.-.,.,.'.'.,.;.;.<.<+1.Q+1.1.|.n&W)L-r.H+T+r.G@7+f+_@~@~@K+K+7+6+7+`+`+{$9+Z+~@Z+m%!@L;&#C#y)7#t)",
"z)[#[#[#[#[#[#[#'#F.1#w+).P.'.,.'.'.'.-.'.P.).P.'.'.P.'.'.'.'.X):)%-Y.{$_@{@3+3+U+B+v..+W@6@6@r.5+J+~@_@~@X+f+0+Y)b-/#f#l+%#4#Z)`)(.|@N'P.'.,.,.-.;.;.;.<.-.-.'.,.-.'.'.P.'.,.-.;.3.Q+Q+Q+Q+J#6) !U&B+3+U+3+6+K+W+Y.J+Y.7+{@7+6+I+V+X+X+g+W+Z+W+b+0+e'.@6#C#.!+!",
"z)[#[#}#[#}#`@m#[@B.C@'.P.).'.'.'.'.'.,.,.'.'.'.'.'.'.'.'.P.'.;&@!e.4+H+T+G+B+U+B+B+t@t@v.B+6@G+{@K+5+6+J+`+Y+9+a+g'$@~@j+&##!$!%!&!C.|@/''.'.-.;.;.;.;.-.'.'.P.'.'.P.P.w+P.'.'.;.3.1.2@E@E@4.6)*!T=W@(@s@3+r.T+~@Y+~@`+K+K+H@_@_@~@8+J+X+X+m%g+=!j'-!4$+@K@;!+!",
">![#[#}#m#H.A.J.E.u+v+P.'.'.'.P.P.P.'.'.'.'.,.-.-.,.,.'.P.).,.v&,!~%4+H+3+B+W%r.r.B+B+B+B+w.U+H+6+G@J%3+H@V+X+Y+d+p@4$'!j+b@(@)!!!z._+/+P.-.-.-.-.;.;.-.'.'.'.w+w+P._>4%w+).P.'.;.2.1.Q+Q+Q+J#6)~!K=v.S+s@G+r.6+H@_@~@_@6+U+3+6+I+`+X+J+{$W+0+b+f+1;4$5#P#C#{!p)",
"z)[#|#b#z@q+B.B.c#]!P.'.'.P.P.).P.P.).'.'.,.-.;.;.-.-.,.'.'.'.^!,!,+{@H+w.`.Z.Z.Z.4+{@Z.7&J%Z.<&,+<&6&Z.Z.,+~@~@W+b+~@1;m+5#v./!(!G.D./+'.-.;.;.;.;.;.-.'.P._!I#C@_./+_>'.'.'.,.;.3.1.1.1.1.|.U-:!S=v.y$U+Z.H+{@H@5+K+{@3+U+ +r.6&,+x-{$X+e+9+E)e'1;<! @4#[!^>p)",
"}!m#|#{#E.C.|!w+P.).P.,.'.).).).).).B@).:.'.-.-.-.-.-.,.'.'.-.1!2!x%!+l%d.e.5;3!5;5;4!4!5!6!7!8!%-N$e.!+L%9!0!8>&-o.o.W;a!b!c!d!e!D.x+f!'.-.<.<.;.;.-.'.'.:.R@_.g!U%4''.).).'.-.<.}.}.|.}.3.1.h!i!!;-+K=;+!+!+r@@%'+~%,&L-x&K=L-!+5;8> 'p.&-l.='V.j!c+k!{@l!b&m!",
"n!o!p!0#h*f*q!k*Z@Z@E>Z@E>k*r!E>s!t!u!@'v!w!k*k*Z@k*C>E>w!x!y!z!A!B!D*D*D*C!D!E!F!G!H!I!J!K!L!M!F!N!C*D*O!O!P!I*Q!R!R!S!T!U!R>V!b*W!5>E>j*k*&*;,j*k*w!X!Y!t!E>(=E>E>******Z@j*j*j*&*$*z>Z!&*`! ~.~+~@~#~$~y*y*C!%~&~*~=~-~;~>~,~'~V>)~C!!~~~{~]~^~N*/~(~_~:~<~[~",
"}~|~1~h 2~3~4~5~6~7~8~9~0~0~a~b~c~d~e~d~d~e a,f~g~h~2 2 i~j~k~l~m~n~[=[=:=B G=<=<=B=B=<=<=<=o~<=B=[=[=B [=B C C C z y z y p~q~r~s~t~u~v~w~f~x~y~z~9,A~B~N C~D~E~F~G~v~6 H~I~h=J~K~L~M~N~O~P~Q~R~S~T~_=R+V$:=:=<=<=G=G=B=:=x=U~[=[=:=:=[=[=B B B B B C C z V~W~X~",
"Y~W@u@u@B+Z~ -i.o.j.m.n.B$W.h.o.n.n.n.}'o.j.n.`~!+,&~%r&e.S& {/*D$-.'.-.<.;.;.;.<.<.<.;.;.;.;.;.;.;.;..{<.-.'.).).+$'.'.{.^++{@{#{4+j.P=S&S&~%~%S&e.e.L%#-,&e.r&,&S&N$$-e.,&'&${T'0.N=-+9.0.%{/&_!|.E@E@J#1.2.;.-.-.;.<.}.}.[.<.[.m&m&m&<.;.;.-.,.'.).'.P.'.!.&{",
"*{c%i+P##@Q)r&={g+c+X.!@f+f+m%J@g+e+Y+f+W+X.X.X+7+Z.5+7+~@8+`=-{i$-.'.-.;.-.;.;.<.<.;.-.1@,.-.;.<.;.-.'.;.-.'.'.'.P.;{D'B.A.[@>{,{N$d+9+Y.{@6+3+H+6&7+{@w.r.J%U+3+6+<&{@Z.T+G+W@=+=+W@.+=+'{9.,)B-J#3@3@Q+1.3.2.;.;.;.;.3.3.<.<.<+3.3.<.;.;.;.-.,.,.'.'.,.,.'.G$",
"){T.!{4$i+`+h+~{g#~@{{b+8+~@W+a+g+g+X.W+8+Z+m%X+K+G@T+7+Y+9+&-Z#E#,.-.-.-.-.,.-.;.;.,.,.-.,.-.-.;.;.-.,.,.-.,.'.,.'.P.c#q+J.A@v ,{]{V.-%h+7+6+3+B+H+5+H+(@v.(@s@U+3+6+5+K+G@G+t@/@F+v.t@S+/@9.&>B-4.3@t-4.J#J#1.2.;.-.;.<.<+<.<.<.2.<+<.-.,.,.,.,.'.'.,.-.-.,.G$",
"^{='T$t#d+J@c+b+p@}%!@g+X+~@W+W+J@W+f+X+f+W+Y+~@7+H@K+,+e+9+h.;%E#'.,.;.-.-.-.;.,.;.-.-.;.-.-.-.-.;.;.'.'.'.,.'.'.'.P.C@A.l#[@>{/{({d+T$g+X+I+5+H+H+H+B+r#t@v.U+G+G+H+6+7+5+U+t@.+S+(@6@(@|)H-_{B-4.4.4.3@4.4.Q+1.<.-.1@;.<+2.;.;.;.-.;.,.,.,.,.,.'.'.,.-.,.,.G$",
":{T;0+a+9+d+b+d+a+W+b+m%X+V+~@J+Y.Z+`+J+~@{$h#J+7+7+H@~@f+!@k.<{o%).'.-.-.;.-.;.;.<.;.;.;.;.;.;.;.-.-.'.P.P.P.'.'.P.P.{)K.E.G.j@[{}{|{9+9+Y+{$K+3+H+G+v.S+t@W@6@G+W%U+H+U+r.v..+S+s@6+6+6@t@!;1{P-J#2@E@E@4.4.4.Q+1.<.;.;.2.;.-.-.,.,.-.'.'.'.'.'.'.,.-.,.'.'.G$",
"2{T;q@m%q@J@Y+-%b+0+9+a+Y+X+J+V+Y+Y+~@5+5+6+7+7+H@V+K+7+{$e+o.3{o%p$P.,.-.;.;.;.2.3.<.2.<.<.<.;.;.;.,.'.'.P.P.'.P.~)h@4{|@B.A.o 5{6{9+$#m%b+g+J+H+H+U+B+(@(@s@U+s@s@6@s@(@s@S+v.(@3+5+5+s@y$R=7{B-Q+2@Q+Q+4.}+4.E@Q+3.2.<+<.;.;.-.-.;.-.,.'.P.'.P.'.'.,.'.'.P.G$",
"8{Z=q@J@a+9{0{e$-%j)!@c+W+Y+8+X+8+X.7+H+3+6+{@K+J+~@`+`+Y+`+W.3{o%X!'.-.;.;.;.2.3.1.1.1.Q+3.1.<+2.;.-.'.'.).w+C@O&^+K.a{@#u+K.j@b{5+c+g#c{a+0+X.X+K+5+6+5+3+U+B+U+B+(@S+S+v.v.B+B+H+K+6+U+l@Y-d{B-|.E@Q+J#4.5.3@E@Q+1.1.1.<+<.<.;.;.;.-.'.P.'.'.,.-.'.'.'.'.'.e{",
"f{='0+K%r%b-b-g{d+f+9+f+c+a+b+c+9+W+`+5+G+H+G@T+_@5+7+~@`+x-f.h{i{:.-.;.<.<.2.3.Q+Q+1.2@2@Q+1.1.<.;.,.,.'.P.j{u+/+K.K./+/+C.E.j@k{l{f+m{%>g+n{c+m%X+7+{@~@5+H+T+6+W%(@.+.+S+v.(@s@G+3+r.J%J%o{p{R;[+Q+2@E@}+5.3@E@1.1.1.3.1.3.2.<.;.<.;.-.,.,.,.,.'.'.'.'.'.'.q{",
"r{n{1;$@l+P#}%J@b+9+8+h+X.J@b+s{!@X.`+7+5+U+B+3+5+6&J+X+`+h# 't{o%'.;.1.1.3.2.1.J#E@E@E@4.Q+1.<+;.-.,.'.'.v+K.D.E.D.K.^+u+K.K.U#u{v{:',+>)w{x{g+9+9+{${$h+~@7+H@_@G+.+C+v.W@S+t@v.S+s@U+H+Z.$&y{B-1.Q+Q+2@4.4.E@Q+[+Q+Q+Q+Q+1.1.3.<+<+2.<.;.,.'.'.'.'.'.,.'.'.G$",
"P'z{h+A{f$/#}%b+g+8+`+Y+c+a+b+!@0+f+J+H@T+G+H+6+7+~@{$`+8+X+f.B{o%-.<.1.Q+1.1.Q+E@4.4.E@E@J#3.<.;.,.'.'.P.N%:+A.F.s+B.B.K.:+:+>@C{D{f$4$E{4$X.9+F{b+9+9+f+e+f+~@{@U+.+.+.+v.t@t@m@.+t@B+H+H+$&()P-|.Q+2@Q+J#Q+1.1.Q+1.1.1.Q+Q+1.1.1.3.3.3.;.-.'.,.,.,.,.-.,.'.G$",
"G{H{`+)@*$/#K$I{X+J+~@J+W+f+a+a+g+W+{@G@3+3+3+3+6+7+~@_@`+8+g.J{i$-.2.1.Q+Q+2@4.3@4.4.J#4.Q+3.;.;.,.'.P.'._$_+E.D.B.K.C@K{<@u+L{M{r.%#V@b-)@R'W+ @N{T$O{!@0+q@f+7+a;.+v.U+W@t@c@S+.+S+s@B+r.L-()P-|.Q+1.Q+Q+1.[+Q+Q+Q+Q+1.Q+1.1.1.3.3.3.3.3.<.;.-.-.-.-.,.'.'.@)",
"P{T.X.d$.@f#u'9+`+7+K+7+X+9+0+J@c+W+H@Z.K+{@6+G@3+5+J+7+{$Y.f.y%o%;.<.1.Q+E@4.f-5.4.4.4.4.Q+<+;.;.,.'.P.P.w+K.B.u+h@N.P.'./+|@[>Q{5+s.6#V@d$O#M;y'J@c+J@a+a+9+h+J+r.(@s@3+B+t@s#/@F+F+.+(@B+L-R{P-}.3.3.3.1.1.Q+Q+2@Q+Q+1.3.1.Q+1.<+<.3.3.3.<.;.;.<.;.;.,.'.:.@)",
"S{i.b+L;f$4$|$!@W+X+W+{$f+!@b+b+0+W+7+H@K+I+_@H+r.6+7+J+r@8+X@B{i$-.;.3.Q+E@4.5.5.}+E@E@E@2@1.3.2.;.,.'.P.'.u+B.^+i)a>P.{)|@^+{>T{{@.@V@0@O#O#Z;p@b+a+b+!@!@b+Y+V+7+T+G+5+d-4#u@^@2+s#/@.+(@[&U{P-m&<.2.3.1.[+Q+Q+1.Q+Q+1.1.1.Q+1.2.2.2.3.3.3.<+<+;.;.;.-.'.:.@)",
"P).)d+V{W{X{p@b+m%J+`+X.b+9+T$b+f+X+~@,+Y.`+7+5+7+5+5+_@X+e+W.Y{Z{-.;.2.1.Q+J#3@5.5.}+4.4.4.Q+1.3.<.-.'.P./+D.D.C.K.C.N'C@n#~.`{ ]H+4#.]%#m+o@:'0+a++]q@b+b+0+Y+Y.I+<&5+{@B+(@/@u@2+D+s#F+.+V&@]P-3.2.3.1.<+3.3.1.Q+Q+Q+Q+1.[+1.Q+1.1.1.1.Q+1.1.1.2.<.;.;.-.'.G$",
"))#]c+0+X.a+0+9+g+{$~@Z+b+c+b+a+X.X+W+X+h+X+_@V+K+6+7+I+e+X.o.$]z%-.;.;.3.1.Q+4.3@3@3@f-3@f-J#Q+3.<+;.'._$u+C.B._+C.C./+i@{.).b$%]U+/#%#%#N$g+-%!@k!$#X@9+b+f+9+g+X.~@V+{$6+G+t@u@/@u@u@C+.+V&&]P-<+2.3.1.3.3.1.Q+Q+Q+Q+1.3.1.Q+1.1.1.1.Q+Q+Q+1.1.3.3.2.;.;.-.H%",
"*] 'X+J@0+g+W+h+X+W+W+9+d+0+J@a+!@b+T$X.{$X+{$I+5+T+5+7+f+X.o.=]Z{-.;.;.<.3.1.4.3@3@3@3@f-t-E@E@1.2.;.'.Q@K.C.U'_+B.c#-]q'P.).G$;]W@V@*#%#)@9+>]o@$@,]`+J@'])]a+a+9+9+!@`+{@G@6@S+S+t@F+.+t@V&!]P-3.1.1.Q+1.Q+Q+Q+Q+Q+Q+1.1.1.Q+Q+Q+Q+Q+E@Q+Q+Q+2@Q+3.2.;.;.-.H%",
"~] '{$f+Z+I+_@J+e+b+X.f+b+9+f+X.g+c+g+a+`+J+J+K+r.U+3+K+Y.x-{]]]z%-.;.;.;.3.1.Q+3@t-3@}+3@3@}+E@1.2.-.'.(+<@L'C.A.K.|@S#P.P.).W$^]/]b-%#%#j+e$M$e'G'(]g#N{o@b-_]9+b+a+9+I@T+T+B+(@s@s@W@.+.+V&:]P-}.Q+Q+Q+Q+Q+Q+2@Q+Q+J#1.1.Q+E@J#J#2@E@}+4.4.}+4.E@1.<.;.-..{H%",
"<]~%6&H@K+_@I+~@m%a+K;e'f+9+Z+~@W+9+b+W+J+I+6&3+H+3+r.{@,+{$&-[]Z{-.;.;.;.<.2.3.Q+4.4.4.t-5.}+E@1.<.,.P.v+5''._>B.B.u+).).P.A)W$}]r@Z+/#|]/#f$$@y'o@1]2].@*$.@#@g#q@b+W+K+H+6&H+B+W%U+v..+W@Q-()P-1.1.[+Q+J#4.4.4.4.4.E@1.3.1.J#4.3@}+4.3@5.5.5.3@}+Q+<+;.-.;.f&",
"o&l%H+B+d-5+J+`+g+0+b+.%9+J@8+~@~@~@`+_@H@7+H+U+B+H+H+3+K+J+$-3]Z{-.;.;.;.;.;.<.3.Q+J#4.3@5.4.Q+<+<.;.'.).).'.q'/+C@P.P.f!{)(+W$4]'+)@9@V@%#9@f#5]6]L;o@b@&#.]b@j+g+9+X+K+6+3+3+6@v.(@S+S+U+[&p{P-2.3.1.Q+E@3@3@3@}+3@4.Q+Q+Q+4.3@t-f-3@3@~&9-5.3@3@E@1.<.;.;.f&",
"7]c.B+7@s@T+7+f+f+9+a+a+9+W+J+V+f+8+{$_@7+H@U+4#v.G+U+B+5+{@S&8]3-;.;.;.<.;.<.2.<+1.Q+Q+E@E@Q+3.<+<.;.-.P.w+9]0]'.P.'.'.w+w$_$W$a]T;b]V@V@.@.@.@L; @c]$@9@%#a@0@m+g'X.V+6+6+6+G+4#.+S+.+v.v.S=p{R;<+1.1.Q+2@4.}+}+3@f-3@}+4.3@x$x$~&~&5.t-~&[-~&5.5.E@Q+1.2.<.J-",
"D-[&(@v.W@U+K+W+q@g+g+!@X.X+`+{$r@K+~@6+6+G+B+/@c@a;6@7@s@U+$&d]';;.;.;.<.<.<.2.1.<+1.1.1.3.3.2.;.;.<.-.'.P.D@e](&P.P.w+|@/+x+f]g]h]Z;d$f$i]j])@1;b-/#f#)@O#/#9@`+Z+J+5+H+r.5+r.v.t@S+/@.+.+K=k]P-1.1.Q+E@E@4.3@3@5.5.5.t-5.F@<-<-<-F@~&x$F@<-[-9-5.E@1.1.<+<.H%",
"l]L- +(@6@B+{@X.X.W+W+X.`+{$V+`+I+{@6+5+G@r.v./@F+t@S+/@u@.+U&m]S-<+<.<.2.2.<.2.3.<+2.<+3.3.3.<.;.2.<.-.'.).n]_$'.P.'.(+C./+K.{>o]p] @q]g+J@X.l-r]5#P#P#9@b-.@$@+]W+{@3+3+H+H+3+s@W@S+.+W@y$K=7{B-1.Q+E@}+}+}+5.x$x$5.3@3@5.[-j-<-F@F@x$x$F@<-<-F@5.4.Q+1.3.3.H%",
"s]d.G+3+3+3+I+`+W+J@g+9+~@K+Y.{$J+6&{@5+6+U+t@D+2+.+F+D+D+++0.1{P-Q+3.3.3.<.2.<.3.<.2.2.2.2.<.<.<.<.<.,.'.'.'.'.v+'./+B._+B.^+>@t]u]b]9+a+a+T$8+1;4$P#+@*$+@b-v]g+W+J+{@6+H+r.U+3+W%v.v.v.B+K=w]B-|.Q+4.3@3@3@3@x$~&~&~&3@5.x$[-[-F@~&5.}@[#)#x]z@|#'#y]Q+3.3.J-",
"z]1%5+6+H+5+{@I+Y+J@X.e+f+7+K+K+5+{@7+I+H+s@F+2+u@s#/@]@E+2+L=A]B-E@J#Q+Q+1.3.3.<.3.3.<+<.2.<.<.;.<.;.;.-.'.P.'.D'u+_+s+g@D.B.>@B]l@{]C]D]0'E]F]n.m+V@W#e;V@G]-%J@`+~@J+7+5+_@G@H+B+v.(@v.(@H]I]!&|.J#3@t-3@3@5.5.x$[-<-[-~&~&~&F@[-9-x$}@[#[#J]<-K][#[#L]1.}.J-",
"g)5;7+6&6+6+T+6+J+h+`+Z+f+_@6+J%T+6+5+G@r.S+2+2+]@E+M#M#M#%$8.M]B-5.3@}+E@Q+Q+3.1.Q+1.2.2.3.<.;.;.<.<.<.;.'.P.N]^+q+[@}@[@r+E.j@O]s$5#d$Q)f$O#d$g#b-%#e;'>P]1; @a+W+J+_@~@{$7+J+6+U+s@m@v.S+i;Q]!&|.Q+4.3@3@4.3@5.x$<-<-[-[-~&5.9-~&x$x$}@[#|###5.R][#[#S]<+<.f&",
"T]n.X+~@I+K+G@5+~@`+X+9+8+_@5+T+G+r.B+r.r.t@F+2+M#}$m$M#%$a&$;U]B-5.3@}+4.4.E@J#Q+1.3.<.;.<.-.-.;.;.2.2.<.-.'.P.C@C.A.A.r+r+:+j@V]G-b@P#o@4$j+.@.@j+6#Y#k+o)W]g#g#9+f+r@X+Z+I+J+{@U+s@U+B+ +b.X]:-|.1.Q+J#E@E@4.3@x$[-F@F@F@[-~&5.5.3@}+[@[#)#3@3@F@[#[#Y]<.-.X)",
"Z]l.Z+`+~@K+H@K+~@V+X+X.W+J+7+6+d-G+G+(@s@W@.+2+}$*%*%}$(%&%3>`]:-x$5.3@}+4.4.E@Q+1.<+<.;.;.-.-.;.<.;.<.;.1@'.'.P.D@K.[)J.[@F.T@ ^.^k+a@9@+@.@b-l+0@*#C#X#b@b-~{|$a+q@X.h+f+`+Y+G@d-H+5+{@{@c%w@!&m&3.3.3.1.Q+E@5.~&[-F@<-[-[-9-x$3@4.E@[@[#'#4.4.+^[#[#Y];.-.=)",
"@^o.g+Y+~@I@7+{@K+K+{$X.q@`+K+K+K+H@6+U+B+(@F+/@%$}$&%m$=%s&#^$^:-~&f-3@E@E@Q+Q+[+Q+3.2.;.,.,.'.-.;.;.;.;.-.-.'.P.'.u+s+T#y@f@T@%^%+a@6#0@M@V@+@#@0@*#K@&#P#$#|;0+9+9+a+e+h+`+X+7+7+J+,+{$X+%-#%g!<.<.;.;.2.3.E@3@~&F@F@E;<-[-~&5.3@4.4.g@[#m#E@J#K#[#[#&^;.-.=)",
"*^B$X+`+Y.J+7+J+h+X+9+0+b+9+X+{$~@,+5+`.B+W@/@D+M#}$}$&%g%q%=^-^!-5.3@4.E@Q+Q+1.1.1.3.<.;.,.'.'.,.-.-.;.;.;.-.-.'.S#|@:+y@z@J.q ;^D&[!*#A$W#%#W#j+l+V@>^%#m@o@9+c+9+c+!@8+x-{$Y+f+f+e+f+e+X.B$,^i$;.<.;.;.;.3.Q+}+5.F@F@<-<-[-~&5.3@4.4.4.E@Q+Q+Q+1.3.<.;.;.-.X)",
"'^f.~%c%r&r&r&Z$W.V.m.)^)^k.d+V.B$f.c%c.b.'-&+B&$+!^a&F&H&r;=^~^W=5.3@4.|.1.3.3.}.3.<.;.-.'.:.:.:.'.:.-.-.,.-.,.).B@<@{^I.]^f@^^/^(^j&l!E+}$[$_^Z~U+u@:^m$Z~X+l.l.u;h.n.&-%-%-h.l.i.l.m.h.Z$<^[^D$-.<.;.-.;.<+}^E@K#x$F@<-E;[-##K#K#4.4.4.|.[+1.|.}.2.;.-.;.-.Q&",
"|^S>F*F*F*1^1^2^3^4^C!T>5^6^7^8^9^T>0^p*a^v>s>(*]*~*[^[^b^c^d^e^f^>,z>A>j*j*j*N+j*j*Z@N+j*Z@F>(=**Z@Z@Z@k*E>w!t!g^f*h*h*h*h*}!|=h^i^j^k^l^m^n^o^p^p^q^r^s^t^u^v^Q!w^w^w^Y>T!X>Z>x^S>y^z^W>A^K*B^C^/'D^E^Y!Y!C>Y!F^E^G^H^G^I^I^G^I^G^+*I^G^I^E^=,E^Y!Y!Y!J^K^L^  "};
