/* XPM */
static char * galax_xpm[] = {
"344 349 12630 3",
"   	c #05071E",
".  	c #070920",
"+  	c #06081F",
"@  	c #04061D",
"#  	c #03051C",
"$  	c #090B22",
"%  	c #0A0C23",
"&  	c #0F1128",
"*  	c #070922",
"=  	c #070824",
"-  	c #070826",
";  	c #070827",
">  	c #080927",
",  	c #090A26",
"'  	c #0A0B27",
")  	c #050624",
"!  	c #060725",
"~  	c #080928",
"{  	c #08082A",
"]  	c #090A29",
"^  	c #0A082D",
"/  	c #0B092E",
"(  	c #0C0A2F",
"_  	c #0E0C31",
":  	c #09072C",
"<  	c #0D0B30",
"[  	c #121035",
"}  	c #0A092B",
"|  	c #0A0928",
"1  	c #090925",
"2  	c #0B0B27",
"3  	c #0D0D29",
"4  	c #0C0B2A",
"5  	c #090827",
"6  	c #090828",
"7  	c #060726",
"8  	c #060723",
"9  	c #06081D",
"0  	c #05071C",
"a  	c #03081C",
"b  	c #080A21",
"c  	c #0D0F26",
"d  	c #0A0B29",
"e  	c #0B0C28",
"f  	c #0C0D2B",
"g  	c #080727",
"h  	c #080726",
"i  	c #0E0D2C",
"j  	c #0D0C2B",
"k  	c #0A0929",
"l  	c #02041B",
"m  	c #080925",
"n  	c #0E0F2D",
"o  	c #121331",
"p  	c #09092B",
"q  	c #0C0B2D",
"r  	c #0B0A2C",
"s  	c #0D0C2E",
"t  	c #060821",
"u  	c #090A28",
"v  	c #0D0E2C",
"w  	c #111230",
"x  	c #15133A",
"y  	c #110F37",
"z  	c #0D0B32",
"A  	c #0A082F",
"B  	c #0B0930",
"C  	c #0A0B2A",
"D  	c #0A0A2C",
"E  	c #08062B",
"F  	c #0F0D32",
"G  	c #0C0A31",
"H  	c #181540",
"I  	c #13103B",
"J  	c #0D0A35",
"K  	c #0A0732",
"L  	c #090631",
"M  	c #0B0931",
"N  	c #0B0A2A",
"O  	c #0B0A29",
"P  	c #100E33",
"Q  	c #131136",
"R  	c #110F34",
"S  	c #13103D",
"T  	c #100D3C",
"U  	c #0C0938",
"V  	c #0A0734",
"W  	c #0B0835",
"X  	c #0C0934",
"Y  	c #0D0B33",
"Z  	c #040523",
"`  	c #141237",
" . 	c #161439",
".. 	c #0C0A32",
"+. 	c #0D0A39",
"@. 	c #0B0739",
"#. 	c #0A0638",
"$. 	c #0B0837",
"%. 	c #0E0B38",
"&. 	c #0B0C2B",
"*. 	c #050622",
"=. 	c #0D0E2D",
"-. 	c #0C0D2C",
";. 	c #070335",
">. 	c #060234",
",. 	c #0E0B3A",
"'. 	c #100E36",
"). 	c #04091D",
"!. 	c #050A1E",
"~. 	c #080436",
"{. 	c #0E0A3C",
"]. 	c #1B1847",
"^. 	c #1D1A49",
"/. 	c #120F3C",
"(. 	c #0B0833",
"_. 	c #0C0B2B",
":. 	c #02071B",
"<. 	c #0C0936",
"[. 	c #110E3D",
"}. 	c #1D1A47",
"|. 	c #1F1C49",
"1. 	c #15123D",
"2. 	c #01061A",
"3. 	c #060B1F",
"4. 	c #100D38",
"5. 	c #120F3A",
"6. 	c #0E0C34",
"7. 	c #0F0D34",
"8. 	c #110F36",
"9. 	c #08062E",
"0. 	c #0A0830",
"a. 	c #0E0C33",
"b. 	c #0B0C2A",
"c. 	c #0B0D24",
"d. 	c #080D21",
"e. 	c #080A23",
"f. 	c #0C0E25",
"g. 	c #0E0D2F",
"h. 	c #0F0E30",
"i. 	c #100F31",
"j. 	c #0C1125",
"k. 	c #040821",
"l. 	c #04091F",
"m. 	c #050A20",
"n. 	c #050922",
"o. 	c #0E0F2E",
"p. 	c #0D0D2F",
"q. 	c #0C0C2E",
"r. 	c #121133",
"s. 	c #111032",
"t. 	c #03081E",
"u. 	c #030720",
"v. 	c #00051B",
"w. 	c #11162C",
"x. 	c #000519",
"y. 	c #04061F",
"z. 	c #050720",
"A. 	c #080824",
"B. 	c #070723",
"C. 	c #060622",
"D. 	c #020724",
"E. 	c #010824",
"F. 	c #010822",
"G. 	c #020923",
"H. 	c #030923",
"I. 	c #040A22",
"J. 	c #030921",
"K. 	c #030B22",
"L. 	c #040C23",
"M. 	c #050B25",
"N. 	c #030722",
"O. 	c #09082A",
"P. 	c #02031F",
"Q. 	c #040521",
"R. 	c #0D0E2A",
"S. 	c #030420",
"T. 	c #01031C",
"U. 	c #010318",
"V. 	c #01031A",
"W. 	c #03051E",
"X. 	c #151634",
"Y. 	c #191A38",
"Z. 	c #050625",
"`. 	c #04061B",
" + 	c #07091E",
".+ 	c #090B20",
"++ 	c #03051A",
"@+ 	c #000217",
"#+ 	c #090B24",
"$+ 	c #060524",
"%+ 	c #070625",
"&+ 	c #030826",
"*+ 	c #020926",
"=+ 	c #020925",
"-+ 	c #040B25",
";+ 	c #040823",
">+ 	c #111133",
",+ 	c #050527",
"'+ 	c #080A1F",
")+ 	c #0B0D22",
"!+ 	c #0A0C25",
"~+ 	c #050423",
"{+ 	c #050926",
"]+ 	c #040825",
"^+ 	c #060A25",
"/+ 	c #020419",
"(+ 	c #0C0E23",
"_+ 	c #14162B",
":+ 	c #090623",
"<+ 	c #0B0825",
"[+ 	c #030422",
"}+ 	c #020321",
"|+ 	c #121429",
"1+ 	c #0B0626",
"2+ 	c #0A0726",
"3+ 	c #0C0727",
"4+ 	c #0B0827",
"5+ 	c #05081B",
"6+ 	c #0A0525",
"7+ 	c #0C0526",
"8+ 	c #0C0928",
"9+ 	c #0C0829",
"0+ 	c #0D0828",
"a+ 	c #0C0628",
"b+ 	c #0D0627",
"c+ 	c #100E35",
"d+ 	c #0B0B2D",
"e+ 	c #090422",
"f+ 	c #0B0728",
"g+ 	c #0C082B",
"h+ 	c #0F0D35",
"i+ 	c #0C0D29",
"j+ 	c #06091C",
"k+ 	c #070421",
"l+ 	c #080B2C",
"m+ 	c #090C2D",
"n+ 	c #090D30",
"o+ 	c #070B2E",
"p+ 	c #080B2E",
"q+ 	c #09092D",
"r+ 	c #0B072A",
"s+ 	c #07052A",
"t+ 	c #0E0F2B",
"u+ 	c #04071A",
"v+ 	c #070729",
"w+ 	c #0E0E30",
"x+ 	c #050924",
"y+ 	c #070B28",
"z+ 	c #070C29",
"A+ 	c #060D2A",
"B+ 	c #050E2D",
"C+ 	c #061033",
"D+ 	c #081235",
"E+ 	c #0E183B",
"F+ 	c #0D173A",
"G+ 	c #091135",
"H+ 	c #03092D",
"I+ 	c #03072A",
"J+ 	c #070C2C",
"K+ 	c #070A2B",
"L+ 	c #020524",
"M+ 	c #0E0B36",
"N+ 	c #0F0C37",
"O+ 	c #0F0F31",
"P+ 	c #101032",
"Q+ 	c #050C26",
"R+ 	c #030C29",
"S+ 	c #030E2C",
"T+ 	c #020F2F",
"U+ 	c #051336",
"V+ 	c #06163A",
"W+ 	c #00082C",
"X+ 	c #000B30",
"Y+ 	c #030F35",
"Z+ 	c #081236",
"`+ 	c #081034",
" @ 	c #080E30",
".@ 	c #070D2F",
"+@ 	c #080D2B",
"@@ 	c #1A1742",
"#@ 	c #14113C",
"$@ 	c #110E39",
"%@ 	c #16133E",
"&@ 	c #16143C",
"*@ 	c #0C0C30",
"=@ 	c #0D0D31",
"-@ 	c #0F0F33",
";@ 	c #0E0E32",
">@ 	c #0A0A2E",
",@ 	c #08082C",
"'@ 	c #121236",
")@ 	c #151539",
"!@ 	c #141438",
"~@ 	c #101034",
"{@ 	c #111135",
"]@ 	c #030D26",
"^@ 	c #020D29",
"/@ 	c #000E2B",
"(@ 	c #011132",
"_@ 	c #04163A",
":@ 	c #081A40",
"<@ 	c #3C4E74",
"[@ 	c #25375D",
"}@ 	c #101F46",
"|@ 	c #07153A",
"1@ 	c #061034",
"2@ 	c #030B2F",
"3@ 	c #050B2D",
"4@ 	c #0B1030",
"5@ 	c #131139",
"6@ 	c #121038",
"7@ 	c #201D48",
"8@ 	c #1D1A45",
"9@ 	c #17143F",
"0@ 	c #18163E",
"a@ 	c #131337",
"b@ 	c #0B0B2F",
"c@ 	c #060A23",
"d@ 	c #050D22",
"e@ 	c #010C28",
"f@ 	c #021233",
"g@ 	c #05173B",
"h@ 	c #091C44",
"i@ 	c #7284AC",
"j@ 	c #42547C",
"k@ 	c #14234C",
"l@ 	c #05133A",
"m@ 	c #071037",
"n@ 	c #030B30",
"o@ 	c #01072B",
"p@ 	c #040929",
"q@ 	c #0D0C2C",
"r@ 	c #0F102F",
"s@ 	c #0A0A26",
"t@ 	c #070C22",
"u@ 	c #060C26",
"v@ 	c #030D28",
"w@ 	c #020D2D",
"x@ 	c #031033",
"y@ 	c #07163D",
"z@ 	c #091B43",
"A@ 	c #394873",
"B@ 	c #1C2B56",
"C@ 	c #081340",
"D@ 	c #0B143F",
"E@ 	c #10153D",
"F@ 	c #090D33",
"G@ 	c #02042A",
"H@ 	c #040428",
"I@ 	c #0F0C39",
"J@ 	c #0D0A37",
"K@ 	c #110E3B",
"L@ 	c #101130",
"M@ 	c #0C0A22",
"N@ 	c #0A0A22",
"O@ 	c #060B28",
"P@ 	c #040E32",
"Q@ 	c #07133B",
"R@ 	c #091642",
"S@ 	c #03103D",
"T@ 	c #040F3D",
"U@ 	c #0B1341",
"V@ 	c #111542",
"W@ 	c #0B0E39",
"X@ 	c #04032D",
"Y@ 	c #06042C",
"Z@ 	c #100D3A",
"`@ 	c #111231",
" # 	c #0C0821",
".# 	c #0D0922",
"+# 	c #0D0A25",
"@# 	c #060A2D",
"## 	c #060B33",
"$# 	c #070E3A",
"%# 	c #08103E",
"&# 	c #070F3E",
"*# 	c #0E1444",
"=# 	c #121645",
"-# 	c #0E113E",
";# 	c #070632",
"># 	c #06002C",
",# 	c #0C052F",
"'# 	c #140E34",
")# 	c #0D0D33",
"!# 	c #121234",
"~# 	c #121332",
"{# 	c #0B0722",
"]# 	c #0D0924",
"^# 	c #0E0B28",
"/# 	c #060A30",
"(# 	c #080B34",
"_# 	c #080D37",
":# 	c #050936",
"<# 	c #080B38",
"[# 	c #070A35",
"}# 	c #080935",
"|# 	c #140F38",
"1# 	c #100932",
"2# 	c #090327",
"3# 	c #14123A",
"4# 	c #1C1944",
"5# 	c #1B1843",
"6# 	c #14113E",
"7# 	c #0A0D30",
"8# 	c #14143A",
"9# 	c #17173D",
"0# 	c #08082E",
"a# 	c #111137",
"b# 	c #19193F",
"c# 	c #121139",
"d# 	c #0C0B33",
"e# 	c #0E0D35",
"f# 	c #13123A",
"g# 	c #0D0A29",
"h# 	c #0D092C",
"i# 	c #0D092A",
"j# 	c #151436",
"k# 	c #050426",
"l# 	c #040227",
"m# 	c #060429",
"n# 	c #09072F",
"o# 	c #100B33",
"p# 	c #100C31",
"q# 	c #100B34",
"r# 	c #100A36",
"s# 	c #0F0A33",
"t# 	c #0F0A32",
"u# 	c #110C35",
"v# 	c #110B37",
"w# 	c #120C38",
"x# 	c #120C3A",
"y# 	c #130D3B",
"z# 	c #0F0C3B",
"A# 	c #120F3E",
"B# 	c #13103F",
"C# 	c #141140",
"D# 	c #171443",
"E# 	c #161342",
"F# 	c #151241",
"G# 	c #100F2F",
"H# 	c #090B31",
"I# 	c #080A30",
"J# 	c #070B30",
"K# 	c #080A31",
"L# 	c #070B31",
"M# 	c #0A0A30",
"N# 	c #06092C",
"O# 	c #06092A",
"P# 	c #060928",
"Q# 	c #121238",
"R# 	c #09092F",
"S# 	c #0F0F35",
"T# 	c #15143C",
"U# 	c #100F37",
"V# 	c #0D0C36",
"W# 	c #0B0B31",
"X# 	c #0C0C32",
"Y# 	c #0E0E34",
"Z# 	c #141335",
"`# 	c #121037",
" $ 	c #110C34",
".$ 	c #120D36",
"+$ 	c #120E31",
"@$ 	c #120E2F",
"#$ 	c #090B32",
"$$ 	c #0A0931",
"%$ 	c #060A2F",
"&$ 	c #070A2D",
"*$ 	c #070A29",
"=$ 	c #101036",
"-$ 	c #0F0E36",
";$ 	c #0D0C34",
">$ 	c #15133B",
",$ 	c #120D35",
"'$ 	c #130E37",
")$ 	c #140E3A",
"!$ 	c #130D3D",
"~$ 	c #07092F",
"{$ 	c #080B2A",
"]$ 	c #0E0D37",
"^$ 	c #09072E",
"/$ 	c #110D32",
"($ 	c #130D39",
"_$ 	c #090C2F",
":$ 	c #090C2B",
"<$ 	c #0F0E38",
"[$ 	c #16163C",
"}$ 	c #110B39",
"|$ 	c #171345",
"1$ 	c #151143",
"2$ 	c #130F41",
"3$ 	c #100C3E",
"4$ 	c #0F0B3D",
"5$ 	c #110D3F",
"6$ 	c #120E40",
"7$ 	c #0E0A2F",
"8$ 	c #0E0A2D",
"9$ 	c #111038",
"0$ 	c #100F39",
"a$ 	c #1E1E44",
"b$ 	c #232349",
"c$ 	c #140E3C",
"d$ 	c #140E3E",
"e$ 	c #130C3F",
"f$ 	c #141042",
"g$ 	c #0F0B3E",
"h$ 	c #100C3F",
"i$ 	c #100C2F",
"j$ 	c #0F0B2E",
"k$ 	c #100A2E",
"l$ 	c #080C29",
"m$ 	c #131339",
"n$ 	c #120C3C",
"o$ 	c #150F3F",
"p$ 	c #150E41",
"q$ 	c #140D40",
"r$ 	c #110D40",
"s$ 	c #130E44",
"t$ 	c #151046",
"u$ 	c #110C44",
"v$ 	c #0B0D34",
"w$ 	c #110B2F",
"x$ 	c #100A2C",
"y$ 	c #110A2C",
"z$ 	c #080D2A",
"A$ 	c #090D2A",
"B$ 	c #1D1B42",
"C$ 	c #150F3D",
"D$ 	c #130C40",
"E$ 	c #0E0A3D",
"F$ 	c #0D083E",
"G$ 	c #110C42",
"H$ 	c #17124A",
"I$ 	c #1B164E",
"J$ 	c #17124C",
"K$ 	c #110C46",
"L$ 	c #0B0D36",
"M$ 	c #0F0B30",
"N$ 	c #090E2C",
"O$ 	c #080F2C",
"P$ 	c #090E2B",
"Q$ 	c #0A0E2B",
"R$ 	c #0F102E",
"S$ 	c #16163A",
"T$ 	c #110B3B",
"U$ 	c #140D41",
"V$ 	c #140D43",
"W$ 	c #120E41",
"X$ 	c #141043",
"Y$ 	c #130F42",
"Z$ 	c #171346",
"`$ 	c #1E1A4D",
" % 	c #120D43",
".% 	c #130E46",
"+% 	c #120D47",
"@% 	c #140F49",
"#% 	c #221D57",
"$% 	c #2C2662",
"%% 	c #211B57",
"&% 	c #0C073F",
"*% 	c #0D0C38",
"=% 	c #0C0D39",
"-% 	c #0B0E37",
";% 	c #0C0E37",
">% 	c #120C30",
",% 	c #130B30",
"'% 	c #0E0729",
")% 	c #191234",
"!% 	c #0E082C",
"~% 	c #0C082D",
"{% 	c #000022",
"]% 	c #0D1335",
"^% 	c #000928",
"/% 	c #060C2C",
"(% 	c #0E1331",
"_% 	c #0E0B2A",
":% 	c #0E0A2B",
"<% 	c #11103A",
"[% 	c #1A1A3E",
"}% 	c #050529",
"|% 	c #181447",
"1% 	c #151144",
"2% 	c #191548",
"3% 	c #0E0941",
"4% 	c #130E48",
"5% 	c #100B45",
"6% 	c #15104A",
"7% 	c #1D1852",
"8% 	c #19134F",
"9% 	c #0D0840",
"0% 	c #0F072C",
"a% 	c #130D31",
"b% 	c #0B052B",
"c% 	c #140F37",
"d% 	c #070932",
"e% 	c #171844",
"f% 	c #090E38",
"g% 	c #0C1439",
"h% 	c #030D30",
"i% 	c #071031",
"j% 	c #0C1232",
"k% 	c #060B29",
"l% 	c #0C0926",
"m% 	c #0F0A28",
"n% 	c #0F092B",
"o% 	c #15153B",
"p% 	c #08062D",
"q% 	c #150E42",
"r% 	c #150E44",
"s% 	c #150D46",
"t% 	c #140F45",
"u% 	c #171248",
"v% 	c #1C174D",
"w% 	c #1D184E",
"x% 	c #19144A",
"y% 	c #0E093F",
"z% 	c #151048",
"A% 	c #0B063E",
"B% 	c #100B43",
"C% 	c #100B41",
"D% 	c #0C0D3B",
"E% 	c #191337",
"F% 	c #191339",
"G% 	c #14133D",
"H% 	c #0C0F3A",
"I% 	c #000431",
"J% 	c #080E3E",
"K% 	c #08143E",
"L% 	c #041038",
"M% 	c #0A1239",
"N% 	c #0A1034",
"O% 	c #13102F",
"P% 	c #0E0929",
"Q% 	c #100928",
"R% 	c #16153D",
"S% 	c #19173E",
"T% 	c #17153C",
"U% 	c #161040",
"V% 	c #160F42",
"W% 	c #160F43",
"X% 	c #160F45",
"Y% 	c #160E47",
"Z% 	c #181349",
"`% 	c #161147",
" & 	c #0F0A40",
".& 	c #0B063C",
"+& 	c #0E0D39",
"@& 	c #120C32",
"#& 	c #090329",
"$& 	c #0D0830",
"%& 	c #080731",
"&& 	c #0B0E3B",
"*& 	c #091344",
"=& 	c #0A164A",
"-& 	c #0D1A4E",
";& 	c #051141",
">& 	c #04113E",
",& 	c #0A0F37",
"'& 	c #03072D",
")& 	c #141031",
"!& 	c #10092A",
"~& 	c #0B0A32",
"{& 	c #14133B",
"]& 	c #06042B",
"^& 	c #131138",
"/& 	c #19173F",
"(& 	c #17153D",
"_& 	c #160E49",
":& 	c #0E0C3B",
"<& 	c #0C072F",
"[& 	c #12113B",
"}& 	c #0D103D",
"|& 	c #030939",
"1& 	c #091547",
"2& 	c #0A174C",
"3& 	c #001048",
"4& 	c #06174F",
"5& 	c #06164A",
"6& 	c #041145",
"7& 	c #081243",
"8& 	c #09103E",
"9& 	c #060932",
"0& 	c #141033",
"a& 	c #1A183F",
"b& 	c #171044",
"c& 	c #171046",
"d& 	c #170F48",
"e& 	c #170F4A",
"f& 	c #140F47",
"g& 	c #0F0D3C",
"h& 	c #131746",
"i& 	c #000A3D",
"j& 	c #071449",
"k& 	c #051852",
"l& 	c #00134E",
"m& 	c #1C306B",
"n& 	c #162661",
"o& 	c #09164D",
"p& 	c #061045",
"q& 	c #0B1143",
"r& 	c #0A0D3A",
"s& 	c #120E33",
"t& 	c #0E062B",
"u& 	c #12082B",
"v& 	c #12082A",
"w& 	c #090830",
"x& 	c #181145",
"y& 	c #191246",
"z& 	c #181147",
"A& 	c #181049",
"B& 	c #18104B",
"C& 	c #050634",
"D& 	c #060C3C",
"E& 	c #000C40",
"F& 	c #0A1B53",
"G& 	c #0C205B",
"H& 	c #1C3472",
"I& 	c #6981BF",
"J& 	c #30407E",
"K& 	c #131F5B",
"L& 	c #051048",
"M& 	c #0B1248",
"N& 	c #0C0E3F",
"O& 	c #0B0A36",
"P& 	c #110A33",
"Q& 	c #11092E",
"R& 	c #191248",
"S& 	c #1A1349",
"T& 	c #1B144A",
"U& 	c #161244",
"V& 	c #262350",
"W& 	c #121343",
"X& 	c #101346",
"Y& 	c #0C134A",
"Z& 	c #0C1852",
"`& 	c #01114D",
" * 	c #1F3171",
".* 	c #8F9EDF",
"+* 	c #475290",
"@* 	c #1E2664",
"#* 	c #080E48",
"$* 	c #0E1148",
"%* 	c #0D0D3F",
"&* 	c #090736",
"** 	c #130D33",
"=* 	c #10082D",
"-* 	c #10092B",
";* 	c #11103C",
">* 	c #12113D",
",* 	c #100F3B",
"'* 	c #13123E",
")* 	c #0C0A3C",
"!* 	c #0A0A3C",
"~* 	c #0C0B37",
"{* 	c #150D3E",
"]* 	c #160E41",
"^* 	c #160D42",
"/* 	c #130C42",
"(* 	c #120940",
"_* 	c #110A40",
":* 	c #140B44",
"<* 	c #140C45",
"[* 	c #130A43",
"}* 	c #160D46",
"|* 	c #170E47",
"1* 	c #180F48",
"2* 	c #180E4A",
"3* 	c #191049",
"4* 	c #191047",
"5* 	c #1A114A",
"6* 	c #1B124B",
"7* 	c #19114A",
"8* 	c #1B134C",
"9* 	c #171043",
"0* 	c #0F0E3A",
"a* 	c #0F0D3F",
"b* 	c #120F46",
"c* 	c #181751",
"d* 	c #1A1A58",
"e* 	c #171858",
"f* 	c #191A5B",
"g* 	c #1E1F60",
"h* 	c #1B1B59",
"i* 	c #191852",
"j* 	c #14134C",
"k* 	c #110E45",
"l* 	c #0E0C3E",
"m* 	c #0E0931",
"n* 	c #151537",
"o* 	c #0C093E",
"p* 	c #0A0A40",
"q* 	c #0B0C3A",
"r* 	c #120B3E",
"s* 	c #140C3B",
"t* 	c #150D40",
"u* 	c #160D44",
"v* 	c #150C43",
"w* 	c #160C48",
"x* 	c #150B47",
"y* 	c #130945",
"z* 	c #140A46",
"A* 	c #170D49",
"B* 	c #190F4B",
"C* 	c #1C134C",
"D* 	c #1A124B",
"E* 	c #19114C",
"F* 	c #120D45",
"G* 	c #19144E",
"H* 	c #1B1553",
"I* 	c #1A1454",
"J* 	c #1B1457",
"K* 	c #1F1959",
"L* 	c #1C1652",
"M* 	c #19144C",
"N* 	c #161149",
"O* 	c #13123C",
"P* 	c #14133F",
"Q* 	c #151440",
"R* 	c #151342",
"S* 	c #0B0B3F",
"T* 	c #130B3A",
"U* 	c #130B3C",
"V* 	c #140C3D",
"W* 	c #140C3F",
"X* 	c #150C41",
"Y* 	c #150C45",
"Z* 	c #160C49",
"`* 	c #140A47",
" = 	c #190F4C",
".= 	c #170D4A",
"+= 	c #150B48",
"@= 	c #180E4B",
"#= 	c #1A104C",
"$= 	c #1B114D",
"%= 	c #1C124E",
"&= 	c #1B134E",
"*= 	c #1C144F",
"== 	c #1A124D",
"-= 	c #120B3F",
";= 	c #16104C",
">= 	c #16104E",
",= 	c #191351",
"'= 	c #16114B",
")= 	c #060628",
"!= 	c #171642",
"~= 	c #0D0B3D",
"{= 	c #0B0B3D",
"]= 	c #0B0C38",
"^= 	c #0C0E35",
"/= 	c #1A104D",
"(= 	c #1D1550",
"_= 	c #181144",
":= 	c #12103F",
"<= 	c #161443",
"[= 	c #141241",
"}= 	c #131140",
"|= 	c #0D0B3C",
"1= 	c #0B0C3C",
"2= 	c #0C0E34",
"3= 	c #130B3E",
"4= 	c #140B40",
"5= 	c #1C124F",
"6= 	c #150B4A",
"7= 	c #170D4C",
"8= 	c #1A104F",
"9= 	c #1E1453",
"0= 	c #201655",
"a= 	c #190F4E",
"b= 	c #1B114E",
"c= 	c #1A124E",
"d= 	c #1B134F",
"e= 	c #1C1450",
"f= 	c #1D1551",
"g= 	c #19114D",
"h= 	c #18104C",
"i= 	c #181743",
"j= 	c #1A1945",
"k= 	c #120B41",
"l= 	c #180E4D",
"m= 	c #221857",
"n= 	c #241A59",
"o= 	c #1C1251",
"p= 	c #1B1150",
"q= 	c #1D1350",
"r= 	c #1D1352",
"s= 	c #0D093B",
"t= 	c #1E1D49",
"u= 	c #22204F",
"v= 	c #191746",
"w= 	c #121041",
"x= 	c #141243",
"y= 	c #151344",
"z= 	c #110F3E",
"A= 	c #191842",
"B= 	c #0D0F35",
"C= 	c #120A43",
"D= 	c #130B44",
"E= 	c #170E45",
"F= 	c #190E50",
"G= 	c #1A0F51",
"H= 	c #1C1153",
"I= 	c #1E1355",
"J= 	c #201557",
"K= 	c #1D1254",
"L= 	c #1B1052",
"M= 	c #211756",
"N= 	c #251A5C",
"O= 	c #271D5C",
"P= 	c #1E1554",
"Q= 	c #1D1453",
"R= 	c #1C1352",
"S= 	c #1A1150",
"T= 	c #180F4E",
"U= 	c #19104F",
"V= 	c #1B1251",
"W= 	c #0E0D2D",
"X= 	c #22214D",
"Y= 	c #282655",
"Z= 	c #1D1B4A",
"`= 	c #131142",
" - 	c #161445",
".- 	c #15143E",
"+- 	c #24234D",
"@- 	c #1A1943",
"#- 	c #0B0A34",
"$- 	c #0F0A42",
"%- 	c #120A45",
"&- 	c #130B46",
"*- 	c #160E3F",
"=- 	c #170E43",
"-- 	c #180F46",
";- 	c #160C4B",
">- 	c #180D4F",
",- 	c #170C4E",
"'- 	c #1F1456",
")- 	c #2B2062",
"!- 	c #2F2466",
"~- 	c #211859",
"{- 	c #201756",
"]- 	c #1F1655",
"^- 	c #141239",
"/- 	c #151635",
"(- 	c #100E3D",
"_- 	c #161541",
":- 	c #0D0F36",
"<- 	c #0B093A",
"[- 	c #0B0640",
"}- 	c #130D49",
"|- 	c #120948",
"1- 	c #0F0743",
"2- 	c #1A1442",
"3- 	c #160B4D",
"4- 	c #1D1256",
"5- 	c #1E1357",
"6- 	c #1A0F53",
"7- 	c #1B1054",
"8- 	c #1C1155",
"9- 	c #1F1458",
"0- 	c #201559",
"a- 	c #24195D",
"b- 	c #22175B",
"c- 	c #21165A",
"d- 	c #1B1253",
"e- 	c #1A1152",
"f- 	c #1F1750",
"g- 	c #201853",
"h- 	c #1E194F",
"i- 	c #1F1B4E",
"j- 	c #0F0E2E",
"k- 	c #181645",
"l- 	c #171544",
"m- 	c #0E0C3D",
"n- 	c #0E0B42",
"o- 	c #0D0745",
"p- 	c #161050",
"q- 	c #160D50",
"r- 	c #12094A",
"s- 	c #211754",
"t- 	c #1F1554",
"u- 	c #23185C",
"v- 	c #190E52",
"w- 	c #170C51",
"x- 	c #180D51",
"y- 	c #190E53",
"z- 	c #1E1358",
"A- 	c #1C1156",
"B- 	c #1D1257",
"C- 	c #1F1459",
"D- 	c #1B1255",
"E- 	c #1F1752",
"F- 	c #231B56",
"G- 	c #241C57",
"H- 	c #161446",
"I- 	c #100E3F",
"J- 	c #110F40",
"K- 	c #181647",
"L- 	c #151345",
"M- 	c #0A0C33",
"N- 	c #13153C",
"O- 	c #171640",
"P- 	c #0E0B40",
"Q- 	c #110D48",
"R- 	c #090245",
"S- 	c #140D53",
"T- 	c #140A53",
"U- 	c #0E0449",
"V- 	c #140B4A",
"W- 	c #171141",
"X- 	c #20155A",
"Y- 	c #1B1055",
"Z- 	c #1A0F54",
"`- 	c #180D52",
" ; 	c #1E125A",
".; 	c #32276C",
"+; 	c #392D75",
"@; 	c #2C2166",
"#; 	c #1F135B",
"$; 	c #1A1154",
"%; 	c #1E1652",
"&; 	c #201854",
"*; 	c #161340",
"=; 	c #1C1A4B",
"-; 	c #1D1B4C",
";; 	c #0F0D3E",
">; 	c #171546",
",; 	c #141244",
"'; 	c #11133A",
"); 	c #22244D",
"!; 	c #272652",
"~; 	c #191749",
"{; 	c #100D46",
"]; 	c #120D4F",
"^; 	c #211962",
"/; 	c #271F6A",
"(; 	c #1F1462",
"_; 	c #10064F",
":; 	c #11084B",
"<; 	c #140C47",
"[; 	c #160B4F",
"}; 	c #1C1058",
"|; 	c #180C54",
"1; 	c #281C64",
"2; 	c #473B83",
"3; 	c #4F438B",
"4; 	c #382C74",
"5; 	c #170B53",
"6; 	c #1C1257",
"7; 	c #1C1356",
"8; 	c #1B1156",
"9; 	c #170F4B",
"0; 	c #150D49",
"a; 	c #160E4A",
"b; 	c #140C48",
"c; 	c #150D48",
"d; 	c #131335",
"e; 	c #110F41",
"f; 	c #171547",
"g; 	c #252355",
"h; 	c #262456",
"i; 	c #1A184A",
"j; 	c #131143",
"k; 	c #050730",
"l; 	c #0E1039",
"m; 	c #20214D",
"n; 	c #262453",
"o; 	c #19164B",
"p; 	c #110D4A",
"q; 	c #130D53",
"r; 	c #49418E",
"s; 	c #4B4293",
"t; 	c #362A7C",
"u; 	c #190E5C",
"v; 	c #11074C",
"w; 	c #120A46",
"x; 	c #110A3E",
"y; 	c #1B0F57",
"z; 	c #1D1159",
"A; 	c #20145C",
"B; 	c #231761",
"C; 	c #190D57",
"D; 	c #1F135D",
"E; 	c #322670",
"F; 	c #362A74",
"G; 	c #261A64",
"H; 	c #251963",
"I; 	c #1E125C",
"J; 	c #1D115B",
"K; 	c #1E1459",
"L; 	c #150C4B",
"M; 	c #160D4C",
"N; 	c #170E4D",
"O; 	c #222052",
"P; 	c #232153",
"Q; 	c #0F103C",
"R; 	c #0F0A4C",
"S; 	c #140E56",
"T; 	c #473E8F",
"U; 	c #4A4096",
"V; 	c #35297F",
"W; 	c #170C5B",
"X; 	c #130A49",
"Y; 	c #22165E",
"Z; 	c #23175F",
"`; 	c #221660",
" > 	c #1A0E58",
".> 	c #21155F",
"+> 	c #1C105A",
"@> 	c #281C66",
"#> 	c #20165D",
"$> 	c #20165B",
"%> 	c #1D1358",
"&> 	c #1C1354",
"*> 	c #211857",
"=> 	c #24214E",
"-> 	c #161348",
";> 	c #151247",
">> 	c #141146",
",> 	c #171449",
"'> 	c #18154A",
")> 	c #131045",
"!> 	c #181648",
"~> 	c #0F113A",
"{> 	c #0A0B37",
"]> 	c #080937",
"^> 	c #0B093B",
"/> 	c #0D0944",
"(> 	c #0F0A4D",
"_> 	c #100956",
":> 	c #1F156B",
"<> 	c #2B2178",
"[> 	c #22156D",
"}> 	c #0F0355",
"|> 	c #100551",
"1> 	c #180F50",
"2> 	c #190D55",
"3> 	c #20145E",
"4> 	c #241862",
"5> 	c #1E125E",
"6> 	c #1D115D",
"7> 	c #1F135F",
"8> 	c #241864",
"9> 	c #231763",
"0> 	c #201460",
"a> 	c #211561",
"b> 	c #221662",
"c> 	c #22185F",
"d> 	c #22185D",
"e> 	c #1C1259",
"f> 	c #1D1457",
"g> 	c #1D1455",
"h> 	c #241B5A",
"i> 	c #221958",
"j> 	c #161245",
"k> 	c #1E1B48",
"l> 	c #1B184D",
"m> 	c #171749",
"n> 	c #1D1B4D",
"o> 	c #1C1A4C",
"p> 	c #1B194B",
"q> 	c #1A174C",
"r> 	c #151646",
"s> 	c #141647",
"t> 	c #121445",
"u> 	c #101243",
"v> 	c #101141",
"w> 	c #0E0F3F",
"x> 	c #171441",
"y> 	c #100E40",
"z> 	c #120C4C",
"A> 	c #0D064C",
"B> 	c #08004D",
"C> 	c #1C1160",
"D> 	c #1B105F",
"E> 	c #0F0452",
"F> 	c #150951",
"G> 	c #241766",
"H> 	c #221564",
"I> 	c #1F1261",
"J> 	c #221766",
"K> 	c #231769",
"L> 	c #24186A",
"M> 	c #24186C",
"N> 	c #25196B",
"O> 	c #231866",
"P> 	c #231864",
"Q> 	c #231962",
"R> 	c #1D135A",
"S> 	c #181446",
"T> 	c #131444",
"U> 	c #141545",
"V> 	c #161648",
"W> 	c #111344",
"X> 	c #101042",
"Y> 	c #121244",
"Z> 	c #18184C",
"`> 	c #19194D",
" , 	c #1C194E",
"., 	c #322F64",
"+, 	c #383369",
"@, 	c #221D53",
"#, 	c #1E1951",
"$, 	c #18134B",
"%, 	c #1A174E",
"&, 	c #141148",
"*, 	c #16134C",
"=, 	c #1D1A53",
"-, 	c #17144D",
";, 	c #17144B",
">, 	c #151547",
",, 	c #0F1142",
"', 	c #121548",
"), 	c #13194D",
"!, 	c #192056",
"~, 	c #0F184F",
"{, 	c #09144A",
"], 	c #141F57",
"^, 	c #0D1850",
"/, 	c #0A154B",
"(, 	c #091348",
"_, 	c #0B1145",
":, 	c #0E1041",
"<, 	c #17123B",
"[, 	c #16113A",
"}, 	c #16103E",
"|, 	c #181542",
"1, 	c #130E36",
"2, 	c #151039",
"3, 	c #0F0935",
"4, 	c #16103C",
"5, 	c #100935",
"6, 	c #0A0430",
"7, 	c #1A133F",
"8, 	c #2F2955",
"9, 	c #524F7A",
"0, 	c #34315C",
"a, 	c #1A0E4C",
"b, 	c #1A0F4B",
"c, 	c #1B104C",
"d, 	c #180C4A",
"e, 	c #180C4C",
"f, 	c #190D4D",
"g, 	c #1A0E50",
"h, 	c #1B0E53",
"i, 	c #1C0F54",
"j, 	c #1C0F55",
"k, 	c #1F125A",
"l, 	c #1A0D55",
"m, 	c #1B0D58",
"n, 	c #261863",
"o, 	c #251764",
"p, 	c #1E105D",
"q, 	c #1F115E",
"r, 	c #1E105B",
"s, 	c #1F115C",
"t, 	c #20125D",
"u, 	c #1D1163",
"v, 	c #291D71",
"w, 	c #1C1062",
"x, 	c #1D1260",
"y, 	c #251860",
"z, 	c #281B63",
"A, 	c #271B65",
"B, 	c #1B0F5B",
"C, 	c #211567",
"D, 	c #1E146A",
"E, 	c #221974",
"F, 	c #2B2181",
"G, 	c #20187B",
"H, 	c #261C7D",
"I, 	c #241B76",
"J, 	c #271D76",
"K, 	c #2A2077",
"L, 	c #1F126A",
"M, 	c #1D1167",
"N, 	c #2A1C71",
"O, 	c #271A6C",
"P, 	c #241767",
"Q, 	c #221463",
"R, 	c #1C1558",
"S, 	c #161747",
"T, 	c #0E0E42",
"U, 	c #141649",
"V, 	c #1C1E51",
"W, 	c #16164A",
"X, 	c #111145",
"Y, 	c #131347",
"Z, 	c #201D52",
"`, 	c #241F57",
" ' 	c #1B1650",
".' 	c #15124B",
"+' 	c #14114A",
"@' 	c #15114C",
"#' 	c #16124D",
"$' 	c #17134E",
"%' 	c #1D2053",
"&' 	c #161C50",
"*' 	c #11184E",
"=' 	c #0F1A50",
"-' 	c #1A275E",
";' 	c #202F68",
">' 	c #14235E",
",' 	c #081853",
"'' 	c #091851",
")' 	c #0E1144",
"!' 	c #18113A",
"~' 	c #171039",
"{' 	c #0E0834",
"]' 	c #17113D",
"^' 	c #181240",
"/' 	c #0F0937",
"(' 	c #160E3D",
"_' 	c #110938",
":' 	c #0D0534",
"<' 	c #18103F",
"[' 	c #292351",
"}' 	c #403A66",
"|' 	c #282550",
"1' 	c #100A38",
"2' 	c #170C44",
"3' 	c #180D45",
"4' 	c #190E48",
"5' 	c #1A0F49",
"6' 	c #1C0E4B",
"7' 	c #1D0F4D",
"8' 	c #190D4F",
"9' 	c #22155D",
"0' 	c #190B56",
"a' 	c #190B58",
"b' 	c #170956",
"c' 	c #180A59",
"d' 	c #241663",
"e' 	c #211569",
"f' 	c #21176D",
"g' 	c #190D5F",
"h' 	c #261A66",
"i' 	c #180B53",
"j' 	c #1C0F5E",
"k' 	c #2B1F73",
"l' 	c #261B77",
"m' 	c #1E1475",
"n' 	c #211980",
"o' 	c #1E1683",
"p' 	c #241D87",
"q' 	c #21197E",
"r' 	c #271D7E",
"s' 	c #2E2484",
"t' 	c #2C217F",
"u' 	c #2A1D79",
"v' 	c #271873",
"w' 	c #22146C",
"x' 	c #28196E",
"y' 	c #231465",
"z' 	c #231564",
"A' 	c #1E1558",
"B' 	c #1D1659",
"C' 	c #22175C",
"D' 	c #261B60",
"E' 	c #281D62",
"F' 	c #131345",
"G' 	c #141446",
"H' 	c #18184A",
"I' 	c #151549",
"J' 	c #121248",
"K' 	c #17184E",
"L' 	c #1C1D53",
"M' 	c #1B1C52",
"N' 	c #18184E",
"O' 	c #15154B",
"P' 	c #17174D",
"Q' 	c #19194F",
"R' 	c #18154C",
"S' 	c #1D1850",
"T' 	c #100D42",
"U' 	c #1F1C55",
"V' 	c #1D1954",
"W' 	c #130F4A",
"X' 	c #06083B",
"Y' 	c #12184C",
"Z' 	c #242B61",
"`' 	c #141F55",
" ) 	c #233067",
".) 	c #2E3D76",
"+) 	c #13225D",
"@) 	c #192863",
"#) 	c #0E1A54",
"$) 	c #0C174F",
"%) 	c #0D144A",
"&) 	c #18123E",
"*) 	c #18113B",
"=) 	c #17103A",
"-) 	c #15123F",
";) 	c #17113F",
">) 	c #100837",
",) 	c #1F1947",
"') 	c #251F4D",
")) 	c #191643",
"!) 	c #170C46",
"~) 	c #180D47",
"{) 	c #180D49",
"]) 	c #190E4A",
"^) 	c #1C0E4C",
"/) 	c #1A0D52",
"() 	c #1B0E54",
"_) 	c #1D1058",
":) 	c #1A0C57",
"<) 	c #22145F",
"[) 	c #20125F",
"}) 	c #1D0F5C",
"|) 	c #201261",
"1) 	c #1D0F5E",
"2) 	c #1B0D5C",
"3) 	c #231562",
"4) 	c #21135E",
"5) 	c #1C1366",
"6) 	c #271C6A",
"7) 	c #2C206A",
"8) 	c #473A82",
"9) 	c #3E3179",
"0) 	c #2B1F6B",
"a) 	c #190C5C",
"b) 	c #2A1D75",
"c) 	c #2A1F7D",
"d) 	c #1F147A",
"e) 	c #261D88",
"f) 	c #282090",
"g) 	c #2A2291",
"h) 	c #2E278F",
"i) 	c #332B90",
"j) 	c #30288B",
"k) 	c #302687",
"l) 	c #2C2181",
"m) 	c #211470",
"n) 	c #20116C",
"o) 	c #2D1F76",
"p) 	c #241568",
"q) 	c #241566",
"r) 	c #1E175A",
"s) 	c #1F155A",
"t) 	c #21155D",
"u) 	c #241860",
"v) 	c #271B63",
"w) 	c #19194B",
"x) 	c #16164C",
"y) 	c #1A1952",
"z) 	c #14154E",
"A) 	c #0E0F48",
"B) 	c #0D0E47",
"C) 	c #15144E",
"D) 	c #1D1C55",
"E) 	c #201D54",
"F) 	c #1C174F",
"G) 	c #26235C",
"H) 	c #3B3871",
"I) 	c #34306B",
"J) 	c #1E1A55",
"K) 	c #18144F",
"L) 	c #18154E",
"M) 	c #13194B",
"N) 	c #1C2359",
"O) 	c #1A235A",
"P) 	c #58639B",
"Q) 	c #7884BE",
"R) 	c #2F3B77",
"S) 	c #18245E",
"T) 	c #101C56",
"U) 	c #0E1951",
"V) 	c #0F164C",
"W) 	c #111447",
"X) 	c #150F3B",
"Y) 	c #150D3C",
"Z) 	c #160B45",
"`) 	c #1B0D4A",
" ! 	c #1D1056",
".! 	c #1E1159",
"+! 	c #1D0F5A",
"@! 	c #1C0E5B",
"#! 	c #362877",
"$! 	c #352776",
"%! 	c #251766",
"&! 	c #211360",
"*! 	c #221461",
"=! 	c #1B1263",
"-! 	c #211665",
";! 	c #281D6B",
">! 	c #190D59",
",! 	c #7365B0",
"'! 	c #8072BD",
")! 	c #3C2F7E",
"!! 	c #1D0F64",
"~! 	c #271A74",
"{! 	c #2A1E80",
"]! 	c #251882",
"^! 	c #322696",
"/! 	c #33289E",
"(! 	c #2F2699",
"_! 	c #322C98",
":! 	c #403BA2",
"<! 	c #312A91",
"[! 	c #2A2287",
"}! 	c #2F2588",
"|! 	c #261B7B",
"1! 	c #271978",
"2! 	c #2B1C77",
"3! 	c #23156C",
"4! 	c #1F155E",
"5! 	c #161551",
"6! 	c #171755",
"7! 	c #151551",
"8! 	c #11114D",
"9! 	c #14134F",
"0! 	c #1A1955",
"a! 	c #1A1953",
"b! 	c #15144D",
"c! 	c #1A154D",
"d! 	c #1E1C4E",
"e! 	c #1E1B50",
"f! 	c #38356E",
"g! 	c #504D86",
"h! 	c #44407B",
"i! 	c #26225D",
"j! 	c #15184B",
"k! 	c #1C2158",
"l! 	c #192057",
"m! 	c #556098",
"n! 	c #7481B8",
"o! 	c #2B3771",
"p! 	c #14205A",
"q! 	c #111B56",
"r! 	c #101950",
"s! 	c #10154C",
"t! 	c #121447",
"u! 	c #191341",
"v! 	c #19123E",
"w! 	c #17103C",
"x! 	c #0E0838",
"y! 	c #1C1646",
"z! 	c #241E4E",
"A! 	c #211B4B",
"B! 	c #110A36",
"C! 	c #140D39",
"D! 	c #150E3A",
"E! 	c #130C38",
"F! 	c #170C48",
"G! 	c #190D4B",
"H! 	c #1C0D4E",
"I! 	c #372879",
"J! 	c #362778",
"K! 	c #261768",
"L! 	c #1E0F60",
"M! 	c #211362",
"N! 	c #211463",
"O! 	c #221765",
"P! 	c #271B67",
"Q! 	c #180A55",
"R! 	c #2F216C",
"S! 	c #6D5FAA",
"T! 	c #7A6CB9",
"U! 	c #413283",
"V! 	c #26186F",
"W! 	c #2E207F",
"X! 	c #2D2187",
"Y! 	c #261887",
"Z! 	c #302397",
"`! 	c #382DA7",
" ~ 	c #453CB3",
".~ 	c #6763D2",
"+~ 	c #7A78E3",
"@~ 	c #4E4BB4",
"#~ 	c #302B92",
"$~ 	c #352D94",
"%~ 	c #32288B",
"&~ 	c #2E2383",
"*~ 	c #20136F",
"=~ 	c #221469",
"-~ 	c #211464",
";~ 	c #201362",
">~ 	c #1A0E56",
",~ 	c #1E1651",
"'~ 	c #17164F",
")~ 	c #110F4E",
"!~ 	c #292969",
"~~ 	c #3B3B7B",
"{~ 	c #313171",
"]~ 	c #1E1C5D",
"^~ 	c #151352",
"/~ 	c #171652",
"(~ 	c #312E67",
"_~ 	c #44417A",
":~ 	c #38346F",
"<~ 	c #191550",
"[~ 	c #19164F",
"}~ 	c #19164D",
"|~ 	c #07093C",
"1~ 	c #14174C",
"2~ 	c #23265D",
"3~ 	c #12174E",
"4~ 	c #1D265D",
"5~ 	c #29346C",
"6~ 	c #0E1853",
"7~ 	c #152058",
"8~ 	c #111A53",
"9~ 	c #11184F",
"0~ 	c #11144B",
"a~ 	c #181242",
"b~ 	c #100A3A",
"c~ 	c #1B1545",
"d~ 	c #231D4D",
"e~ 	c #1E1848",
"f~ 	c #1A0E4E",
"g~ 	c #1D0E4F",
"h~ 	c #1D0E51",
"i~ 	c #241665",
"j~ 	c #1F1061",
"k~ 	c #201164",
"l~ 	c #1E0F62",
"m~ 	c #26176A",
"n~ 	c #211263",
"o~ 	c #231665",
"p~ 	c #1D125E",
"q~ 	c #1C105C",
"r~ 	c #251762",
"s~ 	c #3C2E7B",
"t~ 	c #312273",
"u~ 	c #26176C",
"v~ 	c #24136F",
"w~ 	c #312184",
"x~ 	c #2E1F88",
"y~ 	c #281A8C",
"z~ 	c #2F219A",
"A~ 	c #4034B0",
"B~ 	c #6A60DB",
"C~ 	c #E5E2FF",
"D~ 	c #E8E8FF",
"E~ 	c #8987F4",
"F~ 	c #3E3BA6",
"G~ 	c #332C96",
"H~ 	c #2D258C",
"I~ 	c #2E2487",
"J~ 	c #1D1272",
"K~ 	c #22146B",
"L~ 	c #211368",
"M~ 	c #201363",
"N~ 	c #141448",
"O~ 	c #1D1D51",
"P~ 	c #1C1C50",
"Q~ 	c #17174B",
"R~ 	c #171650",
"S~ 	c #121051",
"T~ 	c #353478",
"U~ 	c #4F4E92",
"V~ 	c #424183",
"W~ 	c #252265",
"X~ 	c #161455",
"Y~ 	c #181655",
"Z~ 	c #1F1E5A",
"`~ 	c #1B1851",
" { 	c #1E1953",
".{ 	c #1E1B54",
"+{ 	c #27245D",
"@{ 	c #221E59",
"#{ 	c #202255",
"${ 	c #191C51",
"%{ 	c #12154C",
"&{ 	c #0F144B",
"*{ 	c #1B2058",
"={ 	c #232A61",
"-{ 	c #1A205A",
";{ 	c #101650",
">{ 	c #111751",
",{ 	c #10154D",
"'{ 	c #10134A",
"){ 	c #121246",
"!{ 	c #1A1241",
"~{ 	c #10093C",
"{{ 	c #170F3E",
"]{ 	c #1B0F4F",
"^{ 	c #1C1052",
"/{ 	c #1E0F52",
"({ 	c #1E0E55",
"_{ 	c #1E0E57",
":{ 	c #1F0F58",
"<{ 	c #1F0F5A",
"[{ 	c #20105B",
"}{ 	c #21105E",
"|{ 	c #22115F",
"1{ 	c #221161",
"2{ 	c #1F0E5E",
"3{ 	c #281668",
"4{ 	c #251365",
"5{ 	c #1E0C60",
"6{ 	c #1F0D61",
"7{ 	c #1C0A60",
"8{ 	c #1E0C62",
"9{ 	c #2A186C",
"0{ 	c #241264",
"a{ 	c #261466",
"b{ 	c #291B66",
"c{ 	c #231262",
"d{ 	c #130155",
"e{ 	c #190961",
"f{ 	c #22116F",
"g{ 	c #28177D",
"h{ 	c #251580",
"i{ 	c #302196",
"j{ 	c #3325A0",
"k{ 	c #3B2FAD",
"l{ 	c #6F66E3",
"m{ 	c #F2F1FF",
"n{ 	c #F1F3FF",
"o{ 	c #8888F8",
"p{ 	c #3E3CA9",
"q{ 	c #312B97",
"r{ 	c #231C84",
"s{ 	c #2C2187",
"t{ 	c #24187A",
"u{ 	c #221473",
"v{ 	c #23156D",
"w{ 	c #23136B",
"x{ 	c #221366",
"y{ 	c #1F1F53",
"z{ 	c #1E1E52",
"A{ 	c #141154",
"B{ 	c #313076",
"C{ 	c #444387",
"D{ 	c #37367A",
"E{ 	c #201D60",
"F{ 	c #171556",
"G{ 	c #1A1653",
"H{ 	c #1F1A50",
"I{ 	c #1C1853",
"J{ 	c #1B1752",
"K{ 	c #131349",
"L{ 	c #15164C",
"M{ 	c #16174F",
"N{ 	c #1D2057",
"O{ 	c #161851",
"P{ 	c #12174F",
"Q{ 	c #212660",
"R{ 	c #1C2159",
"S{ 	c #101147",
"T{ 	c #191343",
"U{ 	c #0F0939",
"V{ 	c #170F40",
"W{ 	c #120845",
"X{ 	c #1B0F51",
"Y{ 	c #1F1055",
"Z{ 	c #1E0E59",
"`{ 	c #200F5D",
" ] 	c #211060",
".] 	c #221062",
"+] 	c #251367",
"@] 	c #200E62",
"#] 	c #210F65",
"$] 	c #2C1A70",
"%] 	c #2B196F",
"&] 	c #24116A",
"*] 	c #251369",
"=] 	c #241266",
"-] 	c #261468",
";] 	c #1E1160",
">] 	c #2B206C",
",] 	c #2A1C69",
"'] 	c #2A186A",
")] 	c #2C1A6E",
"!] 	c #2E1B75",
"~] 	c #2D1C7C",
"{] 	c #211076",
"]] 	c #1C0C79",
"^] 	c #3A299C",
"/] 	c #3626A0",
"(] 	c #281996",
"_] 	c #5149C3",
":] 	c #7978EF",
"<] 	c #9295FF",
"[] 	c #4F4FBF",
"}] 	c #32309E",
"|] 	c #3A36A4",
"1] 	c #27208A",
"2] 	c #2C2189",
"3] 	c #281C80",
"4] 	c #241675",
"5] 	c #241570",
"6] 	c #24146C",
"7] 	c #231467",
"8] 	c #241661",
"9] 	c #151249",
"0] 	c #1C1950",
"a] 	c #221F56",
"b] 	c #191659",
"c] 	c #18175D",
"d] 	c #18175B",
"e] 	c #191758",
"f] 	c #191854",
"g] 	c #1B1754",
"h] 	c #1C1751",
"i] 	c #1A1750",
"j] 	c #1A1651",
"k] 	c #16174D",
"l] 	c #1B1C54",
"m] 	c #24275E",
"n] 	c #2A2C65",
"o] 	c #292B64",
"p] 	c #12144D",
"q] 	c #13144C",
"r] 	c #14154B",
"s] 	c #1A1347",
"t] 	c #1B1447",
"u] 	c #181043",
"v] 	c #191142",
"w] 	c #1A1245",
"x] 	c #1A1346",
"y] 	c #1D0D54",
"z] 	c #210F5B",
"A] 	c #210E5D",
"B] 	c #220F5E",
"C] 	c #231061",
"D] 	c #220F61",
"E] 	c #220E63",
"F] 	c #271368",
"G] 	c #251168",
"H] 	c #230F66",
"I] 	c #230F68",
"J] 	c #27136C",
"K] 	c #2A166F",
"L] 	c #28136E",
"M] 	c #241069",
"N] 	c #2A166D",
"O] 	c #281469",
"P] 	c #210D62",
"Q] 	c #200C63",
"R] 	c #27136A",
"S] 	c #2C186D",
"T] 	c #2A166B",
"U] 	c #261269",
"V] 	c #261267",
"W] 	c #28166A",
"X] 	c #271666",
"Y] 	c #281567",
"Z] 	c #27156B",
"`] 	c #271470",
" ^ 	c #251474",
".^ 	c #241379",
"+^ 	c #261681",
"@^ 	c #2C1B8D",
"#^ 	c #32239A",
"$^ 	c #382AA5",
"%^ 	c #3A30AA",
"&^ 	c #2F2EA3",
"*^ 	c #383BAC",
"=^ 	c #4040B0",
"-^ 	c #3634A1",
";^ 	c #29238F",
">^ 	c #211A82",
",^ 	c #241981",
"'^ 	c #271B7F",
")^ 	c #231576",
"!^ 	c #231471",
"~^ 	c #24146D",
"{^ 	c #25166B",
"]^ 	c #29176B",
"^^ 	c #291868",
"/^ 	c #2D216B",
"(^ 	c #1F1659",
"_^ 	c #080729",
":^ 	c #070628",
"<^ 	c #131047",
"[^ 	c #1B184F",
"}^ 	c #181759",
"|^ 	c #191756",
"1^ 	c #14144A",
"2^ 	c #16154E",
"3^ 	c #1A1B53",
"4^ 	c #1C1B54",
"5^ 	c #181951",
"6^ 	c #121042",
"7^ 	c #180F44",
"8^ 	c #191045",
"9^ 	c #1A1146",
"0^ 	c #210E5F",
"a^ 	c #220F60",
"b^ 	c #231062",
"c^ 	c #230F64",
"d^ 	c #25116A",
"e^ 	c #26116C",
"f^ 	c #25106B",
"g^ 	c #230E6B",
"h^ 	c #210C67",
"i^ 	c #220E67",
"j^ 	c #241067",
"k^ 	c #26126B",
"l^ 	c #29156C",
"m^ 	c #28146D",
"n^ 	c #28146B",
"o^ 	c #241268",
"p^ 	c #251667",
"q^ 	c #271567",
"r^ 	c #27146E",
"s^ 	c #271374",
"t^ 	c #26147A",
"u^ 	c #271680",
"v^ 	c #2A1A87",
"w^ 	c #2E2091",
"x^ 	c #322599",
"y^ 	c #32299E",
"z^ 	c #322FA0",
"A^ 	c #383AA7",
"B^ 	c #3D3EAA",
"C^ 	c #37349F",
"D^ 	c #2D2690",
"E^ 	c #271F86",
"F^ 	c #291D83",
"G^ 	c #2B1D7F",
"H^ 	c #241574",
"I^ 	c #241371",
"J^ 	c #23136C",
"K^ 	c #24156A",
"L^ 	c #322672",
"M^ 	c #160A54",
"N^ 	c #1B0F59",
"O^ 	c #1F155C",
"P^ 	c #20175A",
"Q^ 	c #1E1556",
"R^ 	c #07072B",
"S^ 	c #24215A",
"T^ 	c #1C1952",
"U^ 	c #1C1B55",
"V^ 	c #181858",
"W^ 	c #16134A",
"X^ 	c #0E0E44",
"Y^ 	c #1C0F57",
"Z^ 	c #241065",
"`^ 	c #26116E",
" / 	c #240F6C",
"./ 	c #291473",
"+/ 	c #2F1A77",
"@/ 	c #240F6A",
"#/ 	c #2B1671",
"$/ 	c #2B1770",
"%/ 	c #27126D",
"&/ 	c #29146F",
"*/ 	c #29156E",
"=/ 	c #231668",
"-/ 	c #281473",
";/ 	c #261477",
">/ 	c #27167C",
",/ 	c #281982",
"'/ 	c #291C86",
")/ 	c #2A1E8A",
"!/ 	c #2A218E",
"~/ 	c #2A2792",
"{/ 	c #2F2D98",
"]/ 	c #322F98",
"^/ 	c #2E2990",
"// 	c #292188",
"(/ 	c #281D83",
"_/ 	c #28197E",
":/ 	c #271779",
"</ 	c #261573",
"[/ 	c #26136F",
"}/ 	c #25126B",
"|/ 	c #26146A",
"1/ 	c #271569",
"2/ 	c #1A0E5A",
"3/ 	c #2A1E6A",
"4/ 	c #21185B",
"5/ 	c #201758",
"6/ 	c #191051",
"7/ 	c #07072D",
"8/ 	c #030329",
"9/ 	c #2D2A63",
"0/ 	c #1D1C56",
"a/ 	c #191957",
"b/ 	c #191955",
"c/ 	c #131049",
"d/ 	c #1C0E59",
"e/ 	c #281370",
"f/ 	c #230E6D",
"g/ 	c #281372",
"h/ 	c #382382",
"i/ 	c #483392",
"j/ 	c #36217E",
"k/ 	c #2E1974",
"l/ 	c #230E69",
"m/ 	c #2A1570",
"n/ 	c #28156F",
"o/ 	c #291574",
"p/ 	c #281978",
"q/ 	c #29197C",
"r/ 	c #291A7F",
"s/ 	c #281C82",
"t/ 	c #251D82",
"u/ 	c #241D84",
"v/ 	c #262187",
"w/ 	c #272087",
"x/ 	c #261C7F",
"y/ 	c #291B7D",
"z/ 	c #231270",
"A/ 	c #291672",
"B/ 	c #291D69",
"C/ 	c #251965",
"D/ 	c #2C206C",
"E/ 	c #2D216D",
"F/ 	c #20165F",
"G/ 	c #1E145B",
"H/ 	c #07062E",
"I/ 	c #1A1A50",
"J/ 	c #2C2962",
"K/ 	c #1E1D56",
"L/ 	c #191A53",
"M/ 	c #1C154B",
"N/ 	c #211A50",
"O/ 	c #1E164F",
"P/ 	c #110B47",
"Q/ 	c #27215D",
"R/ 	c #2F2965",
"S/ 	c #29235F",
"T/ 	c #1B1551",
"U/ 	c #250F64",
"V/ 	c #250E66",
"W/ 	c #260F67",
"X/ 	c #271068",
"Y/ 	c #29126C",
"Z/ 	c #2A136E",
"`/ 	c #28106E",
" ( 	c #291171",
".( 	c #2A1272",
"+( 	c #291173",
"@( 	c #2C1476",
"#( 	c #392183",
"$( 	c #493191",
"%( 	c #402886",
"&( 	c #371F7D",
"*( 	c #2C1472",
"=( 	c #2B1371",
"-( 	c #301876",
";( 	c #321A78",
">( 	c #2E1674",
",( 	c #2A1270",
"'( 	c #291471",
")( 	c #26136D",
"!( 	c #27146D",
"~( 	c #291670",
"{( 	c #281974",
"]( 	c #2A1B76",
"^( 	c #281D7B",
"/( 	c #261D7A",
"(( 	c #261F7E",
"_( 	c #272080",
":( 	c #281E7F",
"<( 	c #271C7C",
"[( 	c #2B1D7E",
"}( 	c #301F7F",
"|( 	c #2E1A79",
"1( 	c #2C1871",
"2( 	c #2F236F",
"3( 	c #221861",
"4( 	c #21175E",
"5( 	c #231960",
"6( 	c #21175C",
"7( 	c #1E1B46",
"8( 	c #1E1C44",
"9( 	c #232059",
"0( 	c #1B1A53",
"a( 	c #1A1B51",
"b( 	c #1B1B51",
"c( 	c #1D1A51",
"d( 	c #1D1A4F",
"e( 	c #1F184E",
"f( 	c #241D53",
"g( 	c #1D154E",
"h( 	c #150F4B",
"i( 	c #100A48",
"j( 	c #211D5A",
"k( 	c #3E3876",
"l( 	c #504A88",
"m( 	c #47417F",
"n( 	c #2C2664",
"o( 	c #170E51",
"p( 	c #261065",
"q( 	c #28116B",
"r( 	c #2C1570",
"s( 	c #270F6D",
"t( 	c #281070",
"u( 	c #2D1575",
"v( 	c #2D1577",
"w( 	c #281072",
"x( 	c #2B1375",
"y( 	c #321A7C",
"z( 	c #301878",
"A( 	c #2D1573",
"B( 	c #29116F",
"C( 	c #260E6C",
"D( 	c #271271",
"E( 	c #271372",
"F( 	c #251472",
"G( 	c #2A136D",
"H( 	c #28166C",
"I( 	c #29176D",
"J( 	c #281A6F",
"K( 	c #291B72",
"L( 	c #291D73",
"M( 	c #281E74",
"N( 	c #281E75",
"O( 	c #291F78",
"P( 	c #2A1F7B",
"Q( 	c #291A77",
"R( 	c #2D1C78",
"S( 	c #321F7B",
"T( 	c #301B76",
"U( 	c #2E1A71",
"V( 	c #29156A",
"W( 	c #281767",
"X( 	c #261867",
"Y( 	c #170B57",
"Z( 	c #3D317D",
"`( 	c #342874",
" _ 	c #261C65",
"._ 	c #251B62",
"+_ 	c #261C63",
"@_ 	c #241A5F",
"#_ 	c #22195C",
"$_ 	c #231A5D",
"%_ 	c #1F1657",
"&_ 	c #161537",
"*_ 	c #191840",
"=_ 	c #0B0D26",
"-_ 	c #1A1C4F",
";_ 	c #1B1B4F",
">_ 	c #1C144D",
",_ 	c #1D164C",
"'_ 	c #1E154C",
")_ 	c #1B1249",
"!_ 	c #20174E",
"~_ 	c #1B164C",
"{_ 	c #1A154B",
"]_ 	c #140E4C",
"^_ 	c #262161",
"/_ 	c #474181",
"(_ 	c #5B5595",
"__ 	c #4F4989",
":_ 	c #2F2969",
"<_ 	c #170E4F",
"[_ 	c #160D4E",
"}_ 	c #171151",
"|_ 	c #180F52",
"1_ 	c #24195E",
"2_ 	c #1E105F",
"3_ 	c #241363",
"4_ 	c #271166",
"5_ 	c #260F69",
"6_ 	c #2B146F",
"7_ 	c #2D1671",
"8_ 	c #3D2583",
"9_ 	c #2E157A",
"0_ 	c #280F74",
"a_ 	c #250C71",
"b_ 	c #270F71",
"c_ 	c #250D6D",
"d_ 	c #260E6E",
"e_ 	c #2B1373",
"f_ 	c #2C1474",
"g_ 	c #311979",
"h_ 	c #261170",
"i_ 	c #281477",
"j_ 	c #281475",
"k_ 	c #2B146E",
"l_ 	c #271A6A",
"m_ 	c #271C6B",
"n_ 	c #251C6B",
"o_ 	c #261D6E",
"p_ 	c #271B71",
"q_ 	c #291B73",
"r_ 	c #281A72",
"s_ 	c #26166F",
"t_ 	c #2A1770",
"u_ 	c #2E1A73",
"v_ 	c #2C186F",
"w_ 	c #291368",
"x_ 	c #331D72",
"y_ 	c #301A6D",
"z_ 	c #2A1769",
"A_ 	c #291668",
"B_ 	c #271968",
"C_ 	c #6559A5",
"D_ 	c #6155A1",
"E_ 	c #392D79",
"F_ 	c #281C68",
"G_ 	c #382C78",
"H_ 	c #251B64",
"I_ 	c #211760",
"J_ 	c #241A61",
"K_ 	c #171638",
"L_ 	c #0C0B35",
"M_ 	c #191851",
"N_ 	c #1E1D57",
"O_ 	c #1A1C4D",
"P_ 	c #1B1B4D",
"Q_ 	c #1E1B52",
"R_ 	c #211952",
"S_ 	c #201B51",
"T_ 	c #191353",
"U_ 	c #292363",
"V_ 	c #433D7D",
"W_ 	c #534D8D",
"X_ 	c #464080",
"Y_ 	c #2A2162",
"Z_ 	c #291D65",
"`_ 	c #1C0E5D",
" : 	c #1F1160",
".: 	c #231163",
"+: 	c #250E68",
"@: 	c #260F6A",
"#: 	c #29126D",
"$: 	c #533B9B",
"%: 	c #3B2385",
"&: 	c #291075",
"*: 	c #2C1378",
"=: 	c #2B1277",
"-: 	c #2F167B",
";: 	c #2D1376",
">: 	c #2E1477",
",: 	c #2B1174",
"': 	c #2A1274",
"): 	c #2E1676",
"!: 	c #341C7C",
"~: 	c #392181",
"{: 	c #362180",
"]: 	c #2E1978",
"^: 	c #291578",
"/: 	c #271578",
"(: 	c #291576",
"_: 	c #2A1572",
":: 	c #251868",
"<: 	c #251A69",
"[: 	c #2A1C73",
"}: 	c #2A1A72",
"|: 	c #27186D",
"1: 	c #2B186A",
"2: 	c #271466",
"3: 	c #321F70",
"4: 	c #2F1C6D",
"5: 	c #2B1869",
"6: 	c #291769",
"7: 	c #28196A",
"8: 	c #281A69",
"9: 	c #6F63AF",
"0: 	c #6053A2",
"a: 	c #2E226E",
"b: 	c #211662",
"c: 	c #1D135C",
"d: 	c #1A1059",
"e: 	c #1C125B",
"f: 	c #211F46",
"g: 	c #0A0933",
"h: 	c #08072F",
"i: 	c #17194C",
"j: 	c #1B1656",
"k: 	c #161453",
"l: 	c #181952",
"m: 	c #1F1C53",
"n: 	c #221A53",
"o: 	c #251D56",
"p: 	c #140850",
"q: 	c #312571",
"r: 	c #2D2463",
"s: 	c #382F6E",
"t: 	c #332A6B",
"u: 	c #150A4F",
"v: 	c #1A0D53",
"w: 	c #1D0D58",
"x: 	c #170954",
"y: 	c #221364",
"z: 	c #27106B",
"A: 	c #28116C",
"B: 	c #270E73",
"C: 	c #280F75",
"D: 	c #2C1379",
"E: 	c #2F167C",
"F: 	c #2B1278",
"G: 	c #270C73",
"H: 	c #260A71",
"I: 	c #2D1177",
"J: 	c #2F1379",
"K: 	c #290F74",
"L: 	c #280C72",
"M: 	c #2B1176",
"N: 	c #31177C",
"O: 	c #33197C",
"P: 	c #2A1476",
"Q: 	c #331D7F",
"R: 	c #3B2685",
"S: 	c #3A2685",
"T: 	c #2F1B7A",
"U: 	c #230F6E",
"V: 	c #2A1675",
"W: 	c #2B1874",
"X: 	c #2C1975",
"Y: 	c #2B1872",
"Z: 	c #29166F",
"`: 	c #27186B",
" < 	c #271869",
".< 	c #281765",
"+< 	c #281863",
"@< 	c #24145F",
"#< 	c #261563",
"$< 	c #291A6B",
"%< 	c #28196C",
"&< 	c #221565",
"*< 	c #261968",
"=< 	c #271A69",
"-< 	c #261A62",
";< 	c #21165B",
">< 	c #110D2E",
",< 	c #080C2F",
"'< 	c #1C1C52",
")< 	c #16154F",
"!< 	c #1A1558",
"~< 	c #151354",
"{< 	c #181B52",
"]< 	c #191A52",
"^< 	c #1D1956",
"/< 	c #1E1450",
"(< 	c #342576",
"_< 	c #332477",
":< 	c #170C50",
"<< 	c #1C0C57",
"[< 	c #1B0B56",
"}< 	c #1B0A58",
"|< 	c #1C0B59",
"1< 	c #1E0D5B",
"2< 	c #1F0E5C",
"3< 	c #1A0C59",
"4< 	c #201162",
"5< 	c #211265",
"6< 	c #2D147A",
"7< 	c #2D147C",
"8< 	c #2D127B",
"9< 	c #31157C",
"0< 	c #2F1078",
"a< 	c #2B0F76",
"b< 	c #2D1178",
"c< 	c #32167D",
"d< 	c #2A1075",
"e< 	c #240A6F",
"f< 	c #291375",
"g< 	c #2D1779",
"h< 	c #301C7B",
"i< 	c #291876",
"j< 	c #281571",
"k< 	c #2A1773",
"l< 	c #2C1973",
"m< 	c #271966",
"n< 	c #261961",
"o< 	c #271A62",
"p< 	c #271964",
"q< 	c #221368",
"r< 	c #25186A",
"s< 	c #393071",
"t< 	c #100748",
"u< 	c #0E0546",
"v< 	c #110E2D",
"w< 	c #110E2B",
"x< 	c #0A0C32",
"y< 	c #090D32",
"z< 	c #171554",
"A< 	c #1C1A59",
"B< 	c #1F1C5F",
"C< 	c #1D1B5C",
"D< 	c #1B1A54",
"E< 	c #1F1B56",
"F< 	c #1E1A57",
"G< 	c #1A154F",
"H< 	c #1E1451",
"I< 	c #2A1C6B",
"J< 	c #1B0E5D",
"K< 	c #150A4E",
"L< 	c #21145A",
"M< 	c #200F5F",
"N< 	c #1C0B5B",
"O< 	c #231165",
"P< 	c #2E157B",
"Q< 	c #2C137B",
"R< 	c #31167F",
"S< 	c #351980",
"T< 	c #34187F",
"U< 	c #30147B",
"V< 	c #2E1479",
"W< 	c #32187D",
"X< 	c #2A186E",
"Y< 	c #291A6F",
"Z< 	c #281A65",
"`< 	c #281A67",
" [ 	c #291A6D",
".[ 	c #291C6E",
"+[ 	c #291C6C",
"@[ 	c #281B6B",
"#[ 	c #261969",
"$[ 	c #281F60",
"%[ 	c #130A4B",
"&[ 	c #342B6C",
"*[ 	c #2F2667",
"=[ 	c #120F2E",
"-[ 	c #0C0F32",
";[ 	c #181A4D",
">[ 	c #1B1958",
",[ 	c #242263",
"'[ 	c #292669",
")[ 	c #2A2867",
"![ 	c #201C57",
"~[ 	c #1F1B58",
"{[ 	c #201C59",
"][ 	c #170958",
"^[ 	c #1B0D5A",
"/[ 	c #231260",
"([ 	c #2D1C6C",
"_[ 	c #2B1A6A",
":[ 	c #1A0959",
"<[ 	c #210F61",
"[[ 	c #291076",
"}[ 	c #30177F",
"|[ 	c #2E157D",
"1[ 	c #2F147D",
"2[ 	c #2E0F77",
"3[ 	c #2F137A",
"4[ 	c #33177E",
"5[ 	c #280C73",
"6[ 	c #391F84",
"7[ 	c #52389D",
"8[ 	c #30177C",
"9[ 	c #2C1678",
"0[ 	c #2B1577",
"a[ 	c #2A1677",
"b[ 	c #2B1776",
"c[ 	c #2C1877",
"d[ 	c #2B1871",
"e[ 	c #2A1B70",
"f[ 	c #291B68",
"g[ 	c #2A1B6E",
"h[ 	c #2B1C71",
"i[ 	c #251867",
"j[ 	c #0D0445",
"k[ 	c #2B2263",
"l[ 	c #22195A",
"m[ 	c #504788",
"n[ 	c #483F80",
"o[ 	c #18194F",
"p[ 	c #171753",
"q[ 	c #232363",
"r[ 	c #29286A",
"s[ 	c #2B2968",
"t[ 	c #1F1A5A",
"u[ 	c #201B5B",
"v[ 	c #1D1858",
"w[ 	c #1E1854",
"x[ 	c #1B0E56",
"y[ 	c #21115A",
"z[ 	c #2F1C6E",
"A[ 	c #2E1B6D",
"B[ 	c #261365",
"C[ 	c #1E0B5D",
"D[ 	c #2C1275",
"E[ 	c #2D1378",
"F[ 	c #2F157A",
"G[ 	c #41268D",
"H[ 	c #351A81",
"I[ 	c #2B1077",
"J[ 	c #2D1279",
"K[ 	c #30157E",
"L[ 	c #2E137C",
"M[ 	c #2F127C",
"N[ 	c #2B0E78",
"O[ 	c #2E117B",
"P[ 	c #32157F",
"Q[ 	c #2C1077",
"R[ 	c #270B72",
"S[ 	c #381D84",
"T[ 	c #51369D",
"U[ 	c #331A7F",
"V[ 	c #2F197B",
"W[ 	c #301A7C",
"X[ 	c #2E187A",
"Y[ 	c #2B1675",
"Z[ 	c #2D1A74",
"`[ 	c #291B6A",
" } 	c #2C1E6D",
".} 	c #26196B",
"+} 	c #191053",
"@} 	c #271E61",
"#} 	c #2D2467",
"$} 	c #251C5F",
"%} 	c #1A1A4E",
"&} 	c #161652",
"*} 	c #171757",
"=} 	c #1D1C5E",
"-} 	c #201F61",
";} 	c #201E5F",
">} 	c #1D1D53",
",} 	c #201B5D",
"'} 	c #1E195B",
")} 	c #1E1959",
"!} 	c #1F1955",
"~} 	c #1D1055",
"{} 	c #23165B",
"]} 	c #1F1258",
"^} 	c #22125B",
"/} 	c #201059",
"(} 	c #23165E",
"_} 	c #1E0D5D",
":} 	c #1D0B5D",
"<} 	c #220E65",
"[} 	c #27126F",
"}} 	c #2C1277",
"|} 	c #30157C",
"1} 	c #5E43AA",
"2} 	c #472C93",
"3} 	c #31167D",
"4} 	c #2C1178",
"5} 	c #341781",
"6} 	c #2C0F79",
"7} 	c #290C76",
"8} 	c #30137D",
"9} 	c #31187D",
"0} 	c #2E1678",
"a} 	c #311B7D",
"b} 	c #30187A",
"c} 	c #2C1776",
"d} 	c #2C1972",
"e} 	c #2D1B71",
"f} 	c #2B1C6F",
"g} 	c #2A1B6C",
"h} 	c #251669",
"i} 	c #38297E",
"j} 	c #36277C",
"k} 	c #241769",
"l} 	c #251961",
"m} 	c #281F62",
"n} 	c #292063",
"o} 	c #140B4E",
"p} 	c #20194F",
"q} 	c #130F34",
"r} 	c #130F32",
"s} 	c #1A1B54",
"t} 	c #161656",
"u} 	c #1A195B",
"v} 	c #1A1B5E",
"w} 	c #19185A",
"x} 	c #201A56",
"y} 	c #221A55",
"z} 	c #201B55",
"A} 	c #201D56",
"B} 	c #1D1E56",
"C} 	c #211C5C",
"D} 	c #211C5E",
"E} 	c #1F1A5C",
"F} 	c #1F1A5D",
"G} 	c #1F1957",
"H} 	c #1D1753",
"I} 	c #271E5D",
"J} 	c #1F1355",
"K} 	c #22155A",
"L} 	c #1C0D52",
"M} 	c #221259",
"N} 	c #201057",
"O} 	c #21145C",
"P} 	c #261565",
"Q} 	c #200E60",
"R} 	c #1F0B60",
"S} 	c #1F0B62",
"T} 	c #2E1771",
"U} 	c #2F147B",
"V} 	c #5237A0",
"W} 	c #3E238C",
"X} 	c #321780",
"Y} 	c #331682",
"Z} 	c #2E117D",
"`} 	c #331680",
" | 	c #260B72",
".| 	c #30167B",
"+| 	c #32187B",
"@| 	c #2D1877",
"#| 	c #2C1774",
"$| 	c #2D1875",
"%| 	c #2E1976",
"&| 	c #2D1A73",
"*| 	c #2E1C72",
"=| 	c #2C1A6C",
"-| 	c #2D1B6F",
";| 	c #2E1C70",
">| 	c #2F1D73",
",| 	c #3E2C82",
"'| 	c #453389",
")| 	c #413287",
"!| 	c #26186D",
"~| 	c #221759",
"{| 	c #130B47",
"]| 	c #120B34",
"^| 	c #130B32",
"/| 	c #1A1A56",
"(| 	c #181856",
"_| 	c #1B1C5F",
":| 	c #1C1C62",
"<| 	c #1A195D",
"[| 	c #221C5A",
"}| 	c #211D58",
"|| 	c #211C5F",
"1| 	c #201B5E",
"2| 	c #322968",
"3| 	c #261D5C",
"4| 	c #201456",
"5| 	c #1F1257",
"6| 	c #201156",
"7| 	c #1E0F54",
"8| 	c #25155C",
"9| 	c #24145B",
"0| 	c #25155E",
"a| 	c #1B095D",
"b| 	c #1D0B5F",
"c| 	c #200E64",
"d| 	c #240D68",
"e| 	c #311977",
"f| 	c #270F6F",
"g| 	c #2A1176",
"h| 	c #260B74",
"i| 	c #280D76",
"j| 	c #341982",
"k| 	c #381D86",
"l| 	c #2B0E7A",
"m| 	c #311480",
"n| 	c #371C83",
"o| 	c #32177E",
"p| 	c #341A7F",
"q| 	c #351B7E",
"r| 	c #3B2184",
"s| 	c #301B78",
"t| 	c #2F1B72",
"u| 	c #332177",
"v| 	c #301E74",
"w| 	c #38267C",
"x| 	c #342278",
"y| 	c #281B6D",
"z| 	c #23185A",
"A| 	c #28205C",
"B| 	c #261E5A",
"C| 	c #130C36",
"D| 	c #130C35",
"E| 	c #140B36",
"F| 	c #262662",
"G| 	c #2A2B6B",
"H| 	c #1F2061",
"I| 	c #16165C",
"J| 	c #191961",
"K| 	c #1C1C66",
"L| 	c #1A1A62",
"M| 	c #201D62",
"N| 	c #221D60",
"O| 	c #252063",
"P| 	c #201E5D",
"Q| 	c #1D1B5A",
"R| 	c #201F5B",
"S| 	c #1D1E57",
"T| 	c #1E1F57",
"U| 	c #1E1F58",
"V| 	c #221D5F",
"W| 	c #1E195C",
"X| 	c #231E61",
"Y| 	c #221C62",
"Z| 	c #201A60",
"`| 	c #191359",
" 1 	c #211B61",
".1 	c #423C82",
"+1 	c #585298",
"@1 	c #312B71",
"#1 	c #201A5A",
"$1 	c #201A58",
"%1 	c #1E1856",
"&1 	c #1D1755",
"*1 	c #1D1153",
"=1 	c #1E1156",
"-1 	c #211158",
";1 	c #23115B",
">1 	c #1F0D57",
",1 	c #210F63",
"'1 	c #221064",
")1 	c #231167",
"!1 	c #280E6F",
"~1 	c #290F70",
"{1 	c #2B1172",
"]1 	c #2C1273",
"^1 	c #280E71",
"/1 	c #270D70",
"(1 	c #2D107C",
"_1 	c #321581",
":1 	c #31147E",
"<1 	c #2C117C",
"[1 	c #311681",
"}1 	c #351A85",
"|1 	c #331883",
"11 	c #371A84",
"21 	c #371B81",
"31 	c #2E1278",
"41 	c #32167C",
"51 	c #482E91",
"61 	c #331B7D",
"71 	c #331B7B",
"81 	c #2F1777",
"91 	c #2F1775",
"01 	c #311A75",
"a1 	c #311A74",
"b1 	c #2F1B74",
"c1 	c #301C75",
"d1 	c #2D1972",
"e1 	c #342079",
"f1 	c #35217A",
"g1 	c #26136C",
"h1 	c #211658",
"i1 	c #1A1055",
"j1 	c #110944",
"k1 	c #110942",
"l1 	c #19143D",
"m1 	c #232361",
"n1 	c #262768",
"o1 	c #1D1E61",
"p1 	c #181860",
"q1 	c #1A1C66",
"r1 	c #1D1F6A",
"s1 	c #1B1D68",
"t1 	c #221F6C",
"u1 	c #221E6A",
"v1 	c #1F1D68",
"w1 	c #211F6A",
"x1 	c #23216A",
"y1 	c #232268",
"z1 	c #201F63",
"A1 	c #1F1F5F",
"B1 	c #1E1E5C",
"C1 	c #1D1D59",
"D1 	c #1F195F",
"E1 	c #1B155B",
"F1 	c #181258",
"G1 	c #2D276D",
"H1 	c #3D377D",
"I1 	c #181356",
"J1 	c #1E1254",
"K1 	c #23135C",
"L1 	c #24125E",
"M1 	c #22105C",
"N1 	c #261362",
"O1 	c #221066",
"P1 	c #231069",
"Q1 	c #290F72",
"R1 	c #2A0F76",
"S1 	c #2E137E",
"T1 	c #2D127D",
"U1 	c #2D107E",
"V1 	c #2F1280",
"W1 	c #30137F",
"X1 	c #2F147F",
"Y1 	c #34187E",
"Z1 	c #2B0C73",
"`1 	c #25096F",
" 2 	c #321A7A",
".2 	c #331F78",
"+2 	c #341F7A",
"@2 	c #36217C",
"#2 	c #2D1873",
"$2 	c #2F1A75",
"%2 	c #321E77",
"&2 	c #311D76",
"*2 	c #2A1D6F",
"=2 	c #2A1E68",
"-2 	c #231666",
";2 	c #110849",
">2 	c #0E0544",
",2 	c #0B0531",
"'2 	c #0C083B",
")2 	c #1C1B57",
"!2 	c #1F1E60",
"~2 	c #202066",
"{2 	c #1B1B63",
"]2 	c #191B66",
"^2 	c #1F216E",
"/2 	c #212272",
"(2 	c #1C1F70",
"_2 	c #222376",
":2 	c #212275",
"<2 	c #1F2073",
"[2 	c #1F2072",
"}2 	c #202171",
"|2 	c #201F6B",
"12 	c #1E1E68",
"22 	c #1F1F65",
"32 	c #1E1F62",
"42 	c #1D1E5F",
"52 	c #1C1D5D",
"62 	c #1D1D5B",
"72 	c #1F1961",
"82 	c #201A62",
"92 	c #171255",
"02 	c #292467",
"a2 	c #1D185A",
"b2 	c #1A1555",
"c2 	c #1B1555",
"d2 	c #211459",
"e2 	c #201358",
"f2 	c #201359",
"g2 	c #200D5C",
"h2 	c #200D5E",
"i2 	c #230D5F",
"j2 	c #241163",
"k2 	c #220F68",
"l2 	c #301381",
"m2 	c #2E117F",
"n2 	c #2E1080",
"o2 	c #321182",
"p2 	c #321281",
"q2 	c #32127F",
"r2 	c #381C8A",
"s2 	c #321684",
"t2 	c #301580",
"u2 	c #391C88",
"v2 	c #3C1F8B",
"w2 	c #391984",
"x2 	c #32127D",
"y2 	c #2D0E76",
"z2 	c #31127A",
"A2 	c #391A82",
"B2 	c #3B1C84",
"C2 	c #3A1982",
"D2 	c #391A81",
"E2 	c #2F1578",
"F2 	c #31197B",
"G2 	c #321B76",
"H2 	c #311C77",
"I2 	c #25106D",
"J2 	c #301B7A",
"K2 	c #311C79",
"L2 	c #331E79",
"M2 	c #2C1772",
"N2 	c #2E1B74",
"O2 	c #27176F",
"P2 	c #2B1D72",
"Q2 	c #2C1E73",
"R2 	c #291B70",
"S2 	c #1D105F",
"T2 	c #1F1262",
"U2 	c #1F1264",
"V2 	c #201267",
"W2 	c #211466",
"X2 	c #0F0647",
"Y2 	c #0D0735",
"Z2 	c #110E43",
"`2 	c #111049",
" 3 	c #0B0A43",
".3 	c #0C0C42",
"+3 	c #1D1C60",
"@3 	c #1C1C64",
"#3 	c #181A65",
"$3 	c #1B1D6A",
"%3 	c #212376",
"&3 	c #1E2075",
"*3 	c #20247F",
"=3 	c #1F227F",
"-3 	c #1E217E",
";3 	c #1D217C",
">3 	c #1D217A",
",3 	c #1D2276",
"'3 	c #1E2073",
")3 	c #1F2070",
"!3 	c #1E206B",
"~3 	c #1F1F67",
"{3 	c #1E1E64",
"]3 	c #1D1D5D",
"^3 	c #1E1D59",
"/3 	c #231D63",
"(3 	c #241E64",
"_3 	c #1E1860",
":3 	c #1D185B",
"<3 	c #241F62",
"[3 	c #252062",
"}3 	c #1C1656",
"|3 	c #20135B",
"13 	c #23135E",
"23 	c #21115C",
"33 	c #251264",
"43 	c #251166",
"53 	c #220C61",
"63 	c #24116B",
"73 	c #25106F",
"83 	c #2D107A",
"93 	c #311482",
"03 	c #321583",
"a3 	c #2B0E7C",
"b3 	c #301282",
"c3 	c #311383",
"d3 	c #2F1181",
"e3 	c #2E1082",
"f3 	c #361588",
"g3 	c #351485",
"h3 	c #341384",
"i3 	c #341483",
"j3 	c #3B1E8C",
"k3 	c #331785",
"l3 	c #321782",
"m3 	c #3A1D89",
"n3 	c #3D208C",
"o3 	c #391C86",
"p3 	c #2F0F7A",
"q3 	c #33147C",
"r3 	c #3C1D85",
"s3 	c #34137C",
"t3 	c #2A0972",
"u3 	c #311079",
"v3 	c #2F1779",
"w3 	c #331B79",
"x3 	c #331C77",
"y3 	c #341D77",
"z3 	c #2B1673",
"A3 	c #372183",
"B3 	c #2F1A79",
"C3 	c #2F1C75",
"D3 	c #2B1D74",
"E3 	c #2A1D6C",
"F3 	c #271970",
"G3 	c #21136A",
"H3 	c #1B1158",
"I3 	c #2C2366",
"J3 	c #393073",
"K3 	c #241B5C",
"L3 	c #0F0740",
"M3 	c #0B0D4A",
"N3 	c #070946",
"O3 	c #0A0C47",
"P3 	c #10104C",
"Q3 	c #12134C",
"R3 	c #0E0F47",
"S3 	c #09093D",
"T3 	c #0F0F41",
"U3 	c #1D1A5D",
"V3 	c #1D1C62",
"W3 	c #1D1B64",
"X3 	c #1B1A66",
"Y3 	c #191B68",
"Z3 	c #1D1E70",
"`3 	c #222477",
" 4 	c #23257C",
".4 	c #1E227D",
"+4 	c #21268A",
"@4 	c #1F268E",
"#4 	c #1F278C",
"$4 	c #1E2689",
"%4 	c #1F2585",
"&4 	c #1D247F",
"*4 	c #1E247C",
"=4 	c #1F2478",
"-4 	c #1F2273",
";4 	c #1E1D5F",
">4 	c #1E1E5E",
",4 	c #1F1D5C",
"'4 	c #241E66",
")4 	c #221C64",
"!4 	c #231D67",
"~4 	c #1A1557",
"{4 	c #241F61",
"]4 	c #1B1658",
"^4 	c #1E1858",
"/4 	c #221658",
"(4 	c #22125D",
"_4 	c #241162",
":4 	c #2C117A",
"<4 	c #30107D",
"[4 	c #30107F",
"}4 	c #311180",
"|4 	c #331382",
"14 	c #2B0A7B",
"24 	c #2D0C7D",
"34 	c #2F0E81",
"44 	c #311085",
"54 	c #331287",
"64 	c #37168B",
"74 	c #351487",
"84 	c #2F1381",
"94 	c #2E1280",
"04 	c #341783",
"a4 	c #351582",
"b4 	c #331380",
"c4 	c #34147F",
"d4 	c #371782",
"e4 	c #42218C",
"f4 	c #3E1D88",
"g4 	c #320E78",
"h4 	c #34107A",
"i4 	c #36127C",
"j4 	c #27066F",
"k4 	c #361C81",
"l4 	c #341A7D",
"m4 	c #391F82",
"n4 	c #402687",
"o4 	c #452B8C",
"p4 	c #341A7B",
"q4 	c #341B79",
"r4 	c #321B75",
"s4 	c #361F7A",
"t4 	c #39217F",
"u4 	c #553D9D",
"v4 	c #7860C2",
"w4 	c #876FD1",
"x4 	c #432A8F",
"y4 	c #351D7F",
"z4 	c #2F1873",
"A4 	c #351E79",
"B4 	c #38217B",
"C4 	c #2D1D75",
"D4 	c #2C1E75",
"E4 	c #2F2176",
"F4 	c #33257A",
"G4 	c #2B1E6D",
"H4 	c #312473",
"I4 	c #312474",
"J4 	c #21136B",
"K4 	c #1E0F6A",
"L4 	c #190A65",
"M4 	c #21126D",
"N4 	c #251D59",
"O4 	c #3B3275",
"P4 	c #4C4287",
"Q4 	c #342B6E",
"R4 	c #0D053E",
"S4 	c #13124B",
"T4 	c #090E4E",
"U4 	c #0F165A",
"V4 	c #161D61",
"W4 	c #191E60",
"X4 	c #141858",
"Y4 	c #0D1150",
"Z4 	c #0D0F4A",
"`4 	c #0D1047",
" 5 	c #101044",
".5 	c #1E1B60",
"+5 	c #201E67",
"@5 	c #1E1D6B",
"#5 	c #1E1F6F",
"$5 	c #212378",
"%5 	c #25277E",
"&5 	c #282983",
"*5 	c #25298A",
"=5 	c #272F9A",
"-5 	c #25319F",
";5 	c #27329E",
">5 	c #26319A",
",5 	c #242D94",
"'5 	c #21298B",
")5 	c #212785",
"!5 	c #222782",
"~5 	c #202372",
"{5 	c #20226D",
"]5 	c #202068",
"^5 	c #231D65",
"/5 	c #211B63",
"(5 	c #28226A",
"_5 	c #27216B",
":5 	c #272264",
"<5 	c #262163",
"[5 	c #1C1757",
"}5 	c #25126C",
"|5 	c #331283",
"15 	c #2E0D80",
"25 	c #2F0E83",
"35 	c #2E0D82",
"45 	c #300F84",
"55 	c #36158A",
"65 	c #341388",
"75 	c #321184",
"85 	c #311081",
"95 	c #301482",
"05 	c #311583",
"a5 	c #361683",
"b5 	c #30107B",
"c5 	c #3B1B86",
"d5 	c #401F8A",
"e5 	c #2F0E79",
"f5 	c #3A1680",
"g5 	c #724EB8",
"h5 	c #8662CC",
"i5 	c #5C3BA4",
"j5 	c #33177D",
"k5 	c #31177A",
"l5 	c #442A8B",
"m5 	c #4B3192",
"n5 	c #351B7C",
"o5 	c #351C7A",
"p5 	c #351C78",
"q5 	c #341C7A",
"r5 	c #371F7F",
"s5 	c #533B9D",
"t5 	c #775EC3",
"u5 	c #876ED3",
"v5 	c #381F84",
"w5 	c #351D7D",
"x5 	c #37207A",
"y5 	c #2E1E76",
"z5 	c #302277",
"A5 	c #37297E",
"B5 	c #3C2E83",
"C5 	c #2A1D6D",
"D5 	c #1E1065",
"E5 	c #31227D",
"F5 	c #2F207D",
"G5 	c #1F106D",
"H5 	c #211271",
"I5 	c #231A5B",
"J5 	c #1F1753",
"K5 	c #271F5B",
"L5 	c #281E63",
"M5 	c #32286F",
"N5 	c #251B60",
"O5 	c #0F083B",
"P5 	c #07135B",
"Q5 	c #071158",
"R5 	c #091257",
"S5 	c #14195B",
"T5 	c #151B59",
"U5 	c #151A54",
"V5 	c #101245",
"W5 	c #140D37",
"X5 	c #1F1C63",
"Y5 	c #22206B",
"Z5 	c #21206C",
"`5 	c #222171",
" 6 	c #242577",
".6 	c #26287F",
"+6 	c #2B2C86",
"@6 	c #2E328D",
"#6 	c #303698",
"$6 	c #333FAF",
"%6 	c #3241B6",
"&6 	c #3643B5",
"*6 	c #3240AD",
"=6 	c #2C38A4",
"-6 	c #263298",
";6 	c #242C8E",
">6 	c #242A88",
",6 	c #21257E",
"'6 	c #222471",
")6 	c #22226C",
"!6 	c #222167",
"~6 	c #212062",
"{6 	c #222061",
"]6 	c #22205F",
"^6 	c #211B65",
"/6 	c #1E1862",
"(6 	c #241E68",
"_6 	c #2E2872",
":6 	c #2B256F",
"<6 	c #221D5D",
"[6 	c #2C2767",
"}6 	c #241F5F",
"|6 	c #2A2565",
"16 	c #1C1759",
"26 	c #1D165A",
"36 	c #241361",
"46 	c #251464",
"56 	c #210D64",
"66 	c #250E69",
"76 	c #230B6D",
"86 	c #220D6C",
"96 	c #2F127E",
"06 	c #2F0F7E",
"a6 	c #310F80",
"b6 	c #331182",
"c6 	c #341283",
"d6 	c #341185",
"e6 	c #331084",
"f6 	c #320F83",
"g6 	c #310E82",
"h6 	c #39168C",
"i6 	c #38158B",
"j6 	c #361389",
"k6 	c #331088",
"l6 	c #310E86",
"m6 	c #37148C",
"n6 	c #3B1890",
"o6 	c #331189",
"p6 	c #321186",
"q6 	c #341481",
"r6 	c #331684",
"s6 	c #341785",
"t6 	c #371784",
"u6 	c #381885",
"v6 	c #33117F",
"w6 	c #351381",
"x6 	c #3A1682",
"y6 	c #300C78",
"z6 	c #3C1882",
"A6 	c #7E5AC4",
"B6 	c #A17CE6",
"C6 	c #30147A",
"D6 	c #3A2083",
"E6 	c #3E2487",
"F6 	c #361C7D",
"G6 	c #361D7B",
"H6 	c #361D79",
"I6 	c #3E2688",
"J6 	c #4E359A",
"K6 	c #4E359B",
"L6 	c #392086",
"M6 	c #371E83",
"N6 	c #3F2787",
"O6 	c #351D7B",
"P6 	c #361F79",
"Q6 	c #2E2077",
"R6 	c #302373",
"S6 	c #2B1E70",
"T6 	c #3A2B86",
"U6 	c #6354B1",
"V6 	c #6455B4",
"W6 	c #463796",
"X6 	c #211173",
"Y6 	c #21126F",
"Z6 	c #281E65",
"`6 	c #1A1057",
" 7 	c #191245",
".7 	c #13094E",
"+7 	c #150B52",
"@7 	c #140A4F",
"#7 	c #140B4C",
"$7 	c #081058",
"%7 	c #12206B",
"&7 	c #212D77",
"*7 	c #253179",
"=7 	c #1E286F",
"-7 	c #141D60",
";7 	c #101555",
">7 	c #101451",
",7 	c #11134C",
"'7 	c #111248",
")7 	c #231F6B",
"!7 	c #23206F",
"~7 	c #262477",
"{7 	c #272980",
"]7 	c #2B2C89",
"^7 	c #2D3091",
"/7 	c #34389B",
"(7 	c #3741A3",
"_7 	c #3B4FB0",
":7 	c #3B53B3",
"<7 	c #3D53B8",
"[7 	c #3A4DB4",
"}7 	c #3142AC",
"|7 	c #2937A0",
"17 	c #243096",
"27 	c #222779",
"37 	c #222572",
"47 	c #23236B",
"57 	c #232065",
"67 	c #1D175F",
"77 	c #26206A",
"87 	c #322C74",
"97 	c #292466",
"07 	c #181355",
"a7 	c #191456",
"b7 	c #231E60",
"c7 	c #1F185B",
"d7 	c #260E70",
"e7 	c #281276",
"f7 	c #2A1177",
"g7 	c #300E7F",
"h7 	c #351288",
"i7 	c #341187",
"j7 	c #300D85",
"k7 	c #2F0C84",
"l7 	c #421F97",
"m7 	c #401C96",
"n7 	c #3B1791",
"o7 	c #36128C",
"p7 	c #35128A",
"q7 	c #3A178F",
"r7 	c #3E1B91",
"s7 	c #321388",
"t7 	c #341386",
"u7 	c #3A1886",
"v7 	c #2F0D7B",
"w7 	c #3D1C87",
"x7 	c #41208B",
"y7 	c #320E7A",
"z7 	c #3F1B85",
"A7 	c #4E2A96",
"B7 	c #3B1A83",
"C7 	c #371B82",
"D7 	c #371D82",
"E7 	c #391D83",
"F7 	c #31157B",
"G7 	c #371B7F",
"H7 	c #361C7F",
"I7 	c #371C7D",
"J7 	c #3A217D",
"K7 	c #341D78",
"L7 	c #361E7C",
"M7 	c #351C81",
"N7 	c #452D8F",
"O7 	c #472F8F",
"P7 	c #321D78",
"Q7 	c #311E78",
"R7 	c #2F1F77",
"S7 	c #2E1E77",
"T7 	c #2C1C74",
"U7 	c #291971",
"V7 	c #281870",
"W7 	c #2D2072",
"X7 	c #170960",
"Y7 	c #3D2E89",
"Z7 	c #7566C3",
"`7 	c #4D3E9D",
" 8 	c #271D64",
".8 	c #2D236A",
"+8 	c #291F64",
"@8 	c #1B1448",
"#8 	c #150C4D",
"$8 	c #131852",
"%8 	c #001757",
"&8 	c #4162A7",
"*8 	c #8CAAF0",
"=8 	c #90ABF0",
"-8 	c #566DB1",
";8 	c #1B2E72",
">8 	c #0C1A5B",
",8 	c #182260",
"'8 	c #0F144E",
")8 	c #111449",
"!8 	c #111143",
"~8 	c #292268",
"{8 	c #241C69",
"]8 	c #241F71",
"^8 	c #25227B",
"/8 	c #262686",
"(8 	c #272A91",
"_8 	c #2D349F",
":8 	c #383FB1",
"<8 	c #3B4DAF",
"[8 	c #4B6DAC",
"}8 	c #87AFE3",
"|8 	c #AED1FF",
"18 	c #5170C3",
"28 	c #3850B2",
"38 	c #283AA6",
"48 	c #3C4AB5",
"58 	c #18248A",
"68 	c #202986",
"78 	c #22297A",
"88 	c #232770",
"98 	c #232467",
"08 	c #231B68",
"a8 	c #241C65",
"b8 	c #241D63",
"c8 	c #251E64",
"d8 	c #261F65",
"e8 	c #231C62",
"f8 	c #231B64",
"g8 	c #231C60",
"h8 	c #211B5B",
"i8 	c #211A5D",
"j8 	c #20195C",
"k8 	c #1E175B",
"l8 	c #1F185C",
"m8 	c #20195D",
"n8 	c #291C64",
"o8 	c #2D0F7F",
"p8 	c #230479",
"q8 	c #3D1C91",
"r8 	c #260578",
"s8 	c #28077A",
"t8 	c #270677",
"u8 	c #2E0D7E",
"v8 	c #2E0E7D",
"w8 	c #31117E",
"x8 	c #331181",
"y8 	c #2E0B7F",
"z8 	c #37118A",
"A8 	c #3A148D",
"B8 	c #2F0983",
"C8 	c #2F0885",
"D8 	c #4C25A4",
"E8 	c #5F38B7",
"F8 	c #562FAE",
"G8 	c #3B1493",
"H8 	c #350E8D",
"I8 	c #310A89",
"J8 	c #340D8A",
"K8 	c #36108A",
"L8 	c #361089",
"M8 	c #361087",
"N8 	c #351286",
"O8 	c #321484",
"P8 	c #371B8A",
"Q8 	c #341686",
"R8 	c #2B0D7D",
"S8 	c #2C0E80",
"T8 	c #351789",
"U8 	c #38178C",
"V8 	c #331086",
"W8 	c #341189",
"X8 	c #3C1B8C",
"Y8 	c #3A1D8B",
"Z8 	c #2E0E7B",
"`8 	c #3B1B88",
" 9 	c #3C1A88",
".9 	c #361580",
"+9 	c #3A1B83",
"@9 	c #32137B",
"#9 	c #381981",
"$9 	c #381C82",
"%9 	c #45298F",
"&9 	c #35167D",
"*9 	c #43248B",
"=9 	c #3A2081",
"-9 	c #3B2280",
";9 	c #3D2386",
">9 	c #311778",
",9 	c #482E8F",
"'9 	c #4B3290",
")9 	c #3F2684",
"!9 	c #341F7C",
"~9 	c #3D2883",
"{9 	c #39247F",
"]9 	c #28156E",
"^9 	c #311E77",
"/9 	c #38257E",
"(9 	c #2C1D72",
"_9 	c #2C1D70",
":9 	c #2B1C6D",
"<9 	c #1D0D65",
"[9 	c #4E3E97",
"}9 	c #4B3B94",
"|9 	c #2A1A73",
"19 	c #22126B",
"29 	c #26166E",
"39 	c #2A1F64",
"49 	c #2F2469",
"59 	c #261B5F",
"69 	c #251A5E",
"79 	c #150A4C",
"89 	c #1A1859",
"99 	c #1C175A",
"09 	c #1C155B",
"a9 	c #1E145D",
"b9 	c #22105A",
"c9 	c #1A1450",
"d9 	c #0E1B50",
"e9 	c #043667",
"f9 	c #71B5E6",
"g9 	c #9CD9FF",
"h9 	c #9ED4FF",
"i9 	c #B3DFFF",
"j9 	c #294C8E",
"k9 	c #0E276A",
"l9 	c #112363",
"m9 	c #0D1953",
"n9 	c #10174D",
"o9 	c #131546",
"p9 	c #2C2269",
"q9 	c #251D6A",
"r9 	c #282073",
"s9 	c #282580",
"t9 	c #28288A",
"u9 	c #2A2D98",
"v9 	c #2E35A7",
"w9 	c #3742B8",
"x9 	c #3C50B3",
"y9 	c #83A8DD",
"z9 	c #C3EEFF",
"A9 	c #CBF1FF",
"B9 	c #9BBCFF",
"C9 	c #4059BD",
"D9 	c #3246B6",
"E9 	c #2434A5",
"F9 	c #29349E",
"G9 	c #212A87",
"H9 	c #232A7B",
"I9 	c #23276E",
"J9 	c #242566",
"K9 	c #242166",
"L9 	c #261A6C",
"M9 	c #241C67",
"N9 	c #251D66",
"O9 	c #1F185E",
"P9 	c #20195F",
"Q9 	c #24175F",
"R9 	c #24145D",
"S9 	c #2A1073",
"T9 	c #3F1B97",
"U9 	c #6743BF",
"V9 	c #6A46C0",
"W9 	c #3E1A94",
"X9 	c #2D0A82",
"Y9 	c #2F0C80",
"Z9 	c #310F7F",
"`9 	c #321080",
" 0 	c #32107E",
".0 	c #39138A",
"+0 	c #340E88",
"@0 	c #2D0683",
"#0 	c #340D8C",
"$0 	c #5730B1",
"%0 	c #734BCF",
"&0 	c #744CD0",
"*0 	c #3E169A",
"=0 	c #371091",
"-0 	c #360F8C",
";0 	c #39138D",
">0 	c #381289",
",0 	c #391788",
"'0 	c #2C107E",
")0 	c #321685",
"!0 	c #381A8C",
"~0 	c #35138B",
"{0 	c #38168E",
"]0 	c #320E88",
"^0 	c #320F87",
"/0 	c #2A097A",
"(0 	c #2C0C7B",
"_0 	c #3D1D8A",
":0 	c #40208D",
"<0 	c #391986",
"[0 	c #3F1F8C",
"}0 	c #3E1E8B",
"|0 	c #361681",
"10 	c #6243AB",
"20 	c #55369E",
"30 	c #45268E",
"40 	c #371880",
"50 	c #482991",
"60 	c #5D3EA6",
"70 	c #44258D",
"80 	c #46278F",
"90 	c #3B1F85",
"00 	c #381C80",
"a0 	c #3D2384",
"b0 	c #3E2485",
"c0 	c #412788",
"d0 	c #391F80",
"e0 	c #3C2283",
"f0 	c #371D7E",
"g0 	c #3B2182",
"h0 	c #422889",
"i0 	c #33197A",
"j0 	c #37227D",
"k0 	c #37237C",
"l0 	c #34247C",
"m0 	c #4F3F97",
"n0 	c #3B2B83",
"o0 	c #1C0C64",
"p0 	c #211169",
"q0 	c #211267",
"r0 	c #291E62",
"s0 	c #1B185D",
"t0 	c #1B185F",
"u0 	c #1E1663",
"v0 	c #2B1567",
"w0 	c #2C1668",
"x0 	c #2A1864",
"y0 	c #1C1C5C",
"z0 	c #1C1C5A",
"A0 	c #1A1452",
"B0 	c #0C1C50",
"C0 	c #1D5785",
"D0 	c #5FACD8",
"E0 	c #98DEFF",
"F0 	c #A8E5FF",
"G0 	c #9BCCFF",
"H0 	c #2E559A",
"I0 	c #153278",
"J0 	c #102367",
"K0 	c #111C5A",
"L0 	c #131850",
"M0 	c #120A39",
"N0 	c #2A2067",
"O0 	c #271F6C",
"P0 	c #2A2275",
"Q0 	c #2B2682",
"R0 	c #2A2A8C",
"S0 	c #2C2F98",
"T0 	c #3137A7",
"U0 	c #3A43B8",
"V0 	c #3E50B6",
"W0 	c #93B1F7",
"X0 	c #D7FBFF",
"Y0 	c #DAF9FF",
"Z0 	c #B6D0FF",
"`0 	c #445AC9",
" a 	c #3748BE",
".a 	c #212EA1",
"+a 	c #323AA7",
"@a 	c #24297A",
"#a 	c #25286D",
"$a 	c #262666",
"%a 	c #262068",
"&a 	c #281D6C",
"*a 	c #251D68",
"=a 	c #261E67",
"-a 	c #251560",
";a 	c #29087B",
">a 	c #45219B",
",a 	c #734FC9",
"'a 	c #7451C9",
")a 	c #432098",
"!a 	c #2B087E",
"~a 	c #300D81",
"{a 	c #321081",
"]a 	c #2F0982",
"^a 	c #300A84",
"/a 	c #330C89",
"(a 	c #3A1392",
"_a 	c #4E27A6",
":a 	c #5F38B9",
"<a 	c #5D36B7",
"[a 	c #3A1394",
"}a 	c #350E8F",
"|a 	c #330C8B",
"1a 	c #350E8B",
"2a 	c #37118B",
"3a 	c #350F86",
"4a 	c #351384",
"5a 	c #331585",
"6a 	c #2F1183",
"7a 	c #280A7C",
"8a 	c #331285",
"9a 	c #3A198E",
"0a 	c #3D1A92",
"aa 	c #37148A",
"ba 	c #472697",
"ca 	c #391988",
"da 	c #2D0D7C",
"ea 	c #5232A1",
"fa 	c #7F5FCE",
"ga 	c #4A2A97",
"ha 	c #2D0D7A",
"ia 	c #3A1A85",
"ja 	c #5C3DA5",
"ka 	c #503199",
"la 	c #402189",
"ma 	c #36177F",
"na 	c #52339B",
"oa 	c #6344AC",
"pa 	c #4C2D95",
"qa 	c #4B2C94",
"ra 	c #3F2088",
"sa 	c #3C2086",
"ta 	c #3C2084",
"ua 	c #381E81",
"va 	c #3F2588",
"wa 	c #3C2285",
"xa 	c #371D80",
"ya 	c #3B2681",
"za 	c #2D1E73",
"Aa 	c #221567",
"Ba 	c #382A7F",
"Ca 	c #35277C",
"Da 	c #25176C",
"Ea 	c #25176E",
"Fa 	c #24166B",
"Ga 	c #2E2171",
"Ha 	c #352877",
"Ia 	c #2C1F6E",
"Ja 	c #281D61",
"Ka 	c #1D1757",
"La 	c #1C1960",
"Ma 	c #1D1963",
"Na 	c #211867",
"Oa 	c #2D156B",
"Pa 	c #31196F",
"Qa 	c #2F196B",
"Ra 	c #291866",
"Sa 	c #1E185E",
"Ta 	c #111C54",
"Ua 	c #043367",
"Va 	c #3675AA",
"Wa 	c #93CBFF",
"Xa 	c #AEDFFF",
"Ya 	c #7197E0",
"Za 	c #27438D",
"`a 	c #122470",
" b 	c #101A62",
".b 	c #171A5F",
"+b 	c #2B2680",
"@b 	c #2C2A8B",
"#b 	c #2D2E98",
"$b 	c #3337A5",
"%b 	c #3A41B5",
"&b 	c #3F4BB7",
"*b 	c #5D75CB",
"=b 	c #99B3FF",
"-b 	c #B3CAFF",
";b 	c #7489F6",
">b 	c #404EC8",
",b 	c #313CB8",
"'b 	c #353EB5",
")b 	c #292F9D",
"!b 	c #252A88",
"~b 	c #272A7B",
"{b 	c #26296E",
"]b 	c #272767",
"^b 	c #262366",
"/b 	c #272167",
"(b 	c #281F6E",
"_b 	c #291E6D",
":b 	c #261E69",
"<b 	c #221A63",
"[b 	c #271F68",
"}b 	c #221C5C",
"|b 	c #231D5D",
"1b 	c #231C5F",
"2b 	c #221B5E",
"3b 	c #1E175D",
"4b 	c #1D165C",
"5b 	c #211A5E",
"6b 	c #231560",
"7b 	c #251462",
"8b 	c #290879",
"9b 	c #4C299F",
"0b 	c #4D2AA0",
"ab 	c #2A077B",
"bb 	c #2F0C82",
"cb 	c #2C097D",
"db 	c #472198",
"eb 	c #38128B",
"fb 	c #350F89",
"gb 	c #381190",
"hb 	c #330D84",
"ib 	c #351987",
"jb 	c #391B8B",
"kb 	c #2B0D7F",
"lb 	c #300F82",
"mb 	c #39188D",
"nb 	c #3B188E",
"ob 	c #3F1F8E",
"pb 	c #432392",
"qb 	c #6040AF",
"rb 	c #412190",
"sb 	c #3A1A87",
"tb 	c #3D1D88",
"ub 	c #41218C",
"vb 	c #3D1E86",
"wb 	c #4E2F97",
"xb 	c #43248C",
"yb 	c #472890",
"zb 	c #41228A",
"Ab 	c #3E1F87",
"Bb 	c #3B1C83",
"Cb 	c #3E2288",
"Db 	c #301679",
"Eb 	c #4D3396",
"Fb 	c #4C3295",
"Gb 	c #3B2780",
"Hb 	c #331F76",
"Ib 	c #3C287F",
"Jb 	c #311F75",
"Kb 	c #3A287E",
"Lb 	c #36247A",
"Mb 	c #35267B",
"Nb 	c #2E1F74",
"Ob 	c #2D1E71",
"Pb 	c #2C1F71",
"Qb 	c #36297B",
"Rb 	c #312378",
"Sb 	c #24166D",
"Tb 	c #3A2E7A",
"Ub 	c #302470",
"Vb 	c #3A2F73",
"Wb 	c #403579",
"Xb 	c #271C60",
"Yb 	c #1E1A64",
"Zb 	c #221B69",
"`b 	c #271B6D",
" c 	c #2E1772",
".c 	c #311673",
"+c 	c #341773",
"@c 	c #321871",
"#c 	c #2F196E",
"$c 	c #251A68",
"%c 	c #221A65",
"&c 	c #110A3D",
"*c 	c #261F52",
"=c 	c #141A54",
"-c 	c #001650",
";c 	c #03346F",
">c 	c #3D66A8",
",c 	c #4466AE",
"'c 	c #102979",
")c 	c #132476",
"!c 	c #0D1566",
"~c 	c #1C1D6D",
"{c 	c #1C1862",
"]c 	c #1A1357",
"^c 	c #150A46",
"/c 	c #160B47",
"(c 	c #180A48",
"_c 	c #120844",
":c 	c #2A2069",
"<c 	c #292174",
"[c 	c #2B257F",
"}c 	c #2C2887",
"|c 	c #2D2C94",
"1c 	c #30329F",
"2c 	c #363CAC",
"3c 	c #3A44B3",
"4c 	c #3544AB",
"5c 	c #5061C9",
"6c 	c #6C79EC",
"7c 	c #3A44BF",
"8c 	c #3C43C5",
"9c 	c #3035B5",
"0c 	c #3D42BA",
"ac 	c #262895",
"bc 	c #262986",
"cc 	c #282979",
"dc 	c #28286E",
"ec 	c #272467",
"fc 	c #282268",
"gc 	c #282069",
"hc 	c #261F62",
"ic 	c #282164",
"jc 	c #1B145A",
"kc 	c #23195E",
"lc 	c #261865",
"mc 	c #2F0F7C",
"nc 	c #2D0B7C",
"oc 	c #2F0D7E",
"pc 	c #5D37AE",
"qc 	c #462097",
"rc 	c #310A87",
"sc 	c #37108D",
"tc 	c #360F8E",
"uc 	c #3C1592",
"vc 	c #421C96",
"wc 	c #421C95",
"xc 	c #3B158E",
"yc 	c #371188",
"zc 	c #2C0E7E",
"Ac 	c #331786",
"Bc 	c #371989",
"Cc 	c #381A8A",
"Dc 	c #472999",
"Ec 	c #5332A5",
"Fc 	c #5433A6",
"Gc 	c #371689",
"Hc 	c #381589",
"Ic 	c #371488",
"Jc 	c #361387",
"Kc 	c #351584",
"Lc 	c #3E1E89",
"Mc 	c #462691",
"Nc 	c #492A92",
"Oc 	c #3C1D84",
"Pc 	c #3A1E82",
"Qc 	c #412589",
"Rc 	c #5F43A7",
"Sc 	c #8064C8",
"Tc 	c #785CC0",
"Uc 	c #503498",
"Vc 	c #34187C",
"Wc 	c #3E2286",
"Xc 	c #3B1F83",
"Yc 	c #3F2387",
"Zc 	c #3C2381",
"`c 	c #311D74",
" d 	c #311F73",
".d 	c #301E72",
"+d 	c #2F1D71",
"@d 	c #3D2B7F",
"#d 	c #342578",
"$d 	c #2E1F72",
"%d 	c #2D1F74",
"&d 	c #2A1E70",
"*d 	c #2D2070",
"=d 	c #2B1E6E",
"-d 	c #1F1166",
";d 	c #23156A",
">d 	c #2D2169",
",d 	c #271C61",
"'d 	c #291E63",
")d 	c #382D72",
"!d 	c #3E3378",
"~d 	c #23185D",
"{d 	c #251A5F",
"]d 	c #201C68",
"^d 	c #251E6E",
"/d 	c #2B1F75",
"(d 	c #301D79",
"_d 	c #3A1C80",
":d 	c #39197C",
"<d 	c #3A1A7D",
"[d 	c #391E7D",
"}d 	c #37207B",
"|d 	c #211664",
"1d 	c #261F53",
"2d 	c #171954",
"3d 	c #061B5A",
"4d 	c #021F63",
"5d 	c #041C66",
"6d 	c #021363",
"7d 	c #0B156C",
"8d 	c #41459E",
"9d 	c #201D74",
"0d 	c #1C1469",
"ad 	c #1C0C4D",
"bd 	c #1D0D4E",
"cd 	c #1C0B4F",
"dd 	c #1F184B",
"ed 	c #211A4D",
"fd 	c #120A3D",
"gd 	c #2E246D",
"hd 	c #261E6B",
"id 	c #2A247C",
"jd 	c #2B2785",
"kd 	c #2A2A8E",
"ld 	c #3236A4",
"md 	c #373DAD",
"nd 	c #3C43B5",
"od 	c #3940B5",
"pd 	c #393DBA",
"qd 	c #393CBD",
"rd 	c #3C3CC0",
"sd 	c #3635B5",
"td 	c #3130A7",
"ud 	c #2D2B96",
"vd 	c #282882",
"wd 	c #292876",
"xd 	c #29286C",
"yd 	c #282667",
"zd 	c #29206F",
"Ad 	c #292071",
"Bd 	c #272063",
"Cd 	c #292265",
"Dd 	c #221B5F",
"Ed 	c #211A60",
"Fd 	c #221B61",
"Gd 	c #271664",
"Hd 	c #25156D",
"Id 	c #2E0E79",
"Jd 	c #300E7C",
"Kd 	c #2F0D7D",
"Ld 	c #361485",
"Md 	c #441E95",
"Nd 	c #340E87",
"Od 	c #3F1993",
"Pd 	c #3C1690",
"Qd 	c #3B158F",
"Rd 	c #411B95",
"Sd 	c #3F1992",
"Td 	c #39138C",
"Ud 	c #311385",
"Vd 	c #422494",
"Wd 	c #5736A9",
"Xd 	c #6342B5",
"Yd 	c #411E92",
"Zd 	c #462195",
"`d 	c #3F1C90",
" e 	c #2C0B7E",
".e 	c #371687",
"+e 	c #3B1A8B",
"@e 	c #3A1A89",
"#e 	c #3C1C87",
"$e 	c #3F1F8A",
"%e 	c #42238B",
"&e 	c #3D2187",
"*e 	c #40248A",
"=e 	c #5D41A5",
"-e 	c #7E62C8",
";e 	c #775BBF",
">e 	c #51359B",
",e 	c #41258B",
"'e 	c #3D2185",
")e 	c #3A1E84",
"!e 	c #44288C",
"~e 	c #342077",
"{e 	c #6B59AB",
"]e 	c #715FB1",
"^e 	c #6D5BAD",
"/e 	c #382678",
"(e 	c #302174",
"_e 	c #2E2173",
":e 	c #2E2075",
"<e 	c #2C2074",
"[e 	c #1E1161",
"}e 	c #31256F",
"|e 	c #221E6B",
"1e 	c #282075",
"2e 	c #30217C",
"3e 	c #362082",
"4e 	c #3F2389",
"5e 	c #42218A",
"6e 	c #45208A",
"7e 	c #47228C",
"8e 	c #43228A",
"9e 	c #291874",
"0e 	c #181753",
"ae 	c #0C1759",
"be 	c #18266D",
"ce 	c #141F6E",
"de 	c #151A6E",
"ee 	c #313189",
"fe 	c #5D57B1",
"ge 	c #281E77",
"he 	c #17095E",
"ie 	c #1D0D56",
"je 	c #1D0C50",
"ke 	c #1B0B4C",
"le 	c #190A4D",
"me 	c #190A4F",
"ne 	c #170B4D",
"oe 	c #120F44",
"pe 	c #1F184C",
"qe 	c #231C52",
"re 	c #130A41",
"se 	c #11083D",
"te 	c #2D226E",
"ue 	c #292272",
"ve 	c #2A247A",
"we 	c #292788",
"xe 	c #2B2A90",
"ye 	c #30319B",
"ze 	c #3436A5",
"Ae 	c #3F40B4",
"Be 	c #3B3BB3",
"Ce 	c #3230AD",
"De 	c #433EBE",
"Ee 	c #3732B0",
"Fe 	c #3832AC",
"Ge 	c #2A2695",
"He 	c #312C90",
"Ie 	c #2A267B",
"Je 	c #2A2672",
"Ke 	c #29266B",
"Le 	c #27206D",
"Me 	c #281F72",
"Ne 	c #28206D",
"Oe 	c #28206B",
"Pe 	c #241D60",
"Qe 	c #241D61",
"Re 	c #29216A",
"Se 	c #2C256B",
"Te 	c #231469",
"Ue 	c #25156E",
"Ve 	c #290D74",
"We 	c #300F80",
"Xe 	c #311083",
"Ye 	c #34128A",
"Ze 	c #28057B",
"`e 	c #280579",
" f 	c #3C1991",
".f 	c #310D87",
"+f 	c #38198E",
"@f 	c #321486",
"#f 	c #2D0E83",
"$f 	c #2D0F81",
"%f 	c #3E1D90",
"&f 	c #48279A",
"*f 	c #3A1589",
"=f 	c #4A2599",
"-f 	c #512CA0",
";f 	c #421F93",
">f 	c #432297",
",f 	c #38178A",
"'f 	c #3E1E8D",
")f 	c #361685",
"!f 	c #35167E",
"~f 	c #42268D",
"{f 	c #391D84",
"]f 	c #42268C",
"^f 	c #54389F",
"/f 	c #52369C",
"(f 	c #44288F",
"_f 	c #41258C",
":f 	c #3E2289",
"<f 	c #3F238A",
"[f 	c #5B479C",
"}f 	c #C3B2FF",
"|f 	c #C5B4FF",
"1f 	c #C6B5FF",
"2f 	c #554494",
"3f 	c #2E1D6D",
"4f 	c #38297A",
"5f 	c #423386",
"6f 	c #2F2274",
"7f 	c #2D2177",
"8f 	c #2C2076",
"9f 	c #2C1F77",
"0f 	c #362979",
"af 	c #2D206F",
"bf 	c #2C1F6F",
"cf 	c #1B0D64",
"df 	c #302279",
"ef 	c #32247B",
"ff 	c #221B68",
"gf 	c #261F6F",
"hf 	c #342383",
"if 	c #392388",
"jf 	c #522E9C",
"kf 	c #5D35A7",
"lf 	c #5D35A5",
"mf 	c #42228D",
"nf 	c #361B84",
"of 	c #2D197C",
"pf 	c #25176F",
"qf 	c #221668",
"rf 	c #0F1255",
"sf 	c #181C65",
"tf 	c #151764",
"uf 	c #0F0B5F",
"vf 	c #120A60",
"wf 	c #271D73",
"xf 	c #170752",
"yf 	c #1B0C51",
"zf 	c #1E0F50",
"Af 	c #1E104E",
"Bf 	c #160A4C",
"Cf 	c #120C48",
"Df 	c #140B42",
"Ef 	c #291E6A",
"Ff 	c #2B2273",
"Gf 	c #2D257A",
"Hf 	c #2C2680",
"If 	c #2A2685",
"Jf 	c #2B298C",
"Kf 	c #302F95",
"Lf 	c #35339E",
"Mf 	c #2D299A",
"Nf 	c #3A35A9",
"Of 	c #4139B0",
"Pf 	c #362EA5",
"Qf 	c #31289D",
"Rf 	c #332B9A",
"Sf 	c #332C93",
"Tf 	c #2D2683",
"Uf 	c #2A2577",
"Vf 	c #2C2670",
"Wf 	c #2A246A",
"Xf 	c #292369",
"Yf 	c #28226C",
"Zf 	c #27206E",
"`f 	c #251E62",
" g 	c #2B236C",
".g 	c #312972",
"+g 	c #342C75",
"@g 	c #2D1479",
"#g 	c #2C1076",
"$g 	c #311279",
"%g 	c #2C0D74",
"&g 	c #2C0D75",
"*g 	c #351580",
"=g 	c #3A178B",
"-g 	c #39168A",
";g 	c #411E94",
">g 	c #3A178D",
",g 	c #2E0F84",
"'g 	c #37188D",
")g 	c #3C1B90",
"!g 	c #300D83",
"~g 	c #320C83",
"{g 	c #401A91",
"]g 	c #451F96",
"^g 	c #2D0C81",
"/g 	c #401F94",
"(g 	c #6544B7",
"_g 	c #401F92",
":g 	c #381887",
"<g 	c #3C1C89",
"[g 	c #4A2B93",
"}g 	c #40248B",
"|g 	c #452990",
"1g 	c #43278E",
"2g 	c #3B1F86",
"3g 	c #462A91",
"4g 	c #3C2087",
"5g 	c #6C58AD",
"6g 	c #D5C4FF",
"7g 	c #BDACFC",
"8g 	c #CDBCFF",
"9g 	c #5A4999",
"0g 	c #332173",
"ag 	c #362476",
"bg 	c #302176",
"cg 	c #2F2178",
"dg 	c #2E2078",
"eg 	c #302375",
"fg 	c #372A7C",
"gg 	c #493B92",
"hg 	c #40328A",
"ig 	c #3F308B",
"jg 	c #7061BC",
"kg 	c #3D2F87",
"lg 	c #2A1C74",
"mg 	c #281B6A",
"ng 	c #291D67",
"og 	c #2E2368",
"pg 	c #30256A",
"qg 	c #231C6A",
"rg 	c #271F72",
"sg 	c #2D237C",
"tg 	c #352386",
"ug 	c #3D248C",
"vg 	c #512F9F",
"wg 	c #663FB2",
"xg 	c #794EC2",
"yg 	c #764EC1",
"zg 	c #643DB0",
"Ag 	c #4C2A9A",
"Bg 	c #3E218F",
"Cg 	c #382189",
"Dg 	c #261774",
"Eg 	c #24186E",
"Fg 	c #23176B",
"Gg 	c #1F1460",
"Hg 	c #131152",
"Ig 	c #0B0A4E",
"Jg 	c #14105A",
"Kg 	c #1F1866",
"Lg 	c #140B5C",
"Mg 	c #160B5A",
"Ng 	c #180B50",
"Og 	c #1F1351",
"Pg 	c #261B57",
"Qg 	c #251C55",
"Rg 	c #100C49",
"Sg 	c #17114D",
"Tg 	c #0E063F",
"Ug 	c #281F70",
"Vg 	c #292176",
"Wg 	c #2E2888",
"Xg 	c #302B8F",
"Yg 	c #312C92",
"Zg 	c #3A339B",
"`g 	c #3A319A",
" h 	c #382F98",
".h 	c #362D96",
"+h 	c #312A8A",
"@h 	c #2F2983",
"#h 	c #30287B",
"$h 	c #2B2471",
"%h 	c #2C246D",
"&h 	c #2A226B",
"*h 	c #2A2170",
"=h 	c #292073",
"-h 	c #2C2372",
";h 	c #2A226D",
">h 	c #231B66",
",h 	c #29216C",
"'h 	c #211964",
")h 	c #433C80",
"!h 	c #342D70",
"~h 	c #282165",
"{h 	c #241A63",
"]h 	c #251A66",
"^h 	c #291377",
"/h 	c #2A1478",
"(h 	c #2B0F73",
"_h 	c #2C1074",
":h 	c #2E1276",
"<h 	c #301186",
"[h 	c #33148B",
"}h 	c #411E96",
"|h 	c #37158D",
"1h 	c #36148C",
"2h 	c #38108A",
"3h 	c #370F89",
"4h 	c #39168E",
"5h 	c #321088",
"6h 	c #351489",
"7h 	c #412095",
"8h 	c #4A299C",
"9h 	c #442396",
"0h 	c #371786",
"ah 	c #4F3098",
"bh 	c #51329A",
"ch 	c #44248F",
"dh 	c #482893",
"eh 	c #492994",
"fh 	c #452590",
"gh 	c #43238E",
"hh 	c #40208B",
"ih 	c #402981",
"jh 	c #8976C7",
"kh 	c #C3B0FF",
"lh 	c #8F7CCE",
"mh 	c #3F2C7E",
"nh 	c #322074",
"oh 	c #37257B",
"ph 	c #312179",
"qh 	c #302079",
"rh 	c #2F1F78",
"sh 	c #2E1D79",
"th 	c #2C1D78",
"uh 	c #2B1D75",
"vh 	c #34257A",
"wh 	c #5F4FA7",
"xh 	c #6F5EBA",
"yh 	c #5443A1",
"zh 	c #362585",
"Ah 	c #2E1D7D",
"Bh 	c #271676",
"Ch 	c #271674",
"Dh 	c #281871",
"Eh 	c #271E6D",
"Fh 	c #2D207C",
"Gh 	c #382487",
"Hh 	c #412792",
"Ih 	c #4A2899",
"Jh 	c #B891FF",
"Kh 	c #FBCFFF",
"Lh 	c #C99DFF",
"Mh 	c #7C53CB",
"Nh 	c #5936AA",
"Oh 	c #492B9D",
"Ph 	c #311A84",
"Qh 	c #2B1C7B",
"Rh 	c #261971",
"Sh 	c #1D1165",
"Th 	c #3B307E",
"Uh 	c #3B317A",
"Vh 	c #261C61",
"Wh 	c #151050",
"Xh 	c #161153",
"Yh 	c #171056",
"Zh 	c #190F58",
"`h 	c #190F56",
" i 	c #0D0848",
".i 	c #130F4C",
"+i 	c #110B49",
"@i 	c #100A46",
"#i 	c #2A1F6D",
"$i 	c #2A2174",
"%i 	c #2B2379",
"&i 	c #2E2580",
"*i 	c #2E2784",
"=i 	c #302989",
"-i 	c #382E8E",
";i 	c #382F8C",
">i 	c #362D8A",
",i 	c #342B88",
"'i 	c #322982",
")i 	c #30287D",
"!i 	c #2F2878",
"~i 	c #2F2774",
"{i 	c #2C246F",
"]i 	c #2B236E",
"^i 	c #2A226F",
"/i 	c #2A2172",
"(i 	c #291F75",
"_i 	c #201863",
":i 	c #201861",
"<i 	c #1F1760",
"[i 	c #2F286C",
"}i 	c #1E165F",
"|i 	c #261B67",
"1i 	c #2D1273",
"2i 	c #301478",
"3i 	c #341688",
"4i 	c #331587",
"5i 	c #311287",
"6i 	c #2F1085",
"7i 	c #310E84",
"8i 	c #38148E",
"9i 	c #2E0C84",
"0i 	c #5736AB",
"ai 	c #603EB6",
"bi 	c #3E1C94",
"ci 	c #2A0880",
"di 	c #39178F",
"ei 	c #3F1C94",
"fi 	c #2F0B85",
"gi 	c #37138D",
"hi 	c #3A148E",
"ii 	c #3A128F",
"ji 	c #3A1390",
"ki 	c #34108C",
"li 	c #36148D",
"mi 	c #3E1D92",
"ni 	c #3B1A8D",
"oi 	c #381788",
"pi 	c #593AA2",
"qi 	c #5B3CA4",
"ri 	c #472792",
"si 	c #42238A",
"ti 	c #351C77",
"ui 	c #533D90",
"vi 	c #705AAF",
"wi 	c #503A8F",
"xi 	c #341D75",
"yi 	c #422E85",
"zi 	c #3F2B82",
"Ai 	c #36227B",
"Bi 	c #35227C",
"Ci 	c #34217B",
"Di 	c #31217A",
"Ei 	c #2F1E7A",
"Fi 	c #453490",
"Gi 	c #523E9F",
"Hi 	c #433194",
"Ii 	c #3B268B",
"Ji 	c #3C2A90",
"Ki 	c #2D187F",
"Li 	c #2B197C",
"Mi 	c #2D197A",
"Ni 	c #2B1B74",
"Oi 	c #241965",
"Pi 	c #2B2177",
"Qi 	c #342783",
"Ri 	c #3F2A8F",
"Si 	c #482D98",
"Ti 	c #6D4BBC",
"Ui 	c #D1AAFF",
"Vi 	c #FFDDFF",
"Wi 	c #CDA1FF",
"Xi 	c #7049C0",
"Yi 	c #462397",
"Zi 	c #3F2193",
"`i 	c #39228C",
" j 	c #312281",
".j 	c #2F227A",
"+j 	c #271B6F",
"@j 	c #322775",
"#j 	c #2D236C",
"$j 	c #171053",
"%j 	c #151644",
"&j 	c #0F1247",
"*j 	c #0C0E49",
"=j 	c #0C0C4A",
"-j 	c #140F4F",
";j 	c #2E2866",
">j 	c #3D3775",
",j 	c #2F2472",
"'j 	c #2A1F6E",
")j 	c #2D237A",
"!j 	c #2D247D",
"~j 	c #2F2683",
"{j 	c #2F2681",
"]j 	c #332980",
"^j 	c #32297C",
"/j 	c #302778",
"(j 	c #2F2675",
"_j 	c #2E2673",
":j 	c #2D2570",
"<j 	c #2F2470",
"[j 	c #2E236F",
"}j 	c #2D2270",
"|j 	c #2C2170",
"1j 	c #2C2072",
"2j 	c #2A1E74",
"3j 	c #29216E",
"4j 	c #352D7A",
"5j 	c #39317E",
"6j 	c #3F3780",
"7j 	c #332B74",
"8j 	c #1C145F",
"9j 	c #291E6C",
"0j 	c #241967",
"aj 	c #2E1372",
"bj 	c #2F1475",
"cj 	c #301576",
"dj 	c #38168F",
"ej 	c #2C0A82",
"fj 	c #4B29A1",
"gj 	c #5836AE",
"hj 	c #432199",
"ij 	c #3A1690",
"jj 	c #381490",
"kj 	c #391291",
"lj 	c #3B1294",
"mj 	c #3C1397",
"nj 	c #3D1498",
"oj 	c #3E1599",
"pj 	c #3D1697",
"qj 	c #361290",
"rj 	c #3B1992",
"sj 	c #3F1D96",
"tj 	c #3B1991",
"uj 	c #5839A1",
"vj 	c #6849B1",
"wj 	c #5E3FA7",
"xj 	c #4D2E96",
"yj 	c #462590",
"zj 	c #472593",
"Aj 	c #482694",
"Bj 	c #492795",
"Cj 	c #462492",
"Dj 	c #3F2481",
"Ej 	c #6951A9",
"Fj 	c #987FDA",
"Gj 	c #745BB6",
"Hj 	c #422984",
"Ij 	c #3E2782",
"Jj 	c #39227D",
"Kj 	c #37227F",
"Lj 	c #35227E",
"Mj 	c #35207F",
"Nj 	c #331F7E",
"Oj 	c #33207C",
"Pj 	c #2E1B77",
"Qj 	c #331F82",
"Rj 	c #38238C",
"Sj 	c #3E2694",
"Tj 	c #46309D",
"Uj 	c #331B89",
"Vj 	c #321D86",
"Wj 	c #321B83",
"Xj 	c #301C7D",
"Yj 	c #2B176E",
"Zj 	c #25185E",
"`j 	c #2D2379",
" k 	c #352884",
".k 	c #3C278C",
"+k 	c #402590",
"@k 	c #4B299A",
"#k 	c #825BD0",
"$k 	c #9E75ED",
"%k 	c #8259D1",
"&k 	c #5A34AB",
"*k 	c #4C2B9E",
"=k 	c #462A9B",
"-k 	c #39248D",
";k 	c #201564",
">k 	c #120E49",
",k 	c #0F123D",
"'k 	c #121540",
")k 	c #111640",
"!k 	c #0E1241",
"~k 	c #0C1246",
"{k 	c #0E134D",
"]k 	c #131552",
"^k 	c #181657",
"/k 	c #130E4E",
"(k 	c #3D3777",
"_k 	c #383270",
":k 	c #2C216F",
"<k 	c #2B206F",
"[k 	c #2B2275",
"}k 	c #2C2279",
"|k 	c #2F227C",
"1k 	c #2E2578",
"2k 	c #2E2574",
"3k 	c #2D2572",
"4k 	c #2D2271",
"5k 	c #2B1F71",
"6k 	c #2B2370",
"7k 	c #332B78",
"8k 	c #3D3582",
"9k 	c #443C89",
"0k 	c #211966",
"ak 	c #5A529D",
"bk 	c #473F88",
"ck 	c #272066",
"dk 	c #292266",
"ek 	c #3F3782",
"fk 	c #1C115D",
"gk 	c #2F2271",
"hk 	c #271770",
"ik 	c #2D1374",
"jk 	c #2C0F7D",
"kk 	c #3A1891",
"lk 	c #381691",
"mk 	c #35138E",
"nk 	c #300E86",
"ok 	c #34108A",
"pk 	c #310D89",
"qk 	c #330F8B",
"rk 	c #381492",
"sk 	c #3B1495",
"tk 	c #3B1397",
"uk 	c #3C1298",
"vk 	c #3D1399",
"wk 	c #3E149C",
"xk 	c #40169E",
"yk 	c #3F159D",
"zk 	c #3E169B",
"Ak 	c #391495",
"Bk 	c #3E1C97",
"Ck 	c #401E99",
"Dk 	c #3D1B94",
"Ek 	c #37158E",
"Fk 	c #3A198C",
"Gk 	c #391889",
"Hk 	c #56379F",
"Ik 	c #4F2F9A",
"Jk 	c #4A2896",
"Kk 	c #4B2997",
"Lk 	c #4C2A98",
"Mk 	c #47268F",
"Nk 	c #46288A",
"Ok 	c #503592",
"Pk 	c #7658B8",
"Qk 	c #5E43A2",
"Rk 	c #4A2F8E",
"Sk 	c #3D2281",
"Tk 	c #3A217F",
"Uk 	c #38207E",
"Vk 	c #382080",
"Wk 	c #371F81",
"Xk 	c #371E86",
"Yk 	c #381E8B",
"Zk 	c #3D2293",
"`k 	c #40259A",
" l 	c #41269B",
".l 	c #391E93",
"+l 	c #381D8E",
"@l 	c #371D8B",
"#l 	c #361D85",
"$l 	c #341B80",
"%l 	c #342083",
"&l 	c #472796",
"*l 	c #502B9D",
"=l 	c #532CA1",
"-l 	c #50299E",
";l 	c #5330A4",
">l 	c #5436A6",
",l 	c #422B97",
"'l 	c #29177D",
")l 	c #2A1E72",
"!l 	c #251C5D",
"~l 	c #14104B",
"{l 	c #121341",
"]l 	c #11143F",
"^l 	c #0F123F",
"/l 	c #0D1141",
"(l 	c #212360",
"_l 	c #2C2C6C",
":l 	c #130E50",
"<l 	c #140E4E",
"[l 	c #3A3472",
"}l 	c #2A2462",
"|l 	c #2D2173",
"1l 	c #2D2175",
"2l 	c #2E2278",
"3l 	c #2C2376",
"4l 	c #2B2474",
"5l 	c #2C2471",
"6l 	c #2E2372",
"7l 	c #2E2274",
"8l 	c #312976",
"9l 	c #322A77",
"0l 	c #221A67",
"al 	c #403883",
"bl 	c #362E77",
"cl 	c #282167",
"dl 	c #564E9B",
"el 	c #372F7C",
"fl 	c #261B6A",
"gl 	c #2A1574",
"hl 	c #2D117F",
"il 	c #341886",
"jl 	c #3D208E",
"kl 	c #31117C",
"ll 	c #2F0E7F",
"ml 	c #34128D",
"nl 	c #300E89",
"ol 	c #36138B",
"pl 	c #300C86",
"ql 	c #3C1894",
"rl 	c #40199A",
"sl 	c #391195",
"tl 	c #41179D",
"ul 	c #3E149E",
"vl 	c #3F14A1",
"wl 	c #4215A4",
"xl 	c #4316A5",
"yl 	c #4114A3",
"zl 	c #3E13A0",
"Al 	c #3B1699",
"Bl 	c #391792",
"Cl 	c #391790",
"Dl 	c #3A198A",
"El 	c #4B2999",
"Fl 	c #4A2898",
"Gl 	c #492797",
"Hl 	c #482696",
"Il 	c #472691",
"Jl 	c #4A2991",
"Kl 	c #321478",
"Ll 	c #4A2A8F",
"Ml 	c #3F2185",
"Nl 	c #482A8E",
"Ol 	c #3E2084",
"Pl 	c #432587",
"Ql 	c #402586",
"Rl 	c #3B2081",
"Sl 	c #3A1F80",
"Tl 	c #381E7F",
"Ul 	c #351B80",
"Vl 	c #3D2289",
"Wl 	c #3E2291",
"Xl 	c #402397",
"Yl 	c #44279E",
"Zl 	c #41239F",
"`l 	c #391B97",
" m 	c #3E209C",
".m 	c #3D2097",
"+m 	c #3C1F95",
"@m 	c #3B1F8E",
"#m 	c #2B1F69",
"$m 	c #261D70",
"%m 	c #2D207A",
"&m 	c #3A2989",
"*m 	c #493096",
"=m 	c #472A96",
"-m 	c #4E2C9C",
";m 	c #532EA0",
">m 	c #502E9E",
",m 	c #492C9A",
"'m 	c #422893",
")m 	c #352389",
"!m 	c #2D1D7F",
"~m 	c #3F3389",
"{m 	c #3D3281",
"]m 	c #211C52",
"^m 	c #1F1A54",
"/m 	c #131442",
"(m 	c #111242",
"_m 	c #111147",
":m 	c #322F72",
"<m 	c #130E51",
"[m 	c #151052",
"}m 	c #110B4B",
"|m 	c #181250",
"1m 	c #1B1346",
"2m 	c #2C2278",
"3m 	c #2B2378",
"4m 	c #2C2374",
"5m 	c #2E2276",
"6m 	c #2F2379",
"7m 	c #2C1F79",
"8m 	c #2D1F77",
"9m 	c #2D2267",
"0m 	c #2A1F6B",
"am 	c #433B88",
"bm 	c #2A1771",
"cm 	c #290E75",
"dm 	c #351A83",
"em 	c #361B86",
"fm 	c #301179",
"gm 	c #35138C",
"hm 	c #33118C",
"im 	c #391591",
"jm 	c #441CA0",
"km 	c #5830B5",
"lm 	c #471DA5",
"mm 	c #441AA4",
"nm 	c #4217A5",
"om 	c #4317A8",
"pm 	c #4719AD",
"qm 	c #481AAE",
"rm 	c #4517AD",
"sm 	c #4216A7",
"tm 	c #421DA1",
"um 	c #3C1997",
"vm 	c #3A1795",
"wm 	c #3C1A95",
"xm 	c #3C1A93",
"ym 	c #3A1890",
"zm 	c #3B1B8A",
"Am 	c #4E2C9A",
"Bm 	c #4D2B9B",
"Cm 	c #4E2D98",
"Dm 	c #56359E",
"Em 	c #9D79E3",
"Fm 	c #9C7BE4",
"Gm 	c #8867D0",
"Hm 	c #401F87",
"Im 	c #46288C",
"Jm 	c #3D1F83",
"Km 	c #422591",
"Lm 	c #452797",
"Mm 	c #422398",
"Nm 	c #42229D",
"Om 	c #4727A6",
"Pm 	c #4726A8",
"Qm 	c #4221A4",
"Rm 	c #4626A5",
"Sm 	c #44249F",
"Tm 	c #412297",
"Um 	c #3A1D87",
"Vm 	c #27196E",
"Wm 	c #2A1A63",
"Xm 	c #2D1D66",
"Ym 	c #2C1E69",
"Zm 	c #261B69",
"`m 	c #25196D",
" n 	c #31247C",
".n 	c #493898",
"+n 	c #5F49AD",
"@n 	c #442290",
"#n 	c #452592",
"$n 	c #3D228D",
"%n 	c #331E85",
"&n 	c #302083",
"*n 	c #312480",
"=n 	c #413589",
"-n 	c #3E3381",
";n 	c #282059",
">n 	c #252058",
",n 	c #231D59",
"'n 	c #181451",
")n 	c #18124E",
"!n 	c #191255",
"~n 	c #1D155E",
"{n 	c #0E094C",
"]n 	c #0F0949",
"^n 	c #130D4B",
"/n 	c #1C1447",
"(n 	c #302172",
"_n 	c #2C217D",
":n 	c #29227F",
"<n 	c #2B227D",
"[n 	c #2B227B",
"}n 	c #2B207E",
"|n 	c #2C1E7D",
"1n 	c #2D1E79",
"2n 	c #2E206F",
"3n 	c #2E2167",
"4n 	c #2E2262",
"5n 	c #2D2362",
"6n 	c #312770",
"7n 	c #261D6C",
"8n 	c #382F7E",
"9n 	c #3D3483",
"0n 	c #342B7A",
"an 	c #2D2473",
"bn 	c #524998",
"cn 	c #4B4291",
"dn 	c #2B246A",
"en 	c #2F2075",
"fn 	c #280D74",
"gn 	c #361B82",
"hn 	c #341980",
"in 	c #2B1079",
"jn 	c #290E77",
"kn 	c #2E1279",
"ln 	c #32138B",
"mn 	c #34148F",
"nn 	c #371590",
"on 	c #421E98",
"pn 	c #411A97",
"qn 	c #320B8A",
"rn 	c #41199D",
"sn 	c #633BC0",
"tn 	c #4B21AB",
"un 	c #471CA9",
"vn 	c #4519AA",
"wn 	c #471BB0",
"xn 	c #4D1FB6",
"yn 	c #4F21B8",
"zn 	c #4D1EB8",
"An 	c #491DB0",
"Bn 	c #4822A9",
"Cn 	c #421F9D",
"Dn 	c #401D9B",
"En 	c #42209B",
"Fn 	c #401E97",
"Gn 	c #3C1A92",
"Hn 	c #3C1B8E",
"In 	c #3C1C8B",
"Jn 	c #3D1E85",
"Kn 	c #3E1F86",
"Ln 	c #4F2D9D",
"Mn 	c #492593",
"Nn 	c #5632A0",
"On 	c #B58FFC",
"Pn 	c #CCA8FF",
"Qn 	c #C19DFF",
"Rn 	c #6844AE",
"Sn 	c #46228C",
"Tn 	c #3C1B83",
"Un 	c #3F1E86",
"Vn 	c #3F1F84",
"Wn 	c #3E2082",
"Xn 	c #3F2183",
"Yn 	c #4D2C9F",
"Zn 	c #4724A2",
"`n 	c #4A27A9",
" o 	c #512DB3",
".o 	c #5632BA",
"+o 	c #5430B6",
"@o 	c #532FB3",
"#o 	c #4F2CAC",
"$o 	c #4B29A2",
"%o 	c #452497",
"&o 	c #2B1E66",
"*o 	c #291962",
"=o 	c #2C1C65",
"-o 	c #281C70",
";o 	c #3F308D",
">o 	c #4F3B9E",
",o 	c #442990",
"'o 	c #3A2187",
")o 	c #332184",
"!o 	c #2B1D7C",
"~o 	c #241A71",
"{o 	c #231A59",
"]o 	c #190F54",
"^o 	c #150E51",
"/o 	c #1D134F",
"(o 	c #18095A",
"_o 	c #160958",
":o 	c #130C50",
"<o 	c #171252",
"[o 	c #1C1654",
"}o 	c #251D58",
"|o 	c #1B1344",
"1o 	c #1A1243",
"2o 	c #322376",
"3o 	c #31237A",
"4o 	c #2B2182",
"5o 	c #2B2080",
"6o 	c #2C1E7F",
"7o 	c #2E2169",
"8o 	c #2E2264",
"9o 	c #2D2264",
"0o 	c #2B2271",
"ao 	c #322978",
"bo 	c #1F1665",
"co 	c #6057A6",
"do 	c #574F9C",
"eo 	c #302871",
"fo 	c #372F78",
"go 	c #39317A",
"ho 	c #312675",
"io 	c #291D6F",
"jo 	c #392B80",
"ko 	c #37277F",
"lo 	c #33137E",
"mo 	c #301284",
"no 	c #2F0D85",
"oo 	c #2D0E86",
"po 	c #321089",
"qo 	c #411A9B",
"ro 	c #471DA3",
"so 	c #4217A4",
"to 	c #4E21B2",
"uo 	c #4A1CB2",
"vo 	c #4A18B5",
"wo 	c #4E1CBB",
"xo 	c #5521C3",
"yo 	c #5824C6",
"zo 	c #5622C4",
"Ao 	c #5220BD",
"Bo 	c #4A1EAF",
"Co 	c #461DA7",
"Do 	c #451DA4",
"Eo 	c #461EA2",
"Fo 	c #3E1A98",
"Go 	c #3D1C8F",
"Ho 	c #3F2087",
"Io 	c #4A2A95",
"Jo 	c #4F2E99",
"Ko 	c #4D2B99",
"Lo 	c #512C9D",
"Mo 	c #5631A2",
"No 	c #5836A6",
"Oo 	c #5C37A8",
"Po 	c #5C3AAA",
"Qo 	c #532E9F",
"Ro 	c #522D9E",
"So 	c #4F2A9B",
"To 	c #492495",
"Uo 	c #4C2798",
"Vo 	c #9F79E8",
"Wo 	c #A783F1",
"Xo 	c #9773E1",
"Yo 	c #44208C",
"Zo 	c #3D1985",
"`o 	c #4F2B97",
" p 	c #412089",
".p 	c #412088",
"+p 	c #402188",
"@p 	c #402286",
"#p 	c #412289",
"$p 	c #492798",
"%p 	c #5531AF",
"&p 	c #5630B9",
"*p 	c #4E27B6",
"=p 	c #4D26B5",
"-p 	c #5832BB",
";p 	c #643FC3",
">p 	c #6039B8",
",p 	c #5C38B6",
"'p 	c #5732B3",
")p 	c #512CAD",
"!p 	c #4A26A2",
"~p 	c #3D1B8B",
"{p 	c #2F1B7C",
"]p 	c #2A1B78",
"^p 	c #2C1F67",
"/p 	c #26165F",
"(p 	c #2E206B",
"_p 	c #291C74",
":p 	c #2B1778",
"<p 	c #452C91",
"[p 	c #42288D",
"}p 	c #3C2287",
"|p 	c #361E80",
"1p 	c #311D7C",
"2p 	c #2E1F7A",
"3p 	c #180E53",
"4p 	c #1F1552",
"5p 	c #1B0C5F",
"6p 	c #1A1359",
"7p 	c #241E5C",
"8p 	c #302863",
"9p 	c #261E57",
"0p 	c #2D2078",
"ap 	c #251778",
"bp 	c #322486",
"cp 	c #332587",
"dp 	c #2E2081",
"ep 	c #302283",
"fp 	c #31227F",
"gp 	c #2F2179",
"hp 	c #322577",
"ip 	c #322575",
"jp 	c #241B6C",
"kp 	c #262066",
"lp 	c #251F65",
"mp 	c #251F67",
"np 	c #332B76",
"op 	c #362E79",
"pp 	c #231A69",
"qp 	c #312577",
"rp 	c #1F1365",
"sp 	c #33277B",
"tp 	c #483C92",
"up 	c #7266BC",
"vp 	c #6E62B8",
"wp 	c #35277E",
"xp 	c #2A1071",
"yp 	c #2F1576",
"zp 	c #2D1175",
"Ap 	c #2F1175",
"Bp 	c #2F1077",
"Cp 	c #301178",
"Dp 	c #381687",
"Ep 	c #3C1892",
"Fp 	c #3D1993",
"Gp 	c #3C1594",
"Hp 	c #4114A2",
"Ip 	c #4716AD",
"Jp 	c #4814B4",
"Kp 	c #541DC3",
"Lp 	c #5117C4",
"Mp 	c #6126D6",
"Np 	c #662ADA",
"Op 	c #6428D6",
"Pp 	c #6D2EDD",
"Qp 	c #652AD4",
"Rp 	c #5A21C8",
"Sp 	c #531FC1",
"Tp 	c #4D1AB3",
"Up 	c #4919A9",
"Vp 	c #461BA0",
"Wp 	c #431C99",
"Xp 	c #401D95",
"Yp 	c #3E1B8F",
"Zp 	c #3F2191",
"`p 	c #402292",
" q 	c #37187F",
".q 	c #401F88",
"+q 	c #44238C",
"@q 	c #45248D",
"#q 	c #4A2994",
"$q 	c #4D2C97",
"%q 	c #42208E",
"&q 	c #4F2D9B",
"*q 	c #52309E",
"=q 	c #4B2795",
"-q 	c #532F9B",
";q 	c #56309F",
">q 	c #5832A1",
",q 	c #6440AE",
"'q 	c #6943B2",
")q 	c #512B9C",
"!q 	c #542DA0",
"~q 	c #512C9E",
"{q 	c #532C9F",
"]q 	c #542FA1",
"^q 	c #4D289A",
"/q 	c #472293",
"(q 	c #462494",
"_q 	c #5530A1",
":q 	c #5735A5",
"<q 	c #401E8C",
"[q 	c #43218F",
"}q 	c #3F1E89",
"|q 	c #4D2D8E",
"1q 	c #7752C3",
"2q 	c #6C42D4",
"3q 	c #5123CB",
"4q 	c #5B2ADB",
"5q 	c #5A2BD3",
"6q 	c #5C2FBD",
"7q 	c #7147B5",
"8q 	c #855DCD",
"9q 	c #623AB7",
"0q 	c #6B41C9",
"aq 	c #562DB9",
"bq 	c #3D159C",
"cq 	c #5630A9",
"dq 	c #28107E",
"eq 	c #2B1883",
"fq 	c #251376",
"gq 	c #221763",
"hq 	c #241968",
"iq 	c #2A1D65",
"jq 	c #302069",
"kq 	c #2F1F6A",
"lq 	c #32217D",
"mq 	c #2B1A78",
"nq 	c #2C1C75",
"oq 	c #2C216D",
"pq 	c #30266D",
"qq 	c #261B5D",
"rq 	c #332970",
"sq 	c #50468D",
"tq 	c #150E54",
"uq 	c #170C5A",
"vq 	c #180D5C",
"wq 	c #1B1458",
"xq 	c #150F57",
"yq 	c #17105E",
"zq 	c #1D1663",
"Aq 	c #2A2076",
"Bq 	c #38288A",
"Cq 	c #2F1E84",
"Dq 	c #2A1A7D",
"Eq 	c #2E1E80",
"Fq 	c #322382",
"Gq 	c #2C1D7A",
"Hq 	c #2C1E76",
"Iq 	c #312476",
"Jq 	c #312879",
"Kq 	c #433A89",
"Lq 	c #443B8A",
"Mq 	c #312877",
"Nq 	c #221968",
"Oq 	c #1E1566",
"Pq 	c #22196A",
"Qq 	c #251C6F",
"Rq 	c #22196C",
"Sq 	c #453B91",
"Tq 	c #8E84DA",
"Uq 	c #8C82D8",
"Vq 	c #3D3187",
"Wq 	c #1D0C68",
"Xq 	c #1E0B67",
"Yq 	c #23106A",
"Zq 	c #2B196D",
"`q 	c #2F1674",
" r 	c #2C1172",
".r 	c #2F1173",
"+r 	c #301075",
"@r 	c #311176",
"#r 	c #321179",
"$r 	c #32117C",
"%r 	c #38158D",
"&r 	c #3B188C",
"*r 	c #3F1C92",
"=r 	c #41189A",
"-r 	c #4319A1",
";r 	c #4717A7",
">r 	c #4817AF",
",r 	c #4C15B8",
"'r 	c #6F34DE",
")r 	c #6D2FD8",
"!r 	c #7031D7",
"~r 	c #6B2DCC",
"{r 	c #6D2EC7",
"]r 	c #6528C4",
"^r 	c #6527D2",
"/r 	c #5D23CF",
"(r 	c #541EBE",
"_r 	c #4C1AAF",
":r 	c #4718A2",
"<r 	c #421A97",
"[r 	c #3C198D",
"}r 	c #361888",
"|r 	c #432589",
"1r 	c #411F8D",
"2r 	c #3F1D8B",
"3r 	c #5533A3",
"4r 	c #442292",
"5r 	c #4D2796",
"6r 	c #542E9B",
"7r 	c #4E2897",
"8r 	c #4F2998",
"9r 	c #5933A2",
"0r 	c #5B35A4",
"ar 	c #5630A1",
"br 	c #5A34A5",
"cr 	c #5932A5",
"dr 	c #552EA1",
"er 	c #452393",
"fr 	c #401E8E",
"gr 	c #472595",
"hr 	c #5A38A8",
"ir 	c #5230A0",
"jr 	c #3F1D8D",
"kr 	c #482792",
"lr 	c #452288",
"mr 	c #5934A8",
"nr 	c #5123C1",
"or 	c #4F1ED1",
"pr 	c #6532E7",
"qr 	c #6636D8",
"rr 	c #7B4FC8",
"sr 	c #B58CEA",
"tr 	c #F9D3FF",
"ur 	c #D6B0FF",
"vr 	c #9C75E2",
"wr 	c #673CBF",
"xr 	c #5529BA",
"yr 	c #4A23A4",
"zr 	c #684DC2",
"Ar 	c #4730A2",
"Br 	c #2A1481",
"Cr 	c #240F76",
"Dr 	c #281679",
"Er 	c #2B1A76",
"Fr 	c #281C6E",
"Gr 	c #31236E",
"Hr 	c #2E1E67",
"Ir 	c #301F6D",
"Jr 	c #210E67",
"Kr 	c #22116D",
"Lr 	c #281775",
"Mr 	c #291A75",
"Nr 	c #271971",
"Or 	c #281A71",
"Pr 	c #271C68",
"Qr 	c #2C2068",
"Rr 	c #180E55",
"Sr 	c #3A2F7B",
"Tr 	c #504591",
"Ur 	c #120851",
"Vr 	c #1A1356",
"Wr 	c #1A125B",
"Xr 	c #1D1261",
"Yr 	c #181562",
"Zr 	c #15115D",
"`r 	c #191258",
" s 	c #31257B",
".s 	c #332680",
"+s 	c #3E2E90",
"@s 	c #38288B",
"#s 	c #463699",
"$s 	c #49399C",
"%s 	c #302082",
"&s 	c #362786",
"*s 	c #3D2E8B",
"=s 	c #2F207B",
"-s 	c #322678",
";s 	c #473B8D",
">s 	c #483C8E",
",s 	c #2F2473",
"'s 	c #302573",
")s 	c #2E2371",
"!s 	c #2D256E",
"~s 	c #291F68",
"{s 	c #271D66",
"]s 	c #14085A",
"^s 	c #877BCF",
"/s 	c #9B8FE3",
"(s 	c #6054AA",
"_s 	c #504099",
":s 	c #3A2A83",
"<s 	c #1F0F67",
"[s 	c #1C0D62",
"}s 	c #1E0B64",
"|s 	c #210D66",
"1s 	c #230C67",
"2s 	c #2B1270",
"3s 	c #301274",
"4s 	c #301276",
"5s 	c #311377",
"6s 	c #341282",
"7s 	c #401D93",
"8s 	c #49269C",
"9s 	c #3B1795",
"0s 	c #431A9E",
"as 	c #461CA6",
"bs 	c #4919AB",
"cs 	c #5A25BE",
"ds 	c #5821BA",
"es 	c #6730C2",
"fs 	c #6B35BE",
"gs 	c #C48EFF",
"hs 	c #F0BCFF",
"is 	c #D5A1FF",
"js 	c #834EC0",
"ks 	c #6A31CC",
"ls 	c #6228D2",
"ms 	c #5822C2",
"ns 	c #4E1CB1",
"os 	c #4819A3",
"ps 	c #431B98",
"qs 	c #401A93",
"rs 	c #3D1A8E",
"ss 	c #4F2EA1",
"ts 	c #351787",
"us 	c #3D1D8C",
"vs 	c #43228B",
"ws 	c #452391",
"xs 	c #512F9D",
"ys 	c #6C4AB8",
"zs 	c #6F4DBD",
"As 	c #5331A1",
"Bs 	c #532D9C",
"Cs 	c #5731A0",
"Ds 	c #5731A2",
"Es 	c #5832A3",
"Fs 	c #562FA2",
"Gs 	c #5831A6",
"Hs 	c #512A9F",
"Is 	c #542DA2",
"Js 	c #4B2697",
"Ks 	c #3C1A8A",
"Ls 	c #422090",
"Ms 	c #432191",
"Ns 	c #452394",
"Os 	c #4B24A5",
"Ps 	c #4719B7",
"Qs 	c #5425CD",
"Rs 	c #6738D6",
"Ss 	c #673DBD",
"Ts 	c #9B76C4",
"Us 	c #FCDCFF",
"Vs 	c #FFF3FF",
"Ws 	c #FFE3FF",
"Xs 	c #F0CEFF",
"Ys 	c #7A53C0",
"Zs 	c #5B31B7",
"`s 	c #5226B9",
" t 	c #4219A6",
".t 	c #4E2AB0",
"+t 	c #8569E2",
"@t 	c #533CAE",
"#t 	c #2C1683",
"$t 	c #271279",
"%t 	c #2E1A7D",
"&t 	c #423489",
"*t 	c #312277",
"=t 	c #2C1D6E",
"-t 	c #322374",
";t 	c #312372",
">t 	c #332475",
",t 	c #2D1F6E",
"'t 	c #2A1A65",
")t 	c #281861",
"!t 	c #2E1D6B",
"~t 	c #382783",
"{t 	c #503F9B",
"]t 	c #2C1B79",
"^t 	c #150B54",
"/t 	c #302571",
"(t 	c #2E2564",
"_t 	c #181154",
":t 	c #1E1362",
"<t 	c #1B1360",
"[t 	c #1D1666",
"}t 	c #1A1265",
"|t 	c #140D5D",
"1t 	c #170F58",
"2t 	c #30247A",
"3t 	c #33277D",
"4t 	c #352882",
"5t 	c #423294",
"6t 	c #5949AC",
"7t 	c #8B7BDE",
"8t 	c #8C7CDF",
"9t 	c #473799",
"0t 	c #28187A",
"at 	c #493A99",
"bt 	c #6657B4",
"ct 	c #392A87",
"dt 	c #362782",
"et 	c #32247C",
"ft 	c #30227A",
"gt 	c #302476",
"ht 	c #2B206E",
"it 	c #281E67",
"jt 	c #1B0F61",
"kt 	c #4F4395",
"lt 	c #6E62B6",
"mt 	c #665AAE",
"nt 	c #7769C0",
"ot 	c #55479E",
"pt 	c #302078",
"qt 	c #1C0E63",
"rt 	c #1D0E5F",
"st 	c #433187",
"tt 	c #39257E",
"ut 	c #2E1374",
"vt 	c #311375",
"wt 	c #33127A",
"xt 	c #33127B",
"yt 	c #33127D",
"zt 	c #341280",
"At 	c #351383",
"Bt 	c #452298",
"Ct 	c #3C1896",
"Dt 	c #40189F",
"Et 	c #4517AB",
"Ft 	c #511FB6",
"Gt 	c #5C28B9",
"Ht 	c #733FC5",
"It 	c #9966DD",
"Jt 	c #FFD0FF",
"Kt 	c #FFE7FF",
"Lt 	c #FFE5FF",
"Mt 	c #BD8DE3",
"Nt 	c #6B34C5",
"Ot 	c #622BD1",
"Pt 	c #5623C0",
"Qt 	c #4E1EB0",
"Rt 	c #481CA3",
"St 	c #461E9B",
"Tt 	c #412093",
"Ut 	c #5436A8",
"Vt 	c #46289A",
"Wt 	c #391B8D",
"Xt 	c #46258E",
"Yt 	c #5C3AA8",
"Zt 	c #603EAE",
"`t 	c #5C35A8",
" u 	c #5D36A9",
".u 	c #5A33A6",
"+u 	c #5730A5",
"@u 	c #552EA3",
"#u 	c #5A33A8",
"$u 	c #5730A7",
"%u 	c #4F2A9E",
"&u 	c #492496",
"*u 	c #5432A2",
"=u 	c #6240B0",
"-u 	c #422091",
";u 	c #49269A",
">u 	c #4D28A9",
",u 	c #5025BD",
"'u 	c #5C2ECC",
")u 	c #6033C4",
"!u 	c #6139AC",
"~u 	c #AC89CD",
"{u 	c #FFF2FF",
"]u 	c #FDE1F7",
"^u 	c #FFEDFF",
"/u 	c #7D57BC",
"(u 	c #5930B0",
"_u 	c #4D24B0",
":u 	c #431DA8",
"<u 	c #502CB0",
"[u 	c #5E42BB",
"}u 	c #442D9F",
"|u 	c #311B88",
"1u 	c #2E1982",
"2u 	c #2C187B",
"3u 	c #403186",
"4u 	c #2C1B6B",
"5u 	c #301E70",
"6u 	c #3E2B84",
"7u 	c #5746A2",
"8u 	c #7160BC",
"9u 	c #170D56",
"0u 	c #130854",
"au 	c #160B57",
"bu 	c #170C58",
"cu 	c #2E2566",
"du 	c #16124F",
"eu 	c #181155",
"fu 	c #1A125D",
"gu 	c #201365",
"hu 	c #22166C",
"iu 	c #251872",
"ju 	c #2E2179",
"ku 	c #32257D",
"lu 	c #342781",
"mu 	c #352587",
"nu 	c #4E3EA1",
"ou 	c #8474D7",
"pu 	c #8878DB",
"qu 	c #453597",
"ru 	c #251577",
"su 	c #443594",
"tu 	c #5F50AD",
"uu 	c #34287A",
"vu 	c #2B216A",
"wu 	c #201563",
"xu 	c #35297B",
"yu 	c #4E4296",
"zu 	c #3D3185",
"Au 	c #332678",
"Bu 	c #3D2E81",
"Cu 	c #2D1472",
"Du 	c #2E1475",
"Eu 	c #331579",
"Fu 	c #34137E",
"Gu 	c #361484",
"Hu 	c #411C9D",
"Iu 	c #3E159F",
"Ju 	c #3D11A4",
"Ku 	c #4314AE",
"Lu 	c #511EBB",
"Mu 	c #5823B9",
"Nu 	c #6834BA",
"Ou 	c #BE8DFF",
"Pu 	c #FFD9FF",
"Qu 	c #DEB3FB",
"Ru 	c #6A36BF",
"Su 	c #622BCF",
"Tu 	c #5623BE",
"Uu 	c #4E1EAE",
"Vu 	c #481DA2",
"Wu 	c #451F99",
"Xu 	c #421F95",
"Yu 	c #3D1F91",
"Zu 	c #37198B",
"`u 	c #3E1D85",
" v 	c #402085",
".v 	c #532D9E",
"+v 	c #5831A4",
"@v 	c #5730A3",
"#v 	c #5C35AA",
"$v 	c #5D36AB",
"%v 	c #5B34A9",
"&v 	c #5932A9",
"*v 	c #5A33AA",
"=v 	c #643DB4",
"-v 	c #6942B9",
";v 	c #5F37B1",
">v 	c #512BA2",
",v 	c #5432A3",
"'v 	c #5230A1",
")v 	c #7856C7",
"!v 	c #714FC0",
"~v 	c #4E2C9D",
"{v 	c #462495",
"]v 	c #401E8F",
"^v 	c #3C1A8B",
"/v 	c #3E1C8D",
"(v 	c #5128B4",
"_v 	c #592CC3",
":v 	c #5B2EBF",
"<v 	c #6036B2",
"[v 	c #9D77CC",
"}v 	c #F2D0FF",
"|v 	c #FFF0FF",
"1v 	c #FFEFFF",
"2v 	c #DFBCFF",
"3v 	c #6740AA",
"4v 	c #5C34AF",
"5v 	c #441D9E",
"6v 	c #46239B",
"7v 	c #34198C",
"8v 	c #341C8C",
"9v 	c #2F1882",
"0v 	c #2B177A",
"av 	c #352379",
"bv 	c #412F85",
"cv 	c #4B398F",
"dv 	c #342276",
"ev 	c #2C196A",
"fv 	c #301D6C",
"gv 	c #3C2982",
"hv 	c #4C3995",
"iv 	c #53409C",
"jv 	c #281773",
"kv 	c #2A1F63",
"lv 	c #302569",
"mv 	c #2F256E",
"nv 	c #433982",
"ov 	c #170D52",
"pv 	c #201865",
"qv 	c #2D1970",
"rv 	c #35227B",
"sv 	c #332481",
"tv 	c #44388A",
"uv 	c #30237B",
"vv 	c #31247E",
"wv 	c #2A1A7C",
"xv 	c #3F2F92",
"yv 	c #48389B",
"zv 	c #312183",
"Av 	c #352685",
"Bv 	c #31237B",
"Cv 	c #34287E",
"Dv 	c #34287C",
"Ev 	c #2F2377",
"Fv 	c #322776",
"Gv 	c #352A79",
"Hv 	c #302574",
"Iv 	c #281D69",
"Jv 	c #16075A",
"Kv 	c #311677",
"Lv 	c #311579",
"Mv 	c #32137A",
"Nv 	c #371586",
"Ov 	c #330F89",
"Pv 	c #48259D",
"Qv 	c #4520A1",
"Rv 	c #3F16A2",
"Sv 	c #3C12A6",
"Tv 	c #4315B3",
"Uv 	c #4B1BBD",
"Vv 	c #511EC3",
"Wv 	c #5A27C4",
"Xv 	c #521EAF",
"Yv 	c #9866E3",
"Zv 	c #FFD4FF",
"`v 	c #FFE0FF",
" w 	c #B083D6",
".w 	c #6835BE",
"+w 	c #5F2BCB",
"@w 	c #5524BB",
"#w 	c #4B1EAC",
"$w 	c #451C9E",
"%w 	c #3D1F8F",
"&w 	c #40208F",
"*w 	c #422287",
"=w 	c #5634A4",
"-w 	c #5D36AD",
";w 	c #562FA6",
">w 	c #5A32AC",
",w 	c #643CB6",
"'w 	c #6941BB",
")w 	c #6038B2",
"!w 	c #502AA1",
"~w 	c #5530A4",
"{w 	c #502E9F",
"]w 	c #442293",
"^w 	c #4C2A9B",
"/w 	c #6442B3",
"(w 	c #5F3DAE",
"_w 	c #512FA0",
":w 	c #472885",
"<w 	c #48288D",
"[w 	c #4A22A6",
"}w 	c #5026BA",
"|w 	c #582BC4",
"1w 	c #5C2FBE",
"2w 	c #7247BB",
"3w 	c #9169C9",
"4w 	c #CAA4FB",
"5w 	c #B28EE6",
"6w 	c #8760CB",
"7w 	c #6841B8",
"8w 	c #714AC7",
"9w 	c #411D97",
"0w 	c #321886",
"aw 	c #331B8B",
"bw 	c #301886",
"cw 	c #2C157F",
"dw 	c #2F197E",
"ew 	c #331F80",
"fw 	c #37247D",
"gw 	c #5D4AA4",
"hw 	c #6B58B2",
"iw 	c #47348E",
"jw 	c #321F71",
"kw 	c #33207A",
"lw 	c #352A6E",
"mw 	c #42377C",
"nw 	c #30266F",
"ow 	c #4E448D",
"pw 	c #473D86",
"qw 	c #1B115A",
"rw 	c #1C1855",
"sw 	c #231867",
"tw 	c #2F1E7C",
"uw 	c #2C167B",
"vw 	c #442D97",
"ww 	c #624DB2",
"xw 	c #3D3280",
"yw 	c #2E1F7C",
"zw 	c #322284",
"Aw 	c #2C1C7F",
"Bw 	c #342486",
"Cw 	c #372789",
"Dw 	c #342584",
"Ew 	c #2D1E7D",
"Fw 	c #2D1E7B",
"Gw 	c #372981",
"Hw 	c #372980",
"Iw 	c #342779",
"Jw 	c #372B77",
"Kw 	c #2A2065",
"Lw 	c #32167A",
"Mw 	c #33147B",
"Nw 	c #35147D",
"Ow 	c #361482",
"Pw 	c #371585",
"Qw 	c #35118B",
"Rw 	c #421E9C",
"Sw 	c #3F16A0",
"Tw 	c #3D13A7",
"Uw 	c #4214B4",
"Vw 	c #4918C1",
"Ww 	c #3F0DBC",
"Xw 	c #6733E0",
"Yw 	c #723DE3",
"Zw 	c #6D38D1",
"`w 	c #925FE8",
" x 	c #B684FF",
".x 	c #AC7CE9",
"+x 	c #693AAE",
"@x 	c #5F2EBE",
"#x 	c #5928C2",
"$x 	c #5121B3",
"%x 	c #491DA6",
"&x 	c #441B9B",
"*x 	c #411B94",
"=x 	c #3A1C8E",
"-x 	c #391A8F",
";x 	c #3D1E93",
">x 	c #422496",
",x 	c #3D1D82",
"'x 	c #5F38AD",
")x 	c #6039B0",
"!x 	c #5F38AF",
"~x 	c #5C34AE",
"{x 	c #5B33AD",
"]x 	c #572FA9",
"^x 	c #562EA9",
"/x 	c #5B33AE",
"(x 	c #5F37B2",
"_x 	c #5A32AD",
":x 	c #512BA4",
"<x 	c #502B9F",
"[x 	c #4F2D9E",
"}x 	c #482697",
"|x 	c #411F90",
"1x 	c #3F1D8E",
"2x 	c #5331A2",
"3x 	c #5634A5",
"4x 	c #472596",
"5x 	c #4C3085",
"6x 	c #472A87",
"7x 	c #4621A2",
"8x 	c #4E22BD",
"9x 	c #5525D1",
"0x 	c #592AC8",
"ax 	c #6234C8",
"bx 	c #5B2FBA",
"cx 	c #592DB6",
"dx 	c #592CBB",
"ex 	c #6B40CE",
"fx 	c #6C44CB",
"gx 	c #44209A",
"hx 	c #432388",
"ix 	c #3E2384",
"jx 	c #3B1F8D",
"kx 	c #351A8B",
"lx 	c #341A87",
"mx 	c #351C84",
"nx 	c #321C80",
"ox 	c #291972",
"px 	c #2B176C",
"qx 	c #2D196E",
"rx 	c #3C2784",
"sx 	c #321D7A",
"tx 	c #2E176F",
"ux 	c #301A6F",
"vx 	c #2F1B70",
"wx 	c #46378C",
"xx 	c #433487",
"yx 	c #2F236D",
"zx 	c #372C71",
"Ax 	c #180E57",
"Bx 	c #191454",
"Cx 	c #161356",
"Dx 	c #1B135E",
"Ex 	c #342285",
"Fx 	c #372186",
"Gx 	c #361D83",
"Hx 	c #33197E",
"Ix 	c #452B8E",
"Jx 	c #4E3497",
"Kx 	c #40268B",
"Lx 	c #432795",
"Mx 	c #684CBD",
"Nx 	c #826BD5",
"Ox 	c #45378F",
"Px 	c #2B1C79",
"Qx 	c #342487",
"Rx 	c #2F1F81",
"Sx 	c #2C1D7C",
"Tx 	c #2F207F",
"Ux 	c #30217E",
"Vx 	c #322380",
"Wx 	c #32237E",
"Xx 	c #352681",
"Yx 	c #35277F",
"Zx 	c #201561",
"`x 	c #18105B",
" y 	c #1D1560",
".y 	c #1E1361",
"+y 	c #35147F",
"@y 	c #3D159A",
"#y 	c #3E14A4",
"$y 	c #4114AF",
"%y 	c #4314BA",
"&y 	c #4C1AC9",
"*y 	c #5422D3",
"=y 	c #7A45F5",
"-y 	c #6832DE",
";y 	c #5B27C9",
">y 	c #6B38D1",
",y 	c #5521B1",
"'y 	c #602FBE",
")y 	c #5625BC",
"!y 	c #5022B8",
"~y 	c #4A1DAB",
"{y 	c #461DA1",
"]y 	c #441E98",
"^y 	c #3F1E91",
"/y 	c #3B1D8D",
"(y 	c #35168B",
"_y 	c #3E2092",
":y 	c #422291",
"<y 	c #3B1B80",
"[y 	c #422189",
"}y 	c #562FA4",
"|y 	c #5932A7",
"1y 	c #613AB1",
"2y 	c #6139B3",
"3y 	c #623AB4",
"4y 	c #5830AB",
"5y 	c #552DA8",
"6y 	c #5832AB",
"7y 	c #542FA3",
"8y 	c #4D2B9C",
"9y 	c #432192",
"0y 	c #452885",
"ay 	c #4721A8",
"by 	c #4E25C3",
"cy 	c #5221D4",
"dy 	c #5523DA",
"ey 	c #6533E2",
"fy 	c #7847F0",
"gy 	c #5E2ED0",
"hy 	c #5929CA",
"iy 	c #5628C8",
"jy 	c #4F23BE",
"ky 	c #4319A9",
"ly 	c #441FA0",
"my 	c #432390",
"ny 	c #351988",
"oy 	c #301586",
"py 	c #361B8C",
"qy 	c #3F2592",
"ry 	c #381F87",
"sy 	c #372281",
"ty 	c #2C1B77",
"uy 	c #35207D",
"vy 	c #311C7B",
"wy 	c #341E80",
"xy 	c #331E7D",
"yy 	c #2F1870",
"zy 	c #382581",
"Ay 	c #32227A",
"By 	c #4F4095",
"Cy 	c #4C3D90",
"Dy 	c #342872",
"Ey 	c #2E226C",
"Fy 	c #160C55",
"Gy 	c #130950",
"Hy 	c #1F1764",
"Iy 	c #372684",
"Jy 	c #412A92",
"Ky 	c #40278F",
"Ly 	c #53379E",
"My 	c #7D61C7",
"Ny 	c #8D71D7",
"Oy 	c #684CB3",
"Py 	c #412490",
"Qy 	c #3C1E8E",
"Ry 	c #422599",
"Sy 	c #412794",
"Ty 	c #2C1C7E",
"Uy 	c #463698",
"Vy 	c #48389A",
"Wy 	c #3F308F",
"Xy 	c #352683",
"Yy 	c #382984",
"Zy 	c #251671",
"`y 	c #50429A",
" z 	c #42348B",
".z 	c #504392",
"+z 	c #372A79",
"@z 	c #190C5B",
"#z 	c #302372",
"$z 	c #300F7A",
"%z 	c #381686",
"&z 	c #411D99",
"*z 	c #37138F",
"=z 	c #320E8A",
"-z 	c #371492",
";z 	c #361391",
">z 	c #3A1596",
",z 	c #3D189C",
"'z 	c #431AA7",
")z 	c #451AB2",
"!z 	c #3F10B4",
"~z 	c #5221CB",
"{z 	c #5725D6",
"]z 	c #5621D5",
"^z 	c #5B26D8",
"/z 	c #5B27D4",
"(z 	c #5721CD",
"_z 	c #5724C7",
":z 	c #4F22B3",
"<z 	c #451BA3",
"[z 	c #3E1D8E",
"}z 	c #36178C",
"|z 	c #34178B",
"1z 	c #37177C",
"2z 	c #442489",
"3z 	c #3D1C84",
"4z 	c #492891",
"5z 	c #482790",
"6z 	c #4A2992",
"7z 	c #44238E",
"8z 	c #502E9C",
"9z 	c #613AAF",
"0z 	c #623BB2",
"az 	c #5E37AE",
"bz 	c #5D35AF",
"cz 	c #5931AC",
"dz 	c #572FAA",
"ez 	c #542EA5",
"fz 	c #4F2CA0",
"gz 	c #512EA2",
"hz 	c #522FA3",
"iz 	c #4C299D",
"jz 	c #4E2B9F",
"kz 	c #5D3AAE",
"lz 	c #5532A6",
"mz 	c #472498",
"nz 	c #4A279B",
"oz 	c #442195",
"pz 	c #482599",
"qz 	c #442398",
"rz 	c #4421A1",
"sz 	c #461EB2",
"tz 	c #481EBE",
"uz 	c #4E1ECA",
"vz 	c #5222CE",
"wz 	c #5727CB",
"xz 	c #4E1FBB",
"yz 	c #5728C2",
"zz 	c #582AC8",
"Az 	c #4C20BD",
"Bz 	c #4318B0",
"Cz 	c #411AA9",
"Dz 	c #421FA1",
"Ez 	c #411F98",
"Fz 	c #3B1C93",
"Gz 	c #230778",
"Hz 	c #5B3FB0",
"Iz 	c #8B6FDD",
"Jz 	c #593EA9",
"Kz 	c #291078",
"Lz 	c #301971",
"Mz 	c #331C76",
"Nz 	c #462E90",
"Oz 	c #573EA3",
"Pz 	c #4B3297",
"Qz 	c #423584",
"Rz 	c #564A96",
"Sz 	c #150E52",
"Tz 	c #191457",
"Uz 	c #281C72",
"Vz 	c #2A1979",
"Wz 	c #2E197E",
"Xz 	c #3A238B",
"Yz 	c #493098",
"Zz 	c #7054BB",
"`z 	c #E8CCFF",
" A 	c #FFE8FF",
".A 	c #CBABFF",
"+A 	c #4A2D9B",
"@A 	c #432597",
"#A 	c #2F1087",
"$A 	c #2B117F",
"%A 	c #200F6D",
"&A 	c #201466",
"*A 	c #302180",
"=A 	c #332385",
"-A 	c #2B1B7D",
";A 	c #3C2C8E",
">A 	c #3D2D8F",
",A 	c #332483",
"'A 	c #392A89",
")A 	c #291A79",
"!A 	c #42338E",
"~A 	c #392B83",
"{A 	c #291C6B",
"]A 	c #332675",
"^A 	c #4A3D8D",
"/A 	c #372A7A",
"(A 	c #2E2170",
"_A 	c #554897",
":A 	c #463A86",
"<A 	c #22076E",
"[A 	c #300E7E",
"}A 	c #3B1793",
"|A 	c #36128E",
"1A 	c #3A1692",
"2A 	c #39158F",
"3A 	c #381498",
"4A 	c #371399",
"5A 	c #371494",
"6A 	c #431BA2",
"7A 	c #4B1EB9",
"8A 	c #4C1DC1",
"9A 	c #4A19C3",
"0A 	c #4F1DCA",
"aA 	c #4F1DCC",
"bA 	c #4D18C8",
"cA 	c #4D1CC3",
"dA 	c #5426BD",
"eA 	c #4D22AF",
"fA 	c #451DA2",
"gA 	c #3B1D8F",
"hA 	c #3A1C8C",
"iA 	c #371A8E",
"jA 	c #3A1D91",
"kA 	c #402196",
"lA 	c #3C1E90",
"mA 	c #412186",
"nA 	c #3E1E83",
"oA 	c #4B2A92",
"pA 	c #4B2A93",
"qA 	c #3C1B84",
"rA 	c #613AAD",
"sA 	c #5E37AC",
"tA 	c #5C35AC",
"uA 	c #653EB5",
"vA 	c #552FA6",
"wA 	c #502DA1",
"xA 	c #4D2A9E",
"yA 	c #4B289C",
"zA 	c #452296",
"AA 	c #421F9F",
"BA 	c #421DA8",
"CA 	c #441CB1",
"DA 	c #461DB9",
"EA 	c #491DBC",
"FA 	c #4D20BB",
"GA 	c #4F21B7",
"HA 	c #5124B3",
"IA 	c #4D20AE",
"JA 	c #4A1FAD",
"KA 	c #461AAF",
"LA 	c #4217AD",
"MA 	c #4018AD",
"NA 	c #3F19AC",
"OA 	c #38139F",
"PA 	c #310D91",
"QA 	c #3C1D95",
"RA 	c #5335A7",
"SA 	c #6D51C0",
"TA 	c #4C309E",
"UA 	c #341984",
"VA 	c #30177D",
"WA 	c #301974",
"XA 	c #40278C",
"YA 	c #493095",
"ZA 	c #40278D",
"`A 	c #331E7B",
" B 	c #301D77",
".B 	c #332079",
"+B 	c #433685",
"@B 	c #170D54",
"#B 	c #1B135C",
"$B 	c #2B1A7A",
"%B 	c #311C81",
"&B 	c #3F268E",
"*B 	c #4A3199",
"=B 	c #795EC5",
"-B 	c #F0D4FF",
";B 	c #FFEBFF",
">B 	c #D8BCFF",
",B 	c #583BA7",
"'B 	c #3D2190",
")B 	c #3F2593",
"!B 	c #271672",
"~B 	c #312080",
"{B 	c #311F82",
"]B 	c #322083",
"^B 	c #322181",
"/B 	c #301E81",
"(B 	c #31207E",
"_B 	c #342381",
":B 	c #31207C",
"<B 	c #2D1E6F",
"[B 	c #302271",
"}B 	c #36277A",
"|B 	c #463788",
"1B 	c #3C2E7D",
"2B 	c #2F2170",
"3B 	c #452892",
"4B 	c #7053BD",
"5B 	c #462693",
"6B 	c #3B1987",
"7B 	c #3A1889",
"8B 	c #432096",
"9B 	c #35118D",
"0B 	c #39149F",
"aB 	c #3E1794",
"bB 	c #4820A4",
"cB 	c #451CA8",
"dB 	c #4216A9",
"eB 	c #491CB3",
"fB 	c #491CB5",
"gB 	c #4617B1",
"hB 	c #481BB2",
"iB 	c #461EA5",
"jB 	c #421B9C",
"kB 	c #3B1A8F",
"lB 	c #35188C",
"mB 	c #391A91",
"nB 	c #442187",
"oB 	c #37147A",
"pB 	c #6544AD",
"qB 	c #502F98",
"rB 	c #53319F",
"sB 	c #5937A7",
"tB 	c #6442B2",
"uB 	c #522B9E",
"vB 	c #5B34AB",
"wB 	c #5931AB",
"xB 	c #552FA8",
"yB 	c #502DA3",
"zB 	c #4A279D",
"AB 	c #4F2CA2",
"BB 	c #5532A8",
"CB 	c #522FA5",
"DB 	c #4B289E",
"EB 	c #411FA7",
"FB 	c #441FAA",
"GB 	c #4620AB",
"HB 	c #481FA9",
"IB 	c #48209D",
"JB 	c #48209A",
"KB 	c #4B239D",
"LB 	c #461E99",
"MB 	c #4820A7",
"NB 	c #4923AE",
"OB 	c #4520AB",
"PB 	c #3F1BA3",
"QB 	c #3A199C",
"RB 	c #310F88",
"SB 	c #32197F",
"TB 	c #32197E",
"UB 	c #3E2686",
"VB 	c #381F7D",
"WB 	c #321879",
"XB 	c #381E83",
"YB 	c #371E7C",
"ZB 	c #361E7E",
"`B 	c #35207B",
" C 	c #322076",
".C 	c #352377",
"+C 	c #3E2C7E",
"@C 	c #352677",
"#C 	c #392C7C",
"$C 	c #1A0F5B",
"%C 	c #42387F",
"&C 	c #3E347B",
"*C 	c #1F1463",
"=C 	c #321D82",
"-C 	c #452C94",
";C 	c #5A3FA6",
">C 	c #9F85EA",
",C 	c #BCA2FF",
"'C 	c #8C72D7",
")C 	c #492E97",
"!C 	c #331986",
"~C 	c #311586",
"{C 	c #29127C",
"]C 	c #261772",
"^C 	c #1E135F",
"/C 	c #2F1D80",
"(C 	c #362688",
"_C 	c #3F2F91",
":C 	c #2D1B7E",
"<C 	c #382689",
"[C 	c #281777",
"}C 	c #332282",
"|C 	c #2E1D7B",
"1C 	c #2F2073",
"2C 	c #312275",
"3C 	c #38297C",
"4C 	c #2B1D6C",
"5C 	c #2A1967",
"6C 	c #291964",
"7C 	c #2C1C67",
"8C 	c #2D1B6D",
"9C 	c #3C2D82",
"0C 	c #2A0F78",
"aC 	c #260975",
"bC 	c #452896",
"cC 	c #7959C8",
"dC 	c #3D1B8C",
"eC 	c #442199",
"fC 	c #351091",
"gC 	c #3A15A0",
"hC 	c #391698",
"iC 	c #3B1A85",
"jC 	c #3E198B",
"kC 	c #3F1899",
"lC 	c #441CA3",
"mC 	c #431BA0",
"nC 	c #3C179A",
"oC 	c #391D8C",
"pC 	c #422695",
"qC 	c #3C1F93",
"rC 	c #35168D",
"sC 	c #3B1C91",
"tC 	c #3C1B86",
"uC 	c #4D2A90",
"vC 	c #432086",
"wC 	c #3E1D86",
"xC 	c #6C4BB4",
"yC 	c #513099",
"zC 	c #43228D",
"AC 	c #7755C5",
"BC 	c #633CB1",
"CC 	c #6039AE",
"DC 	c #5831A8",
"EC 	c #562EA8",
"FC 	c #512EA4",
"GC 	c #4E2BA1",
"HC 	c #5633A9",
"IC 	c #462399",
"JC 	c #48259B",
"KC 	c #401E96",
"LC 	c #44219F",
"MC 	c #4323A2",
"NC 	c #4623A3",
"OC 	c #4725A0",
"PC 	c #492498",
"QC 	c #482194",
"RC 	c #472192",
"SC 	c #431C8F",
"TC 	c #431C91",
"UC 	c #441E97",
"VC 	c #45219D",
"WC 	c #3F1C9A",
"XC 	c #361695",
"YC 	c #3D1D98",
"ZC 	c #361987",
"`C 	c #351886",
" D 	c #31187E",
".D 	c #462C8F",
"+D 	c #42288B",
"@D 	c #332175",
"#D 	c #38267A",
"$D 	c #372577",
"%D 	c #2F2071",
"&D 	c #342777",
"*D 	c #2F256C",
"=D 	c #2C226B",
"-D 	c #322773",
";D 	c #544995",
">D 	c #2C1879",
",D 	c #2F1A7F",
"'D 	c #371E84",
")D 	c #3C2389",
"!D 	c #43298E",
"~D 	c #4F3598",
"{D 	c #583E9F",
"]D 	c #3D2587",
"^D 	c #3E258A",
"/D 	c #372088",
"(D 	c #39228E",
"_D 	c #251077",
":D 	c #311F83",
"<D 	c #2F1D81",
"[D 	c #332185",
"}D 	c #301E82",
"|D 	c #322084",
"1D 	c #2B1B7E",
"2D 	c #2F1F82",
"3D 	c #2E1E81",
"4D 	c #3A2A8D",
"5D 	c #3E2C90",
"6D 	c #3B298D",
"7D 	c #3D2B8E",
"8D 	c #412F92",
"9D 	c #2F1E7E",
"0D 	c #2D1C7A",
"aD 	c #322479",
"bD 	c #34267B",
"cD 	c #392981",
"dD 	c #33237C",
"eD 	c #2E1F70",
"fD 	c #2E1C6E",
"gD 	c #261364",
"hD 	c #2A1766",
"iD 	c #291665",
"jD 	c #2D1C6A",
"kD 	c #2D1A69",
"lD 	c #2A1768",
"mD 	c #322072",
"nD 	c #321E75",
"oD 	c #44318A",
"pD 	c #3C2D80",
"qD 	c #41298B",
"rD 	c #3C1F8D",
"sD 	c #3B1989",
"tD 	c #35118F",
"uD 	c #391593",
"vD 	c #3A169A",
"wD 	c #391694",
"xD 	c #381883",
"yD 	c #3D1A90",
"zD 	c #3F1B95",
"AD 	c #391D8B",
"BD 	c #3D218F",
"CD 	c #36198D",
"DD 	c #35188E",
"ED 	c #2E0F86",
"FD 	c #3F2095",
"GD 	c #4E2D96",
"HD 	c #45248F",
"ID 	c #6745B5",
"JD 	c #5E38A9",
"KD 	c #542E9F",
"LD 	c #5B34A7",
"MD 	c #552EA5",
"ND 	c #532DA4",
"OD 	c #4D279E",
"PD 	c #47249A",
"QD 	c #442197",
"RD 	c #422194",
"SD 	c #412395",
"TD 	c #452495",
"UD 	c #462695",
"VD 	c #492297",
"WD 	c #482198",
"XD 	c #4A229C",
"YD 	c #471F9A",
"ZD 	c #391C8A",
"`D 	c #331881",
" E 	c #33187F",
".E 	c #391E85",
"+E 	c #361A81",
"@E 	c #35197F",
"#E 	c #361A80",
"$E 	c #33177B",
"%E 	c #38217C",
"&E 	c #352178",
"*E 	c #321E73",
"=E 	c #584B9B",
"-E 	c #473A8A",
";E 	c #312674",
">E 	c #180D59",
",E 	c #1C115F",
"'E 	c #4C418F",
")E 	c #361D82",
"!E 	c #3B2383",
"~E 	c #3A2280",
"{E 	c #452E89",
"]E 	c #382483",
"^E 	c #37258B",
"/E 	c #342286",
"(E 	c #372589",
"_E 	c #3E2E91",
":E 	c #352588",
"<E 	c #322285",
"[E 	c #2D1D80",
"}E 	c #6755B9",
"|E 	c #6351B5",
"1E 	c #3F2D91",
"2E 	c #5745A8",
"3E 	c #4A389B",
"4E 	c #301F7D",
"5E 	c #33227E",
"6E 	c #2B1B73",
"7E 	c #3B2A86",
"8E 	c #34237F",
"9E 	c #352480",
"0E 	c #34247D",
"aE 	c #2D1D76",
"bE 	c #3B297B",
"cE 	c #2E186A",
"dE 	c #301D6E",
"eE 	c #271463",
"fE 	c #2A1564",
"gE 	c #2F1A69",
"hE 	c #2D176A",
"iE 	c #301C71",
"jE 	c #362478",
"kE 	c #382082",
"lE 	c #472D92",
"mE 	c #412091",
"nE 	c #39188B",
"oE 	c #2D0C7F",
"pE 	c #371391",
"qE 	c #330F8D",
"rE 	c #3A1893",
"sE 	c #3C1798",
"tE 	c #3B1994",
"uE 	c #361A88",
"vE 	c #371C87",
"wE 	c #371D8A",
"xE 	c #301387",
"yE 	c #45289E",
"zE 	c #492A9F",
"AE 	c #3B187E",
"BE 	c #3D1A80",
"CE 	c #38177F",
"DE 	c #55349F",
"EE 	c #5D3BA9",
"FE 	c #542E9D",
"GE 	c #502A99",
"HE 	c #5A34A3",
"IE 	c #6C46B7",
"JE 	c #6741B2",
"KE 	c #502A9B",
"LE 	c #5E37AA",
"ME 	c #532EA2",
"NE 	c #4C269D",
"OE 	c #3F1E93",
"PE 	c #3E2090",
"QE 	c #41218E",
"RE 	c #411A99",
"SE 	c #452594",
"TE 	c #3F228E",
"UE 	c #381B89",
"VE 	c #2A0C7C",
"WE 	c #341B83",
"XE 	c #351882",
"YE 	c #3A1E85",
"ZE 	c #5C40A7",
"`E 	c #482C92",
" F 	c #391D81",
".F 	c #362279",
"+F 	c #362277",
"@F 	c #352176",
"#F 	c #3A2D7D",
"$F 	c #332876",
"%F 	c #311B7F",
"&F 	c #3D2982",
"*F 	c #221370",
"=F 	c #221571",
"-F 	c #2B2168",
";F 	c #331E83",
">F 	c #352085",
",F 	c #362186",
"'F 	c #341F84",
")F 	c #382388",
"!F 	c #3C2A8E",
"~F 	c #3A2A8C",
"{F 	c #382988",
"]F 	c #4A3A9D",
"^F 	c #4D3DA0",
"/F 	c #362689",
"(F 	c #322187",
"_F 	c #453399",
":F 	c #715CC3",
"<F 	c #6F5AC1",
"[F 	c #463196",
"}F 	c #3D288D",
"|F 	c #4C379C",
"1F 	c #432E93",
"2F 	c #2A1679",
"3F 	c #362285",
"4F 	c #352184",
"5F 	c #321E7F",
"6F 	c #36287D",
"7F 	c #403088",
"8F 	c #2F1C76",
"9F 	c #321F79",
"0F 	c #34207F",
"aF 	c #311E7A",
"bF 	c #2F1C78",
"cF 	c #2F196C",
"dF 	c #382074",
"eF 	c #3E287A",
"fF 	c #392274",
"gF 	c #2A1365",
"hF 	c #311B6D",
"iF 	c #30196B",
"jF 	c #2F176D",
"kF 	c #2F1671",
"lF 	c #301775",
"mF 	c #361983",
"nF 	c #290978",
"oF 	c #3C198F",
"pF 	c #3D1995",
"qF 	c #300C8A",
"rF 	c #411D9B",
"sF 	c #371496",
"tF 	c #37139B",
"uF 	c #3B15A6",
"vF 	c #401AAD",
"wF 	c #3D17A8",
"xF 	c #3B16A2",
"yF 	c #3C189C",
"zF 	c #422196",
"AF 	c #5635A8",
"BF 	c #371B89",
"CF 	c #311785",
"DF 	c #44279B",
"EF 	c #7659CF",
"FF 	c #5B3CB3",
"GF 	c #5435AA",
"HF 	c #492890",
"IF 	c #57369F",
"JF 	c #4C2B94",
"KF 	c #704FBA",
"LF 	c #7A58C6",
"MF 	c #704EBC",
"NF 	c #5F3DAB",
"OF 	c #522C9B",
"PF 	c #57319E",
"QF 	c #7852BF",
"RF 	c #9E78E7",
"SF 	c #956FDE",
"TF 	c #6741B0",
"UF 	c #5933A4",
"VF 	c #522DA1",
"WF 	c #3F1D95",
"XF 	c #3E1E9B",
"YF 	c #3F1E8F",
"ZF 	c #431D96",
"`F 	c #441D9C",
" G 	c #360E92",
".G 	c #451DA1",
"+G 	c #4823A4",
"@G 	c #311289",
"#G 	c #371A88",
"$G 	c #381B87",
"%G 	c #351884",
"&G 	c #361985",
"*G 	c #3C1F89",
"=G 	c #785CC3",
"-G 	c #583CA3",
";G 	c #3A2085",
">G 	c #3A237E",
",G 	c #39227C",
"'G 	c #39227A",
")G 	c #382479",
"!G 	c #39257A",
"~G 	c #150A56",
"{G 	c #1A0F5D",
"]G 	c #382A81",
"^G 	c #2E217B",
"/G 	c #271C78",
"(G 	c #1D136C",
"_G 	c #311D80",
":G 	c #3B278A",
"<G 	c #422E91",
"[G 	c #3C2B8B",
"}G 	c #372887",
"|G 	c #2A187C",
"1G 	c #4C3A9E",
"2G 	c #4D3B9F",
"3G 	c #29177B",
"4G 	c #322086",
"5G 	c #362188",
"6G 	c #4E39A0",
"7G 	c #533CA4",
"8G 	c #412C93",
"9G 	c #351F84",
"0G 	c #372287",
"aG 	c #351F83",
"bG 	c #331D81",
"cG 	c #352182",
"dG 	c #34267D",
"eG 	c #3D2F84",
"fG 	c #4E4095",
"gG 	c #6C5EB3",
"hG 	c #544298",
"iG 	c #321D7C",
"jG 	c #48338E",
"kG 	c #3C2881",
"lG 	c #301C73",
"mG 	c #2D166E",
"nG 	c #331B73",
"oG 	c #402880",
"pG 	c #493189",
"qG 	c #40287E",
"rG 	c #2E166C",
"sG 	c #2A1268",
"tG 	c #311971",
"uG 	c #301870",
"vG 	c #2D146F",
"wG 	c #331A76",
"xG 	c #321977",
"yG 	c #2F1872",
"zG 	c #5632AE",
"AG 	c #4C28A4",
"BG 	c #381593",
"CG 	c #371397",
"DG 	c #37129E",
"EG 	c #3913A4",
"FG 	c #3D17AA",
"GG 	c #3913A6",
"HG 	c #340F9D",
"IG 	c #351197",
"JG 	c #341191",
"KG 	c #422099",
"LG 	c #5C3AB2",
"MG 	c #3A1E8C",
"NG 	c #472A9E",
"OG 	c #8D6EE3",
"PG 	c #6142B7",
"QG 	c #482897",
"RG 	c #371681",
"SG 	c #3A1981",
"TG 	c #8261CA",
"UG 	c #8564CD",
"VG 	c #8867D2",
"WG 	c #9170DB",
"XG 	c #8564CF",
"YG 	c #6B4AB5",
"ZG 	c #5B39A7",
"`G 	c #4E2A98",
" H 	c #512D99",
".H 	c #7751C0",
"+H 	c #A480EE",
"@H 	c #9872E1",
"#H 	c #5F3BA9",
"$H 	c #492392",
"%H 	c #5A35A6",
"&H 	c #5833A4",
"*H 	c #5631A3",
"=H 	c #522D9F",
"-H 	c #603DB3",
";H 	c #5936AC",
">H 	c #41219E",
",H 	c #40209D",
"'H 	c #401D91",
")H 	c #441D9A",
"!H 	c #5029AA",
"~H 	c #835CDD",
"{H 	c #6440BE",
"]H 	c #421E9A",
"^H 	c #361586",
"/H 	c #412492",
"(H 	c #381B85",
"_H 	c #3B1E88",
":H 	c #3A1B82",
"<H 	c #3D2283",
"[H 	c #3D2482",
"}H 	c #3C2580",
"|H 	c #3D247F",
"1H 	c #3B247E",
"2H 	c #3C257D",
"3H 	c #3A267D",
"4H 	c #372378",
"5H 	c #433688",
"6H 	c #7C6FBF",
"7H 	c #524595",
"8H 	c #493C8B",
"9H 	c #483B8A",
"0H 	c #1A0F5E",
"aH 	c #281B73",
"bH 	c #221773",
"cH 	c #22186F",
"dH 	c #341E82",
"eH 	c #341F7E",
"fH 	c #352482",
"gH 	c #321E81",
"hH 	c #311B80",
"iH 	c #331D82",
"jH 	c #412B90",
"kH 	c #331C84",
"lH 	c #341D85",
"mH 	c #361F87",
"nH 	c #381F85",
"oH 	c #351C82",
"pH 	c #332280",
"qH 	c #32217F",
"rH 	c #35257E",
"sH 	c #C3B3FF",
"tH 	c #B4A5FA",
"uH 	c #AE9FF4",
"vH 	c #382880",
"wH 	c #342170",
"xH 	c #351B86",
"yH 	c #391F8A",
"zH 	c #351F71",
"AH 	c #37236A",
"BH 	c #362267",
"CH 	c #331E69",
"DH 	c #51389E",
"EH 	c #42298F",
"FH 	c #7961C3",
"GH 	c #8A72D2",
"HH 	c #735BB9",
"IH 	c #3B2381",
"JH 	c #301973",
"KH 	c #2D1670",
"LH 	c #270E6A",
"MH 	c #301773",
"NH 	c #321975",
"OH 	c #250C6A",
"PH 	c #704CC6",
"QH 	c #4824A0",
"RH 	c #633FBB",
"SH 	c #351294",
"TH 	c #361395",
"UH 	c #391883",
"VH 	c #54339E",
"WH 	c #7D5CC7",
"XH 	c #7F5EC7",
"YH 	c #4F2E97",
"ZH 	c #5B3AA5",
"`H 	c #5833A5",
" I 	c #482395",
".I 	c #5330A6",
"+I 	c #3E1B93",
"@I 	c #45239B",
"#I 	c #441F93",
"$I 	c #46209A",
"%I 	c #875FDA",
"&I 	c #9B73F0",
"*I 	c #8C64E1",
"=I 	c #946CE9",
"-I 	c #6D45C0",
";I 	c #340C87",
">I 	c #411996",
",I 	c #3F1895",
"'I 	c #431B96",
")I 	c #3C168F",
"!I 	c #350F88",
"~I 	c #340F83",
"{I 	c #432094",
"]I 	c #4C2B9C",
"^I 	c #401F90",
"/I 	c #391881",
"(I 	c #321275",
"_I 	c #2E1070",
":I 	c #3C1E80",
"<I 	c #351A79",
"[I 	c #3E2581",
"}I 	c #382179",
"|I 	c #3C267B",
"1I 	c #37287B",
"2I 	c #3D3080",
"3I 	c #6053A3",
"4I 	c #463989",
"5I 	c #241771",
"6I 	c #221475",
"7I 	c #241678",
"8I 	c #251874",
"9I 	c #392584",
"0I 	c #342081",
"aI 	c #351F81",
"bI 	c #382284",
"cI 	c #3F268C",
"dI 	c #3B2288",
"eI 	c #341B81",
"fI 	c #6858B1",
"gI 	c #C8B8FF",
"hI 	c #C5B5FF",
"iI 	c #B3A3FB",
"jI 	c #44348C",
"kI 	c #341E70",
"lI 	c #3B2379",
"mI 	c #452998",
"nI 	c #341D6B",
"oI 	c #3F2A6D",
"pI 	c #372265",
"qI 	c #37206E",
"rI 	c #422788",
"sI 	c #40258E",
"tI 	c #6E53BC",
"uI 	c #5B40A9",
"vI 	c #4A3095",
"wI 	c #9076DB",
"xI 	c #977DE0",
"yI 	c #7A60C1",
"zI 	c #260D69",
"AI 	c #341B77",
"BI 	c #462D8B",
"CI 	c #402785",
"DI 	c #301677",
"EI 	c #3B198A",
"FI 	c #4D29A3",
"GI 	c #6C48C4",
"HI 	c #36148F",
"II 	c #3D1C8D",
"JI 	c #4C2B96",
"KI 	c #53329D",
"LI 	c #5D3CA4",
"MI 	c #6140A9",
"NI 	c #6240B1",
"OI 	c #8B69DA",
"PI 	c #45229A",
"QI 	c #47249C",
"RI 	c #3C168D",
"SI 	c #8C64DE",
"TI 	c #9C74EE",
"UI 	c #8A62DD",
"VI 	c #9068E3",
"WI 	c #744AC6",
"XI 	c #431995",
"YI 	c #471D9B",
"ZI 	c #3A108E",
"`I 	c #38108D",
" J 	c #3B1390",
".J 	c #48229B",
"+J 	c #401B8F",
"@J 	c #5633A7",
"#J 	c #5E3BAF",
"$J 	c #431F8B",
"%J 	c #3E1A86",
"&J 	c #3B1785",
"*J 	c #47238D",
"=J 	c #6F4FB2",
"-J 	c #5F409E",
";J 	c #442686",
">J 	c #381A7A",
",J 	c #3A1C7E",
"'J 	c #42268A",
")J 	c #3D2480",
"!J 	c #381F7A",
"~J 	c #351D75",
"{J 	c #331F74",
"]J 	c #352878",
"^J 	c #261973",
"/J 	c #1B0E6A",
"(J 	c #201273",
"_J 	c #110460",
":J 	c #341E83",
"<J 	c #321E7D",
"[J 	c #352180",
"}J 	c #382485",
"|J 	c #372384",
"1J 	c #372185",
"2J 	c #331A80",
"3J 	c #361C87",
"4J 	c #371D88",
"5J 	c #381E89",
"6J 	c #3A2189",
"7J 	c #392088",
"8J 	c #382287",
"9J 	c #503D97",
"0J 	c #917ED8",
"aJ 	c #9C89E3",
"bJ 	c #8774CE",
"cJ 	c #3A2781",
"dJ 	c #34217D",
"eJ 	c #362281",
"fJ 	c #3B2186",
"gJ 	c #462A98",
"hJ 	c #472B9A",
"iJ 	c #3C218A",
"jJ 	c #3D2770",
"kJ 	c #3A2172",
"lJ 	c #3C2180",
"mJ 	c #442696",
"nJ 	c #472C89",
"oJ 	c #492F88",
"pJ 	c #4B3097",
"qJ 	c #42278E",
"rJ 	c #6248AD",
"sJ 	c #795FC4",
"tJ 	c #6248AB",
"uJ 	c #442B89",
"vJ 	c #9A80E1",
"wJ 	c #8B71D2",
"xJ 	c #3A1888",
"yJ 	c #49259F",
"zJ 	c #3E1C8A",
"AJ 	c #502F9A",
"BJ 	c #492893",
"CJ 	c #6845B9",
"DJ 	c #A07DF1",
"EJ 	c #805DD1",
"FJ 	c #724FC3",
"GJ 	c #5431A5",
"HJ 	c #5835A9",
"IJ 	c #6340B4",
"JJ 	c #5734A8",
"KJ 	c #462099",
"LJ 	c #774FC9",
"MJ 	c #9870EA",
"NJ 	c #956DE8",
"OJ 	c #8D65E0",
"PJ 	c #653BB7",
"QJ 	c #3A108C",
"RJ 	c #431997",
"SJ 	c #3F1593",
"TJ 	c #340C89",
"UJ 	c #401996",
"VJ 	c #49229F",
"WJ 	c #411B92",
"XJ 	c #3D178E",
"YJ 	c #310B82",
"ZJ 	c #381684",
"`J 	c #44208E",
" K 	c #8D69D3",
".K 	c #C9A9FF",
"+K 	c #AD8FEF",
"@K 	c #5B3D9F",
"#K 	c #3D1F81",
"$K 	c #412387",
"%K 	c #402488",
"&K 	c #391E7F",
"*K 	c #311A72",
"=K 	c #30246E",
"-K 	c #362A7E",
";K 	c #392C84",
">K 	c #352786",
",K 	c #423495",
"'K 	c #3B2E88",
")K 	c #311D7E",
"!K 	c #3D278B",
"~K 	c #371C85",
"{K 	c #391F8C",
"]K 	c #3D238E",
"^K 	c #3A208B",
"/K 	c #3B218C",
"(K 	c #362085",
"_K 	c #372386",
":K 	c #301C7F",
"<K 	c #422F89",
"[K 	c #4F3C98",
"}K 	c #44318D",
"|K 	c #362283",
"1K 	c #3F2B8E",
"2K 	c #301A7F",
"3K 	c #442994",
"4K 	c #442A8D",
"5K 	c #3E267C",
"6K 	c #3C217E",
"7K 	c #3F228C",
"8K 	c #42229F",
"9K 	c #4120A2",
"0K 	c #40267F",
"aK 	c #432A7E",
"bK 	c #44298A",
"cK 	c #2E137A",
"dK 	c #452A91",
"eK 	c #40258C",
"fK 	c #3A1F86",
"gK 	c #442A8F",
"hK 	c #250B6C",
"iK 	c #4F3596",
"jK 	c #B096F9",
"kK 	c #987EE1",
"lK 	c #391787",
"mK 	c #2A077F",
"nK 	c #3D1B93",
"oK 	c #47269B",
"pK 	c #5130A5",
"qK 	c #6643B7",
"rK 	c #7D5ACE",
"sK 	c #6D4ABE",
"tK 	c #5F3CB0",
"uK 	c #6E4BBF",
"vK 	c #5B38AC",
"wK 	c #5E38B1",
"xK 	c #4C249E",
"yK 	c #724AC4",
"zK 	c #7850CB",
"AK 	c #4C229E",
"BK 	c #330985",
"CK 	c #421896",
"DK 	c #3D1693",
"EK 	c #300986",
"FK 	c #502AA4",
"GK 	c #401A94",
"HK 	c #3D1790",
"IK 	c #5C39AD",
"JK 	c #5130A3",
"KK 	c #432295",
"LK 	c #371583",
"MK 	c #3D1B89",
"NK 	c #472391",
"OK 	c #A07FEA",
"PK 	c #DBBDFF",
"QK 	c #C8AAFF",
"RK 	c #6345A7",
"SK 	c #442688",
"TK 	c #4C2E92",
"UK 	c #381A7E",
"VK 	c #2F2272",
"WK 	c #30246C",
"XK 	c #35297D",
"YK 	c #23176D",
"ZK 	c #20136B",
"`K 	c #3A2D87",
" L 	c #5447A1",
".L 	c #5D51A7",
"+L 	c #321C7E",
"@L 	c #391E87",
"#L 	c #3A1F88",
"$L 	c #3A1E8D",
"%L 	c #321C81",
"&L 	c #3B2589",
"*L 	c #3A2486",
"=L 	c #392385",
"-L 	c #362084",
";L 	c #3D278C",
">L 	c #2E177F",
",L 	c #371C8F",
"'L 	c #321691",
")L 	c #391D98",
"!L 	c #482BA2",
"~L 	c #4F33A4",
"{L 	c #492D94",
"]L 	c #3D208A",
"^L 	c #43209E",
"/L 	c #411EA0",
"(L 	c #3D1B96",
"_L 	c #3C1F7C",
":L 	c #3C227B",
"<L 	c #41248E",
"[L 	c #573AA4",
"}L 	c #674AB4",
"|L 	c #381C83",
"1L 	c #482C90",
"2L 	c #5E42A8",
"3L 	c #4B2F95",
"4L 	c #391785",
"5L 	c #2D0A7E",
"6L 	c #4A299E",
"7L 	c #5635AA",
"8L 	c #46259A",
"9L 	c #422192",
"0L 	c #3E1C8C",
"aL 	c #5431A7",
"bL 	c #5F3CB4",
"cL 	c #330D86",
"dL 	c #411994",
"eL 	c #401893",
"fL 	c #421A95",
"gL 	c #471F9C",
"hL 	c #431C9B",
"iL 	c #6740BF",
"jL 	c #7D56D3",
"kL 	c #532CA9",
"lL 	c #320B88",
"mL 	c #310F7D",
"nL 	c #8D6FD3",
"oL 	c #8E70D2",
"pL 	c #3C1E82",
"qL 	c #3F2785",
"rL 	c #3A237D",
"sL 	c #2A1E66",
"tL 	c #170B5D",
"uL 	c #1F1367",
"vL 	c #302478",
"wL 	c #372B7F",
"xL 	c #3D248A",
"yL 	c #361A89",
"zL 	c #381C8B",
"AL 	c #402493",
"BL 	c #402495",
"CL 	c #361A8B",
"DL 	c #341A85",
"EL 	c #3C238B",
"FL 	c #3C2688",
"GL 	c #301981",
"HL 	c #3E248F",
"IL 	c #3C2290",
"JL 	c #3E2398",
"KL 	c #3E21A1",
"LL 	c #3D1FA5",
"ML 	c #4121AA",
"NL 	c #4525AA",
"OL 	c #4727A4",
"PL 	c #43249B",
"QL 	c #3B1E8A",
"RL 	c #3E218D",
"SL 	c #3F2290",
"TL 	c #402391",
"UL 	c #5D40AE",
"VL 	c #8265D3",
"WL 	c #7D60CE",
"XL 	c #4B2D9D",
"YL 	c #3D2188",
"ZL 	c #270A74",
"`L 	c #4B2E9A",
" M 	c #2B097A",
".M 	c #442394",
"+M 	c #432293",
"@M 	c #411F8F",
"#M 	c #5937A8",
"$M 	c #5A38A9",
"%M 	c #5533A4",
"&M 	c #452499",
"*M 	c #49269E",
"=M 	c #3E1691",
"-M 	c #3A128D",
";M 	c #3C148F",
">M 	c #3D1592",
",M 	c #3F1897",
"'M 	c #3D1695",
")M 	c #3E1796",
"!M 	c #552EAD",
"~M 	c #623BBA",
"{M 	c #451E9F",
"]M 	c #451F98",
"^M 	c #3A128C",
"/M 	c #3A148B",
"(M 	c #4D2F91",
"_M 	c #36187C",
":M 	c #44288E",
"<M 	c #5B41A6",
"[M 	c #6B53B5",
"}M 	c #4E3696",
"|M 	c #524594",
"1M 	c #5E51A0",
"2M 	c #362978",
"3M 	c #180C56",
"4M 	c #3F2590",
"5M 	c #543BA1",
"6M 	c #3D228B",
"7M 	c #3B1F90",
"8M 	c #3A1E8F",
"9M 	c #3D2192",
"0M 	c #391D8E",
"aM 	c #472B9C",
"bM 	c #391C90",
"cM 	c #3C2188",
"dM 	c #422792",
"eM 	c #331984",
"fM 	c #3F2391",
"gM 	c #402694",
"hM 	c #412697",
"iM 	c #4527AB",
"jM 	c #4222B4",
"kM 	c #3F1BB9",
"lM 	c #411DBB",
"mM 	c #431FB3",
"nM 	c #4220A8",
"oM 	c #43219A",
"pM 	c #492998",
"qM 	c #6443B8",
"rM 	c #6342B7",
"sM 	c #6A4AB9",
"tM 	c #4A2A99",
"uM 	c #7B58CC",
"vM 	c #6441B5",
"wM 	c #6845BB",
"xM 	c #4D27A1",
"yM 	c #3D1590",
"zM 	c #3B138E",
"AM 	c #3C1491",
"BM 	c #4821A2",
"CM 	c #391293",
"DM 	c #340D8E",
"EM 	c #360F90",
"FM 	c #330A8E",
"GM 	c #481FA1",
"HM 	c #441B9D",
"IM 	c #461D9D",
"JM 	c #643CB7",
"KM 	c #734BC6",
"LM 	c #4C239D",
"MM 	c #381188",
"NM 	c #3F1A8E",
"OM 	c #431D94",
"PM 	c #361A7E",
"QM 	c #4F369B",
"RM 	c #5A42A4",
"SM 	c #332676",
"TM 	c #3E3181",
"UM 	c #7265B4",
"VM 	c #8174C3",
"WM 	c #3A2D7C",
"XM 	c #332771",
"YM 	c #362B77",
"ZM 	c #361C89",
"`M 	c #482D96",
" N 	c #371B8C",
".N 	c #371A90",
"+N 	c #3E2293",
"@N 	c #3C208E",
"#N 	c #311584",
"$N 	c #48299E",
"%N 	c #3E2195",
"&N 	c #3F2097",
"*N 	c #3E2491",
"=N 	c #44299C",
"-N 	c #4729AF",
";N 	c #4726BB",
">N 	c #4A25CA",
",N 	c #4D28CE",
"'N 	c #4A25C3",
")N 	c #411EB0",
"!N 	c #4825A5",
"~N 	c #482492",
"{N 	c #49239A",
"]N 	c #461F9E",
"^N 	c #482895",
"/N 	c #462598",
"(N 	c #48269E",
"_N 	c #3E1C95",
":N 	c #33118A",
"<N 	c #502DA5",
"[N 	c #431E92",
"}N 	c #421D91",
"|N 	c #411C90",
"1N 	c #401B8D",
"2N 	c #4F2E9F",
"3N 	c #805FD0",
"4N 	c #5736A7",
"5N 	c #613EB4",
"6N 	c #7553C4",
"7N 	c #5F3DAD",
"8N 	c #3E1798",
"9N 	c #471FA3",
"0N 	c #391094",
"aN 	c #3A1195",
"bN 	c #3F1698",
"cN 	c #391090",
"dN 	c #8359D7",
"eN 	c #9B71ED",
"fN 	c #5F36B0",
"gN 	c #391088",
"hN 	c #3E178C",
"iN 	c #3B2087",
"jN 	c #3A2580",
"kN 	c #35287A",
"lN 	c #5A4D9C",
"mN 	c #362C73",
"nN 	c #352B74",
"oN 	c #391E89",
"pN 	c #422790",
"qN 	c #3E218B",
"rN 	c #2A0D77",
"sN 	c #6245B1",
"tN 	c #6649B5",
"uN 	c #220571",
"vN 	c #3C1D92",
"wN 	c #3E1F96",
"xN 	c #3D1E95",
"yN 	c #3F2098",
"zN 	c #44229D",
"AN 	c #4525A0",
"BN 	c #44289F",
"CN 	c #462CA7",
"DN 	c #4C2EB4",
"EN 	c #5131C2",
"FN 	c #4C29C5",
"GN 	c #4925C5",
"HN 	c #522DCA",
"IN 	c #4D29BD",
"JN 	c #4925AB",
"KN 	c #48249E",
"LN 	c #462192",
"MN 	c #461F92",
"NN 	c #4A21A3",
"ON 	c #44209C",
"PN 	c #461F96",
"QN 	c #461E98",
"RN 	c #451D97",
"SN 	c #411993",
"TN 	c #421A94",
"UN 	c #401892",
"VN 	c #3E1891",
"WN 	c #4F2CA4",
"XN 	c #724FC7",
"YN 	c #9F7DEE",
"ZN 	c #3A1B90",
"`N 	c #421B98",
" O 	c #3C1596",
".O 	c #3C1498",
"+O 	c #3D1599",
"@O 	c #3F159B",
"#O 	c #40179B",
"$O 	c #471CA1",
"%O 	c #360B8E",
"&O 	c #421898",
"*O 	c #491C9B",
"=O 	c #6639B8",
"-O 	c #7A4ECA",
";O 	c #471B96",
">O 	c #3E128B",
",O 	c #3E178A",
"'O 	c #421B8E",
")O 	c #3C1588",
"!O 	c #381387",
"~O 	c #482299",
"{O 	c #2C0981",
"]O 	c #381D88",
"^O 	c #492C96",
"/O 	c #B194FF",
"(O 	c #B89BFF",
"_O 	c #442793",
":O 	c #3A1B92",
"<O 	c #3C1D94",
"[O 	c #3D1E96",
"}O 	c #4522A4",
"|O 	c #4625A8",
"1O 	c #5031BA",
"2O 	c #4D31BA",
"3O 	c #5032B8",
"4O 	c #5335B9",
"5O 	c #6545CC",
"6O 	c #6645D0",
"7O 	c #5330C0",
"8O 	c #532DBE",
"9O 	c #532CBB",
"0O 	c #502AB3",
"aO 	c #4E27A8",
"bO 	c #4C249F",
"cO 	c #4D259F",
"dO 	c #4D239F",
"eO 	c #491F9F",
"fO 	c #431F99",
"gO 	c #47209D",
"hO 	c #45219F",
"iO 	c #47209F",
"jO 	c #471D99",
"kO 	c #461C9A",
"lO 	c #431D97",
"mO 	c #6943BC",
"nO 	c #411F97",
"oO 	c #300F78",
"pO 	c #5938A3",
"qO 	c #7B59C7",
"rO 	c #522FA7",
"sO 	c #714EC6",
"tO 	c #5936AE",
"uO 	c #4C29A1",
"vO 	c #603DB1",
"wO 	c #47239D",
"xO 	c #40169C",
"yO 	c #41169B",
"zO 	c #401598",
"AO 	c #481A9E",
"BO 	c #3C0F8E",
"CO 	c #3B0F8B",
"DO 	c #431591",
"EO 	c #3E108A",
"FO 	c #50259B",
"GO 	c #3A1284",
"HO 	c #3B1586",
"IO 	c #441E8F",
"JO 	c #411A8D",
"KO 	c #381D7E",
"LO 	c #3F2789",
"MO 	c #503B9A",
"NO 	c #5A45A2",
"OO 	c #49348F",
"PO 	c #291F66",
"QO 	c #8262CF",
"RO 	c #8161CE",
"SO 	c #421DA0",
"TO 	c #441FA2",
"UO 	c #4924B2",
"VO 	c #4A28C7",
"WO 	c #4C2DC8",
"XO 	c #5133B7",
"YO 	c #5D42B3",
"ZO 	c #785EC3",
"`O 	c #7B60C7",
" P 	c #6748BF",
".P 	c #633FC5",
"+P 	c #5830C5",
"@P 	c #5529C6",
"#P 	c #5023BC",
"$P 	c #4E22B5",
"%P 	c #4F23AA",
"&P 	c #5023A2",
"*P 	c #4D2298",
"=P 	c #481F95",
"-P 	c #49219B",
";P 	c #47219B",
">P 	c #48209B",
",P 	c #48219E",
"'P 	c #4B23A0",
")P 	c #4B24A1",
"!P 	c #4A21A1",
"~P 	c #4922A1",
"{P 	c #4922A3",
"]P 	c #481E9E",
"^P 	c #481E9C",
"/P 	c #4A1D9C",
"(P 	c #4A1D9E",
"_P 	c #491C9D",
":P 	c #461C9C",
"<P 	c #47199D",
"[P 	c #471C9F",
"}P 	c #4B1DA1",
"|P 	c #4B20A3",
"1P 	c #4C1EA4",
"2P 	c #491EA1",
"3P 	c #451C9C",
"4P 	c #451D9A",
"5P 	c #441C99",
"6P 	c #9169E4",
"7P 	c #623CB6",
"8P 	c #3F1792",
"9P 	c #370F8A",
"0P 	c #34137B",
"aP 	c #C2A1FF",
"bP 	c #7F5EC9",
"cP 	c #5D39B3",
"dP 	c #5531AB",
"eP 	c #4A26A0",
"fP 	c #4B27A1",
"gP 	c #4A279F",
"hP 	c #422098",
"iP 	c #3A1694",
"jP 	c #44199E",
"kP 	c #45179B",
"lP 	c #3F1094",
"mP 	c #441595",
"nP 	c #471995",
"oP 	c #3E0E88",
"pP 	c #481890",
"qP 	c #45188D",
"rP 	c #542A9A",
"sP 	c #3A1380",
"tP 	c #401A89",
"uP 	c #4A2495",
"vP 	c #3A1388",
"wP 	c #3B168A",
"xP 	c #2E0B81",
"yP 	c #5133A3",
"zP 	c #5639A7",
"AP 	c #463092",
"BP 	c #412C8B",
"CP 	c #4D3897",
"DP 	c #46338D",
"EP 	c #4D3B8F",
"FP 	c #8E7FD2",
"GP 	c #46398B",
"HP 	c #1D1060",
"IP 	c #332773",
"JP 	c #4A2D99",
"KP 	c #7555C2",
"LP 	c #6545B2",
"MP 	c #472699",
"NP 	c #461F9C",
"OP 	c #431EA1",
"PP 	c #451FA6",
"QP 	c #4B22AC",
"RP 	c #4B24BB",
"SP 	c #5833E3",
"TP 	c #5534DB",
"UP 	c #6346C6",
"VP 	c #B59DFD",
"WP 	c #EBD5FF",
"XP 	c #E4CEFF",
"YP 	c #C0A2FF",
"ZP 	c #6543BC",
"`P 	c #6237CF",
" Q 	c #5B2DD6",
".Q 	c #5525CF",
"+Q 	c #5121C3",
"@Q 	c #4F1FAF",
"#Q 	c #4D20A1",
"$Q 	c #4F2497",
"%Q 	c #532999",
"&Q 	c #491F9B",
"*Q 	c #481F9F",
"=Q 	c #4920A0",
"-Q 	c #4B22A2",
";Q 	c #4C23A5",
">Q 	c #5027A9",
",Q 	c #542BAD",
"'Q 	c #572EB0",
")Q 	c #4C23A7",
"!Q 	c #4D22A5",
"~Q 	c #4B1E9F",
"{Q 	c #4B1DA3",
"]Q 	c #4A1CA2",
"^Q 	c #491BA2",
"/Q 	c #4A1CA3",
"(Q 	c #4C1EA5",
"_Q 	c #4D1FA6",
":Q 	c #4D1EA8",
"<Q 	c #4B1DA4",
"[Q 	c #461D9F",
"}Q 	c #5E35B5",
"|Q 	c #3F1794",
"1Q 	c #5634A2",
"2Q 	c #6A49B4",
"3Q 	c #5D3CA5",
"4Q 	c #44238B",
"5Q 	c #805FC8",
"6Q 	c #9675DE",
"7Q 	c #46229C",
"8Q 	c #4E2AA4",
"9Q 	c #5C38B4",
"0Q 	c #603CBA",
"aQ 	c #4E2AA8",
"bQ 	c #4E2AA6",
"cQ 	c #5430AA",
"dQ 	c #3D1791",
"eQ 	c #3F169A",
"fQ 	c #3C0E94",
"gQ 	c #491B9F",
"hQ 	c #411294",
"iQ 	c #441693",
"jQ 	c #42118E",
"kQ 	c #43138B",
"lQ 	c #A676EC",
"mQ 	c #D5A9FF",
"nQ 	c #B78DF9",
"oQ 	c #744DB8",
"pQ 	c #401986",
"qQ 	c #3D1786",
"rQ 	c #3B1487",
"sQ 	c #3C158A",
"tQ 	c #4B269A",
"uQ 	c #5437A5",
"vQ 	c #5C3FAB",
"wQ 	c #3F248B",
"xQ 	c #371E7A",
"yQ 	c #381F7B",
"zQ 	c #3A2282",
"AQ 	c #38237E",
"BQ 	c #48398C",
"CQ 	c #6657AA",
"DQ 	c #371A86",
"EQ 	c #5434A1",
"FQ 	c #7050BF",
"GQ 	c #471E9E",
"HQ 	c #572FAC",
"IQ 	c #461CA2",
"JQ 	c #471DA7",
"KQ 	c #4920AC",
"LQ 	c #4E23B1",
"MQ 	c #4E25C1",
"NQ 	c #5028E1",
"OQ 	c #5A38E6",
"PQ 	c #785CD5",
"QQ 	c #F3DDFF",
"RQ 	c #FFF4FF",
"SQ 	c #FFEEFF",
"TQ 	c #8B6BD8",
"UQ 	c #6439CF",
"VQ 	c #5E2FDD",
"WQ 	c #5B2ADD",
"XQ 	c #5928D2",
"YQ 	c #5322B9",
"ZQ 	c #4C1DA1",
"`Q 	c #4E2295",
" R 	c #53289B",
".R 	c #491F9D",
"+R 	c #4B1FA6",
"@R 	c #4D21A8",
"#R 	c #4E22A9",
"$R 	c #4F24A9",
"%R 	c #5227AC",
"&R 	c #562BB0",
"*R 	c #5A2FB4",
"=R 	c #4E23A8",
"-R 	c #4E23A6",
";R 	c #4D1FA3",
">R 	c #4E1FA3",
",R 	c #4E1EA5",
"'R 	c #4E1EA6",
")R 	c #4D1DA5",
"!R 	c #4B1BA5",
"~R 	c #4C1CA6",
"{R 	c #4D1CA9",
"]R 	c #4B1AA7",
"^R 	c #491AA6",
"/R 	c #471BA4",
"(R 	c #471BA2",
"_R 	c #451A9F",
":R 	c #451A9D",
"<R 	c #3A0F92",
"[R 	c #411797",
"}R 	c #451B9B",
"|R 	c #441C97",
"1R 	c #4826A1",
"2R 	c #411F9A",
"3R 	c #7A57CB",
"4R 	c #6B49BA",
"5R 	c #391880",
"6R 	c #5F3FA4",
"7R 	c #513196",
"8R 	c #47278C",
"9R 	c #4B28A0",
"0R 	c #512DA7",
"aR 	c #522EAA",
"bR 	c #4F2BA7",
"cR 	c #6641C2",
"dR 	c #5D38B9",
"eR 	c #4622A0",
"fR 	c #4A26A4",
"gR 	c #4925A1",
"hR 	c #381B8F",
"iR 	c #37188F",
"jR 	c #390B91",
"kR 	c #44169A",
"lR 	c #431494",
"mR 	c #501F9C",
"nR 	c #501E99",
"oR 	c #4E1D93",
"pR 	c #CF9EFF",
"qR 	c #FFD8FF",
"rR 	c #C89DFF",
"sR 	c #A37DE4",
"tR 	c #562F9A",
"uR 	c #3D1683",
"vR 	c #3F188B",
"wR 	c #3C178B",
"xR 	c #462E8C",
"yR 	c #3D2680",
"zR 	c #351E78",
"AR 	c #2F1D6F",
"BR 	c #382B7B",
"CR 	c #514494",
"DR 	c #443787",
"ER 	c #3E1F94",
"FR 	c #3B208B",
"GR 	c #4B2B98",
"HR 	c #431F9B",
"IR 	c #451E9D",
"JR 	c #471EA0",
"KR 	c #4C23A3",
"LR 	c #542BAB",
"MR 	c #5B32B4",
"NR 	c #481EA8",
"OR 	c #491EAC",
"PR 	c #4B1FB0",
"QR 	c #4F23B4",
"RR 	c #5026C6",
"SR 	c #4920DC",
"TR 	c #5836E4",
"UR 	c #7A5FD4",
"VR 	c #F5E1FF",
"WR 	c #F2E2FF",
"XR 	c #997AE1",
"YR 	c #5C32C4",
"ZR 	c #5321D2",
"`R 	c #5824CF",
" S 	c #5724BD",
".S 	c #5020A8",
"+S 	c #4E209A",
"@S 	c #52249E",
"#S 	c #4D1FA5",
"$S 	c #4E22AD",
"%S 	c #5125B0",
"&S 	c #5024AD",
"*S 	c #4E22AB",
"=S 	c #5226AD",
"-S 	c #5022A6",
";S 	c #4F1FA6",
">S 	c #4F1FA7",
",S 	c #4F1FA9",
"'S 	c #4E1DAA",
")S 	c #4C1BA8",
"!S 	c #4C1BAA",
"~S 	c #4A19A8",
"{S 	c #4918A7",
"]S 	c #4A1BA7",
"^S 	c #461AA1",
"/S 	c #4A1FA4",
"(S 	c #4F24A7",
"_S 	c #4E24A2",
":S 	c #370F8C",
"<S 	c #46249F",
"[S 	c #3F1D98",
"}S 	c #512EA6",
"|S 	c #825FD3",
"1S 	c #6F4DBE",
"2S 	c #32117A",
"3S 	c #7353B8",
"4S 	c #6B4BAE",
"5S 	c #6E4EAF",
"6S 	c #3F1F80",
"7S 	c #3A1A7B",
"8S 	c #45258A",
"9S 	c #3B1A82",
"0S 	c #4D2AA2",
"aS 	c #4C28A2",
"bS 	c #532FA9",
"cS 	c #4B27A3",
"dS 	c #512DAB",
"eS 	c #542FB2",
"fS 	c #4A25A8",
"gS 	c #4823A6",
"hS 	c #4C27A8",
"iS 	c #44209E",
"jS 	c #411397",
"kS 	c #451698",
"lS 	c #6433B3",
"mS 	c #8756D3",
"nS 	c #8D5BD4",
"oS 	c #6433A8",
"pS 	c #A675E8",
"qS 	c #AC7EEB",
"rS 	c #986DD6",
"sS 	c #AC83E9",
"tS 	c #6841AB",
"uS 	c #3D1681",
"vS 	c #411B8A",
"wS 	c #3F198A",
"xS 	c #361F77",
"yS 	c #321A72",
"zS 	c #301D76",
"AS 	c #3E3183",
"BS 	c #3B2E7E",
"CS 	c #1B105E",
"DS 	c #3C218C",
"ES 	c #40238F",
"FS 	c #4720A1",
"GS 	c #451CA0",
"HS 	c #491EAB",
"IS 	c #4C20B1",
"JS 	c #5024B7",
"KS 	c #5128C6",
"LS 	c #6039EE",
"MS 	c #5837DC",
"NS 	c #6B53C3",
"OS 	c #D6C2FF",
"PS 	c #FFF6FF",
"QS 	c #FFF5FF",
"RS 	c #E4CBFF",
"SS 	c #6E50B2",
"TS 	c #8057E1",
"US 	c #6638D8",
"VS 	c #5120C7",
"WS 	c #521FC2",
"XS 	c #5725BA",
"YS 	c #5424AE",
"ZS 	c #5321A6",
"`S 	c #5223A7",
" T 	c #4D1EAA",
".T 	c #5023B1",
"+T 	c #5427B5",
"@T 	c #5327B2",
"#T 	c #4F23AE",
"$T 	c #4C20A9",
"%T 	c #5020A7",
"&T 	c #521FA8",
"*T 	c #521FAA",
"=T 	c #521FAC",
"-T 	c #511EAB",
";T 	c #4F1BAB",
">T 	c #4E1AAA",
",T 	c #4E1AAB",
"'T 	c #501CAD",
")T 	c #4F1BAC",
"!T 	c #4B1AAA",
"~T 	c #4B1CA8",
"{T 	c #491DA8",
"]T 	c #481CA5",
"^T 	c #44199C",
"/T 	c #4B21A1",
"(T 	c #5127A7",
"_T 	c #3E1A96",
":T 	c #5E3EA1",
"<T 	c #AF8FF0",
"[T 	c #B596F4",
"}T 	c #B293F1",
"|T 	c #5F409D",
"1T 	c #3D1E7C",
"2T 	c #432386",
"3T 	c #4B2B90",
"4T 	c #401C98",
"5T 	c #4C28A6",
"6T 	c #4722A5",
"7T 	c #441FA3",
"8T 	c #4B26AA",
"9T 	c #532EB1",
"0T 	c #4F2AAD",
"aT 	c #4B26A7",
"bT 	c #4D29A7",
"cT 	c #4D29A5",
"dT 	c #3B1E92",
"eT 	c #411699",
"fT 	c #401296",
"gT 	c #47189A",
"hT 	c #8150CE",
"iT 	c #9A6AE4",
"jT 	c #8C5BD1",
"kT 	c #532295",
"lT 	c #905ECF",
"mT 	c #A171DE",
"nT 	c #946AD0",
"oT 	c #976ED4",
"pT 	c #552F96",
"qT 	c #340D77",
"rT 	c #2D0774",
"sT 	c #6540B2",
"tT 	c #5D3BAC",
"uT 	c #281169",
"vT 	c #1C0F5F",
"wT 	c #3A1F8A",
"xT 	c #492996",
"yT 	c #431A9A",
"zT 	c #431A9C",
"AT 	c #4920A2",
"BT 	c #481EA6",
"CT 	c #491FA9",
"DT 	c #4A1FAC",
"ET 	c #4D22B0",
"FT 	c #5125B6",
"GT 	c #5428C3",
"HT 	c #4E26D6",
"IT 	c #4E2BD0",
"JT 	c #593CBA",
"KT 	c #795FC0",
"LT 	c #9D85CF",
"MT 	c #A58BD4",
"NT 	c #8E6FCC",
"OT 	c #7853C7",
"PT 	c #C499FF",
"QT 	c #9566FF",
"RT 	c #6533D4",
"ST 	c #5321BE",
"TT 	c #5624B9",
"UT 	c #5423B2",
"VT 	c #5020AA",
"WT 	c #4E1EA8",
"XT 	c #4C1DAB",
"YT 	c #5223B1",
"ZT 	c #5829B7",
"`T 	c #5829B5",
" U 	c #5425B1",
".U 	c #5122AC",
"+U 	c #5223AD",
"@U 	c #5426AD",
"#U 	c #5022A9",
"$U 	c #5022A8",
"%U 	c #5122A6",
"&U 	c #531EAA",
"*U 	c #511DAE",
"=U 	c #4F1EAE",
"-U 	c #4B1FAA",
";U 	c #4A1EA9",
">U 	c #4A1EA7",
",U 	c #491DA4",
"'U 	c #491EA3",
")U 	c #4C21A6",
"!U 	c #3C1194",
"~U 	c #3F1497",
"{U 	c #6040A5",
"]U 	c #A888EB",
"^U 	c #BB9BFE",
"/U 	c #D7B7FF",
"(U 	c #7C5CBD",
"_U 	c #3C1C7D",
":U 	c #431E8F",
"<U 	c #4B2698",
"[U 	c #48229C",
"}U 	c #5029A8",
"|U 	c #5632B0",
"1U 	c #5732B6",
"2U 	c #4F28B5",
"3U 	c #5530B4",
"4U 	c #532EAF",
"5U 	c #4C27AB",
"6U 	c #4925A3",
"7U 	c #4A249E",
"8U 	c #47219A",
"9U 	c #3F1696",
"0U 	c #471D9D",
"aU 	c #2B007D",
"bU 	c #5327A2",
"cU 	c #683BB2",
"dU 	c #683BB0",
"eU 	c #34087B",
"fU 	c #5D2E9E",
"gU 	c #5C319D",
"hU 	c #6C45AF",
"iU 	c #4F2A93",
"jU 	c #2E0972",
"kU 	c #45218B",
"lU 	c #3C1884",
"mU 	c #4F2F9C",
"nU 	c #2F1E6E",
"oU 	c #1B0E5E",
"pU 	c #573AA8",
"qU 	c #472A98",
"rU 	c #1C0066",
"sU 	c #43278D",
"tU 	c #462993",
"uU 	c #7255BF",
"vU 	c #5437A3",
"wU 	c #5336A2",
"xU 	c #421C93",
"yU 	c #451D98",
"zU 	c #4F26A6",
"AU 	c #401799",
"BU 	c #471EA2",
"CU 	c #491FA5",
"DU 	c #4C22AA",
"EU 	c #4F25AD",
"FU 	c #5428D3",
"GU 	c #5429D8",
"HU 	c #5E36D7",
"IU 	c #623AD1",
"JU 	c #5E34C4",
"KU 	c #6439C7",
"LU 	c #7345D9",
"MU 	c #7948E2",
"NU 	c #7A48E7",
"OU 	c #6E3ADC",
"PU 	c #4A16B6",
"QU 	c #5C29C4",
"RU 	c #3D0DA1",
"SU 	c #5F2FBF",
"TU 	c #5122AE",
"UU 	c #5524B1",
"VU 	c #5522AF",
"WU 	c #5421AE",
"XU 	c #5623B0",
"YU 	c #5724AF",
"ZU 	c #5724AD",
"`U 	c #5A27B0",
" V 	c #4E1CA3",
".V 	c #5927AE",
"+V 	c #B17FFF",
"@V 	c #8654D9",
"#V 	c #49179A",
"$V 	c #5321A4",
"%V 	c #5E2AB0",
"&V 	c #5721AD",
"*V 	c #5720AF",
"=V 	c #5520AE",
"-V 	c #561FAE",
";V 	c #541FAF",
">V 	c #5621B1",
",V 	c #5B26B6",
"'V 	c #5A26B6",
")V 	c #531FAF",
"!V 	c #521EAE",
"~V 	c #4E1DAC",
"{V 	c #4C1DA9",
"]V 	c #4B1FA8",
"^V 	c #461AA3",
"/V 	c #3E188F",
"(V 	c #3D188C",
"_V 	c #7E5DC8",
":V 	c #AC8BF6",
"<V 	c #9271DA",
"[V 	c #45218F",
"}V 	c #452091",
"|V 	c #462091",
"1V 	c #451E91",
"2V 	c #5029A0",
"3V 	c #4E26A1",
"4V 	c #5027A7",
"5V 	c #5028AD",
"6V 	c #6036BE",
"7V 	c #4F25B5",
"8V 	c #5229C5",
"9V 	c #522AC1",
"0V 	c #522DB0",
"aV 	c #532BB2",
"bV 	c #4C22B4",
"cV 	c #461CAC",
"dV 	c #4F27AB",
"eV 	c #472095",
"fV 	c #2D0983",
"gV 	c #351084",
"hV 	c #350E81",
"iV 	c #391285",
"jV 	c #3D1788",
"kV 	c #3E1889",
"lV 	c #2A0576",
"mV 	c #260D72",
"nV 	c #674BB1",
"oV 	c #987CE2",
"pV 	c #9E82E6",
"qV 	c #7357BB",
"rV 	c #432694",
"sV 	c #462997",
"tV 	c #441C96",
"uV 	c #471E98",
"vV 	c #461C98",
"wV 	c #4920A4",
"xV 	c #4B22A6",
"yV 	c #4E25A9",
"zV 	c #5025B3",
"AV 	c #5427CC",
"BV 	c #5324D4",
"CV 	c #5425D5",
"DV 	c #5B2BD9",
"EV 	c #6230DD",
"FV 	c #6630DC",
"GV 	c #622DD5",
"HV 	c #561FC3",
"IV 	c #4F19B9",
"JV 	c #5A24C0",
"KV 	c #6331C8",
"LV 	c #5E2CBF",
"MV 	c #4D1EAC",
"NV 	c #5825B2",
"OV 	c #5823B1",
"PV 	c #5621AF",
"QV 	c #5520AC",
"RV 	c #541FAB",
"SV 	c #5420A9",
"TV 	c #4D19A2",
"UV 	c #5622AA",
"VV 	c #6935BD",
"WV 	c #B17DFF",
"XV 	c #8C58DE",
"YV 	c #5D2AAD",
"ZV 	c #5B28AB",
"`V 	c #4D19A1",
" W 	c #591FB1",
".W 	c #5720B1",
"+W 	c #561FB0",
"@W 	c #5924B4",
"#W 	c #5723B3",
"$W 	c #511DAD",
"%W 	c #45239C",
"&W 	c #5734AA",
"*W 	c #441F90",
"=W 	c #492394",
"-W 	c #4D2699",
";W 	c #5027A1",
">W 	c #4A209E",
",W 	c #5429AC",
"'W 	c #5327B0",
")W 	c #491CAA",
"!W 	c #5427B6",
"~W 	c #5627C1",
"{W 	c #5A29D3",
"]W 	c #5A29D0",
"^W 	c #5A2EB9",
"/W 	c #582DB0",
"(W 	c #572BB4",
"_W 	c #5628BC",
":W 	c #5527C5",
"<W 	c #5528C1",
"[W 	c #5127AD",
"}W 	c #4A2398",
"|W 	c #472097",
"1W 	c #431C9D",
"2W 	c #5834AE",
"3W 	c #29067C",
"4W 	c #8361D2",
"5W 	c #5D3BAB",
"6W 	c #6747B6",
"7W 	c #593BAD",
"8W 	c #270B7C",
"9W 	c #301483",
"0W 	c #5236A4",
"aW 	c #1E1163",
"bW 	c #4A3C91",
"cW 	c #41338A",
"dW 	c #5330A8",
"eW 	c #4E2BA3",
"fW 	c #4A299A",
"gW 	c #4E2D9E",
"hW 	c #442493",
"iW 	c #B091F8",
"jW 	c #BD9EFF",
"kW 	c #B496FA",
"lW 	c #BA9CFF",
"mW 	c #462A90",
"nW 	c #482B99",
"oW 	c #431B95",
"pW 	c #4D24A4",
"qW 	c #4B22A4",
"rW 	c #4A21A5",
"sW 	c #481FA3",
"tW 	c #4B21A7",
"uW 	c #4D23A9",
"vW 	c #4E22BF",
"wW 	c #5326CB",
"xW 	c #5223C9",
"yW 	c #5726CD",
"zW 	c #6330D5",
"AW 	c #612CD2",
"BW 	c #5622C5",
"CW 	c #5720C3",
"DW 	c #5E26C5",
"EW 	c #5D28C1",
"FW 	c #5A25BB",
"GW 	c #4514A4",
"HW 	c #4716A3",
"IW 	c #4B1CA6",
"JW 	c #5A2CB3",
"KW 	c #5A2AB2",
"LW 	c #5722B0",
"MW 	c #5924B2",
"NW 	c #5A25B1",
"OW 	c #5B26B2",
"PW 	c #5B27B0",
"QW 	c #5925AE",
"RW 	c #5D29B1",
"SW 	c #511DA5",
"TW 	c #6632B8",
"UW 	c #4C189E",
"VW 	c #49159B",
"WW 	c #622EB4",
"XW 	c #541FAD",
"YW 	c #521DAB",
"ZW 	c #4F1CA9",
"`W 	c #501FAC",
" X 	c #4F1EAB",
".X 	c #481CA7",
"+X 	c #461AA5",
"@X 	c #471BA6",
"#X 	c #461B9E",
"$X 	c #6B48BE",
"%X 	c #6946BC",
"&X 	c #411C8D",
"*X 	c #4B2497",
"=X 	c #532AA2",
"-X 	c #6E42BE",
";X 	c #6134B5",
">X 	c #5A2CB2",
",X 	c #5E2FBB",
"'X 	c #5828B8",
")X 	c #5F2FC3",
"!X 	c #6531D1",
"~X 	c #6326DB",
"{X 	c #6728DB",
"]X 	c #672ECB",
"^X 	c #652DC4",
"/X 	c #5F27C6",
"(X 	c #5C25C9",
"_X 	c #5B26D0",
":X 	c #5B2BCC",
"<X 	c #5326B4",
"[X 	c #431FA3",
"}X 	c #401FA1",
"|X 	c #6B49C2",
"1X 	c #4C2AA3",
"2X 	c #8160D1",
"3X 	c #B494FF",
"4X 	c #7F61D1",
"5X 	c #2A0E7D",
"6X 	c #311784",
"7X 	c #644AB5",
"8X 	c #482F95",
"9X 	c #250D6F",
"0X 	c #544799",
"aX 	c #493B90",
"bX 	c #7C59D1",
"cX 	c #5938A9",
"dX 	c #4B2A9B",
"eX 	c #6444AF",
"fX 	c #C3A4FF",
"gX 	c #BC9DFF",
"hX 	c #AF90F7",
"iX 	c #C5A6FF",
"jX 	c #422593",
"kX 	c #492899",
"lX 	c #4E25A5",
"mX 	c #4D24A6",
"nX 	c #4A20A6",
"oX 	c #4C22A8",
"pX 	c #4A1DB4",
"qX 	c #572AC5",
"rX 	c #5829C5",
"sX 	c #5927C4",
"tX 	c #5F2CC9",
"uX 	c #5B25C3",
"vX 	c #551FBB",
"wX 	c #5F28C2",
"xX 	c #561FB8",
"yX 	c #602ABE",
"zX 	c #5721B3",
"AX 	c #6936C3",
"BX 	c #5E2BB4",
"CX 	c #6535BC",
"DX 	c #5021A5",
"EX 	c #5626AD",
"FX 	c #5722B2",
"GX 	c #5C27B3",
"HX 	c #5824AD",
"IX 	c #5F2BB4",
"JX 	c #5521AA",
"KX 	c #5A26AE",
"LX 	c #521EA4",
"MX 	c #6430B8",
"NX 	c #521EA6",
"OX 	c #5822AE",
"PX 	c #5821B0",
"QX 	c #501DAA",
"RX 	c #5120AD",
"SX 	c #42179C",
"TX 	c #42179A",
"UX 	c #42199B",
"VX 	c #421999",
"WX 	c #441F91",
"XX 	c #4C2399",
"YX 	c #9D71EC",
"ZX 	c #C293FF",
"`X 	c #9666ED",
" Y 	c #5E2BB6",
".Y 	c #5622B3",
"+Y 	c #5D28BE",
"@Y 	c #642FC8",
"#Y 	c #6227CD",
"$Y 	c #7129E4",
"%Y 	c #772BE7",
"&Y 	c #7A32DC",
"*Y 	c #7834D9",
"=Y 	c #7230DC",
"-Y 	c #692ADB",
";Y 	c #6025D9",
">Y 	c #5A25CF",
",Y 	c #5527BB",
"'Y 	c #4924A5",
")Y 	c #4020A5",
"!Y 	c #3E219F",
"~Y 	c #3A2290",
"{Y 	c #5634AC",
"]Y 	c #1E006D",
"^Y 	c #6B4BB6",
"/Y 	c #BEA1FF",
"(Y 	c #664BB6",
"_Y 	c #8562DA",
":Y 	c #7956CE",
"<Y 	c #5433A8",
"[Y 	c #6847BC",
"}Y 	c #49289B",
"|Y 	c #472794",
"1Y 	c #9677DF",
"2Y 	c #BB9CFF",
"3Y 	c #C0A1FF",
"4Y 	c #A283EB",
"5Y 	c #3F1990",
"6Y 	c #5225B6",
"7Y 	c #5124B5",
"8Y 	c #5323B5",
"9Y 	c #5826B9",
"0Y 	c #5A26B9",
"aY 	c #5C26BA",
"bY 	c #612ABC",
"cY 	c #531CAD",
"dY 	c #5D26B5",
"eY 	c #6832BE",
"fY 	c #8F5BE4",
"gY 	c #8551D7",
"hY 	c #6230B3",
"iY 	c #431292",
"jY 	c #5B29AE",
"kY 	c #5926B1",
"lY 	c #5925B5",
"mY 	c #5926B3",
"nY 	c #5320AD",
"oY 	c #5320AB",
"pY 	c #5623AE",
"qY 	c #5825AE",
"rY 	c #5C29B2",
"sY 	c #622FB8",
"tY 	c #5A28AF",
"uY 	c #5D2AB3",
"vY 	c #4E1AA3",
"wY 	c #5621AD",
"xY 	c #5421AC",
"yY 	c #5121AB",
"zY 	c #5222AC",
"AY 	c #5425AF",
"BY 	c #421B9A",
"CY 	c #3E1892",
"DY 	c #603FB2",
"EY 	c #5F3EB1",
"FY 	c #462193",
"GY 	c #4C259A",
"HY 	c #4D249C",
"IY 	c #A97DF9",
"JY 	c #C798FF",
"KY 	c #9865F0",
"LY 	c #612CBC",
"MY 	c #5C24BB",
"NY 	c #662DCA",
"OY 	c #773ADD",
"PY 	c #803CE9",
"QY 	c #8432F0",
"RY 	c #8831F1",
"SY 	c #8937E4",
"TY 	c #893AE5",
"UY 	c #8537ED",
"VY 	c #7931ED",
"WY 	c #6C29E8",
"XY 	c #6227DB",
"YY 	c #5A27C2",
"ZY 	c #5227B4",
"`Y 	c #4A25A9",
" Z 	c #4324A6",
".Z 	c #3E23A6",
"+Z 	c #39249D",
"@Z 	c #36258D",
"#Z 	c #36188A",
"$Z 	c #452894",
"%Z 	c #220C6E",
"&Z 	c #6441B9",
"*Z 	c #7352C7",
"=Z 	c #7D5CD1",
"-Z 	c #6A49BE",
";Z 	c #48279C",
">Z 	c #5636A1",
",Z 	c #7B5BC6",
"'Z 	c #8566CE",
")Z 	c #6141AC",
"!Z 	c #4A249B",
"~Z 	c #4A249D",
"{Z 	c #4F27A4",
"]Z 	c #5428AF",
"^Z 	c #4C1DA7",
"/Z 	c #5323AD",
"(Z 	c #5D28B6",
"_Z 	c #612AB9",
":Z 	c #551EAD",
"<Z 	c #632AB7",
"[Z 	c #864DD8",
"}Z 	c #9D65EE",
"|Z 	c #6E39BF",
"1Z 	c #743FC5",
"2Z 	c #521FA2",
"3Z 	c #5926A7",
"4Z 	c #5B29AC",
"5Z 	c #5A27B4",
"6Z 	c #5B28B5",
"7Z 	c #622FBA",
"8Z 	c #6734BF",
"9Z 	c #501DA6",
"0Z 	c #4B18A1",
"aZ 	c #5522AB",
"bZ 	c #4C19A2",
"cZ 	c #5623AC",
"dZ 	c #5B28B1",
"eZ 	c #5823AF",
"fZ 	c #5522AD",
"gZ 	c #5526B0",
"hZ 	c #4D22A7",
"iZ 	c #401998",
"jZ 	c #7958CB",
"kZ 	c #7B5ACD",
"lZ 	c #502FA2",
"mZ 	c #2B0A7D",
"nZ 	c #4B2A9D",
"oZ 	c #6847BA",
"pZ 	c #4A219B",
"qZ 	c #5C2FB0",
"rZ 	c #7240C7",
"sZ 	c #6E39C7",
"tZ 	c #7A42D9",
"uZ 	c #864AE8",
"vZ 	c #793BDE",
"wZ 	c #8240E8",
"xZ 	c #964DFC",
"yZ 	c #9037F1",
"zZ 	c #953AEF",
"AZ 	c #9640E3",
"BZ 	c #9341E1",
"CZ 	c #8B3BE8",
"DZ 	c #8133EB",
"EZ 	c #742CEF",
"FZ 	c #6C2BE7",
"GZ 	c #5E27CB",
"HZ 	c #4C26AD",
"IZ 	c #4425A6",
"JZ 	c #3E23A4",
"KZ 	c #36258F",
"LZ 	c #341887",
"MZ 	c #23096E",
"NZ 	c #3F298B",
"OZ 	c #210C69",
"PZ 	c #2E206D",
"QZ 	c #30226F",
"RZ 	c #2B1D6A",
"SZ 	c #6A47BD",
"TZ 	c #6941BC",
"UZ 	c #4C24A1",
"VZ 	c #4D24A8",
"WZ 	c #5328AB",
"XZ 	c #6031B5",
"YZ 	c #6939C0",
"ZZ 	c #5622AB",
"`Z 	c #632DB9",
" ` 	c #5219A6",
".` 	c #5419A5",
"+` 	c #8E55E0",
"@` 	c #A26AF3",
"#` 	c #5621A7",
"$` 	c #6732B8",
"%` 	c #5A27AA",
"&` 	c #602DAE",
"*` 	c #481598",
"=` 	c #5B28B3",
"-` 	c #6E3BC6",
";` 	c #7744CF",
">` 	c #5A27B2",
",` 	c #5D2AB5",
"'` 	c #6532BD",
")` 	c #5723AC",
"!` 	c #5121A9",
"~` 	c #5323AB",
"{` 	c #4E20A7",
"]` 	c #4519A2",
"^` 	c #4C20A7",
"/` 	c #4B20A5",
"(` 	c #4F2EA3",
"_` 	c #5E3DB0",
":` 	c #6F4EC1",
"<` 	c #4F289F",
"[` 	c #5B31AD",
"}` 	c #46189C",
"|` 	c #4E1BA6",
"1` 	c #5C25B7",
"2` 	c #864AE6",
"3` 	c #8F4EF2",
"4` 	c #732FDA",
"5` 	c #7630E0",
"6` 	c #8538E8",
"7` 	c #9A42F0",
"8` 	c #AA50EE",
"9` 	c #B562E8",
"0` 	c #B263E3",
"a` 	c #9F51E3",
"b` 	c #893DE5",
"c` 	c #782FEE",
"d` 	c #702DEE",
"e` 	c #6026D3",
"f` 	c #5827C1",
"g` 	c #5026AE",
"h` 	c #4223A2",
"i` 	c #3C229D",
"j` 	c #392296",
"k` 	c #371F91",
"l` 	c #2F167E",
"m` 	c #2B1A68",
"n` 	c #2B1D68",
"o` 	c #312672",
"p` 	c #7852CC",
"q` 	c #4F22A3",
"r` 	c #7F50D2",
"s` 	c #8657D9",
"t` 	c #4A169E",
"u` 	c #662DB8",
"v` 	c #5920AB",
"w` 	c #5318A4",
"x` 	c #652AB6",
"y` 	c #571EA9",
"z` 	c #4E169F",
"A` 	c #5E29AF",
"B` 	c #5C27AD",
"C` 	c #511EA1",
"D` 	c #5C29B4",
"E` 	c #5825B0",
"F` 	c #6B38C3",
"G` 	c #4916A1",
"H` 	c #511EA9",
"I` 	c #5222AA",
"J` 	c #4F21A8",
"K` 	c #5224AB",
"L` 	c #4418A1",
"M` 	c #4317A0",
"N` 	c #43179E",
"O` 	c #42199D",
"P` 	c #6946BA",
"Q` 	c #643EB7",
"R` 	c #7D55D2",
"S` 	c #5C2EB4",
"T` 	c #531BB2",
"U` 	c #6A2CCB",
"V` 	c #6D2BD3",
"W` 	c #6C26D6",
"X` 	c #883EF3",
"Y` 	c #9447F5",
"Z` 	c #A652EE",
"`` 	c #C170F3",
"  .	c #DA90F3",
". .	c #D792EF",
"+ .	c #BA74E8",
"@ .	c #9550E1",
"# .	c #7E36EF",
"$ .	c #7330F2",
"% .	c #6225DA",
"& .	c #5A26C6",
"* .	c #5125AC",
"= .	c #4B259E",
"- .	c #3D1E9F",
"; .	c #3A1B9A",
"> .	c #271078",
", .	c #2E187D",
"' .	c #7964BF",
") .	c #1E1157",
"! .	c #180D5B",
"~ .	c #453A88",
"{ .	c #392E7A",
"] .	c #8159D4",
"^ .	c #4D25A0",
"/ .	c #774FCC",
"( .	c #5D35B2",
"_ .	c #3E1693",
": .	c #4E25A7",
"< .	c #582BAA",
"[ .	c #5225A4",
"} .	c #4F20A2",
"| .	c #5021A3",
"1 .	c #5420A8",
"2 .	c #5521A9",
"3 .	c #5A21AE",
"4 .	c #5D22B0",
"5 .	c #551AA8",
"6 .	c #5B22AF",
"7 .	c #5923AD",
"8 .	c #551FA9",
"9 .	c #5925AD",
"0 .	c #5626AE",
"a .	c #5424AC",
"b .	c #5727AF",
"c .	c #5929B1",
"d .	c #5F2FB7",
"e .	c #5C2CB4",
"f .	c #5B27AF",
"g .	c #5220A7",
"h .	c #5321A8",
"i .	c #5523AA",
"j .	c #5422A9",
"k .	c #4A1AA1",
"l .	c #5929B0",
"m .	c #5426AC",
"n .	c #481AA0",
"o .	c #5325AB",
"p .	c #46189E",
"q .	c #4F21A7",
"r .	c #4A1EA5",
"s .	c #40149B",
"t .	c #3B0F96",
"u .	c #582CB3",
"v .	c #481DA0",
"w .	c #A886F7",
"x .	c #815FD0",
"y .	c #4E28A1",
"z .	c #532BA8",
"A .	c #5221B0",
"B .	c #5922BB",
"C .	c #6125C5",
"D .	c #6E2AD5",
"E .	c #7B35E6",
"F .	c #8A40F7",
"G .	c #9549F3",
"H .	c #B971F9",
"I .	c #E9A5FF",
"J .	c #F4BAFF",
"K .	c #AD70E7",
"L .	c #823EEB",
"M .	c #6B2EE5",
"N .	c #561EC1",
"O .	c #491A9C",
"P .	c #4C2194",
"Q .	c #4A2199",
"R .	c #3F15A7",
"S .	c #3C15A4",
"T .	c #2F197D",
"U .	c #4D3990",
"V .	c #8876CC",
"W .	c #57439A",
"X .	c #23165C",
"Y .	c #4A3F8D",
"Z .	c #4D4290",
"` .	c #342975",
" ..	c #3A2E78",
"...	c #643EB5",
"+..	c #49219E",
"@..	c #4A229F",
"#..	c #4D23A1",
"$..	c #5226A2",
"%..	c #5627A9",
"&..	c #5826AD",
"*..	c #5824AC",
"=..	c #571EAB",
"-..	c #581DAD",
";..	c #551CAB",
">..	c #5920AF",
",..	c #501AA6",
"'..	c #521DA9",
")..	c #6633BC",
"!..	c #5727AE",
"~..	c #5829AD",
"{..	c #592AAE",
"]..	c #5828AF",
"^..	c #5323AA",
"/..	c #5222A9",
"(..	c #5D2DB4",
"_..	c #5B2BB2",
":..	c #5828B0",
"<..	c #5525AC",
"[..	c #5624AB",
"}..	c #5725AC",
"|..	c #5424AB",
"1..	c #47199F",
"2..	c #5224AA",
"3..	c #3D1297",
"4..	c #5F34B9",
"5..	c #8055DA",
"6..	c #7F54D9",
"7..	c #4D26A5",
"8..	c #5122B0",
"9..	c #6C2AD4",
"0..	c #7933E4",
"a..	c #873DF6",
"b..	c #9148EF",
"c..	c #C584FF",
"d..	c #FFCDFF",
"e..	c #FFD6FC",
"f..	c #FFD7F4",
"g..	c #FFE9FF",
"h..	c #D099FF",
"i..	c #7335D8",
"j..	c #7A39F7",
"k..	c #672ADF",
"l..	c #5D25C6",
"m..	c #7845C4",
"n..	c #8051C1",
"o..	c #5629A0",
"p..	c #4E1DB7",
"q..	c #4417AE",
"r..	c #34157C",
"s..	c #523F98",
"t..	c #4B398B",
"u..	c #25195B",
"v..	c #231759",
"w..	c #372C7A",
"x..	c #2A2366",
"y..	c #2E226A",
"z..	c #3A2E76",
"A..	c #49239C",
"B..	c #5630A7",
"C..	c #421B92",
"D..	c #3A138A",
"E..	c #451E95",
"F..	c #522BA2",
"G..	c #3F1791",
"H..	c #49219C",
"I..	c #4A229D",
"J..	c #5026A2",
"K..	c #5427A8",
"L..	c #5F29B5",
"M..	c #5C26B2",
"N..	c #5B22B1",
"O..	c #571EAD",
"P..	c #5F2AB6",
"Q..	c #5A26AF",
"R..	c #501EA5",
"S..	c #5324A6",
"T..	c #5728AA",
"U..	c #5728AC",
"V..	c #5526AA",
"W..	c #5425A9",
"X..	c #5B2CB0",
"Y..	c #5A28AD",
"Z..	c #5624A9",
"`..	c #5422A7",
" +.	c #5628AC",
".+.	c #4A1FA2",
"++.	c #4C21A4",
"@+.	c #6237BA",
"#+.	c #855ADD",
"$+.	c #895FDF",
"%+.	c #4D23A3",
"&+.	c #4B219F",
"*+.	c #3E198D",
"=+.	c #4F22B0",
"-+.	c #5722B8",
";+.	c #5E24C4",
">+.	c #6829D2",
",+.	c #7531E0",
"'+.	c #8339F0",
")+.	c #8844E7",
"!+.	c #AA70E9",
"~+.	c #FFEAFF",
"{+.	c #FFECFF",
"]+.	c #C18FEE",
"^+.	c #5E25C0",
"/+.	c #7336EB",
"(+.	c #5E24D1",
"_+.	c #5720BA",
":+.	c #8452CF",
"<+.	c #8F60D0",
"[+.	c #54249C",
"}+.	c #401097",
"|+.	c #521FBC",
"1+.	c #4012A9",
"2+.	c #261571",
"3+.	c #4E3F92",
"4+.	c #0F014E",
"5+.	c #231757",
"6+.	c #25165B",
"7+.	c #241E5E",
"8+.	c #251F5F",
"9+.	c #2B1F67",
"0+.	c #5B38AE",
"a+.	c #4E279A",
"b+.	c #441D92",
"c+.	c #482196",
"d+.	c #4F25A1",
"e+.	c #451899",
"f+.	c #5F2DB4",
"g+.	c #6834BD",
"h+.	c #6630BA",
"i+.	c #5923AF",
"j+.	c #5E2AB3",
"k+.	c #5F2CB5",
"l+.	c #5829A9",
"m+.	c #5729A6",
"n+.	c #5527A4",
"o+.	c #5426A3",
"p+.	c #5425A5",
"q+.	c #5627A7",
"r+.	c #592AAC",
"s+.	c #5829AB",
"t+.	c #5826AB",
"u+.	c #5725AA",
"v+.	c #5220A5",
"w+.	c #4F20A4",
"x+.	c #4A1CA0",
"y+.	c #4E20A4",
"z+.	c #4A20A0",
"A+.	c #401694",
"B+.	c #6137B5",
"C+.	c #6036B4",
"D+.	c #4E27A4",
"E+.	c #401990",
"F+.	c #40198E",
"G+.	c #4921A6",
"H+.	c #4C22AC",
"I+.	c #5323B7",
"J+.	c #6427CD",
"K+.	c #6F2CDB",
"L+.	c #7934E7",
"M+.	c #7F3CE1",
"N+.	c #824BCA",
"O+.	c #C698F0",
"P+.	c #FFDFFF",
"Q+.	c #D4A9EE",
"R+.	c #8C5DC5",
"S+.	c #662FC8",
"T+.	c #642CD8",
"U+.	c #5B24C8",
"V+.	c #4E1AAD",
"W+.	c #6130AD",
"X+.	c #673BAE",
"Y+.	c #491B97",
"Z+.	c #411399",
"`+.	c #4A1AAE",
" @.	c #3B109E",
".@.	c #36178E",
"+@.	c #221656",
"@@.	c #24155A",
"#@.	c #22155B",
"$@.	c #14104D",
"%@.	c #150F4F",
"&@.	c #49239D",
"*@.	c #4E26A0",
"=@.	c #3C148E",
"-@.	c #3D158F",
";@.	c #4E299A",
">@.	c #401A8B",
",@.	c #552FA0",
"'@.	c #A680F1",
")@.	c #956FE0",
"!@.	c #461F94",
"~@.	c #492299",
"{@.	c #4B249B",
"]@.	c #4C259C",
"^@.	c #4D249E",
"/@.	c #5125A1",
"(@.	c #5C2DAD",
"_@.	c #6937BA",
":@.	c #6533B8",
"<@.	c #5A26AC",
"[@.	c #5C28B0",
"}@.	c #5223A5",
"|@.	c #5425A7",
"1@.	c #6134B3",
"2@.	c #592DA9",
"3@.	c #582CA7",
"4@.	c #572BA6",
"5@.	c #562AA5",
"6@.	c #5529A5",
"7@.	c #5528A7",
"8@.	c #5629A8",
"9@.	c #5527AB",
"0@.	c #5422A5",
"a@.	c #5624A7",
"b@.	c #5523A6",
"c@.	c #5220A3",
"d@.	c #4E21A2",
"e@.	c #5326A7",
"f@.	c #552BAB",
"g@.	c #4A209C",
"h@.	c #481E9A",
"i@.	c #421894",
"j@.	c #451B97",
"k@.	c #3F1591",
"l@.	c #441A96",
"m@.	c #431A94",
"n@.	c #4E28A2",
"o@.	c #4B259F",
"p@.	c #4C2C9B",
"q@.	c #411A91",
"r@.	c #4421A3",
"s@.	c #4920AA",
"t@.	c #4F21B5",
"u@.	c #5D25C8",
"v@.	c #6628D3",
"w@.	c #6E2EDD",
"x@.	c #7334DA",
"y@.	c #7D44D1",
"z@.	c #7C47BB",
"A@.	c #A375CF",
"B@.	c #AE81D6",
"C@.	c #8253BB",
"D@.	c #7643C4",
"E@.	c #7B45E3",
"F@.	c #5D28CE",
"G@.	c #5726BD",
"H@.	c #5324AE",
"I@.	c #3E1690",
"J@.	c #431B9F",
"K@.	c #301683",
"L@.	c #180C58",
"M@.	c #2E2469",
"N@.	c #30276A",
"O@.	c #271E5F",
"P@.	c #191552",
"Q@.	c #5532AA",
"R@.	c #5028A2",
"S@.	c #522CA3",
"T@.	c #4B259C",
"U@.	c #3C1886",
"V@.	c #401A87",
"W@.	c #AA84F3",
"X@.	c #451F8E",
"Y@.	c #431D8C",
"Z@.	c #421C8D",
"`@.	c #472093",
" #.	c #653CB4",
".#.	c #6F43BF",
"+#.	c #6A3CB9",
"@#.	c #5728A8",
"##.	c #491898",
"$#.	c #5725A8",
"%#.	c #4E1C9F",
"&#.	c #5122A2",
"*#.	c #6638B5",
"=#.	c #5D31AD",
"-#.	c #4C209C",
";#.	c #50249F",
">#.	c #491D96",
",#.	c #4C2197",
"'#.	c #51259E",
")#.	c #5529A2",
"!#.	c #572BA4",
"~#.	c #5528A9",
"{#.	c #5124A5",
"]#.	c #4C1FA0",
"^#.	c #3B1191",
"/#.	c #49209A",
"(#.	c #492098",
"_#.	c #481F99",
":#.	c #481F97",
"<#.	c #471E96",
"[#.	c #5128A0",
"}#.	c #431A92",
"|#.	c #451C96",
"1#.	c #441B93",
"2#.	c #4B2B9A",
"3#.	c #7F5DCD",
"4#.	c #6D4BBB",
"5#.	c #421991",
"6#.	c #3B1E95",
"7#.	c #3B1D97",
"8#.	c #3F1EA0",
"9#.	c #4420A6",
"0#.	c #4A20B0",
"a#.	c #5022B9",
"b#.	c #5622C2",
"c#.	c #5D24C9",
"d#.	c #6527D4",
"e#.	c #6A2BD4",
"f#.	c #7C3FDB",
"g#.	c #682DBD",
"h#.	c #632CAE",
"i#.	c #6631B3",
"j#.	c #6932C3",
"k#.	c #743DD7",
"l#.	c #6F3BDE",
"m#.	c #5826C5",
"n#.	c #341193",
"o#.	c #4322A7",
"p#.	c #3B1A9C",
"q#.	c #2C107F",
"r#.	c #1C145D",
"s#.	c #31276C",
"t#.	c #292061",
"u#.	c #211557",
"v#.	c #23135A",
"w#.	c #151450",
"x#.	c #21205C",
"y#.	c #2B2A66",
"z#.	c #120E4B",
"A#.	c #181353",
"B#.	c #5633AB",
"C#.	c #6643BB",
"D#.	c #5431A9",
"E#.	c #532DA7",
"F#.	c #451E9B",
"G#.	c #421993",
"H#.	c #603AB1",
"I#.	c #3E238E",
"J#.	c #4C2791",
"K#.	c #411B88",
"L#.	c #4D2794",
"M#.	c #46208F",
"N#.	c #6039AC",
"O#.	c #633AB2",
"P#.	c #5A2EA7",
"Q#.	c #5224A0",
"R#.	c #5625A2",
"S#.	c #5726A3",
"T#.	c #4B1A97",
"U#.	c #5527A3",
"V#.	c #7143BD",
"W#.	c #6439AF",
"X#.	c #52279D",
"Y#.	c #5F37AA",
"Z#.	c #5A2FA5",
"`#.	c #592EA2",
" $.	c #572CA2",
".$.	c #552AA0",
"+$.	c #5529A4",
"@$.	c #5427A6",
"#$.	c #5326A5",
"$$.	c #5122A4",
"%$.	c #572AAB",
"&$.	c #5225A6",
"*$.	c #431999",
"=$.	c #6C42C2",
"-$.	c #5228A8",
";$.	c #492096",
">$.	c #471E94",
",$.	c #4C239B",
"'$.	c #542BA1",
")$.	c #50279F",
"!$.	c #461D93",
"~$.	c #451C94",
"{$.	c #441B91",
"]$.	c #451C92",
"^$.	c #441D94",
"/$.	c #431C93",
"($.	c #805ECE",
"_$.	c #6745B3",
":$.	c #401791",
"<$.	c #3E178E",
"[$.	c #3A1D94",
"}$.	c #3B1C9B",
"|$.	c #3F1EA3",
"1$.	c #461FAC",
"2$.	c #4C20B5",
"3$.	c #511FBC",
"4$.	c #5C21CB",
"5$.	c #6123D0",
"6$.	c #6A27D7",
"7$.	c #6E29DA",
"8$.	c #702EDA",
"9$.	c #6C2CDB",
"0$.	c #6729E2",
"a$.	c #6529E1",
"b$.	c #5B25D1",
"c$.	c #4A28A3",
"d$.	c #3F20A2",
"e$.	c #3617A0",
"f$.	c #371AA6",
"g$.	c #301894",
"h$.	c #2A1977",
"i$.	c #19135B",
"j$.	c #31266B",
"k$.	c #11104C",
"l$.	c #3F3E7A",
"m$.	c #5C5B97",
"n$.	c #302F6B",
"o$.	c #0F0E4A",
"p$.	c #6744B8",
"q$.	c #5933AD",
"r$.	c #5B35AF",
"s$.	c #4E279C",
"t$.	c #472296",
"u$.	c #431D8A",
"v$.	c #451F8C",
"w$.	c #492390",
"x$.	c #4C2693",
"y$.	c #3F1986",
"z$.	c #47218E",
"A$.	c #46208D",
"B$.	c #45218D",
"C$.	c #46228E",
"D$.	c #421E8C",
"E$.	c #482293",
"F$.	c #451D90",
"G$.	c #54299D",
"H$.	c #6B40B6",
"I$.	c #4A1D94",
"J$.	c #5B2EA5",
"K$.	c #51269C",
"L$.	c #552A9E",
"M$.	c #4D2296",
"N$.	c #6941B3",
"O$.	c #AF87F9",
"P$.	c #8E63D6",
"Q$.	c #8258C8",
"R$.	c #6F44B7",
"S$.	c #5D32A5",
"T$.	c #52279B",
"U$.	c #54299F",
"V$.	c #582CA5",
"W$.	c #5428A4",
"X$.	c #5127A3",
"Y$.	c #5226A1",
"Z$.	c #4D1F9C",
"`$.	c #4E1F9F",
" %.	c #4D1E9E",
".%.	c #4C1F9E",
"+%.	c #5223A3",
"@%.	c #562AA6",
"#%.	c #5024A0",
"$%.	c #5E34B0",
"%%.	c #9A70EC",
"&%.	c #673DB9",
"*%.	c #5129A3",
"=%.	c #381186",
"-%.	c #421B90",
";%.	c #411A8F",
">%.	c #451E93",
",%.	c #4C2C99",
"'%.	c #391C92",
")%.	c #3A1C96",
"!%.	c #3E1D9F",
"~%.	c #4920AD",
"{%.	c #4D1FB3",
"]%.	c #5120BA",
"^%.	c #5522BF",
"/%.	c #5A21C6",
"(%.	c #5B1BCA",
"_%.	c #601CD1",
":%.	c #7A39EF",
"<%.	c #7B3BF4",
"[%.	c #571AD7",
"}%.	c #541AD1",
"|%.	c #5C29CE",
"1%.	c #471BAE",
"2%.	c #391C9C",
"3%.	c #381DA0",
"4%.	c #2D1698",
"5%.	c #301D90",
"6%.	c #312579",
"7%.	c #2A1975",
"8%.	c #1A145A",
"9%.	c #2B2065",
"0%.	c #181157",
"a%.	c #66629F",
"b%.	c #928ECB",
"c%.	c #514D8A",
"d%.	c #261D60",
"e%.	c #4C2892",
"f%.	c #421F85",
"g%.	c #432084",
"h%.	c #411E86",
"i%.	c #502B9C",
"j%.	c #4C269F",
"k%.	c #4B2096",
"l%.	c #471C90",
"m%.	c #4A1F92",
"n%.	c #482093",
"o%.	c #4A2197",
"p%.	c #472190",
"q%.	c #3C1484",
"r%.	c #4A2493",
"s%.	c #3C1685",
"t%.	c #502C98",
"u%.	c #401C86",
"v%.	c #4A2690",
"w%.	c #3F1C84",
"x%.	c #4B2890",
"y%.	c #46268B",
"z%.	c #45248C",
"A%.	c #46258D",
"B%.	c #49258F",
"C%.	c #4E2895",
"D%.	c #512B98",
"E%.	c #512B9A",
"F%.	c #532B9B",
"G%.	c #461E8E",
"H%.	c #492193",
"I%.	c #572FA1",
"J%.	c #51299B",
"K%.	c #4D2597",
"L%.	c #754DC0",
"M%.	c #AD85F5",
"N%.	c #956BD7",
"O%.	c #B388F3",
"P%.	c #9D72DE",
"Q%.	c #592D9C",
"R%.	c #592D9E",
"S%.	c #6034A7",
"T%.	c #43188E",
"U%.	c #5B30A6",
"V%.	c #5229A1",
"W%.	c #532AA0",
"X%.	c #51299C",
"Y%.	c #50289B",
"Z%.	c #4F269E",
"`%.	c #50249D",
" &.	c #4F239C",
".&.	c #4B229A",
"+&.	c #4B2298",
"@&.	c #4B2396",
"#&.	c #4F279A",
"$&.	c #522A9D",
"%&.	c #431E90",
"&&.	c #421D8F",
"*&.	c #452092",
"=&.	c #452094",
"-&.	c #3F1A8C",
";&.	c #3F1A8B",
">&.	c #2A0879",
",&.	c #7A58C9",
"'&.	c #6A48B8",
")&.	c #2D0B7B",
"!&.	c #3C1789",
"~&.	c #3D188A",
"{&.	c #3F1A9E",
"]&.	c #5229B5",
"^&.	c #4D20B1",
"/&.	c #5621BA",
"(&.	c #5E27C3",
"_&.	c #915BF7",
":&.	c #9A67FF",
"<&.	c #7C49E6",
"[&.	c #491DAE",
"}&.	c #361B90",
"|&.	c #321A8C",
"1&.	c #2F1986",
"2&.	c #382B7D",
"3&.	c #403581",
"4&.	c #130D55",
"5&.	c #1C195E",
"6&.	c #151257",
"7&.	c #18155A",
"8&.	c #181558",
"9&.	c #171457",
"0&.	c #181252",
"a&.	c #130D4D",
"b&.	c #2A2464",
"c&.	c #150B50",
"d&.	c #160C51",
"e&.	c #4B2A95",
"f&.	c #421F83",
"g&.	c #7A58B7",
"h&.	c #9674D2",
"i&.	c #7553B4",
"j&.	c #4E299D",
"k&.	c #815BD2",
"l&.	c #916BE2",
"m&.	c #4F29A0",
"n&.	c #482397",
"o&.	c #4E1D9D",
"p&.	c #5325A1",
"q&.	c #4C1F96",
"r&.	c #481C8F",
"s&.	c #512596",
"t&.	c #4E2396",
"u&.	c #462290",
"v&.	c #41198B",
"w&.	c #6B45B6",
"x&.	c #8761D0",
"y&.	c #653FAE",
"z&.	c #44208A",
"A&.	c #411D87",
"B&.	c #432088",
"C&.	c #47268E",
"D&.	c #3C1C7F",
"E&.	c #46238B",
"F&.	c #48248E",
"G&.	c #502C96",
"H&.	c #4A2294",
"I&.	c #451D8F",
"J&.	c #532B9E",
"K&.	c #6840B0",
"L&.	c #5E339E",
"M&.	c #6A3FA8",
"N&.	c #6F44AF",
"O&.	c #502591",
"P&.	c #6539AC",
"Q&.	c #582DA1",
"R&.	c #512A9D",
"S&.	c #4F299A",
"T&.	c #4F269C",
"U&.	c #4E259B",
"V&.	c #4D249A",
"W&.	c #4C2497",
"X&.	c #4C2496",
"Y&.	c #4B2395",
"Z&.	c #4B2393",
"`&.	c #482090",
" *.	c #441C8C",
".*.	c #321687",
"+*.	c #311782",
"@*.	c #311880",
"#*.	c #3C1788",
"$*.	c #3D1889",
"%*.	c #3F1C9C",
"&*.	c #3F1C9E",
"**.	c #4418A3",
"=*.	c #5D2EBC",
"-*.	c #9A6BF9",
";*.	c #A073FF",
">*.	c #7D51DC",
",*.	c #441AA2",
"'*.	c #401B9F",
")*.	c #3D1A9A",
"!*.	c #381893",
"~*.	c #341A88",
"{*.	c #2A2164",
"]*.	c #1B155F",
"^*.	c #1B1761",
"/*.	c #1A1660",
"(*.	c #17155E",
"_*.	c #171459",
":*.	c #171254",
"<*.	c #160C53",
"[*.	c #1B105C",
"}*.	c #522E98",
"|*.	c #4C298F",
"1*.	c #7351B2",
"2*.	c #C7A5FF",
"3*.	c #D2B0FF",
"4*.	c #B795F6",
"5*.	c #6342AD",
"6*.	c #6C49BD",
"7*.	c #4D209F",
"8*.	c #5325A2",
"9*.	c #4B1E93",
"0*.	c #4D2192",
"a*.	c #491E92",
"b*.	c #472294",
"c*.	c #431B8D",
"d*.	c #653FB0",
"e*.	c #7A54C5",
"f*.	c #401C88",
"g*.	c #3A177F",
"h*.	c #462689",
"i*.	c #422285",
"j*.	c #4E2A94",
"k*.	c #4F2996",
"l*.	c #4C2695",
"m*.	c #50289A",
"n*.	c #4D2598",
"o*.	c #4F248F",
"p*.	c #461B84",
"q*.	c #572C97",
"r*.	c #542995",
"s*.	c #502696",
"t*.	c #673CAF",
"u*.	c #673CB0",
"v*.	c #4C2598",
"w*.	c #4A2396",
"x*.	c #441E8B",
"y*.	c #613FB0",
"z*.	c #3E198A",
"A*.	c #3E1A88",
"B*.	c #4623A1",
"C*.	c #411E9E",
"D*.	c #361393",
"E*.	c #4B26A9",
"F*.	c #5C30B9",
"G*.	c #552BB3",
"H*.	c #4E24AA",
"I*.	c #381094",
"J*.	c #401B9C",
"K*.	c #341889",
"L*.	c #301681",
"M*.	c #2B1579",
"N*.	c #2B2265",
"O*.	c #241B5E",
"P*.	c #18134D",
"Q*.	c #19105F",
"R*.	c #1A1160",
"S*.	c #1D1966",
"T*.	c #171360",
"U*.	c #1B1764",
"V*.	c #1A1662",
"W*.	c #191256",
"X*.	c #1C1050",
"Y*.	c #150C4F",
"Z*.	c #3C3082",
"`*.	c #4B3F91",
" =.	c #4E2B93",
".=.	c #49268C",
"+=.	c #9B79DA",
"@=.	c #D6B4FF",
"#=.	c #B392ED",
"$=.	c #CAA8FF",
"%=.	c #9877E2",
"&=.	c #441894",
"*=.	c #4C1E9A",
"==.	c #471993",
"-=.	c #4F2297",
";=.	c #522697",
">=.	c #471B8C",
",=.	c #4E2397",
"'=.	c #492295",
")=.	c #492194",
"!=.	c #431D8E",
"~=.	c #391384",
"{=.	c #3D1983",
"]=.	c #53329A",
"^=.	c #34167A",
"/=.	c #412184",
"(=.	c #4C2B93",
"_=.	c #4F2B95",
":=.	c #5B33A5",
"<=.	c #5931A4",
"[=.	c #4E2696",
"}=.	c #5D339F",
"|=.	c #532893",
"1=.	c #572C98",
"2=.	c #562A99",
"3=.	c #5E33A7",
"4=.	c #6035AB",
"5=.	c #522BA0",
"6=.	c #50299C",
"7=.	c #4C2697",
"8=.	c #4A2491",
"9=.	c #492591",
"0=.	c #5B39AA",
"a=.	c #412594",
"b=.	c #3B158C",
"c=.	c #340E85",
"d=.	c #2C0A7A",
"e=.	c #3B1687",
"f=.	c #3B1896",
"g=.	c #3A1193",
"h=.	c #41189C",
"i=.	c #381192",
"j=.	c #461FA0",
"k=.	c #2F1580",
"l=.	c #2A1479",
"m=.	c #261273",
"n=.	c #1A175C",
"o=.	c #1C1364",
"p=.	c #1B1368",
"q=.	c #231B70",
"r=.	c #1B166A",
"s=.	c #140F61",
"t=.	c #1D186A",
"u=.	c #1C1562",
"v=.	c #1F1053",
"w=.	c #1F1051",
"x=.	c #3A2F7E",
"y=.	c #190E5A",
"z=.	c #4A278D",
"A=.	c #3F1C80",
"B=.	c #8C6AC9",
"C=.	c #C8A6FF",
"D=.	c #B491ED",
"E=.	c #482798",
"F=.	c #5433A4",
"G=.	c #4A239A",
"H=.	c #4D219D",
"I=.	c #5C2EA8",
"J=.	c #4E2198",
"K=.	c #4D2194",
"L=.	c #532997",
"M=.	c #4A208E",
"N=.	c #4C2292",
"O=.	c #44198D",
"P=.	c #40198C",
"Q=.	c #441D90",
"R=.	c #411D8B",
"S=.	c #6847AF",
"T=.	c #492A91",
"U=.	c #45278B",
"V=.	c #412385",
"W=.	c #482A8C",
"X=.	c #452789",
"Y=.	c #402284",
"Z=.	c #4C2C91",
"`=.	c #5D3DA2",
" -.	c #5A39A1",
".-.	c #4C2894",
"+-.	c #4D2798",
"@-.	c #512795",
"#-.	c #5B2F9E",
"$-.	c #502694",
"%-.	c #4D2393",
"&-.	c #562B9E",
"*-.	c #53289C",
"=-.	c #51289E",
"--.	c #4F2A9C",
";-.	c #4E299B",
">-.	c #4B2596",
",-.	c #48228F",
"'-.	c #431F89",
")-.	c #421E88",
"!-.	c #34128B",
"~-.	c #291479",
"{-.	c #171350",
"]-.	c #19165B",
"^-.	c #171167",
"/-.	c #1F1973",
"(-.	c #211B75",
"_-.	c #1D1872",
":-.	c #1C1771",
"<-.	c #1A156F",
"[-.	c #18146B",
"}-.	c #1B176C",
"|-.	c #1D186C",
"1-.	c #1E1767",
"2-.	c #1D1562",
"3-.	c #200F53",
"4-.	c #362D6E",
"5-.	c #443B7E",
"6-.	c #32296C",
"7-.	c #533096",
"8-.	c #452286",
"9-.	c #563493",
"0-.	c #9876D4",
"a-.	c #A582E0",
"b-.	c #9674D5",
"c-.	c #5D3CAD",
"d-.	c #5228A4",
"e-.	c #5D33AF",
"f-.	c #5E31B0",
"g-.	c #5124A3",
"h-.	c #4B1E9D",
"i-.	c #7244C0",
"j-.	c #9265DC",
"k-.	c #6336AB",
"l-.	c #401485",
"m-.	c #431985",
"n-.	c #562C9C",
"o-.	c #42178B",
"p-.	c #4F289D",
"q-.	c #421D8E",
"r-.	c #4A2596",
"s-.	c #411D89",
"t-.	c #5635A0",
"u-.	c #5E3DA6",
"v-.	c #46278E",
"w-.	c #44268A",
"x-.	c #47298B",
"y-.	c #5A3A9F",
"z-.	c #54339B",
"A-.	c #482490",
"B-.	c #4B2594",
"C-.	c #542C9E",
"D-.	c #491F8F",
"E-.	c #6135A6",
"F-.	c #562B9F",
"G-.	c #482291",
"H-.	c #46218B",
"I-.	c #3F1E87",
"J-.	c #402492",
"K-.	c #6948B9",
"L-.	c #7A59CC",
"M-.	c #44229A",
"N-.	c #27097B",
"O-.	c #412393",
"P-.	c #271376",
"Q-.	c #211955",
"R-.	c #18155C",
"S-.	c #1A1768",
"T-.	c #16136E",
"U-.	c #191876",
"V-.	c #232280",
"W-.	c #201F7D",
"X-.	c #161774",
"Y-.	c #21207E",
"Z-.	c #272683",
"`-.	c #1B1871",
" ;.	c #1D1970",
".;.	c #352C6F",
"+;.	c #1D164A",
"@;.	c #55319B",
"#;.	c #49268E",
"$;.	c #563198",
"%;.	c #4B278B",
"&;.	c #361274",
"*;.	c #4D2989",
"=;.	c #563292",
"-;.	c #331074",
";;.	c #6446B8",
">;.	c #5631A5",
",;.	c #7145C1",
"';.	c #7041C1",
");.	c #47189C",
"!;.	c #4A1B9D",
"~;.	c #7B4FCA",
"{;.	c #9166DA",
"];.	c #592EA1",
"^;.	c #461C8A",
"/;.	c #512793",
"(;.	c #491F8B",
"_;.	c #4A2295",
":;.	c #461D95",
"<;.	c #3F1B87",
"[;.	c #3B1D81",
"};.	c #402282",
"|;.	c #422486",
"1;.	c #4D2F93",
"2;.	c #4B2D91",
"3;.	c #552D9F",
"4;.	c #582DA0",
"5;.	c #6237AA",
"6;.	c #5B30A3",
"7;.	c #5E33A6",
"8;.	c #572FA2",
"9;.	c #5B33A6",
"0;.	c #6C44B7",
"a;.	c #4A2694",
"b;.	c #47238F",
"c;.	c #421E8A",
"d;.	c #45228A",
"e;.	c #402691",
"f;.	c #2C127D",
"g;.	c #2D167E",
"h;.	c #5A3DAB",
"i;.	c #6749B9",
"j;.	c #2B107B",
"k;.	c #7158BE",
"l;.	c #5E48AC",
"m;.	c #170362",
"n;.	c #18125A",
"o;.	c #17135D",
"p;.	c #191561",
"q;.	c #1A1565",
"r;.	c #19176B",
"s;.	c #161976",
"t;.	c #111779",
"u;.	c #22288A",
"v;.	c #212789",
"w;.	c #151B7D",
"x;.	c #313797",
"y;.	c #3E43A1",
"z;.	c #171A77",
"A;.	c #1A1B75",
"B;.	c #1C1970",
"C;.	c #1C1769",
"D;.	c #1D1151",
"E;.	c #1A1444",
"F;.	c #46218A",
"G;.	c #4F2A91",
"H;.	c #543094",
"I;.	c #462286",
"J;.	c #4A2688",
"K;.	c #512E96",
"L;.	c #4F2F9E",
"M;.	c #4C209B",
"N;.	c #5E32AE",
"O;.	c #5C2DAF",
"P;.	c #48199B",
"Q;.	c #46169D",
"R;.	c #431792",
"S;.	c #51269A",
"T;.	c #370D7D",
"U;.	c #6137A3",
"V;.	c #7C52BE",
"W;.	c #4F2591",
"X;.	c #471F8F",
"Y;.	c #4E259D",
"Z;.	c #3B1489",
"`;.	c #482394",
" >.	c #4A2692",
".>.	c #3E2080",
"+>.	c #583A9C",
"@>.	c #56389C",
"#>.	c #4F2E96",
"$>.	c #4D2995",
"%>.	c #4E2899",
"&>.	c #6038AA",
"*>.	c #441C8F",
"=>.	c #5A32A5",
"->.	c #835BCE",
";>.	c #421F87",
">>.	c #2E147F",
",>.	c #2D137E",
"'>.	c #8161D0",
")>.	c #8B69D9",
"!>.	c #2D177C",
"~>.	c #2C0F7B",
"{>.	c #5F4AA9",
"]>.	c #4B3894",
"^>.	c #1E1661",
"/>.	c #1B1659",
"(>.	c #1C1559",
"_>.	c #161151",
":>.	c #171157",
"<>.	c #17115B",
"[>.	c #17135F",
"}>.	c #191464",
"|>.	c #1A1567",
"1>.	c #17176D",
"2>.	c #17207F",
"3>.	c #081677",
"4>.	c #1C2A8B",
"5>.	c #1E2C8D",
"6>.	c #132184",
"7>.	c #3D49AB",
"8>.	c #4D57B8",
"9>.	c #151E7D",
"0>.	c #171C78",
"a>.	c #171B72",
"b>.	c #1A186B",
"c>.	c #191663",
"d>.	c #1A145C",
"e>.	c #4B2793",
"f>.	c #512C96",
"g>.	c #4A258F",
"h>.	c #7B56C0",
"i>.	c #6540A9",
"j>.	c #401983",
"k>.	c #512A94",
"l>.	c #4C258F",
"m>.	c #4B1F9B",
"n>.	c #4D1DA4",
"o>.	c #4E1FA1",
"p>.	c #4F239E",
"q>.	c #3F178A",
"r>.	c #4F2797",
"s>.	c #BE97FF",
"t>.	c #AF88F3",
"u>.	c #401888",
"v>.	c #3F1197",
"w>.	c #441798",
"x>.	c #6438B4",
"y>.	c #6135B0",
"z>.	c #40178F",
"A>.	c #603CAA",
"B>.	c #7652BE",
"C>.	c #48278F",
"D>.	c #3F2485",
"E>.	c #3F2483",
"F>.	c #402584",
"G>.	c #412685",
"H>.	c #512D9B",
"I>.	c #4F2799",
"J>.	c #522C9D",
"K>.	c #4D2899",
"L>.	c #48258D",
"M>.	c #3D1A82",
"N>.	c #462389",
"O>.	c #3D268E",
"P>.	c #2A1179",
"Q>.	c #482B95",
"R>.	c #5538A2",
"S>.	c #271176",
"T>.	c #3F2A89",
"U>.	c #1E174D",
"V>.	c #261E59",
"W>.	c #2E2661",
"X>.	c #140E54",
"Y>.	c #1F1B68",
"Z>.	c #1C1767",
"`>.	c #181365",
" ,.	c #1B1D72",
".,.	c #152481",
"+,.	c #15298A",
"@,.	c #1A2E8F",
"#,.	c #687CDD",
"$,.	c #96AAFF",
"%,.	c #6B7DDF",
"&,.	c #1C2C8E",
"*,.	c #223190",
"=,.	c #111C78",
"-,.	c #19237A",
";,.	c #1A1F71",
">,.	c #111461",
",,.	c #111159",
"',.	c #281F5E",
"),.	c #532D9A",
"!,.	c #8B65D2",
"~,.	c #7A54C1",
"{,.	c #522A9A",
"],.	c #5931A1",
"^,.	c #502898",
"/,.	c #6842BB",
"(,.	c #6A44BE",
"_,.	c #613BB4",
":,.	c #4F29A2",
"<,.	c #461D97",
"[,.	c #CAA3FF",
"},.	c #FFDCFF",
"|,.	c #A982ED",
"1,.	c #451D8D",
"2,.	c #461E91",
"3,.	c #5729AF",
"4,.	c #5123A9",
"5,.	c #4F21A5",
"6,.	c #421594",
"7,.	c #683CB8",
"8,.	c #6B3FB8",
"9,.	c #401B8C",
"0,.	c #3A1684",
"a,.	c #5F3BA5",
"b,.	c #37167E",
"c,.	c #422488",
"d,.	c #502C9A",
"e,.	c #562EA1",
"f,.	c #6139A9",
"g,.	c #54309C",
"h,.	c #5432A0",
"i,.	c #47248C",
"j,.	c #3F1C82",
"k,.	c #3B1B7E",
"l,.	c #3B1D7F",
"m,.	c #472C8B",
"n,.	c #4F3495",
"o,.	c #472C8D",
"p,.	c #34197A",
"q,.	c #44258C",
"r,.	c #290D73",
"s,.	c #3A2489",
"t,.	c #3B228A",
"u,.	c #472A94",
"v,.	c #6447B1",
"w,.	c #42258F",
"x,.	c #382286",
"y,.	c #282363",
"z,.	c #211954",
"A,.	c #070242",
"B,.	c #1C165C",
"C,.	c #110B55",
"D,.	c #130F5C",
"E,.	c #0C1D79",
"F,.	c #102986",
"G,.	c #344CAC",
"H,.	c #B7CFFF",
"I,.	c #C4DAFF",
"J,.	c #C8DEFF",
"K,.	c #5B6FD0",
"L,.	c #142786",
"M,.	c #192883",
"N,.	c #243086",
"O,.	c #262E7F",
"P,.	c #191F6B",
"Q,.	c #13165D",
"R,.	c #161757",
"S,.	c #181854",
"T,.	c #441E8D",
"U,.	c #6A42B4",
"V,.	c #41188E",
"W,.	c #6D44C4",
"X,.	c #6B42C2",
"Y,.	c #6038B5",
"Z,.	c #4F27A2",
"`,.	c #471F99",
" '.	c #4C22A2",
".'.	c #6F49B8",
"+'.	c #8964CE",
"@'.	c #5F39A6",
"#'.	c #3D1585",
"$'.	c #5325A9",
"%'.	c #50229F",
"&'.	c #9264E0",
"*'.	c #AA7FF5",
"='.	c #3F1988",
"-'.	c #431F8D",
";'.	c #38187D",
">'.	c #47288F",
",'.	c #4F2B99",
"''.	c #5830A2",
")'.	c #49248E",
"!'.	c #59349E",
"~'.	c #533098",
"{'.	c #543199",
"]'.	c #6948B1",
"^'.	c #704FB7",
"/'.	c #5F3EA6",
"('.	c #37177A",
"_'.	c #3D1D80",
":'.	c #48288B",
"<'.	c #391B7B",
"['.	c #4E3390",
"}'.	c #5D42A1",
"|'.	c #523796",
"1'.	c #3A1F7E",
"2'.	c #361B7C",
"3'.	c #6749AD",
"4'.	c #6345A9",
"5'.	c #2C167A",
"6'.	c #2E187C",
"7'.	c #281274",
"8'.	c #2C1371",
"9'.	c #262060",
"0'.	c #1E174B",
"a'.	c #373272",
"b'.	c #3A3578",
"c'.	c #1C165E",
"d'.	c #110D59",
"e'.	c #211C6C",
"f'.	c #191B6E",
"g'.	c #102179",
"h'.	c #18318D",
"i'.	c #314AA7",
"j'.	c #BED7FF",
"k'.	c #E4FBFF",
"l'.	c #D4EBFF",
"m'.	c #5165C6",
"n'.	c #213493",
"o'.	c #182782",
"p'.	c #223186",
"q'.	c #242F7F",
"r'.	c #19216A",
"s'.	c #0F1458",
"t'.	c #101151",
"u'.	c #141450",
"v'.	c #4B229C",
"w'.	c #6238B6",
"x'.	c #592FAF",
"y'.	c #5F31B7",
"z'.	c #5E30B4",
"A'.	c #5629AA",
"B'.	c #4B219D",
"C'.	c #4B239E",
"D'.	c #3F188D",
"E'.	c #4B2592",
"F'.	c #3E1686",
"G'.	c #5428A3",
"H'.	c #481B9A",
"I'.	c #421393",
"J'.	c #51239F",
"K'.	c #9567E1",
"L'.	c #AF84F8",
"M'.	c #7045B8",
"N'.	c #4D2595",
"O'.	c #421C89",
"P'.	c #3E1A84",
"Q'.	c #442189",
"R'.	c #402083",
"S'.	c #381A7C",
"T'.	c #422786",
"U'.	c #532B9D",
"V'.	c #4C2592",
"W'.	c #623CA9",
"X'.	c #5D38A2",
"Y'.	c #502B94",
"Z'.	c #5A379D",
"`'.	c #7A57BD",
" ).	c #825FC3",
".).	c #6F4FB4",
"+).	c #543499",
"@).	c #4E2D95",
"#).	c #58379F",
"$).	c #6B4AB2",
"%).	c #7958C0",
"&).	c #4D2D92",
"*).	c #452588",
"=).	c #4E2E91",
"-).	c #6648A8",
";).	c #381D7A",
">).	c #432885",
",).	c #4A2F8C",
"').	c #452A87",
")).	c #3D227F",
"!).	c #371C7B",
"~).	c #361B7A",
"{).	c #896BCF",
"]).	c #7559BD",
"^).	c #5C42A5",
"/).	c #5E45AA",
"().	c #432690",
"_).	c #35197D",
":).	c #3E288A",
"<).	c #2E1573",
"[).	c #2E1571",
"}).	c #2E1570",
"|).	c #413D7A",
"1).	c #423D7F",
"2).	c #15115B",
"3).	c #1C1864",
"4).	c #181B6C",
"5).	c #152479",
"6).	c #0F247D",
"7).	c #192E89",
"8).	c #5A6FCC",
"9).	c #9CB0FF",
"0).	c #7B8EED",
"a).	c #3245A4",
"b).	c #223291",
"c).	c #111E7A",
"d).	c #19257B",
"e).	c #1B2374",
"f).	c #131963",
"g).	c #0E1154",
"h).	c #10124F",
"i).	c #14134D",
"j).	c #542C9F",
"k).	c #5229A3",
"l).	c #5A30AE",
"m).	c #683ABE",
"n).	c #7446CD",
"o).	c #6536C0",
"p).	c #5627B1",
"q).	c #5827B4",
"r).	c #6535BD",
"s).	c #5F30B4",
"t).	c #5526A6",
"u).	c #4E229D",
"v).	c #4D219A",
"w).	c #4A23A0",
"x).	c #4C2799",
"y).	c #42148E",
"z).	c #592CA3",
"A).	c #5A2FA2",
"B).	c #592F9F",
"C).	c #4B2491",
"D).	c #48238D",
"E).	c #3E1E81",
"F).	c #402081",
"G).	c #432384",
"H).	c #3D1D7E",
"I).	c #3A1C7C",
"J).	c #402582",
"K).	c #3F2682",
"L).	c #402783",
"M).	c #432889",
"N).	c #4A2C90",
"O).	c #522C99",
"P).	c #553099",
"Q).	c #502B92",
"R).	c #533094",
"S).	c #6947A8",
"T).	c #BD9BFC",
"U).	c #A787EA",
"V).	c #6747AA",
"W).	c #4C2D94",
"X).	c #502F97",
"Y).	c #523297",
"Z).	c #442487",
"`).	c #4C2C8F",
" !.	c #47278A",
".!.	c #543495",
"+!.	c #6C4EAE",
"@!.	c #391E7B",
"#!.	c #371E79",
"$!.	c #361D78",
"%!.	c #3A217C",
"&!.	c #39207C",
"*!.	c #311874",
"=!.	c #331A78",
"-!.	c #5B40A1",
";!.	c #553A9B",
">!.	c #321778",
",!.	c #53399A",
"'!.	c #5941A3",
")!.	c #4D3299",
"!!.	c #462B92",
"~!.	c #2C156F",
"{!.	c #2C156D",
"]!.	c #2C166B",
"^!.	c #1E1252",
"/!.	c #201653",
"(!.	c #24195B",
"_!.	c #493E8A",
":!.	c #382D7B",
"<!.	c #0F0C45",
"[!.	c #231E5E",
"}!.	c #131055",
"|!.	c #151259",
"1!.	c #18145E",
"2!.	c #2F378A",
"3!.	c #1A2880",
"4!.	c #23338B",
"5!.	c #21308B",
"6!.	c #303F9C",
"7!.	c #5663C3",
"8!.	c #5B68C8",
"9!.	c #1E2887",
"0!.	c #181F7A",
"a!.	c #181E74",
"b!.	c #171A6B",
"c!.	c #161660",
"d!.	c #161557",
"e!.	c #1C1549",
"f!.	c #10064B",
"g!.	c #130A4D",
"h!.	c #4E259F",
"i!.	c #5329A7",
"j!.	c #552AAD",
"k!.	c #5A2BB5",
"l!.	c #5E2FBD",
"m!.	c #6030C0",
"n!.	c #6433C3",
"o!.	c #632DBF",
"p!.	c #6631C1",
"q!.	c #6631BD",
"r!.	c #5E2CB3",
"s!.	c #4F219E",
"t!.	c #51239D",
"u!.	c #47239F",
"v!.	c #4D26A3",
"w!.	c #461A95",
"x!.	c #4C1E9B",
"y!.	c #481A94",
"z!.	c #42158A",
"A!.	c #3B0F80",
"B!.	c #4D2391",
"C!.	c #451E8B",
"D!.	c #411C86",
"E!.	c #3C1781",
"F!.	c #441F88",
"G!.	c #4A278F",
"H!.	c #401E7F",
"I!.	c #3F207E",
"J!.	c #3E1F7D",
"K!.	c #3E217E",
"L!.	c #492B8F",
"M!.	c #502B95",
"N!.	c #4A258E",
"O!.	c #522E92",
"P!.	c #603E9F",
"Q!.	c #6846A5",
"R!.	c #C2A3FF",
"S!.	c #D2B3FF",
"T!.	c #AF90EE",
"U!.	c #6848A9",
"V!.	c #462888",
"W!.	c #4C2E90",
"X!.	c #55349C",
"Y!.	c #4B2B8E",
"Z!.	c #462687",
"`!.	c #3E1E7F",
" ~.	c #412182",
".~.	c #4B2E8B",
"+~.	c #371D78",
"@~.	c #39207B",
"#~.	c #341B76",
"$~.	c #331A75",
"%~.	c #290E6F",
"&~.	c #240A6B",
"*~.	c #240E73",
"=~.	c #43288F",
"-~.	c #5439A0",
";~.	c #492E95",
">~.	c #2D177B",
",~.	c #271173",
"'~.	c #2A1469",
")~.	c #281265",
"!~.	c #201454",
"~~.	c #221654",
"{~.	c #241955",
"]~.	c #514695",
"^~.	c #3E3284",
"/~.	c #0D0A43",
"(~.	c #120F48",
"_~.	c #120D4D",
":~.	c #141156",
"<~.	c #141158",
"[~.	c #1D1D67",
"}~.	c #3C4192",
"|~.	c #353B91",
"1~.	c #1F267E",
"2~.	c #262D87",
"3~.	c #1F2583",
"4~.	c #5258B8",
"5~.	c #474BAC",
"6~.	c #232788",
"7~.	c #1D1E7B",
"8~.	c #191971",
"9~.	c #161266",
"0~.	c #16125E",
"a~.	c #12084F",
"b~.	c #5A30AC",
"c~.	c #5A2ABC",
"d~.	c #6A3ACE",
"e~.	c #7B49DE",
"f~.	c #6F39CF",
"g~.	c #6B34C6",
"h~.	c #642DBC",
"i~.	c #5B27AD",
"j~.	c #5726A4",
"k~.	c #53259F",
"l~.	c #44229B",
"m~.	c #401C9A",
"n~.	c #441C8E",
"o~.	c #481C97",
"p~.	c #6539B5",
"q~.	c #471898",
"r~.	c #491B98",
"s~.	c #54279E",
"t~.	c #502195",
"u~.	c #4E2492",
"v~.	c #401984",
"w~.	c #421D87",
"x~.	c #4D2891",
"y~.	c #4B268F",
"z~.	c #462188",
"A~.	c #3E1B81",
"B~.	c #320F73",
"C~.	c #3D1B7C",
"D~.	c #3C1D7B",
"E~.	c #40217E",
"F~.	c #432682",
"G~.	c #3B217C",
"H~.	c #3F2580",
"I~.	c #3E2580",
"J~.	c #412886",
"K~.	c #513299",
"L~.	c #53329B",
"M~.	c #51309B",
"N~.	c #623FA5",
"O~.	c #805EBD",
"P~.	c #543290",
"Q~.	c #8263C0",
"R~.	c #9071CE",
"S~.	c #7C5DBA",
"T~.	c #543593",
"U~.	c #462986",
"V~.	c #4D2F8F",
"W~.	c #53349B",
"X~.	c #8668CC",
"Y~.	c #9577DB",
"Z~.	c #6648AC",
"`~.	c #412383",
" {.	c #361878",
".{.	c #341774",
"+{.	c #3C247C",
"@{.	c #3D257D",
"#{.	c #371F77",
"${.	c #3E288C",
"%{.	c #250B70",
"&{.	c #261074",
"*{.	c #261275",
"={.	c #2A136B",
"-{.	c #271164",
";{.	c #23105F",
">{.	c #211555",
",{.	c #231854",
"'{.	c #221751",
"){.	c #1C114B",
"!{.	c #1B104A",
"~{.	c #1C114D",
"{{.	c #1D114F",
"]{.	c #1E1264",
"^{.	c #1B1962",
"/{.	c #262573",
"({.	c #242578",
"_{.	c #0C0C62",
":{.	c #1D1D77",
"<{.	c #232481",
"[{.	c #0D0B6C",
"}{.	c #1A1677",
"|{.	c #1A1674",
"1{.	c #170F62",
"2{.	c #170F5A",
"3{.	c #1B0D48",
"4{.	c #1A0D43",
"5{.	c #0F0649",
"6{.	c #5325AC",
"7{.	c #5C2DB7",
"8{.	c #6A3AC4",
"9{.	c #6838C0",
"0{.	c #6E3EC5",
"a{.	c #7644C7",
"b{.	c #834FCE",
"c{.	c #7743C2",
"d{.	c #6C37B9",
"e{.	c #6835B8",
"f{.	c #5E2CB1",
"g{.	c #451995",
"h{.	c #4B1F98",
"i{.	c #40188B",
"j{.	c #50279D",
"k{.	c #794DC8",
"l{.	c #461A96",
"m{.	c #451994",
"n{.	c #835CC7",
"o{.	c #542F98",
"p{.	c #3A157E",
"q{.	c #3E1980",
"r{.	c #401B82",
"s{.	c #3F1A81",
"t{.	c #442185",
"u{.	c #482589",
"v{.	c #3E1C7D",
"w{.	c #3F1D7E",
"x{.	c #412280",
"y{.	c #432482",
"z{.	c #452684",
"A{.	c #391C79",
"B{.	c #3E2583",
"C{.	c #412687",
"D{.	c #43278B",
"E{.	c #54339C",
"F{.	c #58349E",
"G{.	c #56309D",
"H{.	c #653FAC",
"I{.	c #8762CC",
"J{.	c #5E39A2",
"K{.	c #6D4AAE",
"L{.	c #4D2B8C",
"M{.	c #523293",
"N{.	c #4C2C8D",
"O{.	c #452586",
"P{.	c #4B2B8C",
"Q{.	c #4C2E8E",
"R{.	c #4A2C8E",
"S{.	c #6547AB",
"T{.	c #A486EA",
"U{.	c #7254B8",
"V{.	c #422484",
"W{.	c #3F2181",
"X{.	c #3E2382",
"Y{.	c #392179",
"Z{.	c #351E76",
"`{.	c #2D1470",
" ].	c #220E6D",
".].	c #5C46A8",
"+].	c #543EA2",
"@].	c #462D93",
"#].	c #281566",
"$].	c #221855",
"%].	c #201452",
"&].	c #110E47",
"*].	c #0E0A45",
"=].	c #0A0555",
"-].	c #2C2779",
";].	c #201B6F",
">].	c #130F66",
",].	c #110C66",
"'].	c #312B85",
")].	c #130D65",
"!].	c #181268",
"~].	c #191164",
"{].	c #1A125F",
"]].	c #1D1048",
"^].	c #22154B",
"/].	c #201851",
"(].	c #2B2166",
"_].	c #554B90",
":].	c #4F458A",
"<].	c #542CA6",
"[].	c #7946C5",
"}].	c #7444B4",
"|].	c #8B5BBF",
"1].	c #DDAFFF",
"2].	c #F8CBFF",
"3].	c #C699EC",
"4].	c #6E3EA2",
"5].	c #6938AD",
"6].	c #6B37BD",
"7].	c #5B2ABA",
"8].	c #411890",
"9].	c #441B95",
"0].	c #3D168D",
"a].	c #6D46B9",
"b].	c #A580EA",
"c].	c #58359B",
"d].	c #39167C",
"e].	c #462387",
"f].	c #3E1B7F",
"g].	c #3B187C",
"h].	c #3C197D",
"i].	c #401D81",
"j].	c #4C298D",
"k].	c #3C1A7B",
"l].	c #472586",
"m].	c #371576",
"n].	c #45268D",
"o].	c #552F9C",
"p].	c #6039A6",
"q].	c #522B98",
"r].	c #613AA7",
"s].	c #AB84F1",
"t].	c #B38DFA",
"u].	c #6C46B3",
"v].	c #503093",
"w].	c #9D7FE1",
"x].	c #B89AFC",
"y].	c #6446A8",
"z].	c #482D8C",
"A].	c #3E2380",
"B].	c #3C237F",
"C].	c #3C237E",
"D].	c #311D72",
"E].	c #2D176C",
"F].	c #2B156A",
"G].	c #422D8A",
"H].	c #432D8F",
"I].	c #2B167B",
"J].	c #2A157A",
"K].	c #2D187D",
"L].	c #281378",
"M].	c #271277",
"N].	c #120A55",
"O].	c #140B5A",
"P].	c #352C7B",
"Q].	c #140D50",
"R].	c #140E4A",
"S].	c #1A145E",
"T].	c #161056",
"U].	c #28225E",
"V].	c #484280",
"W].	c #433D7B",
"X].	c #26205E",
"Y].	c #5226B1",
"Z].	c #5020B2",
"`].	c #5924BA",
" ^.	c #501DA8",
".^.	c #6331AA",
"+^.	c #8B5AC3",
"@^.	c #E7B7FF",
"#^.	c #FFDAFF",
"$^.	c #A175CC",
"%^.	c #6D3DAB",
"&^.	c #6A38BD",
"*^.	c #5824B7",
"=^.	c #5725BC",
"-^.	c #4A1AAC",
";^.	c #6840BB",
">^.	c #3C158C",
",^.	c #734EC2",
"'^.	c #916DD7",
")^.	c #3D1A7E",
"!^.	c #351276",
"~^.	c #7454B9",
"{^.	c #4C2494",
"]^.	c #492191",
"^^.	c #4A2090",
"/^.	c #562C9A",
"(^.	c #502996",
"_^.	c #421B86",
":^.	c #6F48B5",
"<^.	c #7B54C1",
"[^.	c #4D2993",
"}^.	c #6143A5",
"|^.	c #563898",
"1^.	c #3C1E7E",
"2^.	c #3B207D",
"3^.	c #3B227E",
"4^.	c #2B196B",
"5^.	c #311E70",
"6^.	c #301D6F",
"7^.	c #443089",
"8^.	c #402B86",
"9^.	c #3A2284",
"0^.	c #261575",
"a^.	c #261478",
"b^.	c #251377",
"c^.	c #28167A",
"d^.	c #29177A",
"e^.	c #2A187B",
"f^.	c #291878",
"g^.	c #181059",
"h^.	c #433A8B",
"i^.	c #211D50",
"j^.	c #2F2B5E",
"k^.	c #272356",
"l^.	c #0E0848",
"m^.	c #0C0644",
"n^.	c #26215B",
"o^.	c #0D0743",
"p^.	c #5D2DBD",
"q^.	c #8854E7",
"r^.	c #915EE9",
"s^.	c #7240BD",
"t^.	c #7F4FBC",
"u^.	c #F5C6FF",
"v^.	c #FFDBFF",
"w^.	c #A376D3",
"x^.	c #5E2DA0",
"y^.	c #5422B7",
"z^.	c #5121B1",
"A^.	c #471F92",
"B^.	c #381083",
"C^.	c #3E158B",
"D^.	c #4D269D",
"E^.	c #7A53C6",
"F^.	c #734FB9",
"G^.	c #3E1B83",
"H^.	c #401D83",
"I^.	c #3C197F",
"J^.	c #7251B9",
"K^.	c #5830A0",
"L^.	c #7750BD",
"M^.	c #744DBA",
"N^.	c #47208B",
"O^.	c #4D2693",
"P^.	c #532C99",
"Q^.	c #7557B9",
"R^.	c #5B3D9D",
"S^.	c #341676",
"T^.	c #482D8A",
"U^.	c #39257C",
"V^.	c #311F71",
"W^.	c #412E87",
"X^.	c #37247E",
"Y^.	c #24116D",
"Z^.	c #462E8E",
"`^.	c #3C2484",
" /.	c #2C1B7B",
"./.	c #29205F",
"+/.	c #160E57",
"@/.	c #1B1261",
"#/.	c #2F2677",
"$/.	c #302C5F",
"%/.	c #4F4B7E",
"&/.	c #403C6F",
"*/.	c #120C4A",
"=/.	c #160F52",
"-/.	c #160F53",
";/.	c #0D0842",
">/.	c #4F289B",
",/.	c #8150E0",
"'/.	c #6B3AB8",
")/.	c #6B3AAD",
"!/.	c #D9ABFF",
"~/.	c #F6CAFF",
"{/.	c #9364CA",
"]/.	c #6434AA",
"^/.	c #6937BE",
"//.	c #5524B3",
"(/.	c #4C1CAC",
"_/.	c #5021AD",
":/.	c #3E1494",
"</.	c #401C8A",
"[/.	c #46229E",
"}/.	c #623AAD",
"|/.	c #855DD0",
"1/.	c #3D1587",
"2/.	c #411B8C",
"3/.	c #55319D",
"4/.	c #3E1887",
"5/.	c #542C9C",
"6/.	c #916AD7",
"7/.	c #8B64CF",
"8/.	c #57309B",
"9/.	c #4E2794",
"0/.	c #896BCB",
"a/.	c #7153B3",
"b/.	c #321474",
"c/.	c #3B1D7D",
"d/.	c #442784",
"e/.	c #341976",
"f/.	c #3B227D",
"g/.	c #341C7E",
"h/.	c #241373",
"i/.	c #332A69",
"j/.	c #413877",
"k/.	c #302766",
"l/.	c #0D0552",
"m/.	c #0B0251",
"n/.	c #100756",
"o/.	c #140C57",
"p/.	c #140D51",
"q/.	c #4D497C",
"r/.	c #3F3B6E",
"s/.	c #2C2666",
"t/.	c #39336F",
"u/.	c #572DA9",
"v/.	c #43159C",
"w/.	c #5F30BC",
"x/.	c #5A2AB4",
"y/.	c #602EB1",
"z/.	c #6A3AB2",
"A/.	c #996BD8",
"B/.	c #C99CFF",
"C/.	c #E0B5FF",
"D/.	c #A87CDD",
"E/.	c #7345B2",
"F/.	c #6939B3",
"G/.	c #5D2BB2",
"H/.	c #512D97",
"I/.	c #805ACB",
"J/.	c #562E9E",
"K/.	c #49228F",
"L/.	c #411785",
"M/.	c #39127F",
"N/.	c #522E9A",
"O/.	c #502A97",
"P/.	c #6944AE",
"Q/.	c #4D2892",
"R/.	c #4C2896",
"S/.	c #492B8B",
"T/.	c #331875",
"U/.	c #3D237E",
"V/.	c #372078",
"W/.	c #1F0D63",
"X/.	c #3C2786",
"Y/.	c #3A2584",
"Z/.	c #1E0D6B",
"`/.	c #251470",
" (.	c #3B336F",
".(.	c #29215D",
"+(.	c #1C1461",
"@(.	c #160E5B",
"#(.	c #19115A",
"$(.	c #150F4D",
"%(.	c #190E46",
"&(.	c #180E43",
"*(.	c #1A0D42",
"=(.	c #1C0E43",
"-(.	c #1C0F45",
";(.	c #2A2659",
">(.	c #242053",
",(.	c #0F0A44",
"'(.	c #3C3672",
")(.	c #191547",
"!(.	c #693DC4",
"~(.	c #4F20AA",
"{(.	c #6436B3",
"](.	c #5C2CA2",
"^(.	c #6E3FAF",
"/(.	c #7548B1",
"((.	c #5D2F9B",
"_(.	c #6030A6",
":(.	c #5E30AD",
"<(.	c #48189F",
"[(.	c #411783",
"}(.	c #4D238F",
"|(.	c #461B86",
"1(.	c #481D88",
"2(.	c #502692",
"3(.	c #6742B3",
"4(.	c #744FC0",
"5(.	c #5C36A3",
"6(.	c #4B2690",
"7(.	c #432585",
"8(.	c #381B78",
"9(.	c #442A85",
"0(.	c #462C87",
"a(.	c #331C74",
"b(.	c #2E1A6F",
"c(.	c #23126E",
"d(.	c #392884",
"e(.	c #301F7B",
"f(.	c #171054",
"g(.	c #443C85",
"h(.	c #3C347F",
"i(.	c #140F51",
"j(.	c #151053",
"k(.	c #161154",
"l(.	c #190C42",
"m(.	c #1B0D42",
"n(.	c #1E0D43",
"o(.	c #0C083A",
"p(.	c #5C31B4",
"q(.	c #6132B2",
"r(.	c #693BB5",
"s(.	c #5E31A6",
"t(.	c #5F32A7",
"u(.	c #693BB7",
"v(.	c #4E2993",
"w(.	c #411C8E",
"x(.	c #4924A7",
"y(.	c #3A1483",
"z(.	c #421B88",
"A(.	c #471D89",
"B(.	c #451A83",
"C(.	c #451881",
"D(.	c #41147B",
"E(.	c #471C87",
"F(.	c #431B8B",
"G(.	c #7049BC",
"H(.	c #5B37A1",
"I(.	c #633EA8",
"J(.	c #542F99",
"K(.	c #412683",
"L(.	c #4C318E",
"M(.	c #2B116C",
"N(.	c #3A207B",
"O(.	c #442B86",
"P(.	c #2E166E",
"Q(.	c #3D267E",
"R(.	c #342075",
"S(.	c #301F6F",
"T(.	c #3B2A7A",
"U(.	c #352474",
"V(.	c #3D367C",
"W(.	c #0D064A",
"X(.	c #15114E",
"Y(.	c #131256",
"Z(.	c #14145C",
"`(.	c #15155B",
" _.	c #17175D",
"._.	c #160C41",
"+_.	c #180B41",
"@_.	c #190C41",
"#_.	c #1C0E41",
"$_.	c #1C0F44",
"%_.	c #1A1649",
"&_.	c #40159A",
"*_.	c #5F34B7",
"=_.	c #471A9B",
"-_.	c #3B1781",
";_.	c #3B1383",
">_.	c #542A98",
",_.	c #3D1079",
"'_.	c #56278F",
")_.	c #502187",
"!_.	c #481B84",
"~_.	c #482092",
"{_.	c #350E85",
"]_.	c #6D49B5",
"^_.	c #422784",
"/_.	c #351B76",
"(_.	c #432984",
"__.	c #3C227D",
":_.	c #3F297E",
"<_.	c #483287",
"[_.	c #452F84",
"}_.	c #2D1A6C",
"|_.	c #372476",
"1_.	c #322171",
"2_.	c #2A1969",
"3_.	c #4A3B8E",
"4_.	c #1B0B63",
"5_.	c #473E7D",
"6_.	c #403776",
"7_.	c #0C073D",
"8_.	c #110A50",
"9_.	c #131150",
"0_.	c #13185C",
"a_.	c #121A62",
"b_.	c #151C64",
"c_.	c #181C63",
"d_.	c #181D61",
"e_.	c #181C5C",
"f_.	c #181959",
"g_.	c #13124C",
"h_.	c #160C40",
"i_.	c #170D3F",
"j_.	c #1B0F41",
"k_.	c #1A1044",
"l_.	c #0D093C",
"m_.	c #431E88",
"n_.	c #451A85",
"o_.	c #3E0F79",
"p_.	c #4C1B84",
"q_.	c #4D1A81",
"r_.	c #481983",
"s_.	c #41168A",
"t_.	c #4F27A1",
"u_.	c #310A81",
"v_.	c #5733A1",
"w_.	c #6945B1",
"x_.	c #7854BE",
"y_.	c #4C2991",
"z_.	c #54309A",
"A_.	c #401D85",
"B_.	c #422881",
"C_.	c #3F257E",
"D_.	c #391F78",
"E_.	c #3A227A",
"F_.	c #362075",
"G_.	c #4C3689",
"H_.	c #5A4799",
"I_.	c #4A3789",
"J_.	c #291667",
"K_.	c #311E6F",
"L_.	c #392677",
"M_.	c #342373",
"N_.	c #312070",
"O_.	c #5D4EA1",
"P_.	c #4B3C8F",
"Q_.	c #332572",
"R_.	c #3B2882",
"S_.	c #38257F",
"T_.	c #1F1063",
"U_.	c #4A4480",
"V_.	c #564E8A",
"W_.	c #3D3571",
"X_.	c #110945",
"Y_.	c #161654",
"Z_.	c #10195E",
"`_.	c #0D1B62",
" :.	c #243177",
".:.	c #233074",
"+:.	c #141D5E",
"@:.	c #222767",
"#:.	c #0D114E",
"$:.	c #0F114C",
"%:.	c #101149",
"&:.	c #1D194C",
"*:.	c #221E51",
"=:.	c #331577",
"-:.	c #4B23A7",
";:.	c #361183",
">:.	c #401686",
",:.	c #481A87",
"':.	c #572691",
"):.	c #7F4CB5",
"!:.	c #C18CF4",
"~:.	c #AE7DE8",
"{:.	c #5A2FA3",
"]:.	c #673FB9",
"^:.	c #6F47C1",
"/:.	c #532BA5",
"(:.	c #552DA7",
"_:.	c #6A42BC",
"::.	c #5C38A2",
"<:.	c #936FD9",
"[:.	c #623EA8",
"}:.	c #3C1981",
"|:.	c #432887",
"1:.	c #3A1F7C",
"2:.	c #382076",
"3:.	c #3A2477",
"4:.	c #321C6F",
"5:.	c #392376",
"6:.	c #382577",
"7:.	c #332071",
"8:.	c #342172",
"9:.	c #392878",
"0:.	c #4C3D8E",
"a:.	c #6658A7",
"b:.	c #322473",
"c:.	c #4B3D8C",
"d:.	c #504291",
"e:.	c #3E307D",
"f:.	c #412E88",
"g:.	c #321F78",
"h:.	c #3D2A83",
"i:.	c #1E0F64",
"j:.	c #3F3975",
"k:.	c #4A427E",
"l:.	c #38306C",
"m:.	c #1A276B",
"n:.	c #071A5F",
"o:.	c #2A3B80",
"p:.	c #4B5D9F",
"q:.	c #2F3E7F",
"r:.	c #0E1C5B",
"s:.	c #101A58",
"t:.	c #131C57",
"u:.	c #0C124C",
"v:.	c #0D1249",
"w:.	c #1C184A",
"x:.	c #461E90",
"y:.	c #411282",
"z:.	c #7241AE",
"A:.	c #D5A0FF",
"B:.	c #DFA8FF",
"C:.	c #CB97FF",
"D:.	c #9B6EE3",
"E:.	c #643BB5",
"F:.	c #673EB8",
"G:.	c #5C33AD",
"H:.	c #7047C1",
"I:.	c #542BA5",
"J:.	c #4D2C95",
"K:.	c #5B3AA3",
"L:.	c #3A1A7F",
"M:.	c #4F2F90",
"N:.	c #3A1D7A",
"O:.	c #422582",
"P:.	c #382078",
"Q:.	c #3A2278",
"R:.	c #3D257B",
"S:.	c #341C72",
"T:.	c #362375",
"U:.	c #382777",
"V:.	c #433280",
"W:.	c #382775",
"X:.	c #32216F",
"Y:.	c #392876",
"Z:.	c #31206E",
"`:.	c #2C1B69",
" <.	c #6558A7",
".<.	c #3B2E7D",
"+<.	c #8A7DCC",
"@<.	c #9C8FDE",
"#<.	c #7366B5",
"$<.	c #3B2C81",
"%<.	c #201069",
"&<.	c #2D2862",
"*<.	c #221B51",
"=<.	c #0E073B",
"-<.	c #121F63",
";<.	c #091C60",
"><.	c #415297",
",<.	c #7A8CCE",
"'<.	c #606FB0",
")<.	c #22306D",
"!<.	c #0C1653",
"~<.	c #0E1750",
"{<.	c #391485",
"]<.	c #290279",
"^<.	c #3F1084",
"/<.	c #7A45B7",
"(<.	c #E9B1FF",
"_<.	c #D096FF",
":<.	c #CA94FF",
"<<.	c #C295FF",
"[<.	c #370E88",
"}<.	c #552CA6",
"|<.	c #411892",
"1<.	c #3D168B",
"2<.	c #3D1C85",
"3<.	c #300F77",
"4<.	c #3C1C81",
"5<.	c #3B1880",
"6<.	c #7B5CBA",
"7<.	c #775AB7",
"8<.	c #543793",
"9<.	c #3A1D79",
"0<.	c #422581",
"a<.	c #422883",
"b<.	c #361B78",
"c<.	c #381D7C",
"d<.	c #412884",
"e<.	c #30186E",
"f<.	c #371F75",
"g<.	c #41297F",
"h<.	c #382275",
"i<.	c #463082",
"j<.	c #352273",
"k<.	c #342371",
"l<.	c #362573",
"m<.	c #3D307F",
"n<.	c #9083D2",
"o<.	c #AA9DEC",
"p<.	c #7467B6",
"q<.	c #201166",
"r<.	c #21116A",
"s<.	c #1E0D69",
"t<.	c #200F6B",
"u<.	c #2A2359",
"v<.	c #261F55",
"w<.	c #20194D",
"x<.	c #100841",
"y<.	c #231B57",
"z<.	c #322A66",
"A<.	c #100844",
"B<.	c #131E60",
"C<.	c #0F1E61",
"D<.	c #28377A",
"E<.	c #3D4B8C",
"F<.	c #2B3978",
"G<.	c #172260",
"H<.	c #141E59",
"I<.	c #161F58",
"J<.	c #0C1149",
"K<.	c #0F1144",
"L<.	c #5E41AB",
"M<.	c #5E41AD",
"N<.	c #442795",
"O<.	c #3F1B89",
"P<.	c #411A87",
"Q<.	c #3B138D",
"R<.	c #4D1F99",
"S<.	c #6534AA",
"T<.	c #8750C5",
"U<.	c #B47BEE",
"V<.	c #D599FF",
"W<.	c #DAA1FF",
"X<.	c #9969E1",
"Y<.	c #3E158F",
"Z<.	c #380F89",
"`<.	c #3C138D",
" [.	c #3D148E",
".[.	c #431B8E",
"+[.	c #55369D",
"@[.	c #37197D",
"#[.	c #35177B",
"$[.	c #513397",
"%[.	c #6342AA",
"&[.	c #5C3CA1",
"*[.	c #3F1F82",
"=[.	c #4F3191",
"-[.	c #7A5DBA",
";[.	c #775AB6",
">[.	c #50338D",
",[.	c #3B217A",
"'[.	c #3D237C",
")[.	c #3E247F",
"![.	c #422985",
"~[.	c #462D89",
"{[.	c #422987",
"][.	c #2C1468",
"^[.	c #432D80",
"/[.	c #422C7F",
"([.	c #2E1B6C",
"_[.	c #33206F",
":[.	c #2F1E6C",
"<[.	c #2E1E69",
"[[.	c #1B0A68",
"}[.	c #1E0C6F",
"|[.	c #221074",
"1[.	c #180767",
"2[.	c #2F2763",
"3[.	c #3F3773",
"4[.	c #111A5B",
"5[.	c #131C5D",
"6[.	c #111958",
"7[.	c #0D1554",
"8[.	c #141A58",
"9[.	c #1A1E5B",
"0[.	c #161B55",
"a[.	c #0F1049",
"b[.	c #0F1046",
"c[.	c #51359C",
"d[.	c #4D2997",
"e[.	c #461F8A",
"f[.	c #431C87",
"g[.	c #43219C",
"h[.	c #4927A2",
"i[.	c #401895",
"j[.	c #7345C1",
"k[.	c #A371EC",
"l[.	c #AF78F0",
"m[.	c #A267DD",
"n[.	c #8D4EC3",
"o[.	c #8D54C9",
"p[.	c #5929A1",
"q[.	c #3F1690",
"r[.	c #5128A2",
"s[.	c #663DB5",
"t[.	c #653CB2",
"u[.	c #552CA2",
"v[.	c #5F41A5",
"w[.	c #5E3DA5",
"x[.	c #8867CF",
"y[.	c #7E5EC3",
"z[.	c #49298C",
"A[.	c #4E318D",
"B[.	c #492C86",
"C[.	c #32156F",
"D[.	c #381E77",
"E[.	c #341A73",
"F[.	c #533A96",
"G[.	c #5A419D",
"H[.	c #482F8D",
"I[.	c #3A2276",
"J[.	c #4F398C",
"K[.	c #584295",
"L[.	c #3E287B",
"M[.	c #2F1C6B",
"N[.	c #2E1B6A",
"O[.	c #3B2A78",
"P[.	c #150858",
"Q[.	c #210F72",
"R[.	c #352387",
"S[.	c #402D96",
"T[.	c #0F083C",
"U[.	c #221A56",
"V[.	c #131455",
"W[.	c #111555",
"X[.	c #161A5A",
"Y[.	c #212262",
"Z[.	c #242565",
"`[.	c #12124E",
" }.	c #0F0E48",
".}.	c #422694",
"+}.	c #3A1984",
"@}.	c #5E3CAC",
"#}.	c #401B85",
"$}.	c #4A238D",
"%}.	c #522FAD",
"&}.	c #5932B1",
"*}.	c #370E8E",
"=}.	c #7D4FCC",
"-}.	c #AD7BF8",
";}.	c #B27AF5",
">}.	c #8D51CB",
",}.	c #400078",
"'}.	c #3D027A",
")}.	c #421089",
"!}.	c #370B84",
"~}.	c #481C95",
"{}.	c #40148D",
"]}.	c #461A93",
"^}.	c #4A1E97",
"/}.	c #42168F",
"(}.	c #562AA3",
"_}.	c #471B94",
":}.	c #5327A0",
"<}.	c #4C2099",
"[}.	c #2C0E72",
"}}.	c #6948B0",
"|}.	c #6444A9",
"1}.	c #3E217D",
"2}.	c #3C1F79",
"3}.	c #3C2077",
"4}.	c #3C2279",
"5}.	c #381E75",
"6}.	c #341C74",
"7}.	c #4F3692",
"8}.	c #4A318F",
"9}.	c #3B2578",
"0}.	c #594396",
"a}.	c #271163",
"b}.	c #372475",
"c}.	c #321F6E",
"d}.	c #2B1B66",
"e}.	c #31216C",
"f}.	c #3C2B79",
"g}.	c #4C3B89",
"h}.	c #3E2D7B",
"i}.	c #2B1E64",
"j}.	c #291E60",
"k}.	c #1B0B64",
"l}.	c #231272",
"m}.	c #4C39A2",
"n}.	c #5C49B5",
"o}.	c #17114F",
"p}.	c #0D0B4C",
"q}.	c #0C0747",
"r}.	c #100B4B",
"s}.	c #0F0947",
"t}.	c #160B43",
"u}.	c #180B40",
"v}.	c #180C3E",
"w}.	c #3B1680",
"x}.	c #4C25A2",
"y}.	c #441893",
"z}.	c #8555CF",
"A}.	c #814EC7",
"B}.	c #4B148C",
"C}.	c #541A92",
"D}.	c #511A91",
"E}.	c #46168E",
"F}.	c #3C1089",
"G}.	c #3F138E",
"H}.	c #4E229E",
"I}.	c #471996",
"J}.	c #481A97",
"K}.	c #4E2399",
"L}.	c #5F38A5",
"M}.	c #58329F",
"N}.	c #54309E",
"O}.	c #37197B",
"P}.	c #472989",
"Q}.	c #402380",
"R}.	c #371A77",
"S}.	c #412480",
"T}.	c #351970",
"U}.	c #3B2178",
"V}.	c #341A71",
"W}.	c #3B237B",
"X}.	c #29106B",
"Y}.	c #482F8B",
"Z}.	c #59409B",
"`}.	c #372176",
" |.	c #271465",
".|.	c #332072",
"+|.	c #3B2879",
"@|.	c #30206B",
"#|.	c #2D1D68",
"$|.	c #4F418E",
"%|.	c #3E2E79",
"&|.	c #271762",
"*|.	c #2B1E63",
"=|.	c #24175C",
"-|.	c #2D2066",
";|.	c #1F0E6C",
">|.	c #4C3B9B",
",|.	c #5C4AAD",
"'|.	c #0A0442",
")|.	c #2B265E",
"!|.	c #211C54",
"~|.	c #5735A6",
"{|.	c #3C1487",
"]|.	c #43188B",
"^|.	c #421888",
"/|.	c #4B2093",
"(|.	c #431790",
"_|.	c #4B1F9A",
":|.	c #4D1EA2",
"<|.	c #5320A9",
"[|.	c #5622A8",
"}|.	c #5926A5",
"||.	c #53239B",
"1|.	c #532494",
"2|.	c #5B309B",
"3|.	c #572E94",
"4|.	c #4C268D",
"5|.	c #41229A",
"6|.	c #3D2096",
"7|.	c #3B2091",
"8|.	c #3B218E",
"9|.	c #3A2175",
"0|.	c #392074",
"a|.	c #381F73",
"b|.	c #371F73",
"c|.	c #392177",
"d|.	c #351D73",
"e|.	c #29126A",
"f|.	c #2D1F6C",
"g|.	c #2C1E6B",
"h|.	c #2F216E",
"i|.	c #342673",
"j|.	c #40327F",
"k|.	c #261A5C",
"l|.	c #281C5E",
"m|.	c #2C1F64",
"n|.	c #2F2268",
"o|.	c #3B2D78",
"p|.	c #2D2065",
"q|.	c #28195E",
"r|.	c #28185F",
"s|.	c #291960",
"t|.	c #1A1744",
"u|.	c #282457",
"v|.	c #443E7A",
"w|.	c #322C6C",
"x|.	c #4E289F",
"y|.	c #4F1CA7",
"z|.	c #531EAC",
"A|.	c #5823B3",
"B|.	c #5C25B6",
"C|.	c #5B25AF",
"D|.	c #5621A3",
"E|.	c #511F98",
"F|.	c #552698",
"G|.	c #512692",
"H|.	c #4B218F",
"I|.	c #381C8D",
"J|.	c #392175",
"K|.	c #392270",
"L|.	c #382171",
"M|.	c #372072",
"N|.	c #3F277D",
"O|.	c #361E74",
"P|.	c #2F176F",
"Q|.	c #291169",
"R|.	c #4D348F",
"S|.	c #4E388D",
"T|.	c #6C5EAB",
"U|.	c #50428F",
"V|.	c #322471",
"W|.	c #413380",
"X|.	c #584A97",
"Y|.	c #2D2068",
"Z|.	c #2A1960",
"`|.	c #2A1862",
" 1.	c #564999",
".1.	c #574A9A",
"+1.	c #191645",
"@1.	c #1A1648",
"#1.	c #292361",
"$1.	c #381980",
"%1.	c #5D26B8",
"&1.	c #652AC0",
"*1.	c #5F23BF",
"=1.	c #652DC6",
"-1.	c #632BC0",
";1.	c #5E29B9",
">1.	c #582FA9",
",1.	c #3C2679",
"'1.	c #392473",
")1.	c #361F71",
"!1.	c #30186C",
"~1.	c #321A6E",
"{1.	c #341C70",
"]1.	c #5D459B",
"^1.	c #856DC5",
"/1.	c #907ACD",
"(1.	c #2D1F6A",
"_1.	c #362873",
":1.	c #2A1C67",
"<1.	c #372579",
"[1.	c #2B1867",
"}1.	c #544797",
"|1.	c #1C1946",
"11.	c #1A1746",
"21.	c #391B7F",
"31.	c #5732A6",
"41.	c #5A23B2",
"51.	c #5D23B6",
"61.	c #6226BC",
"71.	c #682BC4",
"81.	c #6226C2",
"91.	c #6C30CE",
"01.	c #672EC9",
"a1.	c #652EC8",
"b1.	c #512AA1",
"c1.	c #43277E",
"d1.	c #3C2374",
"e1.	c #3A246F",
"f1.	c #3B256E",
"g1.	c #351F68",
"h1.	c #351E70",
"i1.	c #2E1769",
"j1.	c #331C6E",
"k1.	c #361E72",
"l1.	c #2F176B",
"m1.	c #4B3387",
"n1.	c #634B9F",
"o1.	c #614B9D",
"p1.	c #2C196B",
"q1.	c #47398E",
"r1.	c #381782",
"s1.	c #361280",
"t1.	c #35117D",
"u1.	c #38147E",
"v1.	c #391581",
"w1.	c #481B9C",
"x1.	c #6228BA",
"y1.	c #6627BC",
"z1.	c #6928C2",
"A1.	c #6C2DC4",
"B1.	c #7236C9",
"C1.	c #773DD0",
"D1.	c #7338D2",
"E1.	c #6B31D1",
"F1.	c #6A32D5",
"G1.	c #5F29C9",
"H1.	c #5320B9",
"I1.	c #5526B2",
"J1.	c #532AA4",
"K1.	c #41237D",
"L1.	c #432879",
"M1.	c #3E246E",
"N1.	c #3A236B",
"O1.	c #3B236D",
"P1.	c #341E69",
"Q1.	c #351E6E",
"R1.	c #331D6F",
"S1.	c #321C6E",
"T1.	c #341F6E",
"U1.	c #372173",
"V1.	c #281362",
"W1.	c #311C6B",
"X1.	c #331E6D",
"Y1.	c #31246C",
"Z1.	c #43358A",
"`1.	c #5C4EA3",
" 2.	c #3D3082",
".2.	c #160A52",
"+2.	c #160B50",
"@2.	c #3A1587",
"#2.	c #3B1688",
"$2.	c #37137D",
"%2.	c #39157F",
"&2.	c #3B1783",
"*2.	c #3D1987",
"=2.	c #4D1BA2",
"-2.	c #5A24B0",
";2.	c #6529BC",
">2.	c #6B2AC2",
",2.	c #722FCA",
"'2.	c #7A3ACC",
")2.	c #8045C3",
"!2.	c #834BC6",
"~2.	c #7B41CB",
"{2.	c #7035CB",
"]2.	c #642CCF",
"^2.	c #622CC8",
"/2.	c #6A39C9",
"(2.	c #6034B0",
"_2.	c #4C2790",
":2.	c #45247F",
"<2.	c #412474",
"[2.	c #391E6D",
"}2.	c #3B2275",
"|2.	c #331D70",
"12.	c #2E1966",
"22.	c #331E6B",
"32.	c #35206D",
"42.	c #321D6A",
"52.	c #38236E",
"62.	c #2A1D63",
"72.	c #291C62",
"82.	c #281B61",
"92.	c #584B9D",
"02.	c #403383",
"a2.	c #443882",
"b2.	c #4F438D",
"c2.	c #56359D",
"d2.	c #4A1B9B",
"e2.	c #511DA3",
"f2.	c #5D24AF",
"g2.	c #6426B9",
"h2.	c #6A29C1",
"i2.	c #7E3BD6",
"j2.	c #9252DA",
"k2.	c #AD76D4",
"l2.	c #B382D4",
"m2.	c #A974DC",
"n2.	c #905AD6",
"o2.	c #7740CF",
"p2.	c #6029C2",
"q2.	c #5823BB",
"r2.	c #6130BF",
"s2.	c #5D31AC",
"t2.	c #442280",
"u2.	c #42247A",
"v2.	c #3A1D77",
"w2.	c #301B6A",
"x2.	c #301B68",
"y2.	c #36216E",
"z2.	c #2D1863",
"A2.	c #2F1A65",
"B2.	c #331F67",
"C2.	c #2C1860",
"D2.	c #2A165E",
"E2.	c #2F1B63",
"F2.	c #2C1B62",
"G2.	c #2B1B62",
"H2.	c #291C61",
"I2.	c #281B60",
"J2.	c #271A60",
"K2.	c #271A5F",
"L2.	c #2C1F65",
"M2.	c #24175D",
"N2.	c #2A1D62",
"O2.	c #2F226A",
"P2.	c #2D1978",
"Q2.	c #2D1A76",
"R2.	c #392C7E",
"S2.	c #3E327A",
"T2.	c #493D85",
"U2.	c #201C4E",
"V2.	c #351A7B",
"W2.	c #31107B",
"X2.	c #381780",
"Y2.	c #35157A",
"Z2.	c #331376",
"`2.	c #4B1D99",
" 3.	c #5421A4",
".3.	c #5E26AF",
"+3.	c #6123B4",
"@3.	c #6929BE",
"#3.	c #8744DF",
"$3.	c #A668E7",
"%3.	c #DAA7FF",
"&3.	c #A470EF",
"*3.	c #713CC8",
"=3.	c #5B2BB3",
"-3.	c #411C85",
";3.	c #42207E",
">3.	c #452781",
",3.	c #3F227F",
"'3.	c #301B66",
")3.	c #321D68",
"!3.	c #29155D",
"~3.	c #38246B",
"{3.	c #301C63",
"]3.	c #2C185D",
"^3.	c #3F2E74",
"/3.	c #2B1C61",
"(3.	c #26195E",
"_3.	c #25185D",
":3.	c #3E2988",
"<3.	c #473195",
"[3.	c #3C2388",
"}3.	c #3F2586",
"|3.	c #241F55",
"13.	c #2A2658",
"23.	c #41158E",
"33.	c #5A29A9",
"43.	c #5722A8",
"53.	c #6429B7",
"63.	c #6D2DBF",
"73.	c #8341D7",
"83.	c #EEB3FF",
"93.	c #FDD4F6",
"03.	c #FFE6FF",
"a3.	c #FBCBFF",
"b3.	c #814FC0",
"c3.	c #6B38B7",
"d3.	c #6836BB",
"e3.	c #5A2BAB",
"f3.	c #502598",
"g3.	c #4A258C",
"h3.	c #3F2179",
"i3.	c #2D1B67",
"j3.	c #2D1B65",
"k3.	c #2C1A64",
"l3.	c #312067",
"m3.	c #2E1D63",
"n3.	c #2A195F",
"o3.	c #28175B",
"p3.	c #2A195D",
"q3.	c #302061",
"r3.	c #362569",
"s3.	c #3B2A6E",
"t3.	c #291A5D",
"u3.	c #271B5D",
"v3.	c #271C5E",
"w3.	c #432B8B",
"x3.	c #492F8A",
"y3.	c #3D2692",
"z3.	c #341F86",
"A3.	c #1A1440",
"B3.	c #0D0733",
"C3.	c #39197E",
"D3.	c #38187B",
"E3.	c #39197A",
"F3.	c #351A77",
"G3.	c #371C79",
"H3.	c #5426A2",
"I3.	c #5421A2",
"J3.	c #642CB3",
"K3.	c #6C31BD",
"L3.	c #7939CB",
"M3.	c #CC93FF",
"N3.	c #CA9EED",
"O3.	c #7A4BB5",
"P3.	c #7646BE",
"Q3.	c #6234B0",
"R3.	c #4C2590",
"S3.	c #482484",
"T3.	c #402278",
"U3.	c #3C2172",
"V3.	c #2E1C68",
"W3.	c #2C1B61",
"X3.	c #3B2A70",
"Y3.	c #37266A",
"Z3.	c #301F63",
"`3.	c #2B1A5E",
" 4.	c #271758",
".4.	c #281859",
"+4.	c #2A1A5B",
"@4.	c #2A1B5C",
"#4.	c #271B5B",
"$4.	c #261A5A",
"%4.	c #251959",
"&4.	c #241858",
"*4.	c #2E1F64",
"=4.	c #39207E",
"-4.	c #533895",
";4.	c #8268C1",
">4.	c #8A70C7",
",4.	c #694FAA",
"'4.	c #4D349C",
")4.	c #412A96",
"!4.	c #36218A",
"~4.	c #2B2551",
"{4.	c #322C58",
"]4.	c #231D49",
"^4.	c #0C0632",
"/4.	c #050328",
"(4.	c #381B77",
"_4.	c #331974",
":4.	c #321974",
"<4.	c #4F2498",
"[4.	c #4E1E98",
"}4.	c #602DAC",
"|4.	c #6A35B9",
"14.	c #692FB9",
"24.	c #9C66D8",
"34.	c #EEC1FF",
"44.	c #EEC3FF",
"54.	c #996DC4",
"64.	c #7748B2",
"74.	c #6334A8",
"84.	c #482488",
"94.	c #43227B",
"04.	c #3D216E",
"a4.	c #3A2069",
"b4.	c #361F67",
"c4.	c #331D66",
"d4.	c #311A6A",
"e4.	c #2D1769",
"f4.	c #2C1C63",
"g4.	c #2A1B60",
"h4.	c #2A1B5E",
"i4.	c #322366",
"j4.	c #302164",
"k4.	c #2C1D60",
"l4.	c #291A5B",
"m4.	c #271859",
"n4.	c #28195A",
"o4.	c #261A58",
"p4.	c #251957",
"q4.	c #241856",
"r4.	c #271B59",
"s4.	c #2D1E61",
"t4.	c #2B1B64",
"u4.	c #462B88",
"v4.	c #886BC5",
"w4.	c #E6CAFF",
"x4.	c #F8DCFF",
"y4.	c #C3A9FF",
"z4.	c #462F9B",
"A4.	c #231E47",
"B4.	c #2B264F",
"C4.	c #1F1A43",
"D4.	c #0E0932",
"E4.	c #341978",
"F4.	c #351779",
"G4.	c #371979",
"H4.	c #361976",
"I4.	c #351875",
"J4.	c #361975",
"K4.	c #481D91",
"L4.	c #5729A3",
"M4.	c #6433B0",
"N4.	c #5D2AAB",
"O4.	c #7644B7",
"P4.	c #7C4FA2",
"Q4.	c #AD83CB",
"R4.	c #BF94E6",
"S4.	c #7C50AF",
"T4.	c #7143AF",
"U4.	c #5B2FA0",
"V4.	c #6641AB",
"W4.	c #442283",
"X4.	c #3F2177",
"Y4.	c #3A1F6C",
"Z4.	c #361F63",
"`4.	c #34205F",
" 5.	c #32205E",
".5.	c #2F1C5C",
"+5.	c #2B1B5C",
"@5.	c #2B1C5F",
"#5.	c #26175A",
"$5.	c #2C1D5E",
"%5.	c #2D1E5F",
"&5.	c #231755",
"*5.	c #140A51",
"=5.	c #271D62",
"-5.	c #2C2060",
";5.	c #2C1D62",
">5.	c #2B1963",
",5.	c #3F277F",
"'5.	c #9D80DA",
")5.	c #E9CCFF",
"!5.	c #573EA4",
"~5.	c #48319D",
"{5.	c #3B268D",
"]5.	c #0B062F",
"^5.	c #151338",
"/5.	c #36187A",
"(5.	c #351874",
"_5.	c #331972",
":5.	c #321A70",
"<5.	c #321C71",
"[5.	c #6233A7",
"}5.	c #613597",
"|5.	c #B084E3",
"15.	c #E1B5FF",
"25.	c #8B61C7",
"35.	c #5D329D",
"45.	c #320F77",
"55.	c #3D207A",
"65.	c #361F6F",
"75.	c #331F66",
"85.	c #2F2059",
"95.	c #2D1F54",
"05.	c #2B1E54",
"a5.	c #291B58",
"b5.	c #27185B",
"c5.	c #251659",
"d5.	c #251657",
"e5.	c #2C1968",
"f5.	c #7455B2",
"g5.	c #B799F3",
"h5.	c #C9A8FF",
"i5.	c #A487E1",
"j5.	c #543BA0",
"k5.	c #462F99",
"l5.	c #392489",
"m5.	c #0D0831",
"n5.	c #0A052E",
"o5.	c #07052C",
"p5.	c #36167B",
"q5.	c #331670",
"r5.	c #341771",
"s5.	c #32186F",
"t5.	c #31196D",
"u5.	c #311B6E",
"v5.	c #552A9D",
"w5.	c #4A1E8D",
"x5.	c #774CB7",
"y5.	c #A176E1",
"z5.	c #7047B1",
"A5.	c #481F87",
"B5.	c #543197",
"C5.	c #2F1E62",
"D5.	c #2E205B",
"E5.	c #2C1F54",
"F5.	c #2A1D52",
"G5.	c #281A55",
"H5.	c #281A57",
"I5.	c #271956",
"J5.	c #271957",
"K5.	c #261856",
"L5.	c #261758",
"M5.	c #241558",
"N5.	c #241556",
"O5.	c #221753",
"P5.	c #493E8D",
"Q5.	c #5B51A7",
"R5.	c #6445A2",
"S5.	c #6E4DA6",
"T5.	c #5D3F99",
"U5.	c #4C3297",
"V5.	c #3F2890",
"W5.	c #361679",
"X5.	c #321873",
"Y5.	c #311772",
"Z5.	c #311770",
"`5.	c #31176E",
" 6.	c #2E166A",
".6.	c #2E186B",
"+6.	c #4A2292",
"@6.	c #491D8E",
"#6.	c #481D89",
"$6.	c #441B81",
"%6.	c #3D177A",
"&6.	c #442080",
"*6.	c #341273",
"=6.	c #281D59",
"-6.	c #271C54",
";6.	c #271954",
">6.	c #261855",
",6.	c #251754",
"'6.	c #251755",
")6.	c #27185D",
"!6.	c #231852",
"~6.	c #211650",
"{6.	c #52469C",
"]6.	c #685DB9",
"^6.	c #50439B",
"/6.	c #4A2887",
"(6.	c #512E8A",
"_6.	c #1B193E",
":6.	c #18163B",
"<6.	c #311876",
"[6.	c #3B207F",
"}6.	c #2F186A",
"|6.	c #2C1567",
"16.	c #2D1A6B",
"26.	c #39167A",
"36.	c #442281",
"46.	c #684AA4",
"56.	c #866AC1",
"66.	c #482E87",
"76.	c #261C5B",
"86.	c #241A56",
"96.	c #251A54",
"06.	c #251A52",
"a6.	c #261853",
"b6.	c #241953",
"c6.	c #2A1C5A",
"d6.	c #231457",
"e6.	c #211652",
"f6.	c #473B91",
"g6.	c #160959",
"h6.	c #382380",
"i6.	c #1E1942",
"j6.	c #0C0730",
"k6.	c #151038",
"l6.	c #17153A",
"m6.	c #040229",
"n6.	c #301772",
"o6.	c #351576",
"p6.	c #361677",
"q6.	c #371778",
"r6.	c #341E73",
"s6.	c #33216D",
"t6.	c #301E68",
"u6.	c #281660",
"v6.	c #25135D",
"w6.	c #2F1D67",
"x6.	c #32206A",
"y6.	c #261460",
"z6.	c #42307C",
"A6.	c #321B73",
"B6.	c #3A2779",
"C6.	c #8F7CCB",
"D6.	c #C1B1FC",
"E6.	c #7665B3",
"F6.	c #251B5A",
"G6.	c #241A57",
"H6.	c #231955",
"I6.	c #201750",
"J6.	c #201551",
"K6.	c #1F1551",
"L6.	c #221950",
"M6.	c #1F164F",
"N6.	c #231A53",
"O6.	c #211753",
"P6.	c #17085B",
"Q6.	c #453981",
"R6.	c #1C1948",
"S6.	c #0E082E",
"T6.	c #161237",
"U6.	c #0B0D33",
"V6.	c #371876",
"W6.	c #361C77",
"X6.	c #351D71",
"Y6.	c #341E71",
"Z6.	c #2D1867",
"`6.	c #2B1965",
" 7.	c #2F1F66",
".7.	c #301F65",
"+7.	c #241359",
"@7.	c #28175E",
"#7.	c #2D1C63",
"$7.	c #26155C",
"%7.	c #2E1D64",
"&7.	c #483680",
"*7.	c #2F1D69",
"=7.	c #311E6D",
"-7.	c #51458D",
";7.	c #6C61A6",
">7.	c #43387D",
",7.	c #231956",
"'7.	c #251B57",
")7.	c #221952",
"!7.	c #231A51",
"~7.	c #201652",
"{7.	c #362A72",
"]7.	c #41357F",
"^7.	c #342776",
"/7.	c #4D3E99",
"(7.	c #201269",
"_7.	c #493F88",
":7.	c #372D76",
"<7.	c #231958",
"[7.	c #030026",
"}7.	c #080C32",
"|7.	c #331673",
"17.	c #341A75",
"27.	c #331B71",
"37.	c #251263",
"47.	c #2E1F62",
"57.	c #221358",
"67.	c #36266D",
"77.	c #2E1E65",
"87.	c #221854",
"97.	c #1F164D",
"07.	c #1D144B",
"a7.	c #1A1148",
"b7.	c #1E154E",
"c7.	c #2A1F61",
"d7.	c #33286D",
"e7.	c #3D2F86",
"f7.	c #33257D",
"g7.	c #16143B",
"h7.	c #16183E",
"i7.	c #14163C",
"j7.	c #080C31",
"k7.	c #331672",
"l7.	c #321572",
"m7.	c #382672",
"n7.	c #3C2A76",
"o7.	c #221356",
"p7.	c #211255",
"q7.	c #26165D",
"r7.	c #281D5F",
"s7.	c #251C53",
"t7.	c #2C2165",
"u7.	c #0D0F38",
"v7.	c #0A0D36",
"w7.	c #0C1139",
"x7.	c #000026",
"y7.	c #0B0F35",
"z7.	c #19173C",
"A7.	c #2E186D",
"B7.	c #301671",
"C7.	c #392773",
"D7.	c #3C2C77",
"E7.	c #1A0B4C",
"F7.	c #211253",
"G7.	c #231459",
"H7.	c #26175C",
"I7.	c #312668",
"J7.	c #1E154A",
"K7.	c #1D1449",
"L7.	c #241B50",
"M7.	c #2A2156",
"N7.	c #21184F",
"O7.	c #1D144D",
"P7.	c #02042D",
"Q7.	c #09103A",
"R7.	c #222B56",
"S7.	c #1C234D",
"T7.	c #0C1137",
"U7.	c #0B0F34",
"V7.	c #2F156E",
"W7.	c #2F1570",
"X7.	c #30166F",
"Y7.	c #2E1968",
"Z7.	c #2C1A66",
"`7.	c #25135F",
" 8.	c #31216A",
".8.	c #291A5F",
"+8.	c #2E205E",
"@8.	c #382A67",
"#8.	c #30225F",
"$8.	c #221451",
"%8.	c #231553",
"&8.	c #221452",
"*8.	c #221354",
"=8.	c #291F5E",
"-8.	c #1C1348",
";8.	c #20174C",
">8.	c #141541",
",8.	c #080B36",
"'8.	c #101441",
")8.	c #0A113D",
"!8.	c #19214F",
"~8.	c #57628F",
"{8.	c #68749E",
"]8.	c #0E1339",
"^8.	c #0C1035",
"/8.	c #2D1569",
"(8.	c #2C1766",
"_8.	c #27175E",
":8.	c #24185A",
"<8.	c #302561",
"[8.	c #362B65",
"}8.	c #2C215B",
"|8.	c #1F144E",
"18.	c #1F1450",
"28.	c #211553",
"38.	c #281E5D",
"48.	c #352B6A",
"58.	c #281E5B",
"68.	c #271D59",
"78.	c #1C134A",
"88.	c #1C1548",
"98.	c #20194C",
"08.	c #251E52",
"a8.	c #000029",
"b8.	c #00002D",
"c8.	c #030E3B",
"d8.	c #0C1946",
"e8.	c #475582",
"f8.	c #515E8A",
"g8.	c #0C1033",
"h8.	c #2C1764",
"i8.	c #20154F",
"j8.	c #1E134D",
"k8.	c #21164E",
"l8.	c #1E134B",
"m8.	c #2C225E",
"n8.	c #2B215D",
"o8.	c #292059",
"p8.	c #1B1247",
"q8.	c #1D1548",
"r8.	c #221B4E",
"s8.	c #383164",
"t8.	c #443D70",
"u8.	c #342D61",
"v8.	c #141742",
"w8.	c #000330",
"x8.	c #0F1745",
"y8.	c #0A1543",
"z8.	c #000A37",
"A8.	c #142251",
"B8.	c #000A36",
"C8.	c #0B1338",
"D8.	c #0B0F32",
"E8.	c #05092C",
"F8.	c #2B1568",
"G8.	c #2B1663",
"H8.	c #281662",
"I8.	c #1D124A",
"J8.	c #1F144C",
"K8.	c #20154D",
"L8.	c #1D1348",
"M8.	c #1E1449",
"N8.	c #443E6E",
"O8.	c #666090",
"P8.	c #5E5888",
"Q8.	c #5E578A",
"R8.	c #342D60",
"S8.	c #0D103B",
"T8.	c #0E123F",
"U8.	c #06113F",
"V8.	c #04123F",
"W8.	c #061441",
"X8.	c #091640",
"Y8.	c #050D32",
"Z8.	c #2B1665",
"`8.	c #27125F",
" 9.	c #28135E",
".9.	c #29185F",
"+9.	c #27165D",
"@9.	c #25145A",
"#9.	c #22174F",
"$9.	c #1B1048",
"%9.	c #22184D",
"&9.	c #1E1448",
"*9.	c #251F4F",
"=9.	c #221C4C",
"-9.	c #4C4676",
";9.	c #645E8E",
">9.	c #5B5585",
",9.	c #615A8D",
"'9.	c #433C6F",
")9.	c #191144",
"!9.	c #21184D",
"~9.	c #1F164B",
"{9.	c #1A1840",
"]9.	c #090832",
"^9.	c #090A36",
"/9.	c #020D3A",
"(9.	c #000D39",
"_9.	c #01103B",
":9.	c #05123C",
"<9.	c #050D31",
"[9.	c #281564",
"}9.	c #2B1A61",
"|9.	c #28195C",
"19.	c #22194E",
"29.	c #1C1445",
"39.	c #191140",
"49.	c #3A3764",
"59.	c #5A5784",
"69.	c #575481",
"79.	c #53507F",
"89.	c #2E2B5A",
"99.	c #181041",
"09.	c #1F174A",
"a9.	c #1E1649",
"b9.	c #251C5B",
"c9.	c #100A4A",
"d9.	c #0E0846",
"e9.	c #060831",
"f9.	c #070A33",
"g9.	c #060B35",
"h9.	c #020933",
"i9.	c #010A33",
"j9.	c #010D37",
"k9.	c #020E34",
"l9.	c #070D31",
"m9.	c #080D2D",
"n9.	c #291763",
"o9.	c #271561",
"p9.	c #28175D",
"q9.	c #1B1541",
"r9.	c #070431",
"s9.	c #211E4B",
"t9.	c #3B3865",
"u9.	c #312E5D",
"v9.	c #170F42",
"w9.	c #2F275A",
"x9.	c #261E51",
"y9.	c #2B235F",
"z9.	c #3E377A",
"A9.	c #393275",
"B9.	c #060B31",
"C9.	c #040C31",
"D9.	c #040D34",
"E9.	c #060C2E",
"F9.	c #070626",
"G9.	c #111030",
"H9.	c #261661",
"I9.	c #201154",
"J9.	c #1B0F4D",
"K9.	c #1B1342",
"L9.	c #1A133D",
"M9.	c #18113D",
"N9.	c #191641",
"O9.	c #181544",
"P9.	c #5D569A",
"Q9.	c #7F78BB",
"R9.	c #504A8A",
"S9.	c #1E1C43",
"T9.	c #271760",
"U9.	c #342566",
"V9.	c #2D215F",
"W9.	c #2E255E",
"X9.	c #3D346D",
"Y9.	c #312861",
"Z9.	c #19123C",
"`9.	c #8079BC",
" 0.	c #575191",
".0.	c #2B2563",
"+0.	c #1C1A41",
"@0.	c #0A0627",
"#0.	c #090528",
"$0.	c #060B2B",
"%0.	c #322364",
"&0.	c #332965",
"*0.	c #423874",
"=0.	c #332A63",
"-0.	c #160F3B",
";0.	c #1D1B43",
">0.	c #16153F",
",0.	c #1C1B45",
"'0.	c #373275",
")0.	c #443F81",
"!0.	c #353070",
"~0.	c #24205D",
"{0.	c #0D0729",
"]0.	c #080224",
"^0.	c #090625",
"/0.	c #261D54",
"(0.	c #2C235A",
"_0.	c #0F0A4A",
":0.	c #272262",
"<0.	c #25215E",
"[0.	c #080524",
"}0.	c #0D0A27",
"|0.	c #0C0C28",
"10.	c #230E59",
"20.	c #1F0952",
"30.	c #27135B",
"40.	c #220E56",
"50.	c #231258",
"60.	c #211057",
"70.	c #25145B",
"80.	c #2D1E63",
"90.	c #18133C",
"00.	c #10093F",
"a0.	c #070A1D",
"b0.	c #070A1B",
"c0.	c #1C0A54",
"d0.	c #200B56",
"e0.	c #27115C",
"f0.	c #240E59",
"g0.	c #220C55",
"h0.	c #2B155E",
"i0.	c #250F58",
"j0.	c #241058",
"k0.	c #14074D",
"l0.	c #19133F",
"m0.	c #231B54",
"n0.	c #241C55",
"o0.	c #070A19",
"p0.	c #32276B",
"q0.	c #210F59",
"r0.	c #2A1560",
"s0.	c #26115C",
"t0.	c #25105B",
"u0.	c #220D58",
"v0.	c #24125C",
"w0.	c #2E296C",
"x0.	c #161139",
"y0.	c #1C1644",
"z0.	c #1C184B",
"A0.	c #1D0B55",
"B0.	c #0F1353",
"C0.	c #242969",
"D0.	c #1A0F47",
"E0.	c #1B1543",
"F0.	c #1B1E63",
"G0.	c #0D1D59",
"H0.	c #1D326B",
"I0.	c #172661",
"J0.	c #16205B",
"K0.	c #191D5A",
"L0.	c #1C0E49",
"M0.	c #1C0F47",
"N0.	c #1B0E46",
"O0.	c #190F44",
"P0.	c #18163D",
"Q0.	c #2E275B",
"R0.	c #292256",
"S0.	c #221B4F",
"T0.	c #3B2C71",
"U0.	c #3F2F76",
"V0.	c #201A64",
"W0.	c #27236D",
"X0.	c #1F1D66",
"Y0.	c #454E91",
"Z0.	c #8099D2",
"`0.	c #6D8DC0",
" a.	c #4E679D",
".a.	c #16275D",
"+a.	c #1F2059",
"@a.	c #140943",
"#a.	c #1D0E47",
"$a.	c #1C0D44",
"%a.	c #1B0C43",
"&a.	c #180E42",
"*a.	c #131440",
"=a.	c #181937",
"-a.	c #040524",
";a.	c #070536",
">a.	c #1C104E",
",a.	c #201152",
"'a.	c #3E2F74",
")a.	c #403378",
"!a.	c #171159",
"~a.	c #222069",
"{a.	c #262872",
"]a.	c #8F9DDE",
"^a.	c #DBFCFF",
"/a.	c #C0E9FF",
"(a.	c #A2C2F3",
"_a.	c #2E4579",
":a.	c #0C194E",
"<a.	c #1E2158",
"[a.	c #1C0D46",
"}a.	c #1E0D44",
"|a.	c #190D3F",
"1a.	c #11143D",
"2a.	c #141533",
"3a.	c #070537",
"4a.	c #07043B",
"5a.	c #271D5A",
"6a.	c #1A0C4A",
"7a.	c #120B4F",
"8a.	c #25246A",
"9a.	c #10135A",
"0a.	c #2D3178",
"aa.	c #CBDAFF",
"ba.	c #BDE3FF",
"ca.	c #C1EDFF",
"da.	c #CEF2FF",
"ea.	c #4A6495",
"fa.	c #0F1F52",
"ga.	c #181E52",
"ha.	c #1D0C42",
"ia.	c #1D0C40",
"ja.	c #190D3D",
"ka.	c #0F143C",
"la.	c #10153B",
"ma.	c #010220",
"na.	c #1B1C3A",
"oa.	c #070534",
"pa.	c #070439",
"qa.	c #07033E",
"ra.	c #342A66",
"sa.	c #322864",
"ta.	c #120749",
"ua.	c #140F52",
"va.	c #161559",
"wa.	c #27286B",
"xa.	c #13165B",
"ya.	c #2F3478",
"za.	c #889BD6",
"Aa.	c #D0FDFF",
"Ba.	c #89AEDB",
"Ca.	c #284372",
"Da.	c #0E1E4F",
"Ea.	c #181E50",
"Fa.	c #1B1146",
"Ga.	c #1D0D3E",
"Ha.	c #1A0E3C",
"Ia.	c #0F143A",
"Ja.	c #0F1539",
"Ka.	c #18133B",
"La.	c #050819",
"Ma.	c #05052B",
"Na.	c #050332",
"Oa.	c #0A073C",
"Pa.	c #130946",
"Qa.	c #1C1247",
"Ra.	c #1C1149",
"Sa.	c #0E0C4D",
"Ta.	c #354580",
"Ua.	c #5779A9",
"Va.	c #5D87B1",
"Wa.	c #3B5C89",
"Xa.	c #0E2654",
"Ya.	c #101E4D",
"Za.	c #181C4C",
"`a.	c #1C1246",
" b.	c #1B0D40",
".b.	c #1B0E3C",
"+b.	c #1A0F3A",
"@b.	c #101439",
"#b.	c #1F1A42",
"$b.	c #2B264E",
"%b.	c #1A153D",
"&b.	c #171338",
"*b.	c #030126",
"=b.	c #030423",
"-b.	c #020322",
";b.	c #010127",
">b.	c #1A1C57",
",b.	c #10124D",
"'b.	c #09144C",
")b.	c #082453",
"!b.	c #0D2E59",
"~b.	c #041F4C",
"{b.	c #041644",
"]b.	c #151F50",
"^b.	c #151748",
"/b.	c #1A1042",
"(b.	c #1A0C3D",
"_b.	c #1A0D3B",
":b.	c #1A0D39",
"<b.	c #170F38",
"[b.	c #101336",
"}b.	c #141035",
"|b.	c #1A163B",
"1b.	c #262247",
"2b.	c #322E53",
"3b.	c #1F1B40",
"4b.	c #0D092E",
"5b.	c #110D30",
"6b.	c #131234",
"7b.	c #1D1C3E",
"8b.	c #030327",
"9b.	c #070630",
"0b.	c #1A1045",
"ab.	c #130840",
"bb.	c #101046",
"cb.	c #191A50",
"db.	c #1F2058",
"eb.	c #151C50",
"fb.	c #091B4B",
"gb.	c #09204C",
"hb.	c #071846",
"ib.	c #0B1845",
"jb.	c #161C4C",
"kb.	c #180C3A",
"lb.	c #180D38",
"mb.	c #180D37",
"nb.	c #160E35",
"ob.	c #1B173C",
"pb.	c #1D193E",
"qb.	c #272648",
"rb.	c #232244",
"sb.	c #0B0938",
"tb.	c #181A4B",
"ub.	c #151D4C",
"vb.	c #141A4A",
"wb.	c #0F1343",
"xb.	c #1C1443",
"yb.	c #160D38",
"zb.	c #160E37",
"Ab.	c #150F35",
"Bb.	c #100C2D",
"Cb.	c #010221",
"Db.	c #00001A",
"Eb.	c #1B0F3F",
"Fb.	c #231749",
"Gb.	c #130A39",
"Hb.	c #090738",
"Ib.	c #140D36",
"Jb.	c #140E32",
"Kb.	c #140E30",
"Lb.	c #130F30",
"Mb.	c #0F0B2C",
"Nb.	c #090923",
"Ob.	c #1A0E3E",
"Pb.	c #170B39",
"Qb.	c #150937",
"Rb.	c #180F3C",
"Sb.	c #201744",
"Tb.	c #211A46",
"Ub.	c #1B1440",
"Vb.	c #12083C",
"Wb.	c #140A3F",
"Xb.	c #11093A",
"Yb.	c #130D2F",
"Zb.	c #070721",
"`b.	c #161736",
" c.	c #1B1C3B",
".c.	c #050915",
"+c.	c #141534",
"@c.	c #10093D",
"#c.	c #110533",
"$c.	c #201442",
"%c.	c #1D143F",
"&c.	c #120934",
"*c.	c #150C37",
"=c.	c #100434",
"-c.	c #110837",
";c.	c #19103F",
">c.	c #130E2E",
",c.	c #080427",
"'c.	c #100D2C",
")c.	c #0F0C2B",
"!c.	c #050424",
"~c.	c #060620",
"{c.	c #040A24",
"]c.	c #0F102C",
"^c.	c #12132F",
"/c.	c #050817",
"(c.	c #151134",
"_c.	c #161332",
":c.	c #0E082A",
"<c.	c #000C22",
"[c.	c #000D22",
"}c.	c #020A21",
"|c.	c #0A0724",
"1c.	c #020224",
"2c.	c #2C284B",
"3c.	c #292148",
"4c.	c #0F092D",
"5c.	c #050827",
"6c.	c #060A27",
"7c.	c #080822",
"8c.	c #11112D",
"9c.	c #0F0E2D",
"0c.	c #0F0829",
"ac.	c #000E20",
"bc.	c #000B1F",
"cc.	c #090621",
"dc.	c #0B0624",
"ec.	c #020121",
"fc.	c #110833",
"gc.	c #020024",
"hc.	c #050A28",
"ic.	c #040927",
"jc.	c #080820",
"kc.	c #10102C",
"lc.	c #0A0736",
"mc.	c #090633",
"nc.	c #121130",
"oc.	c #000D20",
"pc.	c #000B21",
"qc.	c #091136",
"rc.	c #080D35",
"sc.	c #040730",
"tc.	c #070C2A",
"uc.	c #11102F",
"vc.	c #040726",
"wc.	c #000C32",
"xc.	c #000E35",
"yc.	c #000A34",
"zc.	c #000631",
"Ac.	c #050938",
"Bc.	c #07071F",
"Cc.	c #2B2855",
"Dc.	c #211E49",
"Ec.	c #010C22",
"Fc.	c #00032A",
"Gc.	c #000C33",
"Hc.	c #01133B",
"Ic.	c #02153F",
"Jc.	c #031641",
"Kc.	c #051644",
"Lc.	c #031142",
"Mc.	c #000936",
"Nc.	c #080E32",
"Oc.	c #302D58",
"Pc.	c #25234B",
"Qc.	c #02143C",
"Rc.	c #00143E",
"Sc.	c #00143F",
"Tc.	c #001744",
"Uc.	c #041C4C",
"Vc.	c #03194B",
"Wc.	c #00113F",
"Xc.	c #070F33",
"Yc.	c #06061E",
"Zc.	c #070F36",
"`c.	c #02113A",
" d.	c #000F39",
".d.	c #001541",
"+d.	c #00214E",
"@d.	c #022251",
"#d.	c #001B4C",
"$d.	c #00164A",
"%d.	c #001645",
"&d.	c #071135",
"*d.	c #0A0F2D",
"=d.	c #05032B",
"-d.	c #060F38",
";d.	c #00103B",
">d.	c #001642",
",d.	c #163561",
"'d.	c #375C89",
")d.	c #385C8C",
"!d.	c #173B6D",
"~d.	c #012257",
"{d.	c #072251",
"]d.	c #051235",
"^d.	c #171636",
"/d.	c #0A0A24",
"(d.	c #00001F",
"_d.	c #0B0E31",
":d.	c #000023",
"<d.	c #020528",
"[d.	c #020822",
"}d.	c #050E37",
"|d.	c #00113C",
"1d.	c #001A45",
"2d.	c #294A75",
"3d.	c #7196C3",
"4d.	c #90B4E4",
"5d.	c #406496",
"6d.	c #1D4175",
"7d.	c #031E4D",
"8d.	c #041134",
"9d.	c #121131",
"0d.	c #060525",
"ad.	c #000322",
"bd.	c #121536",
"cd.	c #131639",
"dd.	c #020820",
"ed.	c #081A42",
"fd.	c #041D46",
"gd.	c #1D3C68",
"hd.	c #5173A0",
"id.	c #678CB9",
"jd.	c #2A4E7E",
"kd.	c #17386B",
"ld.	c #06214E",
"md.	c #040322",
"nd.	c #010624",
"od.	c #000527",
"pd.	c #0A0E31",
"qd.	c #010920",
"rd.	c #000F36",
"sd.	c #000E34",
"td.	c #001941",
"ud.	c #14355E",
"vd.	c #22436E",
"wd.	c #001B4A",
"xd.	c #00103C",
"yd.	c #050F32",
"zd.	c #050521",
"Ad.	c #020725",
"Bd.	c #040A2A",
"Cd.	c #181E40",
"Dd.	c #060C30",
"Ed.	c #01091E",
"Fd.	c #061238",
"Gd.	c #001136",
"Hd.	c #001439",
"Id.	c #001D43",
"Jd.	c #042048",
"Kd.	c #001543",
"Ld.	c #00133D",
"Md.	c #040E31",
"Nd.	c #12143A",
"Od.	c #0E1036",
"Pd.	c #0B0B25",
"Qd.	c #04041E",
"Rd.	c #000424",
"Sd.	c #111739",
"Td.	c #2A3052",
"Ud.	c #444A6E",
"Vd.	c #192145",
"Wd.	c #000A1E",
"Xd.	c #071134",
"Yd.	c #041436",
"Zd.	c #04183B",
"`d.	c #01193D",
" e.	c #00153C",
".e.	c #031940",
"+e.	c #02133E",
"@e.	c #08163D",
"#e.	c #040D2E",
"$e.	c #191B41",
"%e.	c #25274D",
"&e.	c #1E2046",
"*e.	c #111339",
"=e.	c #0F1137",
"-e.	c #090921",
";e.	c #05051D",
">e.	c #04041C",
",e.	c #030724",
"'e.	c #000222",
")e.	c #0C1234",
"!e.	c #242A4C",
"~e.	c #3D4569",
"{e.	c #151D41",
"]e.	c #020A2F",
"^e.	c #030A1D",
"/e.	c #000B1E",
"(e.	c #000627",
"_e.	c #000929",
":e.	c #001031",
"<e.	c #001334",
"[e.	c #000A2E",
"}e.	c #00062E",
"|e.	c #030D31",
"1e.	c #05051F",
"2e.	c #212349",
"3e.	c #2D2F55",
"4e.	c #07081D",
"5e.	c #08091E",
"6e.	c #090A1F",
"7e.	c #06071C",
"8e.	c #02082A",
"9e.	c #03092B",
"0e.	c #161E42",
"ae.	c #01092D",
"be.	c #090F31",
"ce.	c #03091F",
"de.	c #010C2A",
"ee.	c #031231",
"fe.	c #081736",
"ge.	c #000B2C",
"he.	c #0F1C3E",
"ie.	c #00052A",
"je.	c #0B1135",
"ke.	c #1B1D43",
"le.	c #0E0836",
"me.	c #0B0C21",
"ne.	c #000320",
"oe.	c #0D1230",
"pe.	c #000321",
"qe.	c #020828",
"re.	c #050E2F",
"se.	c #02091C",
"te.	c #000C26",
"ue.	c #05102C",
"ve.	c #00021F",
"we.	c #101734",
"xe.	c #050A27",
"ye.	c #040926",
"ze.	c #030825",
"Ae.	c #0E0E26",
"Be.	c #05013C",
"Ce.	c #060042",
"De.	c #0E084E",
"Ee.	c #0F084E",
"Fe.	c #060143",
"Ge.	c #07013D",
"He.	c #03081B",
"Ie.	c #00071A",
"Je.	c #000317",
"Ke.	c #030919",
"Le.	c #0F1126",
"Me.	c #0A0C21",
"Ne.	c #080343",
"Oe.	c #28216E",
"Pe.	c #2A2371",
"Qe.	c #08053A",
"Re.	c #0D0F24",
"Se.	c #080638",
"Te.	c #0A0641",
"Ue.	c #352F77",
"Ve.	c #08043F",
"We.	c #040233",
"Xe.	c #070C20",
"Ye.	c #0B1024",
"Ze.	c #0E1327",
"`e.	c #09063B",
" f.	c #080635",
".f.	c #0A083A",
"+f.	c #010123",
"@f.	c #02071D",
"#f.	c #000218",
"$f.	c #01051E",
"%f.	c #0B0F28",
"&f.	c #080C25",
"*f.	c #000117",
"=f.	c #080D23",
"-f.	c #060B21",
";f.	c #02061F",
">f.	c #0F132C",
",f.	c #0E122B",
"'f.	c #01061C",
")f.	c #00041D",
"!f.	c #0D112A",
"~f.	c #010520",
"{f.	c #070B24",
"]f.	c #02041D",
"^f.	c #00041A",
"/f.	c #010522",
"(f.	c #030625",
"_f.	c #0A0D2C",
":f.	c #0C0F2E",
"<f.	c #0C0F30",
"[f.	c #00041F",
"}f.	c #020623",
"|f.	c #000417",
"1f.	c #020818",
"2f.	c #04091C",
"3f.	c #040A1A",
"4f.	c #010717",
"5f.	c #000414",
"6f.	c #050A1D",
"7f.	c #000616",
"8f.	c #050B1B",
"9f.	c #060B1E",
"0f.	c #02071A",
"af.	c #00031C",
"bf.	c #020621",
"cf.	c #00021D",
"df.	c #000421",
"ef.	c #0C102D",
"ff.	c #0B0E2D",
"gf.	c #040728",
"hf.	c #00001B",
"if.	c #00011C",
"jf.	c #191C3B",
"kf.	c #1A1D3E",
"lf.	c #0B0E2F",
"mf.	c #010427",
"nf.	c #010423",
"of.	c #000418",
"pf.	c #030627",
"qf.	c #030629",
"rf.	c #090E22",
"sf.	c #101529",
"tf.	c #0F1428",
"uf.	c #00021B",
"vf.	c #0A0F23",
"wf.	c #080C27",
"xf.	c #0A0E29",
"yf.	c #0C102B",
"zf.	c #0A0E27",
"Af.	c #070B26",
"Bf.	c #00031E",
"Cf.	c #0E1025",
"Df.	c #12172B",
"Ef.	c #1A1F33",
"Ff.	c #101227",
"Gf.	c #13152A",
"Hf.	c #090D26",
"If.	c #0C1029",
"Jf.	c #111433",
"Kf.	c #111532",
"Lf.	c #020526",
"Mf.	c #121534",
"Nf.	c #121633",
"Of.	c #00011E",
"Pf.	c #060C1C",
"Qf.	c #090E24",
"Rf.	c #0B0F2A",
"Sf.	c #090D28",
"Tf.	c #0E1029",
"Uf.	c #12142D",
"Vf.	c #15172E",
"Wf.	c #010619",
"Xf.	c #0F142A",
"Yf.	c #0D1228",
"Zf.	c #0A0F25",
"`f.	c #0B1026",
" g.	c #11152E",
".g.	c #0D1226",
"+g.	c #141833",
"@g.	c #11162A",
"#g.	c #181C39",
"$g.	c #0F1231",
"%g.	c #030917",
"&g.	c #0F1330",
"*g.	c #0D112E",
"=g.	c #101431",
"-g.	c #101332",
";g.	c #000324",
">g.	c #000019",
",g.	c #10142D",
"'g.	c #05082B",
")g.	c #010425",
"!g.	c #04072A",
"~g.	c #1C1F40",
"{g.	c #101238",
"]g.	c #000225",
"^g.	c #0D102F",
"/g.	c #050829",
"(g.	c #040A18",
"_g.	c #0A0D2E",
":g.	c #161938",
"<g.	c #0E1132",
"                                                   .  .  .  .  .  .  .  .                                                                                                  +  +  +  +  +  +  +  +  +  +  +  +  +  +  +  +  +  +  +  +  +  +  +  +  +  +  +  +  +  +  +  +  +  +  +  +  +  +  +  +  +     @  #  @  +  $  %  &  %  @  #  .  %  $  .  +  +  +  +  +  +  +  +  *  *  *  *  =  =  =  =  -  -  ;  ;  ;  ;  ;  -  >  ,  '  ,  -  )  !  >  ~  ~  {  {  {  {  {  {  ]  ]  ]  ]  ]  ]  ]  ]  ]  ]  ]  ]  ]  ]  ]  ]  ^  ^  ^  ^  ^  ^  ^  ^  ^  ^  /  /  /  /  (  (  ^  ^  ^  ^  ^  ^  ^  ^  _  ^  :  <  <  /  <  [  (  /  ^  /  <  _  <  (  ^  ^  ^  ^  ^  ^  ^  }  |  1  1  2  3  3  4  |  5  5  5  5  6  6  6  6  ]  ]  ]  ]  ]  ]  ]  ]  ]  ]  ]  ]  ]  ]  ]  ]  7  ;  ;  ;  ;  ;  ~  ~  ;  ;  ;  ;  ;  ;  ;  ;  -  -  -  -  -  -  -  -  !  !  !  !  !  !  !  8  +  9  9  9  9  9  9  9  0  0  0  0  0  0  0  0  a  a  a  a  a  a  a  a  a  a  a  a  a  a  a  a  a  a  a  a  a  a  a  a  a  a  a  a  a  a  a  a  a  a  a  a  a  a  a  a  a  a  a  a  a  a  a  ",
"                                                   .  .  .  .  .  .  .  .                                                                                                  +  +  +  +  +  +  +  +  +  +  +  +  +  +  +  +  +  +  +  +  +  +  +  +  +  +  +  +  +  +  +  +  +  +  +  +  +  +  +  +  +     @  @     +  b  %  c  $  @  @  .  $  $  .  +  +  +  +  +  +  +  +  *  *  *  *  =  =  =  =  -  -  ;  ;  ;  ;  ;  -  d  e  e  ,  -  >  d  f  ~  ~  {  {  {  {  {  {  ]  ]  ]  ]  ]  ]  ]  ]  ]  ]  ]  ]  ]  ]  ]  ]  ^  ^  ^  ^  ^  ^  ^  ^  (  (  (  /  /  ^  ^  ^  ^  ^  ^  ^  ^  ^  ^  ^  _  /  /  <  <  ^  ^  <  (  /  ^  /  <  _  <  (  ^  ^  ^  ^  ^  ^  ^  }  g  h  5  4  i  j  k  g  6  6  6  6  6  6  6  6  ]  ]  ]  ]  ]  ]  ]  ]  ]  ]  ]  ]  ]  ]  ]  ]  ~  ~  ~  ~  ;  ;  ;  ;  ;  ;  ;  ;  ;  ;  ;  ;  -  -  -  -  -  -  -  -  !  !  !  !  !  !  !  8  +  9  9  9  9  9  9  9  0  0  0  0  0  0  0  0  a  a  a  a  a  a  a  a  a  a  a  a  a  a  a  a  a  a  a  a  a  a  a  a  a  a  a  a  a  a  a  a  a  a  a  a  a  a  a  a  a  a  a  a  a  a  a  ",
"+  +  +  +  +  +  +  +  +  +  +  +  +  +  +  +  +  .  .  .  .  .  .  .  .  +  +  +  +  +  +  +  +  +  +  +  +  +  +  +  +  +  +  +  +  +  +  +  +  +  +  +  +  +  +  +  +  +  +  +  +  +  +  +  +  +  +  +  +  +  +  +  +  +  +  +  +  +  +  +  +  +  +  +  +  +  +  +  +  +  +  +  +  +  +  +  +  +              +  b  b  $  +  #  l  @  +  +     +  +  +  +  +  +  +  +  *  *  *  *  =  =  =  =  -  -  ;  ;  ;  ;  ;  -  -  =  m  =  -  d  n  o  ]  ]  p  p  p  p  p  p  ]  ]  ]  ]  ]  ]  ]  ]  ]  ]  ]  ]  ]  ]  ]  ]  /  /  /  /  /  /  /  /  /  /  /  /  /  /  /  /  /  /  /  /  /  /  /  /  (  /  (  <  <  /  ^  /  (  /  ^  /  <  _  <  (  /  /  /  /  /  /  /  /  q  r  r  r  s  q  }  g  k  k  k  k  k  k  k  k  ]  ]  ]  ]  ]  ]  ]  ]  ]  ]  ]  ]  ]  ]  ]  ]  ]  ]  ]  ~  ;  ;  7  7  ;  ;  ;  ;  ;  ;  ;  ;  -  -  -  -  -  -  -  -  !  !  !  !  !  !  !  8  +  9  9  9  9  9  9  9  0  0  0  0  0  0  0  0  a  a  a  a  a  a  a  a  a  a  a  a  a  a  a  a  a  a  a  a  a  a  a  a  a  a  a  a  a  a  a  a  a  a  a  a  a  a  a  a  a  a  a  a  a  a  a  ",
"t  t  t  t  t  t  t  t  t  t  t  t  t  t  t  t  t  *  *  *  *  *  *  *  *  t  t  t  t  t  t  t  t  t  t  t  t  t  t  t  t  t  t  t  t  t  t  t  t  t  t  t  t  t  t  t  t  t  t  t  t  t  t  t  t  t  t  t  t  t  t  t  t  +  +  +  +  +  +  +  +  +  +  +  +  +  +  +  +  +  +  +  +  +  +  +  +  +  +        +  +  .  .  +     #  #  @     +  +  +  +  +  +  +  +  +  +  *  *  *  *  =  =  =  =  -  -  ;  ;  ;  ;  ;  -  )  8  8  8  !  u  v  w  ]  ]  p  p  p  p  p  p  ]  ]  ]  ]  ]  ]  ]  ]  ]  ]  ]  ]  ]  ]  ]  ]  /  /  /  /  /  /  /  /  :  :  ^  /  /  (  <  <  /  /  /  /  /  /  /  /  ^  (  <  (  <  <  <  /  (  /  ^  /  <  _  <  (  /  /  /  /  /  /  /  /  x  y  z  A  A  B  /  }  }  }  k  k  k  k  |  |  ]  ]  ]  ]  ]  ]  ]  ]  ]  ]  ]  ]  ]  ]  ]  ]  C  C  ]  ]  ~  ;  ;  ;  ;  ;  ;  ;  ;  ;  ;  ;  -  -  -  -  -  -  -  -  !  !  !  !  !  !  !  8  +  9  9  9  9  9  9  9  0  0  0  0  0  0  0  0  a  a  a  a  a  a  a  a  a  a  a  a  a  a  a  a  a  a  a  a  a  a  a  a  a  a  a  a  a  a  a  a  a  a  a  a  a  a  a  a  a  a  a  a  a  a  a  ",
"*  *  *  *  *  *  *  *  *  *  *  *  *  *  *  *  *  *  *  *  *  *  *  *  *  *  *  *  *  *  *  *  *  *  *  *  *  *  *  *  *  *  *  *  *  *  *  *  *  *  *  *  *  *  *  *  *  t  t  t  t  t  t  t  t  t  t  t  t  t  t  t  t  +  +  +  +  +  +  +  +  +  +  +  +  +  +  +  +  +  +  +  +  +  +  +  +  +  +  +  +  +  +  +  +  +  +  +  +  +  .  b  b  +  +  +  +  +  +  +  +  *  *  *  *  =  =  =  =  -  -  ;  ;  ;  ;  ;  -  >  m  m  =  )  )  -  d  C  C  D  D  D  D  D  D  ]  ]  ]  ]  ]  ]  ]  ]  ]  ]  ]  ]  ]  ]  ]  ]  (  (  (  (  (  (  (  (  E  E  :  ^  (  <  _  _  (  (  (  (  (  (  (  (  /  _  _  (  (  F  F  (  (  /  ^  /  <  _  <  (  (  (  (  (  (  (  (  G  H  I  J  K  L  M  G  (  /  r  r  N  N  N  O  O  ]  ]  ]  ]  ]  ]  ]  ]  ]  ]  ]  ]  ]  ]  ]  ]  ]  ]  ]  ]  ~  ~  ~  ~  ;  ;  ;  ;  ;  ;  ;  ;  -  -  -  -  -  -  -  -  !  !  !  !  !  !  !  8  +  9  9  9  9  9  9  9  0  0  0  0  0  0  0  0  a  a  a  a  a  a  a  a  a  a  a  a  a  a  a  a  a  a  a  a  a  a  a  a  a  a  a  a  a  a  a  a  a  a  a  a  a  a  a  a  a  a  a  a  a  a  a  ",
"*  *  *  *  *  *  *  *  *  *  *  *  *  *  *  *  *  *  *  *  *  *  *  *  *  *  *  *  *  *  *  *  *  *  *  *  *  *  *  *  *  *  *  *  *  *  *  *  *  *  *  *  *  *  *  *  *  t  t  t  t  t  t  t  t  t  t  t  t  t  t  t  t  +  +  +  +  +  +  +  +  +  +  +  +  +  +  +  +  +  +  +  +  +  +  +  +  +  +  +  .  +  +  +           +  +  +  +  .  b  +  +  +  +  +  +  +  +  *  *  *  *  =  =  =  =  -  -  ;  ;  ;  ;  ;  -  >  ,  ,  m  !  )  !  -  C  C  D  D  D  D  D  D  ]  ]  ]  ]  ]  ]  ]  ]  ]  ]  ]  ]  ]  ]  ]  ]  (  (  (  (  (  (  (  (  ^  ^  ^  /  /  (  (  (  (  (  (  (  (  (  (  (  P  Q  R  /  /  _  F  (  (  /  ^  /  <  _  <  (  (  (  (  (  (  (  (  G  S  T  U  V  W  X  J  Y  B  /  r  r  N  N  O  O  ]  ]  ]  ]  ]  ]  ]  ]  ]  ]  ]  ]  ]  ]  ]  ]  ~  ~  ]  ]  ]  ]  ]  C  ;  ;  ;  ;  ;  ;  ;  ;  -  -  -  -  -  -  -  -  !  !  !  !  !  !  !  8  +  9  9  9  9  9  9  9  0  0  0  0  0  0  0  0  a  a  a  a  a  a  a  a  a  a  a  a  a  a  a  a  a  a  a  a  a  a  a  a  a  a  a  a  a  a  a  a  a  a  a  a  a  a  a  a  a  a  a  a  a  a  a  ",
"*  *  *  *  *  *  *  *  *  *  *  *  *  *  *  *  *  *  *  *  *  *  *  *  *  *  *  *  *  *  *  *  *  *  *  *  *  *  *  *  *  *  *  *  *  *  *  *  *  *  *  *  *  *  *  *  *  t  t  t  t  t  t  t  t  t  t  t  t  t  t  t  t  +  +  +  +  +  +  +  +  +  +  +  +  +  +  +  +  +  +  +  +  +  +  +  +  +  +  .  .  .  +        l  #  @  @  #  @     +  +  +  +  +  +  +  +  +  *  *  *  *  =  =  =  =  -  -  ;  ;  ;  ;  ;  -  Z  =  ,  ,  >  >  >  d  C  C  D  D  D  D  D  D  ]  ]  ]  ]  ]  ]  ]  ]  ]  ]  ]  ]  ]  ]  ]  ]  (  (  (  (  (  (  (  (  (  (  /  /  /  /  ^  ^  (  (  (  (  (  (  (  (  `   . Q  /  :  _  _  /  (  /  ^  /  <  _  <  (  (  (  (  (  (  (  (  .. +. @. #. $. +. %. J  .. M  B  /  r  N  N  O  O  ]  ]  ]  ]  ]  ]  ]  ]  ]  ]  ]  ]  ]  ]  ]  ]  ;  ~  ~  ]  ]  C  C  &. ;  ;  ;  ;  ;  ;  ;  ;  -  -  -  -  -  -  -  -  !  !  !  !  !  !  !  8  +  9  9  9  9  9  9  9  0  0  0  0  0  0  0  0  a  a  a  a  a  a  a  a  a  a  a  a  a  a  a  a  a  a  a  a  a  a  a  a  a  a  a  a  a  a  a  a  a  a  a  a  a  a  a  a  a  a  a  a  a  a  a  ",
"*. *. *. *. *. *. *. *. *. *. *. *. *. *. *. *. *. 8  8  8  8  8  8  8  8  *. *. *. *. *. *. *. *. 8  8  8  8  8  8  8  8  =  m  m  ,  ,  m  m  =  8  8  8  8  8  8  8  8  =  =  =  =  =  =  =  =  =  =  =  =  =  =  =  *  +  +  .  .  .  +                                +  +  +  +  +  +  +  +  +  +  +  +  +  +  +  +  +  +  +  +  +  +  +  +  .  .  .  .  .  .  .  .  *  *  *  *  =  =  =  =  -  -  ;  ;  ;  ;  ;  -  u  ,  ,  ,  u  u  u  u  ]  ]  p  p  p  p  p  p  ]  ]  ]  C  C  &. &. &. =. -. C  ]  ~  ~  ]  C  (  (  (  (  (  (  (  (  /  /  /  /  /  /  /  /  /  /  /  /  /  /  /  /  /  /  /  /  /  /  /  /  ^  ^  ^  ^  ^  ^  ^  ^  (  (  (  (  (  (  (  .. T  ;. >. ,. T  V  K  '. M  B  /  r  N  N  N  N  C  C  C  C  C  C  C  C  ~  ~  ~  ~  ~  ~  ~  ~  ]  ]  ]  ]  ]  ]  ]  ]  ]  ]  ]  ]  ]  ]  ]  ]  -  -  -  -  -  -  -  -  -  -  -  -  -  -  -  =  +  9  9  9  9  9  9  9  0  0  0  0  0  0  0  0  a  a  a  a  a  a  a  a  ). !. !. a  a  !. !. ). a  a  a  a  a  a  a  a  a  a  a  a  a  a  a  a  a  a  a  a  a  a  a  a  a  a  a  a  a  a  a  ",
"8  8  8  8  8  8  8  8  8  8  8  8  8  8  8  8  8  =  =  =  =  =  =  =  =  8  8  8  8  8  8  8  8  8  8  8  8  8  8  8  8  8  =  =  m  m  =  =  8  8  8  8  8  8  8  8  8  =  =  =  =  =  =  =  =  =  =  =  =  =  =  =  *  t  +  +  .  .  +  +                             +  +  +  +  +  +  +  +  +  +  +  +  +  +  +  +  +  +  +  +  +  +  +  +  .  .  .  .  .  .  .  .  *  *  *  *  =  =  =  =  -  -  ;  ;  ;  ;  ;  -  u  ,  ,  ,  u  u  u  u  ]  ]  p  p  p  p  p  p  ]  ]  ]  C  C  &. &. &. =. -. C  ]  ]  ]  C  C  (  (  (  (  (  (  (  (  /  /  /  /  /  /  /  /  /  /  /  /  /  /  /  /  /  /  /  /  /  /  /  /  /  /  /  /  /  /  /  /  (  (  (  (  (  (  (  .. U  ~. {. ]. ^. /. (. .. G  G  (  (  q  _. _. _. C  C  C  C  C  C  C  C  ~  ~  ~  ~  ~  ~  ~  ~  ]  ]  ]  ]  ]  ]  ]  ]  ]  ]  ]  ]  ]  ]  ]  ]  -  -  -  -  -  -  -  -  -  -  -  -  -  -  -  =  +  9  9  9  9  9  9  9  0  0  0  0  0  0  0  0  a  a  a  a  a  a  a  a  :. a  !. !. !. !. a  :. a  a  a  a  a  a  a  a  a  a  a  a  a  a  a  a  a  a  a  a  a  a  a  a  a  a  a  a  a  a  a  ",
"m  m  m  m  m  m  m  m  m  m  m  m  m  m  m  m  m  ,  ,  ,  ,  ,  ,  ,  ,  m  m  m  m  m  m  m  m  8  8  8  8  8  8  8  8  *. 8  =  =  =  =  8  *. 8  8  8  8  8  8  8  8  =  =  =  =  =  =  =  =  =  =  =  =  =  =  =  *  t  +  +  +  .  .  .  .                          +  +  +  +  +  +  +  +  +  +  +  +  +  +  +  +  +  +  +  +  +  +  +  +  .  .  .  .  .  .  .  .  *  *  *  *  =  =  =  =  -  -  ;  ;  ;  ;  ;  -  u  ,  ,  ,  u  u  u  u  ]  ]  p  p  p  p  p  p  ]  ]  C  C  C  C  &. &. -. &. &. C  ]  C  C  C  (  (  (  (  (  (  (  (  /  /  /  /  /  /  /  /  /  /  /  /  /  /  /  /  (  (  (  (  (  (  (  (  <  <  <  <  <  <  <  <  (  (  (  (  (  (  (  G  <. $. [. }. |. 1. J  .. G  G  (  (  q  q  q  q  C  C  C  C  C  C  C  C  ~  ~  ~  ~  ~  ~  ~  ~  ]  ]  ]  ]  ]  ]  ]  ]  ]  ]  ]  ]  ]  ]  ]  ]  -  -  -  -  -  -  -  -  -  -  -  -  -  -  -  =  +  9  9  9  9  9  9  9  0  0  0  0  0  0  0  0  a  a  a  a  a  a  a  a  2. :. ). 3. 3. ). :. 2. a  a  a  a  a  a  a  a  a  a  a  a  a  a  a  a  a  a  a  a  a  a  a  a  a  a  a  a  a  a  a  ",
"m  m  m  m  m  m  m  m  m  m  m  m  m  m  m  m  m  m  m  m  m  m  m  m  m  m  m  m  m  m  m  m  m  =  =  =  =  =  =  =  =  8  =  =  m  m  =  =  8  =  =  =  =  =  =  =  =  =  =  =  =  =  =  =  =  =  =  =  =  =  =  =  =  *  +  +  +  +  .  b  b  +  +  +  +  +  +  +  +  +  +  +  +  +  +  +  +  +  +  +  +  +  +  +  +  +  +  +  +  +  +  +  +  .  .  .  .  .  .  .  .  *  *  *  *  =  =  =  =  -  -  ;  ;  ;  ;  ;  -  u  ,  ,  ,  u  u  u  u  ]  ]  p  p  p  p  p  p  C  C  C  C  C  C  C  C  &. &. &. &. C  C  &. &. (  (  (  (  (  (  (  (  (  (  (  (  (  (  (  (  (  (  (  (  (  (  (  (  <  <  <  <  <  <  <  <  <  <  <  <  <  <  <  <  <  <  <  <  <  <  <  z  y  X  (. 4. 5. 6. Y  7. z  z  <  <  s  s  s  s  C  C  C  C  C  C  C  C  ]  ]  ]  ]  ]  ]  ]  ]  ]  ]  ]  ]  ]  ]  ]  ]  ]  ]  ]  ]  ]  ]  ]  ]  -  -  -  -  -  -  -  -  -  -  -  -  -  -  -  =  +  9  9  9  9  9  9  9  0  0  0  0  0  0  0  0  a  a  a  a  a  a  a  a  a  2. :. !. !. :. 2. a  a  a  a  a  a  a  a  a  a  a  a  a  a  a  a  a  a  a  a  a  a  a  a  a  a  a  a  a  a  a  a  ",
">  >  >  >  >  >  >  >  >  >  >  >  >  >  >  >  >  >  >  >  >  >  >  >  >  >  >  >  >  >  >  >  >  -  -  -  -  -  -  -  -  >  u  u  d  d  u  u  >  -  -  -  -  -  -  -  -  -  -  -  -  -  -  -  -  -  -  -  -  -  -  -  =  *  .  +  +  +  .  $  %  +  +  +  +  +  +  +  +  +  +  +  +  +  +  +  +  +  +  +  +  +  +  +  +  +  +  +  +  +  +  +  +  .  .  .  .  .  .  .  .  *  *  *  *  =  =  =  =  -  -  ;  ;  ;  ;  ;  -  u  ,  ,  ,  u  u  u  u  ]  ]  p  p  p  p  p  p  C  C  C  C  C  C  C  C  &. &. &. &. -. -. &. &. (  (  (  (  (  (  (  (  (  (  (  (  (  (  (  (  (  (  (  (  (  (  (  (  <  <  <  <  <  <  <  <  <  <  <  <  <  <  <  <  <  <  <  <  <  <  <  <  8. .. 9. 9. 0. A  G  a. z  <  <  <  <  <  <  s  C  C  C  C  C  C  C  C  ]  ]  ]  ]  ]  ]  ]  ]  ]  ]  ]  ]  ]  ]  ]  ]  ]  ]  ]  ]  ]  ]  ]  ]  -  -  -  -  -  -  -  -  -  -  -  -  -  -  -  =  +  9  9  9  9  9  9  9  0  0  0  0  0  0  0  0  a  a  a  a  a  a  a  a  3. :. 2. ). ). 2. :. 3. a  a  a  a  a  a  a  a  a  a  a  a  a  a  a  a  a  a  a  a  a  a  a  a  a  a  a  a  a  a  a  ",
">  >  >  >  >  >  >  >  >  >  >  >  >  >  >  >  >  -  -  -  -  -  -  -  -  >  >  >  >  >  >  >  >  >  >  >  >  >  >  >  >  u  u  d  b. b. d  u  u  >  >  >  >  >  >  >  >  -  -  -  -  -  -  -  -  -  -  -  -  -  -  -  =  *  .  +  +  +  b  %  c. .  .  .  .  .  .  .  .  +  +  +  +  +  +  +  +  +  +  +  +  +  +  +  +  +  +  +  +  +  +  +  +  .  .  .  .  .  .  .  .  *  *  *  *  =  =  =  =  -  -  ;  ;  ;  ;  ;  -  u  ,  ,  ,  u  u  u  u  ]  ]  p  p  p  p  p  p  &. &. C  C  C  C  ]  ]  C  &. &. -. =. -. -. -. (  (  (  (  (  (  (  (  <  <  <  <  <  <  <  <  <  <  <  <  <  <  <  <  _  _  _  _  _  _  _  _  <  <  <  <  <  <  <  <  _  _  _  _  _  _  _  _  _  (  /  (  <  <  B  ^  (  (  (  (  (  (  (  (  D  C  C  C  C  C  C  C  C  C  C  C  C  C  C  C  ]  ]  ]  ]  ]  ]  ]  ]  ]  ]  ]  ]  ]  ]  ]  ]  -  -  -  -  -  -  -  -  -  -  -  -  -  -  -  =  +  9  9  9  9  9  9  9  0  0  0  0  0  0  0  0  a  a  a  a  a  a  a  a  d. :. 2. 3. 3. 2. :. d. a  a  a  a  a  a  a  a  a  a  a  a  a  a  a  a  a  a  a  a  a  a  a  a  a  a  a  a  a  a  a  ",
"d  d  d  d  d  d  d  d  d  d  d  d  d  d  d  d  d  u  u  u  u  u  u  u  u  d  d  d  d  d  d  d  d  >  >  >  >  >  >  >  >  >  u  u  d  d  u  u  >  >  >  >  >  >  >  >  >  -  -  -  -  -  -  -  -  -  -  -  -  -  -  -  =  e. .  +     +  b  c. f. .  .  .  .  .  .  .  .  +  +  +  +  +  +  +  +  +  +  +  +  +  +  +  +  +  +  +  +  +  +  +  +  .  .  .  .  .  .  .  .  *  *  *  *  =  =  =  =  -  -  ;  ;  ;  ;  ;  -  u  ,  ,  ,  u  u  u  u  ]  ]  p  p  p  p  p  p  &. &. &. C  C  ]  ]  ]  ]  C  -. =. =. =. -. -. (  (  (  (  (  (  (  (  <  <  <  <  <  <  <  <  <  <  <  <  <  <  <  <  F  F  F  F  F  F  F  F  F  F  F  F  F  F  F  F  _  _  _  _  _  _  _  _  g. g. g. g. h. i. <  :  (  (  (  (  G  G  G  (  D  C  C  C  C  C  C  C  C  C  C  C  C  C  C  C  ]  ]  ]  ]  ]  ]  ]  ]  ]  ]  ]  ]  ]  ]  ]  ]  -  -  -  -  -  -  -  -  -  -  -  -  -  -  -  =  +  9  9  9  9  9  9  9  0  0  0  0  0  0  0  0  a  a  a  a  a  a  a  a  3. 2. a  j. j. a  2. 3. a  a  a  a  a  a  a  a  a  a  a  a  a  a  a  a  a  a  a  a  a  a  a  a  a  a  a  a  a  a  a  ",
"b. b. b. b. b. b. b. b. b. b. b. b. b. b. b. b. b. d  d  d  d  d  d  d  d  b. b. b. b. b. b. b. b. >  >  >  >  >  >  >  >  -  >  >  u  u  >  >  -  >  >  >  >  >  >  >  >  -  -  -  -  -  -  -  -  -  -  -  -  -  -  -  =  e. .  +     +  b  c. c  .  .  .  .  .  .  .  .  t  t  t  t  t  t  t  t  t  t  t  t  t  t  t  t  k. k. k. k. k. l. l. l. .  m. m. m. m. m. m. n. *  *  *  *  =  =  =  =  -  -  ;  ;  ;  ;  ;  ;  u  ,  ,  u  u  u  u  ]  ]  ]  p  p  p  p  p  p  &. &. &. C  C  ]  ]  ]  ]  C  -. =. o. o. p. q. (  (  (  (  (  (  (  (  <  <  <  <  <  <  <  <  <  <  <  <  <  <  <  <  F  F  F  F  F  F  F  F  P  P  P  P  P  P  P  P  _  _  _  _  _  _  _  _  r. s. s  }  r  g. F  <  /  /  /  /  B  B  B  /  D  C  D  C  D  C  D  C  D  C  D  C  D  C  D  C  ]  ]  ]  ]  ]  ]  ]  ]  ]  ]  ]  ]  ]  ]  ]  ]  ;  -  -  -  -  -  -  -  -  -  -  -  -  -  -  =  t  +  +  +  +  +  +  +                          a  a  a  t. t. t. t. t. u. v. m. w. w. !. x. a  a  a  a  a  a  a  a  a  a  a  a  a  a  a  a  a  a  a  a  a  a  a  a  a  a  a  a  a  a  a  a  ",
"u  u  u  u  u  u  u  u  u  u  u  u  u  u  u  u  u  u  u  u  u  u  u  u  u  u  u  u  u  u  u  u  u  d  d  d  u  u  >  >  >  ~  ]  &. -. -. &. ]  ~  ~  ~  ~  ~  ~  ~  ~  ~  7  7  ;  ~  C  &. -. -. ~  ~  ~  ~  ~  ~  ~  >  8  t  t  t  t  t  t  t  y. z. *  e. e. *  z. y. A. A. A. A. A. A. A. A. A. B. C. C. C. C. B. =  D. E. F. G. H. I. I. I. k. J. J. I. K. L. L. M. N. *. *. 8  !  !  -  -  ]  ]  p  p  p  p  p  ]  |  |  |  k  k  k  k  }  O. O. :  ^  ^  /  /  r  _. 4  4  4  _. _. _. _. r  r  r  r  r  r  /  /  (  (  (  (  (  (  (  (  _  _  _  _  _  _  _  _  a. a. a. a. a. a. a. a. z  z  z  z  z  z  z  z  z  z  z  z  z  z  z  z  a. a. a. a. a. a. a. a. _  _  _  _  _  _  a. a. z  z  z  z  z  z  z  z  (  q  (  q  (  q  (  q  <  r  ^  }  /  q  /  r  D  D  D  D  D  D  D  D  p  p  p  p  p  p  p  ]  ~  ]  ]  C  C  ]  ]  ~  ;  ;  ;  ;  ;  ;  ;  -  =  =  =  =  =  =  =  =  8  P. Q. '  R. ,  S. T. l  U. V. W. =  n  X. Y. Z. )  )  *. z.    0  0  0  0  0  0  0  0  0  0  `. `. 0   + .+  + ++ @+ a  a  a  a  a  a  a  a  a  a  a  a  a  a  a  ",
"u  u  u  u  u  u  u  u  u  u  u  u  u  u  u  u  u  u  u  u  u  u  u  u  u  u  u  u  u  u  u  u  u  d  d  d  u  u  u  >  >  ~  ]  &. -. -. &. ]  ~  ~  ~  ~  ~  ~  ~  ~  ~  ;  ;  ~  ]  ]  C  &. &. ~  ~  ~  ~  ~  ~  ~  >  =  *  *  *  *  *  *  *  z. t  e. #+ #+ e. t  z. h  h  h  h  h  h  h  h  $+ $+ $+ %+ %+ $+ $+ )  &+ *+ =+ =+ H. H. n. n. k. k. J. I. K. L. -+ M. ;+ 8  8  8  -  -  >  >  ]  ]  p  p  p  p  p  ]  k  |  k  k  k  k  }  }  O. O. ^  ^  ^  /  /  r  _. 4  4  4  _. _. _. _. r  r  r  r  /  /  /  /  (  (  (  (  (  (  (  (  _  _  _  _  _  _  _  _  a. a. a. a. a. a. a. a. z  z  z  z  z  z  z  z  z  z  z  z  z  z  z  z  a. a. a. a. a. a. a. a. a. a. a. a. a. a. a. a. z  z  z  z  z  z  z  z  (  (  (  (  (  (  (  (  (  /  ^  ^  /  (  /  /  D  D  D  D  D  D  D  D  p  p  p  p  p  p  p  p  ~  ]  ]  C  C  ]  ]  ~  ;  ;  ;  ;  ;  ;  ;  ;  -  -  -  -  -  -  -  -  -  Z  )  b. v  u  )  Q. #  ++ l  W. !  C  o. >+ ,+ Z. Z. )  z.    0  0  0  0  0  0  0  0  0  0  ++ 0   + 9  0  0  '+ )+ a  a  a  a  a  a  a  a  a  a  a  a  a  a  a  ",
"]  ]  ]  ]  ]  ]  ]  ]  ]  ]  ]  ]  ]  ]  ]  ]  ]  ]  ]  ]  ]  ]  ]  ]  ]  ]  ]  ]  ]  ]  ]  ]  ]  C  C  C  C  ]  ]  ]  ~  ~  ]  &. -. -. &. ]  ~  ~  ~  ~  ~  ~  ~  ~  ~  ]  ]  ]  ]  ]  ]  ]  ]  ~  ~  ~  ~  ~  ~  ~  >  m  e. e. e. e. e. e. e. t  e. #+ !+ !+ #+ e. t  h  h  h  h  h  h  h  h  ~+ $+ %+ h  h  %+ $+ Z  -  {+ {+ ]+ 8  8  8  8  =  =  =  =  ^+ ^+ ^+ ^+ =  =  =  m  >  >  u  u  ]  ]  p  p  p  p  p  ]  6  5  6  6  6  6  O. O. O. }  ^  ^  /  /  /  r  _. 4  4  4  _. _. _. _. r  r  /  /  /  /  /  /  (  (  (  (  (  (  (  (  _  _  _  _  _  _  _  _  a. a. a. a. a. a. a. a. z  z  z  z  z  z  z  z  z  z  z  z  z  z  z  z  a. a. a. a. a. a. a. a. a. a. a. a. a. a. a. a. z  z  z  z  z  z  z  z  (  (  (  (  (  (  (  (  /  /  /  /  /  /  /  (  D  D  D  D  D  D  D  D  p  p  p  p  p  p  p  p  ~  ]  ]  C  C  ]  ]  ~  ;  ;  ;  ;  ;  ;  ;  ;  -  -  -  -  -  -  -  -  >  )  !  f  v  u  !  8     `. @  y. Q. )  7  ;  Z. Z. )  *. z.    0  0  0  0  0  0  0  0  0  0  /+ 9  '+ 0  U. ++ (+ _+ a  a  a  a  a  a  a  a  a  a  a  a  a  a  a  ",
"C  C  C  C  C  C  C  C  C  C  C  C  C  C  C  C  C  C  C  C  C  C  C  C  C  C  C  C  C  C  C  C  C  &. &. C  C  C  ]  ]  ]  ]  C  C  &. &. C  C  ]  ]  ]  ]  ]  ]  ]  ]  ]  C  C  C  ]  ]  ~  ~  ~  ]  ]  ]  ]  ]  ]  ]  u  ,  #+ #+ #+ #+ #+ #+ #+ *  *  e. #+ #+ e. *  =  h  h  h  h  h  h  h  h  $+ %+ 5  O  O  5  %+ $+ 5  h  h  h  A. B. :+ B. <+ 1  <+ 1  1  1  1  1  m  m  m  ,  u  d  d  d  ]  ]  p  p  p  p  p  ]  6  5  6  6  6  6  O. O. }  }  ^  /  /  /  (  q  _. 4  4  4  _. _. _. _. q  q  (  (  (  (  (  (  <  <  <  <  <  <  <  <  _  _  _  _  _  _  _  _  7. 7. 7. 7. 7. 7. 7. 7. a. a. a. a. a. a. a. a. a. a. a. a. a. a. a. a. a. a. a. a. a. a. a. a. a. a. a. a. a. a. a. a. a. a. a. a. a. a. a. a. (  (  (  (  (  (  (  (  /  (  <  <  (  /  /  (  D  D  D  D  D  D  D  D  p  p  p  p  p  p  p  p  ~  ]  ]  C  C  ]  ]  ~  ;  ;  ;  ;  ;  ;  ;  ;  -  -  -  -  -  -  -  -  >  )  !  d  b. -  !  =     0        z. Q. [+ }+ )  )  *. z.    0  0  0  0  0  0  0  0  0  0  0  `. 0  9  `. /+ `. )+ |+ a  a  a  a  a  a  a  a  a  a  a  a  a  a  a  ",
"C  C  C  C  C  C  C  C  C  C  C  C  C  C  C  C  C  C  C  C  C  C  C  C  C  C  C  C  C  C  C  C  C  &. &. &. C  C  C  ]  ]  ]  C  C  &. &. C  C  ]  ]  ]  ]  ]  ]  ]  ]  ]  &. &. C  ]  ]  ~  ;  ;  ]  ]  ]  ]  ]  ]  ]  u  ,  ,  ,  ,  ,  ,  ,  ,  8  8  =  =  =  =  8  8  h  h  h  h  h  h  h  h  h  5  O  j  j  O  5  h  1+ 1+ 1+ 1+ 1+ 2+ 1+ 2+ 3+ 4+ 3+ 3+ 3+ 3+ 3+ 4+ 1  m  ,  ,  d  d  d  d  ]  ]  p  p  p  p  p  ]  6  5  6  6  6  6  O. O. }  }  /  /  /  (  (  q  _. _. _. _. _. _. q  q  q  q  (  (  (  (  G  G  <  <  <  <  <  <  <  <  _  _  _  _  _  _  _  _  7. 7. 7. 7. 7. 7. 7. 7. a. a. a. a. a. a. a. a. a. a. a. a. a. a. a. a. a. a. a. a. a. a. a. a. a. a. a. a. a. a. a. a. a. a. a. a. a. a. a. a. (  (  (  (  (  (  (  (  :  (  F  _  (  /  /  <  D  D  D  D  D  D  D  D  p  p  p  p  p  p  p  p  ~  ]  ]  C  C  ]  ]  ~  ;  ;  ;  ;  ;  ;  ;  ;  -  -  -  -  -  -  -  -  -  )  )  >  >  Z  )  m  0  5+ 9  .  +  z. y. S. *. z. z.       0  0  5+ 0  0  0  0  0  0  0  0  9  0  `. `. 0  9   +  + a  a  a  a  a  a  a  a  a  a  a  a  a  a  a  ",
"&. &. &. &. &. &. &. &. &. &. &. &. &. &. &. &. &. &. &. &. &. &. &. &. &. &. &. &. &. &. &. &. &. -. &. &. &. C  C  C  C  C  C  C  C  C  C  C  C  C  C  C  C  C  C  C  C  C  C  C  ]  ]  ~  ~  ~  C  C  C  C  C  C  C  d  u  ,  ,  ,  ,  ,  ,  ,  8  8  8  8  8  8  8  8  h  h  h  h  h  h  h  h  5  |  O  4  4  O  |  4+ 6+ 7+ 7+ 1+ 3+ 4+ 8+ 9+ 9+ 9+ 9+ 0+ a+ b+ b+ 3+ 1  m  m  ,  u  d  d  d  ]  ]  p  p  p  p  p  ]  k  |  k  k  k  k  }  }  r  r  /  /  (  (  (  s  q  _. _. _. _. _. q  q  s  s  <  <  <  <  z  z  _  _  _  _  _  _  _  _  _  _  _  _  _  _  _  _  c+ c+ c+ c+ c+ c+ c+ c+ 7. 7. 7. 7. 7. 7. 7. 7. 7. 7. 7. 7. 7. 7. 7. 7. a. a. a. a. a. a. a. a. a. a. a. a. a. a. a. a. 7. 7. 7. 7. 7. 7. 7. 7. (  (  (  (  (  (  (  (  :  (  P  P  <  /  /  <  D  D  D  D  D  D  D  D  p  p  p  p  p  p  p  p  ~  ]  ]  C  C  ]  ]  ~  ;  ;  ;  ;  ;  ;  ;  ;  -  -  -  -  -  -  -  -  -  )  )  -  !  [+ Z  ,  0  5+ 9   + .  .  +  +  z.       0  0  0  5+ 5+ 0  0  0  0  0  0  0  0   + 0  `. 0   +  + `. U. a  a  a  a  a  a  a  a  a  a  a  a  a  a  a  ",
"d+ d+ d+ d+ d+ d+ d+ d+ d+ d+ d+ d+ d+ d+ d+ d+ d+ d+ d+ d+ d+ d+ d+ d+ d+ d+ d+ d+ d+ d+ d+ d+ d+ q. q. d+ d+ d+ D  D  D  &. C  C  ]  ]  C  C  &. C  C  C  C  C  C  C  C  C  ]  ]  ]  ]  ]  ]  ~  C  C  C  C  C  C  C  d  >  m  m  m  m  m  m  m  =  =  =  8  8  =  =  =  h  h  h  h  h  h  h  h  5  5  5  5  5  5  5  4+ e+ e+ 6+ 2+ f+ N  N  q  r  r  r  9+ g+ a+ a+ 4+ A. m  m  m  u  u  u  u  ]  ]  p  p  p  p  p  ]  N  O  N  N  N  N  r  r  r  r  /  (  (  (  <  s  q  _. _. _. q  q  q  q  <  <  z  z  z  z  z  z  a. a. a. a. a. a. a. a. a. a. a. a. a. a. a. a. '. '. '. '. '. '. '. '. h+ h+ h+ h+ h+ h+ h+ h+ h+ h+ h+ h+ h+ h+ h+ h+ 6. 6. 6. 6. 6. 6. 6. 6. a. a. a. a. a. a. a. a. 7. 7. 7. 7. 7. 7. 7. 7. (  (  (  (  (  (  (  (  E  <  R  R  <  ^  /  _  D  D  D  D  D  D  D  D  p  p  p  p  p  p  p  p  ~  ]  ]  C  C  ]  ]  ~  ;  ;  ;  ;  ;  ;  ;  ;  -  -  -  -  -  -  -  -  >  !  -  >  )  }+ !  i+ 9  j+ j+ j+ 9  9  9  9     0  0  0  0  5+ 5+ 5+ 0  0  0  0  0  0  0  0  9   +  +  + 9  0  `. 0  a  a  a  a  a  a  a  a  a  a  a  a  a  a  a  ",
"d+ d+ d+ d+ d+ d+ d+ d+ d+ d+ d+ d+ d+ d+ d+ d+ d+ d+ d+ d+ d+ d+ d+ d+ d+ d+ d+ d+ d+ d+ d+ d+ d+ q. q. q. d+ d+ D  D  D  &. C  C  ]  ]  C  C  &. C  C  C  C  C  C  C  C  ]  ]  ]  ]  ]  ]  ]  ]  C  C  C  C  C  C  C  C  >  m  m  m  m  m  m  m  ,  m  m  =  =  m  m  ,  h  h  h  h  h  h  h  h  h  %+ $+ $+ $+ $+ %+ h  k+ C. %+ -  ]  l+ m+ n+ o+ p+ p+ q+ p  O. r+ 6  -  =  =  m  >  >  u  u  ]  ]  p  p  p  p  p  ]  _. 4  _. _. _. _. q  q  r  r  /  (  (  <  <  <  q  _. _. _. q  q  q  q  <  <  z  z  z  z  z  z  a. a. a. a. a. a. a. a. a. a. a. a. a. a. a. a. '. '. '. '. '. '. '. '. h+ h+ h+ h+ h+ h+ h+ h+ h+ h+ h+ h+ h+ h+ h+ h+ 6. 6. 6. 6. 6. 6. 6. 6. a. a. a. a. a. a. a. a. 7. 7. 7. 7. 7. 7. 7. 7. (  (  (  (  (  (  (  (  s+ <  [  [  <  ^  /  _  D  D  D  D  D  D  D  D  p  p  p  p  p  p  p  p  ~  ]  ]  C  C  ]  ]  ~  ;  ;  ;  ;  ;  ;  ;  ;  -  -  -  -  -  -  -  -  d  >  >  u  !  [+ -  t+  + j+ 5+ u+ `. `. 0  0  0  0  0  0  5+ 5+ 5+ 5+ 0  0  0  0  0  0  0  0  0  .+ )+ '+ ++ /+  + (+ a  a  a  a  a  a  a  a  a  a  a  a  a  a  a  ",
"p. d+ d+ d+ d+ d+ d+ d+ d+ d+ d+ d+ d+ d+ d+ d+ d+ p  D  d+ q. q. d+ D  p  D  d+ q. d+ p  p  d+ p. v+ D  p. w+ q. D  D  D  C  C  C  C  C  C  C  C  &. &. -. &. C  C  &. =. &. &. &. &. &. &. &. &. C  C  C  ]  ]  ~  ~  ~  u  u  u  u  u  u  u  u  u  d  b. d  >  -  >  u  %+ %+ %+ %+ %+ %+ %+ %+ %+ %+ %+ %+ %+ %+ %+ %+ *. x+ y+ z+ A+ B+ C+ D+ E+ F+ G+ H+ I+ J+ K+ L+ u  ,  ,  ,  u  u  u  u  ~  ~  {  p  p  D  D  C  g  5  k  k  N  _. s  s  r  r  /  /  /  /  /  /  r  r  r  r  r  r  /  /  z  G  G  B  .. Y  h+ '. G  a. c+ c+ a. z  z  a. 7. 7. 7. 7. 7. 7. 7. 7. .. X  J  J  M+ N+ N+ 4. 4. 4. 4. 4. 4. 4. 4. 4. M+ M+ M+ M+ M+ M+ M+ M+ 4. 4. 4. N+ N+ M+ M+ 6. 7. 7. 7. 7. 7. 7. 7. 7. z  z  z  z  z  z  z  z  _  _  _  _  _  _  _  _  ^  ^  /  (  (  /  ^  ^  d+ d+ d+ d+ d+ d+ d+ d+ D  D  D  D  D  D  D  D  ]  ]  ]  ]  ]  ]  ]  ]  &. &. ]  ~  ~  ~  ~  ~  )  )  )  !  !  -  -  -  -  -  -  -  -  -  -  =  +  9  9  9  j+ j+ j+ j+ u+ u+ u+ u+ `. `. `. `. 0  0  0  0  0  0  0  0  0  0  0  0  0  0  0  0  a  a  a  a  a  a  a  a  a  a  a  a  a  a  a  ",
"D  q. q. q. q. q. q. q. q. q. q. q. q. q. q. q. q. p. q. d+ d+ d+ d+ q. p. p  q. O+ P+ O+ p. d+ d+ d+ w+ >+ >+ P+ w+ p. p. C  C  C  C  C  C  C  C  &. &. -. &. C  C  &. -. &. &. &. &. &. &. &. &. C  C  C  ]  ]  ]  ~  ~  u  u  u  u  u  u  u  u  >  u  d  u  -  !  -  >  h  h  h  h  h  h  h  h  h  h  h  h  h  h  h  =  k. K. Q+ R+ S+ T+ U+ V+ W+ X+ Y+ Z+ `+  @ .@ +@ y+ ,  ,  ,  u  u  u  u  ~  ~  p  p  p  D  D  C  6  5  k  N  _. _. s  s  r  r  /  /  /  /  /  /  q  q  q  q  q  q  (  (  G  z  a. 7. '. h+ 6. 6. z  z  a. a. a. a. a. a. 7. 7. 7. 7. 7. 7. 7. h+ @@ H  #@ $@ N+ N+ N+ 4. N+ N+ N+ N+ N+ N+ N+ N+ M+ M+ M+ M+ M+ M+ M+ M+ J  M+ N+ $@ I  #@ %@ &@ h+ 7. 7. 7. 7. 7. 7. 7. z  z  z  z  z  z  z  z  _  _  _  _  _  _  _  _  /  /  (  (  (  (  /  /  d+ d+ d+ d+ d+ d+ d+ d+ D  D  D  D  D  D  D  D  ]  ]  ]  ]  ]  ]  ]  ]  ~  ~  ;  ;  ;  ~  ]  ]  )  )  )  !  !  -  -  -  -  -  -  -  -  -  -  =  +  9  9  9  9  j+ j+ j+ u+ u+ u+ u+ `. `. `. `. 0  0  0  0  0  0  0  0  0  0  0  0  0  0  0  0  a  a  a  a  a  a  a  a  a  a  a  a  a  a  a  ",
"*@ =@ =@ =@ =@ =@ =@ =@ =@ =@ =@ =@ =@ =@ =@ =@ =@ -@ ;@ *@ >@ >@ *@ ;@ -@ ,@ =@ '@ )@ !@ ~@ *@ >@ *@ -@ {@ '@ ~@ -@ ;@ O+ C  C  C  C  C  C  C  C  -. &. &. &. &. &. &. &. &. &. &. &. &. &. &. &. C  C  C  C  ]  ]  ]  ~  ]  ]  ]  ]  ]  ]  ]  ]  ;  ~  ]  ~  7  Z. 7  ;  5  5  5  5  5  5  5  5  5  5  5  5  5  5  5  m  I. L. ]@ ^@ /@ (@ _@ :@ <@ [@ }@ |@ 1@ 2@ 3@ 4@ y+ ,  ,  ,  u  u  u  u  ~  ]  p  p  D  D  D  C  k  |  k  N  _. _. s  s  r  r  /  /  /  /  /  /  s  s  <  <  <  <  z  z  z  a. y  5@ 6@ '. Y  M  6. .. M  .. Y  h+ h+ h+ h+ h+ h+ h+ h+ h+ h+ h+ 7@ 8@ 9@ 5. N+ M+ 4. $@ M+ M+ M+ M+ M+ M+ M+ M+ M+ M+ M+ M+ M+ M+ M+ M+ X  J  N+ $@ I  1. 9@ 0@ h+ 7. 7. 7. 7. 7. 7. 7. z  z  z  z  z  z  z  z  _  _  _  _  _  _  _  _  (  <  <  _  _  <  <  (  d+ d+ d+ d+ d+ d+ d+ d+ p  p  p  p  p  p  p  p  ]  ]  ]  ]  ]  ]  ]  ]  7  7  7  7  ;  ~  ]  C  !  !  !  !  -  -  -  -  -  -  -  -  -  -  -  =  t  +  +  9  9  9  j+ j+ u+ u+ `. `. @  @  @  @  0  0  0  0  0  0  0  0  0  0  0  0  0  0  0  0  a  a  a  a  a  a  a  a  a  a  a  a  a  a  a  ",
";@ ;@ ;@ ;@ ;@ ;@ ;@ ;@ ;@ ;@ ;@ ;@ ;@ ;@ ;@ ;@ ;@ -@ ;@ ;@ =@ =@ ;@ ;@ -@ q+ =@ '@ )@ a@ ~@ *@ b@ >@ *@ ;@ ;@ =@ *@ *@ p. d+ &. &. &. &. &. &. &. -. &. &. -. =. =. -. &. &. &. &. &. &. &. &. &. &. &. C  C  C  ]  ]  ]  C  C  C  C  C  C  C  C  ~  ]  C  ]  ;  7  ;  ~  |  |  |  |  |  |  |  |  |  |  |  |  |  |  |  ,  c@ d@ ]@ e@ /@ f@ g@ h@ i@ j@ k@ l@ m@ n@ o@ p@ d  '  '  '  d  d  d  d  ]  ]  p  D  D  D  d+ &. k  O  N  _. _. q@ s  s  q  q  (  (  (  (  (  (  g. g. _  _  _  _  a. a. a. 7. y  y  y  h+ .. M  6. .. 0. M  6. '. '. h+ h+ h+ h+ h+ h+ h+ h+ h+ 9@ 1. 5. N+ M+ M+ 4. $@ N+ N+ N+ N+ N+ N+ N+ N+ N+ N+ N+ N+ N+ N+ N+ N+ M+ M+ M+ M+ N+ N+ N+ N+ h+ 7. 7. 7. 7. 7. 7. 7. a. a. a. a. a. a. a. a. _  _  _  _  _  _  _  _  <  _  _  F  F  _  _  <  d+ d+ d+ d+ d+ d+ d+ d+ p  p  p  p  p  p  p  p  ]  ]  ]  ]  ]  ]  ]  ]  ~  ~  ;  ;  ;  ~  ]  ]  -  -  -  -  -  -  -  -  -  -  -  -  -  -  -  -  8  t  t  +  +  9  9  j+ 5+ 5+ 0        z. z. z.    0  0  0  0  0  0  0  0  0  0  0  0  0  0  0  a  a  a  a  a  a  a  a  a  a  a  a  a  a  a  ",
"b@ ;@ ;@ ;@ ;@ ;@ ;@ ;@ ;@ ;@ ;@ ;@ ;@ ;@ ;@ ;@ ;@ *@ =@ -@ {@ {@ -@ =@ *@ b@ =@ ~@ ~@ ;@ =@ =@ =@ >@ b@ =@ *@ b@ >@ b@ q. d+ &. &. &. &. &. &. &. =. &. &. -. o. r@ -. ]  &. &. &. &. &. &. &. &. &. &. &. C  C  C  ]  ]  C  C  C  C  C  C  C  C  C  &. -. &. ]  ~  ]  C  |  |  |  |  |  |  |  |  |  |  |  |  |  |  |  s@ $  t@ u@ v@ w@ x@ y@ z@ A@ B@ C@ D@ E@ F@ G@ H@ d  '  '  '  d  d  d  d  ]  ]  D  D  D  d+ d+ &. N  4  _. _. _. q@ s  s  q  q  (  (  (  (  (  (  _  _  _  _  _  _  a. a. h+ h+ 6. Y  X  X  X  X  6. Y  .. Y  6. '. '. h+ h+ h+ h+ h+ h+ h+ h+ h+ M+ %. I@ I@ I@ I@ %. J@ K@ K@ K@ K@ K@ K@ K@ K@ I@ I@ I@ I@ I@ I@ I@ I@ I@ I@ %. %. J@ <. W  (. h+ 7. 7. 7. 7. 7. 7. 7. a. a. a. a. a. a. a. a. _  _  _  _  _  _  _  _  _  _  F  F  F  F  _  _  d+ d+ d+ d+ d+ d+ d+ d+ p  p  p  p  p  p  p  p  ]  ]  ]  ]  ]  ]  ]  ]  =. -. &. C  ]  ~  ~  ~  -  -  -  -  -  -  -  -  -  -  -  -  -  -  -  -  !  !  8  t  +  9  9  9  0  0        z. *. )  *.    0  0  0  0  0  0  0  0  0  0  0  0  0  0  0  a  a  a  a  a  a  a  a  a  a  a  a  a  a  a  ",
"=@ ;@ ;@ ;@ ;@ ;@ ;@ ;@ ;@ ;@ ;@ ;@ ;@ ;@ ;@ ;@ ;@ >@ *@ ~@ '@ '@ ~@ *@ >@ *@ =@ =@ *@ >@ >@ *@ ;@ *@ =@ ;@ ;@ *@ b@ =@ w+ q. -. -. -. -. -. -. -. =. &. &. =. L@ L@ -. ]  &. &. &. &. &. &. &. &. -. &. &. &. C  C  C  C  &. &. &. &. &. &. &. &. &. -. =. -. C  ]  C  &. |  |  |  |  |  |  |  |  |  |  |  |  |  |  |  s@ M@ N@ !+ O@ 3@ P@ Q@ R@ S@ T@ U@ V@ W@ X@ Y@ F  4  e  e  e  b. b. b. b. C  C  D  D  d+ d+ d+ -. _. 4  _. q@ q@ q@ s  s  s  s  <  <  <  <  <  <  _  _  _  _  _  _  a. a. h+ 6. .. M  (. X  J  M+ Y  '. 6@ 6@ '. 6. h+ '. h+ h+ h+ h+ h+ h+ h+ N+ I@ Z@ /. S  /. Z@ J@ W  /. /. /. /. /. /. /. /. Z@ Z@ Z@ Z@ Z@ Z@ Z@ Z@ I@ I@ I@ I@ I@ I@ I@ N+ h+ 7. 7. 7. 7. 7. 7. 7. 7. 7. 7. 7. 7. 7. 7. 7. _  _  _  _  _  _  _  _  <  _  _  F  F  _  _  <  d+ d+ d+ d+ d+ d+ d+ d+ D  D  D  D  D  D  D  D  ]  ]  ]  ]  ]  ]  ]  ]  L@ r@ =. &. ]  ~  ~  ~  >  >  >  >  -  -  -  -  -  -  -  -  -  -  -  -  7  7  !  8  t  +  9  9  9  9  +  t  8  !  7  !     0  0  0  0  0  0  0  0  0  0  0  0  0  0  0  a  a  a  a  a  a  a  a  a  a  a  a  a  a  a  ",
"{@ =@ =@ =@ =@ =@ =@ =@ =@ =@ =@ =@ =@ =@ =@ =@ =@ b@ *@ -@ ~@ ~@ -@ *@ b@ *@ =@ =@ *@ b@ b@ *@ ;@ =@ ;@ -@ ;@ =@ *@ ;@ P+ q. -. -. -. -. -. -. -. o. &. C  =. `@ `@ =. ~  &. &. &. &. &. &. &. &. -. -. &. &. &. C  C  C  &. &. &. &. &. &. &. &. C  &. -. &. ]  ~  ]  C  5  5  5  5  5  5  5  5  5  5  5  5  5  5  5  <+  # .# +# d  @# ## $# %# &# *# =# -# ;# ># ,# '# 4  e  e  e  b. b. b. b. C  C  D  d+ d+ d+ q. -. q@ j  q@ q@ q@ q@ s  s  s  s  <  <  <  <  <  <  <  <  <  <  z  z  z  z  Y  Y  6. 6. M+ M+ M+ M+ X  I  H  9@ $@ J  M+ 4. N+ N+ N+ N+ N+ N+ N+ N+ /. S  S  S  /. K@ Z@ I@ K@ K@ K@ K@ K@ K@ K@ K@ Z@ Z@ Z@ Z@ Z@ Z@ Z@ Z@ Z@ Z@ K@ K@ /. /. /. I  h+ 7. 7. 7. 7. 7. 7. 7. 7. 7. 7. 7. 7. 7. 7. 7. _  _  _  _  _  _  _  _  <  <  _  _  _  _  <  <  d+ d+ d+ d+ d+ d+ d+ d+ d+ d+ d+ d+ d+ d+ d+ d+ ]  ]  ]  ]  ]  ]  ]  ]  o. =. &. C  ]  ~  ~  ~  u  u  u  >  >  -  -  -  -  -  -  -  -  -  -  -  7  7  7  !  t  +  9  9  9  9  +  t  !  7  7  !     0  0  0  0  0  0  0  0  0  0  0  0  0  0  0  a  a  a  a  a  a  a  a  a  a  a  a  a  a  a  ",
";@ =@ =@ =@ =@ =@ =@ =@ =@ =@ =@ =@ =@ =@ =@ =@ =@ =@ =@ =@ =@ )# )# )# )# b@ =@ ;@ ;@ =@ *@ *@ ;@ *@ =@ ;@ =@ b@ b@ =@ -@ q. -. q. -. q. -. q. -. w+ &. D  =. !# ~# p. v+ d+ d+ d+ d+ d+ d+ d+ d+ q. q. q. d+ d+ D  D  D  &. &. &. &. &. &. &. &. ]  C  &. C  ~  ;  ~  ]  6  5  6  5  6  5  6  5  6  5  6  5  6  5  6  4+ {# ]# ^# N  q+ /# (# _# :# <# [# }# M+ |# 1# 2# 4  e  e  e  b. b. b. b. C  C  D  d+ d+ q. q. q. s  s  s  s  s  s  <  <  <  <  z  z  z  z  z  z  <  <  <  <  z  z  z  z  M  .. h+ 6@ 5. $@ N+ M+ X  3# 4# 5# 5. X  J  $@ N+ N+ N+ N+ N+ N+ N+ N+ /. /. K@ Z@ K@ /. S  6# Z@ Z@ Z@ Z@ Z@ Z@ Z@ Z@ Z@ Z@ Z@ Z@ Z@ Z@ Z@ Z@ /. K@ K@ K@ K@ K@ K@ K@ h+ 7. h+ 7. 7. 7. 7. 7. 7. 7. 7. F  F  F  F  F  _  _  a. _  a. _  a. _  G  <  z  _  a. <  z  (  q  d+ d+ d+ d+ d+ b@ b@ *@ 7# *@ 7# *@ 7# *@ q. p  p  p  p  p  p  p  p  D  D  p  ~  ~  ~  ]  ]  u  u  u  >  >  -  -  -  -  -  -  -  -  -  -  ;  7  7  7  !  8  t  +  +  +  +  t  8  !  7  7  !  z. 0  0  0  0  0  0  0  0  0  0  0  0  0  0  0  a  a  a  a  a  a  a  a  a  a  a  a  a  a  a  ",
"*@ =@ =@ =@ =@ =@ =@ =@ =@ ;@ ;@ =@ =@ ;@ {@ 8# 9# 0# a# b# b# c# d# e# f# )# =@ =@ =@ =@ =@ =@ =@ b@ *@ *@ =@ =@ ;@ ;@ -@ ;@ w+ ;@ w+ ;@ w+ ;@ w+ b@ d+ b@ d+ b@ d+ b@ b@ b@ b@ b@ b@ b@ *@ =@ =@ b@ b@ b@ b@ b@ b@ b@ b@ d+ &. &. &. &. &. &. &. C  C  C  C  C  C  C  C  N  N  r  N  r  N  r  N  O. k  r  _. q  _. q  N  g# g# O  N  r  D  >@ >@ >@ >@ >@ >@ /  r  h# i# O  O  O  4  _. q@ q@ q@ j# O. k# q  (  l# m# [  x  h+ n# 9. .. 6. Y  0. .. .. .. .. .. .. .. .. o# p# p# p# p# p# o# o# q# q# q# q# r# r# r# r# s# t# s# q# q# u# u# u# v# v# v# w# x# y# y# y# ,. z# T  [. [. [. T  T  T  T  T  T  T  T  T  T  A# B# C# B# [. T  [. A# D# E# F# B# [. z# ,. J@ N+ h+ N+ h+ h+ h+ 7. 7. _  _  _  g. g. g. g. g. 7. 7. h+ 7. h+ 7. h+ 7. '. 7. h+ a. 6. 7. h+ c+ i. G# h. g. =@ *@ H# H# I# J# K# L# I# J# I# I# B  /  B  B  M# M# I# I# N# N# N# O# P# P# ~  ~  ]  ]  ]  ]  ]  ]  ]  ]  ;  ;  ;  ;  ;  ;  ;  ;  Z. -  u  u  -  8  8  =  8  8  8  !  !  !  !  !  t  +  +  +  +  +  +  +  +  +  +  +  +  +  +  +                          .  +     @     .  %  ",
"=@ ;@ ;@ ;@ ;@ ;@ -@ -@ -@ ;@ =@ *@ *@ =@ ~@ Q# 8# R# S# T# T# U# d# V# U# )# =@ =@ =@ =@ =@ =@ =@ *@ =@ =@ =@ =@ =@ ;@ ;@ ;@ ;@ ;@ ;@ ;@ ;@ ;@ ;@ *@ *@ *@ *@ *@ *@ *@ *@ M# W# X# )# Y# )# )# )# W# W# W# W# W# W# W# b@ d+ &. &. &. &. &. &. &. C  C  C  C  C  C  C  C  r  r  r  r  r  r  r  r  O. }  r  q  q  q  q  r  N  N  N  N  N  N  N  N  N  N  N  N  N  N  N  N  O  O  O  4  _. q@ q@ q@ Z# g. q  s. P  /  (  `# h+ X  K  X  4. 5. N+ (. J  J  J  J  J  J  J  Y  o# p# p# p# p# p# o# o# q# q# q# q# r# r# r# q# q# o#  $  $ .$ .$ .$ .$ v# v# v# w# x# y# y# y# [. [. [. T  T  T  T  T  T  T  T  T  T  T  T  T  A# B# C# B# [. T  [. A# B# B# A# A# [. [. T  Z@ I@ N+ N+ N+ h+ h+ h+ 7. z  _  P  i. i. i. g. <  7. h+ h+ h+ h+ h+ h+ h+ h+ h+ h+ h+ h+ h+ h+ 7. +$ @$ h. g. =@ *@ H# #$ K# L# L# L# K# L# K# I# B  B  B  B  $$ M# K# I# %$ @# &$ K+ K+ *$ ]  ]  ]  ]  ]  ]  ]  ]  ]  ]  ~  ~  ~  ~  ~  ~  ~  ~  !  -  u  >  -  !  !  >  !  !  !  !  !  !  !  8  t  +  +  +  +  +  +  +  +  +  +  +  +  +  +  +                          .  +     @     .  %  ",
"-@ ;@ ;@ -@ -@ ~@ ~@ {@ {@ ;@ =@ *@ *@ *@ ;@ =$ a# W# )# -$ -$ ;$ d# V# e# )# =@ =@ =@ =@ =@ =@ =@ ;@ ;@ ;@ ;@ =@ =@ =@ =@ =@ =@ =@ =@ =@ =@ =@ =@ =@ =@ =@ =@ =@ =@ =@ =@ W# X# )# )# )# X# W# M# W# W# W# W# W# W# W# b@ d+ d+ d+ d+ d+ d+ d+ d+ D  D  D  D  D  D  D  D  r  r  r  r  r  r  r  r  O. }  r  q  q  q  q  r  r  r  r  r  r  r  r  r  r  r  r  r  r  r  r  N  O  O  O  4  _. q@ q@ q@ g. s  <  <  <  (  (  G  n# n# M  '. >$ >$ y  .. 6. 6. 6. 6. 6. 6. 6. 6. o# p# o# o# o# o# q# q# q# q# r# r# r# r# r# q# .$ ,$ .$ .$ '$ '$ )$ )$ w# w# x# x# y# y# !$ !$ F# C# A# T  T  T  [. [. T  T  T  T  T  T  T  T  A# B# C# B# [. T  [. A# z# z# z# T  [. A# A# S  I@ N+ N+ N+ N+ h+ h+ h+ Y  7. 8. [  [  R  F  z  h+ h+ h+ h+ h+ h+ h+ h+ Y  6. '. y  y  '. 6. z  P  i. F  _  =@ *@ W# H# I# I# I# I# M# I# M# >@ ^  ^  ^  q+ R# q+ ~$ &$ p+ p+ p+ l+ l+ l+ {$ {$ ]  ]  ]  ]  ]  ]  ]  ]  ~  ~  ~  ~  ~  ~  ~  ~  !  -  u  >  -  !  -  u  !  !  !  !  !  !  !  8  t  +  +  +  +  +  +  +  +  +  +  +  +  +  +  +                          +  +           .  $  ",
";@ ;@ ;@ ;@ -@ ~@ {@ {@ {@ ~@ -@ ;@ =@ =@ ;@ S# S# Y# )# d# d# ;$ e# ]$ ;$ Y# ;@ ;@ ;@ ;@ ;@ ;@ ;@ -@ -@ -@ ;@ =@ =@ *@ *@ =@ =@ =@ =@ =@ =@ =@ =@ ;@ ;@ ;@ ;@ ;@ ;@ ;@ ;@ S# Y# X# W# M# W# X# )# X# X# X# X# X# X# X# *@ b@ d+ d+ d+ d+ d+ d+ d+ D  D  D  D  D  D  D  D  r  r  r  r  r  r  r  r  O. }  r  q  q  q  q  r  r  r  r  r  r  r  r  r  r  r  r  r  r  r  r  r  N  O  O  4  _. q@ q@ q@ }  s  (  E  E  (  (  ^$ ^$ 0. Y  y  >$ >$ y  Y  h+ h+ h+ h+ h+ h+ h+ 7.  $ /$  $  $  $  $ u# u# u# u# v# v# v# v# v# v# u# ,$ .$ .$ '$ '$ ($ )$ ($ ($ y# y# y# y# !$ !$ D# F# B# T  z# T  [. A# [. [. [. [. [. [. [. [. [. B# C# B# [. T  [. B# +. ,. ,. z# T  [. A# A# Z@ 4. 4. 4. 4. 4. 4. 4. M+ N+ '. '. '. '. h+ 6. h+ h+ h+ h+ h+ h+ h+ h+ .. 6. '. 6@ 6@ '. 6. G  F  F  F  _  =@ *@ X# X# W# b@ W# b@ G  b@ (  d+ }  p  p  p  p  p  &$ K+ _$ m+ m+ m+ m+ m+ m+ :$ ]  ]  ]  ]  ]  ]  ]  ]  ]  ]  ]  ]  ]  ]  ]  ]  !  >  u  >  -  -  >  d  -  -  -  -  -  -  -  =  t  +  +  +  +  +  +  +  +  +  +  +  +  +  +  +                          +  +           +  b  ",
";@ =@ =@ ;@ ;@ -@ -@ ~@ ~@ {@ {@ ~@ -@ -@ -@ S# S# a# S# d# d# e# U# <$ e# Y# ;@ ;@ ;@ ;@ ;@ ;@ ;@ ~@ ~@ -@ -@ ;@ =@ =@ =@ =@ =@ =@ =@ =@ =@ =@ =@ ;@ ;@ ;@ ;@ ;@ ;@ ;@ ;@ =$ Y# W# M# X# =$ [$ b# X# X# X# X# X# X# X# *@ b@ d+ d+ d+ d+ d+ d+ d+ D  D  D  D  D  D  D  D  r  r  r  r  r  r  r  r  O. }  r  q  q  q  q  r  r  r  r  r  r  r  r  r  r  r  r  r  r  r  r  r  N  N  N  _. _. q@ s  s  g. i. _  :  :  _  c+ a. z  z  a. 7. 8. 8. c+ 7. 7. 7. 7. 7. 7. 7. 7. 7.  $  $  $  $ u# u# u# u# v# v# }$ }$ }$ }$ }$ v# q# u# v# v# w# w# x# y# y# y# !$ !$ !$ !$ !$ !$ |$ 1$ 2$ 3$ 4$ 3$ 5$ 6$ 5$ 5$ 5$ 5$ 5$ 5$ 5$ 5$ 5$ 6$ 2$ 2$ 5$ 5$ 6$ 2$ 4$ 4$ 4$ 3$ 3$ 3$ 3$ [. Z@ 4. Z@ Z@ Z@ Z@ Z@ Z@ Z@ I@ %. J@ +. ,. z# Z@ N+ h+ h+ h+ h+ h+ h+ h+ .. 6. '. 6@ 6@ '. 6. .. Y# Y# )# )# _  _  <  <  (  q  (  q  7$ q  8$ q  ]  *$ *$ *$ ]  ]  p  ]  d+ d+ d+ d+ d+ d+ m+ m+ ]  ]  ]  ]  ]  ]  ]  ]  ]  ]  ]  ]  ]  ]  ]  ]  -  >  >  >  -  -  d  f  -  -  -  -  -  -  -  =  t  t  t  t  t  t  t  t  t  t  t  t  t  t  t  t                          +              +  .  ",
"=@ -@ -@ ;@ ;@ ;@ ;@ ;@ ;@ {@ {@ ~@ ~@ ~@ ~@ =$ =$ a# =$ e# e# U# 9$ 0$ U# S# -@ -@ -@ -@ -@ -@ -@ -@ -@ -@ -@ ;@ ;@ ;@ ;@ ;@ ;@ ;@ ;@ ;@ ;@ ;@ ;@ ;@ ;@ ;@ ;@ ;@ ;@ ;@ ;@ S# )# W# X# S# [$ a$ b$ )# )# )# )# )# )# )# )# b@ d+ d+ d+ d+ d+ d+ d+ D  D  D  D  D  D  D  D  r  r  r  r  r  r  r  r  O. }  r  q  q  q  q  r  r  r  r  r  r  r  r  r  r  r  r  r  r  r  r  r  N  N  N  _. _. q@ s  s  s  q  /  /  /  (  z  7. c+ 7. a. a. z  a. a. 7. 7. 7. 7. 7. 7. 7. 7. 7. ,$ ,$ ,$ .$ .$ .$ .$ w# w# w# x# x# x# x# x# x# r# q# v# v# w# w# x# x# c$ c$ d$ d$ !$ !$ !$ e$ 1$ f$ 6$ 3$ 3$ 3$ 5$ 5$ 6$ 6$ 6$ 6$ 6$ 6$ 6$ 6$ 3$ 6$ 2$ 2$ 5$ 5$ 6$ f$ 5$ 5$ 5$ 5$ 3$ 3$ 3$ T  K@ $@ K@ K@ K@ K@ K@ [. T  3$ 4$ 4$ g$ g$ h$ 3$ N+ h+ h+ h+ h+ h+ h+ h+ Y  6. '. y  y  '. 6. Y  ;$ )# )# )# _  _  _  i$ j$ j$ k$ j$ j$ j$ j$ q@ {$ l$ l$ l$ d  d  C  C  &. &. d+ d+ d+ d+ _$ _$ p  ]  ]  ]  ]  ]  ]  ]  ~  ~  ~  ~  ~  ~  ~  ~  -  >  >  -  !  >  b. v  >  >  >  >  >  >  >  m  8  t  t  t  t  t  t  t  t  t  t  t  t  t  t  t                                      +  +  +  ",
"S# Q# a# a# =$ S# S# Y# Y# ;@ -@ -@ ~@ ~@ ~@ S# S# S# =$ U# U# U# -$ 0$ U# S# S# S# S# S# S# S# S# Y# Y# S# S# S# S# S# =$ -@ -@ -@ -@ -@ -@ -@ -@ =@ =@ =@ =@ =@ =@ =@ =@ Y# )# )# )# S# m$ 9# b# )# )# )# )# )# )# )# )# b@ b@ b@ b@ b@ b@ b@ b@ >@ >@ >@ >@ >@ >@ >@ >@ r  r  r  r  r  r  r  r  O. }  r  q  q  q  q  r  /  /  /  /  /  /  /  /  /  /  /  /  /  /  /  r  N  N  N  _. q  s  s  s  /  s+ A  `# `# B  ^$ z  <  _  _  _  <  <  _  _  _  _  _  _  _  _  _  a. ,$ .$ .$ w# w# w# w# x# x# x# n$ n$ n$ n$ n$ x# w# w# x# x# y# y# d$ d$ o$ o$ p$ q$ q$ e$ e$ e$ 5$ 5$ 5$ 3$ 3$ 3$ 3$ 3$ 6$ 6$ 6$ 6$ 6$ 6$ 6$ 6$ 3$ 5$ 2$ 2$ 5$ 5$ 2$ f$ 5$ 5$ 5$ 5$ 6$ 6$ 6$ A# K@ K@ K@ K@ [. [. [. 5$ g$ r$ s$ t$ t$ s$ u$ g$ I@ N+ N+ N+ N+ N+ N+ N+ N+ N+ N+ N+ N+ N+ N+ N+ V# v$ ;$ )# _  _  i$ w$ k$ x$ y$ x$ k$ k$ j$ q@ :$ z$ z$ A$ b. e  4  4  O  O  N  r  D  >@ I# p+ p  ]  ]  ]  ]  ]  ]  ]  ~  ~  ~  ~  ~  ~  ~  ~  >  >  >  -  !  >  b. n  >  >  >  >  >  >  >  m  8  t  t  t  t  t  t  t  t  t  t  t  t  t  t  t                                   +  +        ",
"=$ 8# 8# m$ Q# =$ S# S# Y# *@ =@ ;@ -@ -@ -@ S# Y# )# S# 9$ 9$ -$ e# ]$ U# -$ S# S# S# S# S# S# S# )# Y# Y# S# S# =$ =$ a# ~@ ~@ ~@ ~@ ~@ ~@ ~@ ~@ =@ =@ =@ =@ =@ =@ =@ =@ S# S# Y# )# X# M# 0# 0# )# )# )# )# )# )# )# )# b@ b@ b@ b@ b@ b@ b@ b@ >@ >@ >@ >@ >@ >@ >@ >@ r  r  r  r  r  r  r  r  O. }  r  q  q  q  q  r  /  /  /  /  /  /  /  /  /  /  /  /  /  /  /  /  r  N  N  _. q  s  s  s  _  :  7. B$ B$ c+ B  8. ^$ /  _  _  _  <  <  _  _  _  _  _  _  _  _  a. .$ w# w# w# w# w# x# x# x# x# n$ n$ n$ n$ n$ n$ y# y# y# c$ c$ C$ o$ o$ o$ p$ p$ q$ q$ D$ D$ D$ E$ 4$ 3$ 5$ 5$ 5$ 3$ 3$ 6$ 6$ 6$ 6$ 6$ 6$ 6$ 6$ 4$ 5$ 2$ 6$ 6$ 5$ 2$ 1$ 3$ 5$ 5$ 6$ 6$ 2$ f$ f$ [. K@ K@ [. [. 5$ 5$ r$ F$ G$ H$ I$ I$ J$ K$ F$ z# N+ N+ N+ N+ N+ N+ N+ 4. N+ N+ M+ M+ N+ N+ <$ L$ L$ V# ;$ a. p# w$ w$ y$ y$ y$ k$ k$ M$ M$ q. N$ O$ O$ P$ Q$ i+ 3  3  O  O  N  N  >@ >@ I# p+ p  ]  ]  ]  ]  ]  ]  ]  ;  ;  ;  ;  ;  ;  ;  ;  >  >  >  -  !  >  f  R$ >  >  >  >  >  >  >  >  8  t  t  t  t  t  t  t  t  t  t  t  t  t  t  t                                +  +  +     @  ",
"S# X# )# S# a# a# =$ Y# )# ~@ ~@ ~@ ~@ ~@ ~@ =$ =$ m$ Q# 9$ U# U# U# 0$ 9$ -$ S# S# S# S# S# S# S# S# S# S# S# S# S# S# S# -@ -@ -@ -@ -@ -@ -@ -@ -@ -@ -@ -@ -@ -@ -@ -@ )# )# Y# Y# Y# )# X# W# =$ )# W# Y# Q# Q# )# 0# S$ {@ *@ b@ *@ ;@ =@ b@ b@ b@ >@ >@ >@ q+ q+ q+ r  r  r  r  r  r  r  r  r  r  r  r  r  r  r  r  E  <  P  F  ^  E  /  F  (  (  (  (  (  (  (  (  q  q  q  q  q  q  (  (  G  z  7. c+ '. h+ Y  G  z  z  z  a. a. 7. 7. 7. 7. 7. 7. 7. 7. 7. 7. 7. w# x# x# x# x# x# n$ T$ d$ d$ q$ q$ q$ q$ q$ q$ d$ d$ d$ d$ d$ d$ q$ q$ q$ U$ U$ U$ U$ V$ V$ U$ W$ W$ W$ W$ W$ W$ W$ W$ X$ X$ X$ X$ X$ X$ X$ X$ E$ r$ Y$ r$ g$ r$ Z$ `$ Y$ Y$ Y$ Y$ Y$ Y$ Y$ 2$ A# A# A# 6$ 6$ W$ W$  % G$ .% +% @% #% $% %% &% 4$ I@ I@ Z@ Z@ K@ K@ K@ Z@ Z@ Z@ I@ I@ %. %. *% =% -% ;% e# 7. /$ >% ,% '% )% !% >% ~% A  0@ {% ]% ^% /% (% Q$ >  2  <+ ^# _% :% _. b@ b@ H# H# p  ]  ]  ]  ]  ]  ]  ]  ]  ]  ]  ]  ]  ]  ]  ]  >  >  >  >  >  >  >  >  -  -  -  -  -  -  -  -  m  =  =  8  8  =  =  m  8  8  8  8  8  8  8  t  +  +  +  +  +  +  +  +  +  +  +  +  +  +  +  ",
"=$ a# =$ =$ S# S# S# =$ =$ ~@ ~@ ~@ ~@ ~@ ~@ =$ =$ a# =$ U# -$ -$ U# 0$ <% -$ S# S# S# S# S# S# S# S# S# S# S# S# S# S# S# -@ -@ -@ -@ -@ -@ -@ -@ -@ -@ -@ -@ -@ -@ -@ -@ S# S# S# S# Y# Y# Y# )# S# )# X# Y# m$ 8# a# X# [% )@ ~@ =@ *@ b@ ,@ }% *@ *@ b@ b@ >@ >@ >@ >@ r  r  r  r  r  r  r  r  r  r  r  r  r  r  r  r  (  (  (  /  /  /  (  <  (  (  (  (  (  (  (  (  q  q  q  q  q  q  (  (  A  A  G  z  6. 6. 6. 6. a. a. 7. 7. c+ c+ c+ c+ c+ c+ c+ c+ c+ c+ c+ '. c$ c$ c$ c$ y# y# !$ !$ d$ q$ q$ q$ q$ U$ U$ U$ q$ d$ d$ d$ d$ q$ q$ q$ U$ U$ U$ U$ V$ V$ V$ V$ s$ Y$ Y$ Y$ Y$ Y$ Y$ Y$ Y$ Y$ Y$ Y$ Y$ Y$ Y$ Y$ h$ X$ |% Z$ X$ W$ 1% 2% Y$ Y$ Y$ Y$ Y$ Y$ Y$ Y$ 6$ 6$ 6$ 6$ W$ W$  %  % 3% .% 4% 5% 6% 7% 8% 9% 4$ I@ I@ Z@ Z@ K@ K@ K@ Z@ Z@ Z@ I@ I@ I@ %. *% =% W@ ;% e# 7. /$ ,% ,% 0% a% b% c% ;$ d% e% f% g% h% i% j% k% u  i  l% m% m% n% :% (  b@ #$ H# p  ]  ]  ]  ]  ]  ]  ]  ]  ]  ]  ]  ]  ]  ]  ]  >  >  >  >  >  >  >  >  -  -  -  -  -  -  -  -  m  =  =  8  8  =  =  m  =  =  =  =  =  =  =  *  t  +  +  +  +  +  +  +  +  +  +  +  +  +  +  ",
"9$ T# f# 9$ -$ e# -$ U# Q# ~@ ~@ ~@ ~@ ~@ ~@ =$ =$ =$ S# -$ e# e# -$ 0$ 0$ -$ -$ -$ -$ -$ -$ -$ -$ -$ -$ -$ -$ -$ -$ -$ S# -@ -@ -@ -@ -@ -@ -@ -@ -@ -@ -@ -@ -@ -@ -@ -@ Q# a# =$ S# S# S# S# =$ Y# )# X# S# m$ o% m$ =$ =$ S# )# )# Y# S# )# X# )# )# X# X# X# W# W# b@ r  r  r  r  r  r  r  r  r  r  r  r  r  r  r  r  <  B  p% p% B  G  B  A  G  G  G  G  G  G  G  (  q  q  (  (  (  (  G  G  7. a. 6. Y  Y  Y  6. 6. '. '. '. '. y  y  6@ 6@ 6@ 6@ 6@ 6@ 6@ 6@ 6@ 6@ C$ o$ o$ o$ o$ o$ p$ p$ q$ U$ U$ U$ U$ V$ V$ U$ p$ p$ p$ p$ p$ q% q% q% r% r% r% r% s% s% s% r% t% t% t% t% t% t% t% t%  %  %  %  %  %  %  %  %  % u% v% w% x% t% s$ s$  %  %  %  %  %  %  % W$ W$ W$ W$ W$  %  %  %  % y% t$ z% 9% A% B% +% C% T  Z@ Z@ Z@ K@ K@ K@ K@ Z@ Z@ Z@ Z@ I@ I@ I@ *% D% W@ ;% e# 7. /$ ,% ,% E% F% a. G% H% I% J% &# K% L% M% N% I+ D  O% P% Q% m% n% :% (  b@ #$ H# p  ]  ]  ]  ]  ]  ]  ]  ]  ]  ]  ]  ]  ]  ]  ]  >  >  >  >  >  >  >  >  -  -  -  -  -  -  -  -  m  =  =  8  8  =  =  m  =  =  =  =  =  =  =  *  t  +  +  +  +  +  +  +  +  +  +  +  +  +  +  ",
"9$ R% T# f# 9$ U# U# U# a# =$ ~@ ~@ ~@ ~@ ~@ =$ =$ Q# Q# 9$ U# -$ -$ <$ 0$ U# U# U# U# U# U# U# U# U# U# U# U# U# U# U# =$ =$ ~@ ~@ ~@ ~@ ~@ ~@ ~@ ~@ ~@ ~@ ~@ ~@ ~@ ~@ ~@ m$ Q# =$ S# S# S# =$ =$ S# )# )# Y# Q# m$ Q# =$ M# M# X# Y# =$ a# a# =$ Y# Y# Y# )# )# X# X# *@ (  q  q  q  q  q  q  q  q  q  q  q  q  q  q  q  ^$ ^$ A  B  G  B  A  p% z  z  z  z  z  z  z  z  <  s  <  <  <  <  z  z  S% T% 3# y  6. Y  Y  Y  h+ '. 4. '. $@ y  $@ 6@ $@ y  $@ y  $@ y  $@ $@ o$ o$ o$ o$ o$ U% V% V% q% q% q% q% r% r% r% r% W% V% V% V% W% W% W% W% X% X% X% X% Y% Y% Y% Y% t$ t$ t$ t$ t$ t$ t$ t$ s$ s$ s$ s$ s$ s$ s$ s$ t% Z% v% v% x% t$ s$  %  %  %  %  %  %  %  %  % s$ Y$ Y$ Y$ s$ s$ s$ s$ C% `% `%  & .&  &  % W$ [. K@ K@ K@ K@ K@ K@ K@ K@ K@ Z@ Z@ Z@ I@ I@ +& D% W@ +& e# u#  $ @& @& #& $& %& && *# *& =& -& ;& >& D@ ,& '& *@ )& 0+ !& !& !& n% 8$ b@ ~& H# D  C  C  C  C  C  C  C  ]  ]  ]  ]  ]  ]  ]  ]  u  u  u  u  u  u  u  u  -  -  -  -  -  -  -  -  m  =  =  8  8  =  =  m  m  m  m  m  m  m  m  m  t  +  +  +  +  +  +  +  +  +  +  +  +  +  +  ",
"-$ {& {& {& {& f# 9$ U# Y# =$ ~@ ~@ ~@ ~@ ~@ =$ =$ 9# o% {& c# U# -$ <$ <$ U# U# U# U# U# U# U# U# U# U# U# U# U# U# U# =$ =$ ~@ ~@ ~@ ~@ ~@ ~@ ~@ ~@ ~@ ~@ ~@ ~@ ~@ ~@ ~@ a# a# =$ S# S# S# S# S# =$ Y# )# Y# Y# S# Y# Y# S# =$ =$ =$ Y# X# W# W# Y# Y# Y# Y# )# )# X# *@ (  q  q  q  q  q  q  q  q  q  q  q  q  q  q  q  ]& G  ^& x  8. G  B  G  z  z  z  z  z  z  z  z  <  <  <  <  <  <  z  z  /& (& 3# y  N+ J  J  J  M+ N+ I@ N+ Z@ 4. Z@ $@ K@ $@ K@ $@ K@ $@ K@ K@ !$ q$ q$ q$ p$ p$ W% W% q% q% r% r% r% r% s% r% W% W% W% W% W% W% X% X% Y% Y% Y% Y% _& _& _& Y% t$ t$ t$ t$ t$ t$ t$ t$ t$ t$ t$ t$ t$ t$ t$ t$ t% `% u% u% `% t$ t% t%  %  %  %  %  %  %  %  % s$ s$ s$ s$ s$ s$ s$ s$ r$ Y$ Y$ r$ W$ X$ X$ 5$ [. [. [. [. [. [. [. [. [. [. [. T  T  T  z# :& D% W@ +& e# u#  $ @& @& <& [& }& |& 1& 2& 3& 4& 5& 6& 7& 8& 9& Y# 0& a+ !& !& !& n% 8$ b@ ~& H# D  C  C  C  C  C  C  C  ]  ]  ]  ]  ]  ]  ]  ]  u  u  u  u  u  u  u  u  -  -  -  -  -  -  -  -  >  -  -  !  !  -  -  >  >  >  >  >  >  >  >  m  t  +  +  +  +  +  +  +  +  +  +  +  +  +  +  ",
"-$ 9$ c# {& T# {& c# U# e# =$ ~@ ~@ ~@ ~@ ~@ =$ =$ 9# [$ T# f# 9$ U# 0$ 0$ 9$ 9$ 9$ 9$ 9$ 9$ 9$ 9$ 9$ 9$ 9$ 9$ 9$ 9$ 9$ 9$ a# {@ {@ {@ {@ {@ {@ {@ {@ {@ {@ {@ {@ {@ {@ {@ =$ =$ a# a# a# =$ S# Y# =$ S# Y# )# )# )# )# Y# )# Y# S# S# )# )# Y# =$ Y# Y# Y# )# )# X# X# X# <  s  s  s  s  s  s  s  s  s  s  s  s  s  s  <  p% c+ S% a& x  7. a. c+ a. a. a. a. a. a. a. a. _  _  _  _  _  _  a. a. '. '. h+ 6. M+ M+ N+ N+ %. %. z# I@ T  Z@ T  Z@ T  Z@ T  Z@ T  Z@ T  T  e$ e$ q$ p$ p$ V% b& b& W% W% X% X% X% X% Y% X% c& b& b& b& b& b& c& c& d& d& d& d& e& e& e& d& z% t$ t$ t$ t$ t$ t$ t$ `% `% `% `% `% `% `% `% t$ t% s$ s$ s$ t% t$ `% s$ s$ s$ s$ s$ s$ s$ s$ f& f& f& t% t% t% t% X$ h$ g$ g$ 5$ 1$ E# 2$ z# A# A# A# A# [. [. [. [. A# [. [. [. T  T  T  g& D% W@ +& e# u#  $ @&  $ 3# e% h& i& j& k& l& m& n& o& p& q& r& ]$ s& t& u& v& !& n% 8$ b@ W# H# d+ &. &. &. &. &. &. &. ]  ]  ]  ]  ]  ]  ]  ]  d  d  d  d  d  d  d  d  -  -  -  -  -  -  -  -  >  -  -  !  !  -  -  >  -  -  -  -  -  -  -  =  t  +  +  +  +  +  +  +  +  +  +  +  +  +  +  ",
"0$ <% [& [& [& [& <% <% 9$ =$ ~@ ~@ ~@ ~@ ~@ =$ =$ 8# m$ c# 9$ 9$ 9$ [& [& <% <% <% <% <% <% <% <% <% <% <% <% <% <% <% 9$ a# {@ {@ {@ {@ {@ {@ {@ {@ {@ {@ {@ {@ {@ {@ {@ =$ a# m$ o% 8# Q# S# Y# S# S# S# Y# )# Y# =$ a# w& ~& ;$ ;$ d# e# f# R% ;$ ;$ ;$ ;$ d# d# d# W# <  s  s  s  s  s  s  s  s  s  s  s  s  s  s  <  G  '. 3# 3# 6@ h+ h+ h+ 6. 6. 6. 6. 6. 6. 6. a. _  _  _  _  a. a. a. a. M  .. Y  h+ N+ 4. 4. Z@ T  T  3$ T  5$ [. 6$ A# 6$ A# 6$ A# 6$ A# 6$ 6$ q$ p$ p$ V% b& x& x& y& X% X% Y% Y% Y% Y% Y% X% z& x& x& x& z& z& z& z& A& A& B& B& B& B& B& A& f& t% t% t% t% t% t% t% t$ t$ t$ t$ t$ t$ t$ t$ t$ t% t% t% t% t$ t% t% t% t% t% t% t% t% t% t% f& f& f& f& t% t% X$ X$ W$ 3$ 3$ A# C# 6# A# A# B# B# B# A# A# [. [. [. A# A# [. [. [. T  T  g& D% W@ +& e# u#  $  $  $ (. C& D& E& F& G& H& I& J& K& L& M& N& O& P& Q& u& v& !& n% 8$ b@ W# _$ d+ &. &. &. &. &. &. &. ]  ]  ]  ]  ]  ]  ]  ]  d  d  d  d  d  d  d  d  -  -  -  -  -  -  -  -  >  -  -  !  !  -  -  >  -  -  -  -  -  -  -  =  t  +  +  +  +  +  +  +  +  +  +  +  +  +  +  ",
"<% [& <% 0$ <$ <$ 0$ [& {& =$ ~@ ~@ ~@ ~@ ~@ =$ =$ S# S# -$ U# 9$ c# f# G% <% <% <% <% <% <% <% <% <% <% <% <% <% <% <% <% a# a# a# a# a# a# a# a# a# a# a# a# a# a# a# a# =$ Q# o% 9# 9# 8# a# Y# Y# Y# S# Y# Y# =$ m$ o% a# a# 9$ )# $$ R# ;$ =$ ;$ )# d# X# d# W# ~& W# <  s  s  s  s  s  s  s  s  s  s  s  s  s  s  <  a. .. 0. 0. .. Y  .. M  6. 6. 6. 6. 6. 6. 6. 6. M+ ;$ a. a. _  _  _  a. 6. h+ $@ 5. /. K@ Z@ I@ [. [. e$ 6$ q$ 2$ p$ 2$ p$ Y$ q% Y$ q% Y$ q% q% W% W% b& x& R& S& S& T& X% Y% Y% Y% Y% Y% Y% Y% z& x& z& z& z& z& z& z& A& A& B& B& B& B& B& A& Y% t% t% t% t% t% t% t% t% t% t% t% t% t% t% t% `% `% t$ `% `% t$ s$ G$ t$ t$ t$ t$ t$ t$ t$ t$ f& f& t% t% t% X$ X$ X$ U& 1$ F# F# B# K@ B# D# B# B# 2$ A# 6$ [. 5$ [. 6$ A# 6$ [. 5$ T  3$ T  D% =% +& N+ h+ u# u# N+ V& W& X& Y& Z& `&  * .* +* @* #* $* %* &* s# ** =* -* n% n% 8$ (  W# W# d+ &. d+ &. &. &. &. &. ]  ]  ]  ]  ]  ]  ]  ]  C  d  C  d  C  d  C  d  ;  -  ;  -  ;  -  ;  -  >  -  -  !  !  -  -  >  !  !  !  !  !  !  !  8  t  t  t  t  t  t  t  t  t  t  t  t  t  t  t  ",
"<% <% <% ;* >* ,* +& ,* G% 9$ a# a# a# a# a# a# a# Q# Q# Q# Q# Q# Q# Q# c# <% >* >* '* '* >* >* ;* ;* ;* ;* ;* ;* ;* ;* <% <% 9$ 9$ 9$ 9$ 9$ 9$ 9$ c# c# c# c# c# c# c# c# f# c# U# -$ -$ U# c# f# ~& d# ;$ e# e# e# ;$ X# 8. P  c+ F  7. _  a. <  7. F  7. F  7. F  7. F  _  _  _  _  _  _  _  _  _  _  _  _  _  _  _  _  B  G  G  z  z  G  G  B  a. a. a. a. a. a. a. M+ )* !* ~* ;$ =@ w+ w+ ;@ 6. N+ n$ e$ e$ e$ !$ x# !$ y# {* d$ {* o$ ]* p$ ^* /* (* _* :* <* :* [* :* [* [* :* }* |* }* :* 1* 2* 2* 2* 2* 2* 2* 1* 3* 4* 3* 5* 5* 6* 6* 6* 3* 3* 1* 1* 1* 3* 5* 7* 8* 7* A& Y% Y% d& A& 7* A& A& A& A& A& A& A& A& 7* A& A& d& d& A& z& R& c& c& b& b& b& b& b& b& b& b& b& b& b& 9* 9* 9* p$ p$ p$ p$ p$ o$ p$ p$ q$ q$ U$ q$ U$ q$ U$ q$ q% p$ q% q$ U$ q$ D$ 5$ T  0* Z@ Z@ 4. 4. Z@ [. 2$ a* b* c* d* e* f* g* h* i* j* k* l* z# N+ .$ m* 7$ 7$ 7$ (  G  G  G  ^  }  /  q  q  r  }  }  6  6  6  6  5  5  5  6  &. C  D  ]  p  C  D  &. n* L@ D  ~  {  C  p  ~  -  -  -  -  -  -  -  -  -  -  -  -  -  -  -  -  =  =  =  =  =  =  =  =  =  =  =  =  =  =  =  ",
"<% [& <% ;* >* >* ;* >* G% c# Q# Q# Q# Q# Q# Q# Q# Q# Q# Q# Q# Q# Q# Q# c# <% >* >* '* '* >* >* ;* >* >* >* >* >* >* >* >* <% <% <% <% <% <% <% <% [& [& [& [& [& [& [& [& c# 9$ 9$ U# U# 9$ 9$ c# -$ U# U# e# ;$ ;$ e# S# c+ P  F  F  F  F  F  _  F  F  F  F  F  F  F  F  _  _  _  _  _  _  _  _  _  _  _  _  _  _  _  _  B  G  G  z  z  G  G  B  a. a. a. a. a. a. a. V# o* p* q* v$ p. o. o. w+ 6. I@ r* D$ D$ e$ !$ n$ s* s* s* s* {* {* t* ^* u* v* :* :* w* w* x* y* 2* w* z* x* A* 2* 2* 2* 2* 2* 2* 2* 2* 2* 2* 2* B* 3* 5* 5* 5* 6* 6* 6* 3* 3* 3* 5* 5* 6* 6* C* 8* 8* D* 7* 7* 7* 7* 7* A& A& A& A& A& A& A& A& E* B& A& A& A& A& z& R& c& c& b& b& b& b& b& b& 9* 9* 9* 9* 9* 9* 9* 9* V% V% V% V% V% V% V% V% U$ U$ U$ U$ U$ U$ U$ U$ q% U$ U$ U$ D$ D$ D$ e$ z# I@ I@ Z@ Z@ Z@ T  T  6$ h$ F* G* H* I* J* K* L* M* N*  % 3$ z# N+ h+ G  G  G  G  G  G  .. G  /  /  (  (  q  q  r  r  k  k  k  k  |  |  |  |  D  D  D  D  D  D  D  D  P+ q. {  v+ {  D  D  ]  ;  -  -  -  -  -  -  -  -  -  -  -  -  -  -  -  -  -  -  -  -  -  -  -  -  -  -  -  -  -  -  ",
"<% O* [& ;* >* P* Q* R* '* G% {& {& {& {& {& {& {& c# c# c# c# c# c# c# c# [& >* '* '* '* '* >* >* '* '* '* '* '* '* '* '* <% <% <% <% <% <% <% <% [& [& [& [& [& [& [& [& 9$ 9$ c# c# c# c# 9$ 9$ 9$ f# f# U# ;$ d# -$ Q# 7. F  F  F  P  P  P  P  F  F  F  F  F  F  F  F  _  _  _  _  _  _  _  _  _  _  _  _  _  _  _  _  G  G  z  z  z  z  G  G  a. a. a. a. a. a. a. V# )* S* q* v$ w+ o. o. w+ 6. I@ r* D$ e$ e$ !$ x# T* T* U* V* W* t* X* X* u* v* Y* |* B* 2* Z* `*  = .= += Z* @=  =  =  =  =  =  =  =  =  =  = B* B* #= #= #= $= $= $= $= B* #= $= %= %= %= %= $= &= *= *= *= *= &= == E* B& B& B& B& B& B& B& B& B& B& B& B& A& A& A& A& c& c& c& c& b& b& b& b& 9* 9* 9* 9* 9* 9* 9* 9* 9* 9* 9* 9* 9* 9* 9* 9* U$ U$ U$ U$ U$ U$ U$ U$ U$ U$ U$ D$ D$ -= -= r* z# z# I@ I@ I@ I@ I@ z# [. 3$ G$ N* J$ ;= >= ,= '= z% t% W$ [. I@ M+ 6. G  (  (  (  G  G  G  G  (  <  <  _  _  <  s  q  N  N  N  N  O  O  O  O  {  p  d+ q. q. d+ p  {  D  {  )= )= {  p  p  ~  ;  -  -  -  -  -  -  -  -  -  -  -  -  -  -  -  -  -  -  -  -  -  -  -  -  -  -  -  -  -  -  ",
"[& [& [& >* ;* P* != R* ;* O* f# f# f# f# f# f# f# f# f# f# f# f# f# f# O* >* >* '* P* P* '* >* >* P* P* P* P* P* P* P* P* >* [& [& [& [& [& [& [& O* O* O* O* O* O* O* O* U# 9$ f# {& {& f# 9$ U# e# 9$ {& c# e# ;$ -$ m$ a. _  F  F  P  R  R  R  F  F  F  F  F  F  F  F  _  _  _  _  _  _  _  _  _  _  _  _  _  _  _  _  G  G  z  a. a. z  G  G  a. a. a. a. a. a. a. V# ~= {= ]= ^= w+ o. r@ -@ 6. I@ r* D$ e$ !$ y# x# T* T* U* U* W* W* X* X* u* u* |* 3* $= $= @= += Z* Z* Z* @= /= /= @= Z* /= /= /= /= /= /= /= /= /= #= #= $= $= $= %= %= #= $= %= %= %= $= #= B* &= &= (= (= (= &= == E* E* E* E* E* E* E* E* E* B& E* E* E* E* 7* 7* A& A& z& z& z& z& x& x& x& b& 9* 9* 9* 9* 9* 9* 9* _= _= _= _= _= _= _= _= q% q% q% q% q% q% q% q% U$ U$ D$ D$ -= -= -= -= 4$ z# z# I@ I@ %. %. %. Z@ T  5$ Y$ .% F* +% 4% u$ G$ W$ 6$ K@ 4. 6. z  <  <  <  <  z  z  z  z  <  _  _  F  F  _  g. s  _. _. _. _. 4  4  4  _. v+ p  d+ p. p. d+ p  v+ )= )= )= )= v+ {  v+ ;  ;  -  -  -  -  -  -  -  -  -  -  -  -  -  -  -  -  -  -  -  -  -  -  -  -  -  -  -  -  -  -  ",
"[& ,* P* P* ;* := <= [= 0* O* O* O* O* O* O* O* O* O* O* O* O* O* O* O* O* >* }= [= [= [= [= }= := [= [= [= [= [= [= [= P* >* >* >* >* >* >* >* >* '* '* '* '* '* '* '* O* U# 9$ f# {& {& f# 9$ U# $$ e# c# f# 9$ -$ U# a# 7. F  F  P  R  R  [  [  F  F  F  F  F  F  F  F  _  _  _  _  _  _  _  _  _  _  _  _  _  _  _  _  G  z  a. a. a. a. z  G  a. a. a. a. a. a. a. V# |= 1= =% 2= w+ r@ O+ -@ M+ z# -= D$ e$ !$ y# x# T* U* 3= W* 4= X* v* v* }* }* A* #= 5= 5=  = Z* 6= 7= 8= 9= 0= 9= a= 6= 8= 8= 8= 8= 8= 8= 8= /= /= /= b= b= b= 5= 5= 5= 5= 5= 5= 5= b= /=  = @= c= d= e= f= e= d= g= h= g= g= g= g= g= g= g= g= h= g= c= == == == E* A& A& A& A& z& z& z& z& x& b& b& b& b& b& b& b& b& x& x& x& x& x& x& x& x& q% q% q% q% q% q% q% q% U$ U$ U$ D$ D$ -= -= -= 3$ T  T  z# I@ %. M+ M+ N+ Z@ [. T  h$ h$ C% y% E$ 4$ 5$ A# $@ '. a. (  <  s  s  s  <  <  <  <  a. a. F  F  F  F  g. g. q  q  _. _. _. _. _. _. v+ p  d+ p. p. d+ p  v+ v+ v+ {  v+ )= )= )= 7  ;  -  -  -  -  -  -  -  -  -  -  -  -  -  -  -  -  -  -  -  -  -  -  -  -  -  -  -  -  -  -  ",
"O* ,* i= j= P* := R* [= g& >* [& [& [& [& [& [& [& G% G% G% G% G% G% G% P* }= }= [= [= [= [= }= }= [= [= [= [= [= [= [= [= '* '* '* '* '* '* '* '* P* P* P* P* P* P* P* P* [& c# f# f# f# f# c# c# e# e# U# 9$ c# 9$ U# -$ c+ P  P  P  R  R  R  R  F  F  F  F  F  F  F  F  _  _  _  _  _  _  _  _  _  _  _  _  _  _  _  _  z  z  a. a. a. a. z  z  a. a. a. a. a. a. a. ;$ :& D% ;% 2= O+ O+ O+ =$ %. 4$ k= /* D$ !$ y# w# V* V* t* t* X* ^* u* u* }* }* A* B* b= 5= /= l= l= 8= 9= m= n= m= o= l= p= p= p= p= p= p= p= p= p= b= p= b= o= 5= o= q= r= 5= o= b= p= 5= r= q= d= e= e= e= d= d= c= g= c= c= c= c= c= c= c= c= h= g= c= d= d= == E* B& E* 7* 7* 7* 7* R& R& R& c& b& b& b& b& b& b& b& x& x& x& x& x& x& x& x& W% W% W% W% W% W% W% W% q% q% q% U$ U$ U$ D$ D$ W$ 6$ 5$ T  Z@ I@ N+ M+ N+ 5. 5. I@ z# [. 3$ s= 4$ z# T  K@ y  c+ _  s  g. g. g. g. _  _  _  _  z  a. _  F  F  _  _  s  q  q  _. _. _. _. _. _. {  p  d+ q. q. d+ p  {  {  p  p  {  )= )= {  C  ;  -  -  -  -  -  -  -  -  -  -  -  -  -  -  -  -  -  -  -  -  -  -  -  -  -  -  -  -  -  -  ",
"'* >* t= u= v= w= x= y= z= P* P* P* P* P* P* P* P* P* P* P* P* P* P* P* P* }= [= [= R* R* [= [= }= }= }= }= }= }= }= }= }= '* '* '* '* '* '* '* '* P* P* P* P* P* P* P* P* G% O* O* [& [& O* O* G% A= G% <$ ]$ 0$ [& <% -$ `# 8. 8. 8. 8. 8. c+ c+ 7. 7. 7. 7. 7. 7. 7. 7. _  _  _  _  _  _  _  _  _  _  _  _  _  _  _  _  z  a. a. 7. 7. a. a. z  a. a. a. a. a. a. a. ;$ +& =% ^= B= O+ O+ =$ 0$ {.  & C= D= D$ e$ ($ w# {* t* ^* ^* E= E= |* |* A* w* Z* .= 8= p= 8= F= G= G= H= I= J= J= K= G= H= H= H= H= H= H= H= H= L= p= L= o= H= o= K= r= H= p= L= p= K= M= N= O= P= P= Q= R= R= R= R= R= S= S= S= S= S= S= S= S= T= U= V= R= R= d= g= B& E* E* E* 7* 7* 7* 7* R& c& c& c& c& c& c& c& c& c& c& c& c& c& c& c& c& W% W% W% W% W% W% W% W% W% W% W% W% q% q% U$ U$ X$ Y$ Y$ 6$ [. Z@ N+ h+ h+ 5@ 5@ '. N+ 5. K@ J@ Z@ K@ K@ $@ '. 7. _  g. g. W= W= W= g. g. _  _  z  z  a. a. a. _  <  <  r  r  r  r  N  N  N  N  D  D  D  D  D  D  D  D  p  D  D  {  v+ {  q. L@ ;  -  -  -  -  -  -  -  -  -  -  -  -  -  -  -  -  -  -  -  -  -  -  -  -  -  -  -  -  -  -  ",
"'* '* X= Y= Z= `= x=  - `= R* Q* Q* Q* Q* Q* Q* Q* P* P* P* P* P* P* P* P* }= [= [= R* R* [= [= }= }= }= }= }= }= }= }= }= }= '* '* '* '* '* '* '* P* P* P* P* P* P* P* P* Q* G% [& <% <% [& G% .- +- @- <$ #- <$ [& [& <$ 5@ `# `# 8. 8. c+ c+ 7. 7. 7. 7. 7. 7. 7. 7. 7. _  _  _  _  _  _  _  _  _  _  _  _  _  _  _  _  z  a. a. 7. 7. a. a. z  a. a. a. a. a. a. a. ;$ ]$ ;% ^= B= -@ ~@ U# ,* y% $- %- &- /* e$ y# w# *- ^* =- =- E= -- 1* 1* 2* Z* += ;- l= 8= L= G= G= >- ,- ,- F= L= G= F= H= H= H= H= H= H= H= H= L= L= L= H= H= K= K= K= L= L= G= L= '- N= )- !- ~- {- P= Q= R= Q= P= ]- S= S= S= S= S= S= S= S= T= U= V= R= R= V= U= h= g= E* E* E* E* 7* 7* 7* d& c& d& c& d& c& d& c& d& c& d& c& d& c& d& c& W% W% W% W% W% W% W% W% b& b& b& W% W% W% q% q% t$ t% X$ 2$ A# K@ 4. '. 7. ^- ^- c+ '. 5@ 5. J  /. 5. $@ '. c+ F  h. g. W= W= W= W= g. g. _  _  G  z  z  a. a. z  <  (  /  r  r  r  N  N  N  N  d+ D  D  p  p  D  D  d+ {  p  D  {  {  D  P+ /- ;  -  -  -  -  -  -  -  -  -  -  -  -  -  -  -  -  -  -  -  -  -  -  -  -  -  -  -  -  -  -  ",
"'* }= }= `= `= `= `= `= `= R* R* R* R* R* R* R* R* [= <= R* (- g& }= [= z= `= `= `= `= `= `= `= `= x= x= x= x= x= x= x= [= R* R* R* R* R* R* R* R* [= [= [= [= [= [= [= P* ;* ;* ;* ;* ;* ;* ;* ;* i= _- P* ;* ,* ,* >* O* y  8. 8. 8. 8. 8. 8. 8. 8. 8. 8. c+ c+ 7. 7. 7. P  P  P  P  P  P  P  P  _  _  _  _  _  _  _  _  7. 7. 7. 7. 7. 7. 7. 7. 7. 7. 7. c+ c+ 8. 8. =$ ~& :- B= 2= =$ {& ;* <- [- }- |- 1- <* p$ y# 2- W* v* u* E= |* |* A* w* b= @= ;- 3- F= H= 4- 5- 6- 7- 8- 4- 4- 4- 4- 8- 4- 5- 9- 4- 6- 6- 4- 0- 7- 0- a- b- 8- 7- 5- c- 6- 7- 8- 4- 5- 9- 9- J= d- d- d- d- d- d- d- d- d- d- d- d- d- d- d- d- e- e- e- e- e- S= S= S= U= g= g= g= g= E* E* E* == Y% B& f- g- D* e& A& e& d& e& A& e& s% _& A& c& b& b& b& b& b& b& b& W% W% W% W% W% W% W% W% t$ h- i- f$ z# S  #@ 6. 8. 8. 8. 8. y  y  y  y  N+ N+ N+ h+ 7. F  h. h. j- j- h. g. _  <  z  z  h+ h+ Y  M  A  A  z  F  ^  ^  }  r  r  q  q  q  v+ v+ {  D  p. p. d+ p  D  D  D  D  D  D  D  C  ]  u  u  u  u  u  u  u  >  >  >  >  >  >  >  >  d  u  >  -  !  !  !  !  -  -  -  -  -  -  -  ",
"'* [= [= x= x= x= x= x= x= y= R* R* R* R* R* R* R* k- l- R* [= [= [= <= l- x= x= x= x= x= x= x= x= y= y= y= y= y= y= y= y= R* R* R* R* R* R* R* R* [= [= [= [= [= [= [= [= >* >* >* >* >* >* >* >* Q* P* '* >* ;* >* '* G% y  8. 8. 8. 8. 8. 8. 8. 8. 8. 8. c+ c+ 7. 7. 7. P  P  P  P  P  P  P  P  _  _  _  _  _  _  _  _  7. 7. 7. 7. 7. 7. 7. 7. 7. 7. 7. c+ c+ 8. 8. =$ -$ v$ H# H# ;$ ]$ m- n- o- p- q- r- _& q% T$ C$ 4= v* u* E= |* |* A* Z* s- t- H= K= '- b- u- u- 6- 7- 8- 4- 4- 4- 4- 8- 8- 4- 5- 8- v- v- 8- 9- a- 8- w- x- y- v- z- u- A- 4- B- 5- z- 9- C- 0- D- d- d- d- d- d- d- d- d- d- d- d- d- d- d- d- e- e- e- e- e- e- e- S= U= U= U= g= g= g= g= E* E- &= (= F- G- E- *= *= E* E* E* == E* B& B& D* c& b& b& b& b& b& b& b& W% W% W% W% W% W% W% W% F* I$ v% Y$ 4$ 6# 1. '. y  8. 8. 8. y  y  y  $@ N+ N+ h+ h+ 7. F  h. h. j- h. h. _  _  z  z  Y  h+ h+ '. h+ a. z  z  z  ^  ^  ^  r  r  q  q  q  d+ D  p  D  q. q. d+ p  D  D  D  D  D  D  D  C  ]  u  u  u  u  u  u  u  >  >  >  >  >  >  >  >  u  >  >  -  >  >  u  u  -  -  -  -  -  -  -  ",
"}=  -  -  -  - H- H- H-  - y= y= y= y= y= y= y= y=  - I- I-  -  - J- w= K- H- H- H- H- H- H- H- H- H- H- H- H- H- L- L- y= R* R* R* R* R* R* R* R* [= [= [= [= [= [= [= [= P* P* P* P* P* P* P* P* >* >* >* '* '* P* P* G% y  y  y  y  y  y  y  y  y  y  y  '. '. h+ h+ 7. F  F  F  F  F  F  F  F  _  _  _  _  _  _  _  _  a. a. a. a. a. a. a. a. 7. 7. 7. c+ c+ 8. 8. =$ 9$ #$ M- N- O- (- P- Q- R- S- T- U- V- s% !$ W- v* Y* }* |* A* A* .= .= 9= H= G= 7- 4- C- X- X- Y- Y- A- B- B- B- B- B- Y- A- A- Y- Z- Z- A- z- X- `-  ; .; +; @;  ; y-  ; z-  ; z- #; C- #; C- D- D- D- D- D- D- D- D- D- D- D- D- D- D- D- D- $; $; $; $; $; e- e- e- e- S= S= S= S= c= c= c= d= g= c= %; &; e= g= g= h= g= g= h= h= g= g= B& c& b& b& b& b& b& b& b& W% W% W% W% W% W% W% W% B% H$ Z% W$ 3$ F# *; y  y  y  y  y  $@ $@ $@ $@ N+ N+ h+ h+ 7. F  h. h. h. h. F  a. a. Y  Y  Y  M  Y  6. h+ '. h+ z  G  B  /  /  /  (  (  q  q  P+ p. d+ D  d+ d+ D  p  D  D  D  D  D  D  D  C  ]  u  u  u  u  u  u  u  >  >  >  >  >  >  >  >  >  >  >  >  u  d  b. f  -  -  -  -  -  -  -  ",
"[= y= y= y= y= L- L- L- L- y= y= y= y= y= y= y= y= x= |= I- =; -; w= ;; >; H- H- H- H- H- H- H- H- H- H- H- L- L- L- ,; ,;  - <= <= <= <= <= <= <= R* R* R* R* R* R* R* R* [= P* P* P* P* P* P* P* >* >* '* P* P* '* '* >* 5. 6@ 6@ 6@ 6@ 6@ 6@ 6@ y  y  y  '. '. h+ h+ 7. 7. F  F  F  F  F  F  F  F  F  F  F  F  F  F  F  a. a. a. a. a. a. a. a. 7. 7. 7. c+ c+ 8. 8. =$ e# K# '; ); !; ~; {; ]; ^; /; (; _; :; <; q$ _= v* }* |* |* 2* 2* .= 7= G= >- [; [; y- Z- Y- Z- Y- A- B- B- z- z- B- B- A- A- B- B- A- B- z- z- }; |; 1; 2; 3; 4; #; 5; #; #;  ;  ;  ;  ;  ;  ; 6; 7; 7; 7; 7; 7; 7; 7; 7; 7; 7; 7; 7; 7; 7; 7; 8; 8; D- D- D- D- D- d- d- d- d- V= V= V= V= d= 9; 0; a; g= c= g= a; b; 0; 9; a; 0; a; g= h= c; c& b& b& b& b& b& b& b& W% W% W% W% W% W% W% W% u$ z% `% r$ r$ C# 6# $@ $@ $@ $@ $@ K@ K@ [. K@ Z@ 4. 4. '. '. c+ P  i. F  F  7. 6. 6. J  J  J  X  .. M  .. 6. 6. a. z  G  G  (  (  (  (  q  q  d; P+ q. D  D  D  D  {  D  D  D  D  D  D  D  C  ]  u  u  u  u  u  u  u  u  u  u  u  u  u  u  u  >  >  >  >  >  u  d  b. -  -  -  -  -  -  -  ",
"x= y= y= L- L- L- L- L- L- L- L- L- L- L- L- L- L- H- e; f; g; h; ~; ,; i; H- H- H- H- H- H- H- H- H- H- L- L- ,; ,; j; j;  -  -  -  -  -  -  -  - y= y= y= y= y= y= y= R* [= [= [= [= [= [= [= [= [= R* R* [= }= := z= ,* 5. 6@ 6@ 6@ 6@ 6@ 6@ 6@ y  y  y  '. '. h+ h+ 7. 7. F  F  F  F  F  F  F  F  F  F  F  F  F  F  F  a. a. a. a. a. a. a. a. 7. 7. 7. c+ c+ 8. 8. =$ ~& k; l; m; n; o; p; q; r; s; t; u; v; w; x; U$ Y* w* A* 2* @= @= l= 7= H= G= v- y- Y- A- }; y; y; }; z;  ;  ;  ;  ; z;  ;  ;  ; #; A; A; A; A; B; C; D; E; F; G; D; H; I; I; I; I; J; J; J; z; K; K; K; K; K; K; K; K; 6; 6; 6; 6; 6; 6; 6; 6; 8; 8; 8; 8; 8; D- D- D- D- d- d- d- d- V= V= V= S= S= S= V= R= Q= V= T= L; T= M; V- N; R= V= 0; c& b& b& b& b& b& b& b& W% W% W% W% W% W% W% W% f& z% t% W$ W$ 2$ B# Z@ K@ K@ K@ K@ [. [. 5$ 5$ Z@ 4. 4. '. '. c+ c+ P  7. 7. h+ M+ M+ J@ +. +. H  #@ M+ (. .. Y  Y  .. G  G  (  (  (  (  (  (  d; P+ q. D  D  D  D  {  D  D  D  D  D  D  D  C  ]  u  u  u  u  u  u  u  u  u  u  u  u  u  u  u  u  u  >  -  !  !  -  -  -  -  -  -  -  -  -  ",
"y= x= x= ,; ,; ,; ,; ,; ,; L- L- L- L- L- L- L- L- L- j; ~; O; P; ~; ,; H- H- H- H- H- H- H- H- H- f; f; f; H- L- ,; ,; ,; >; >; >; >; >; >; >; >;  -  -  -  -  -  -  -  - [= [= [= [= [= [= [= [= <= <= R* [= := z= (- ,* I  5@ 5@ 5@ 5@ 5@ 5@ 5@ y  y  y  '. '. h+ h+ h+ c+ P  P  P  P  P  P  P  P  P  P  P  P  P  P  P  7. 7. 7. 7. 7. 7. 7. 7. 7. 7. 7. c+ c+ 8. 8. =$ <$ d% d% Q; x= {; R; S; T; U; V; W; _; X; <* W% }* w* A* 2*  =  = l= l= K= 7- Z- Y- B- B- }; y; }; }; z;  ; #; #;  ;  ; #;  ;  ; A; Y; Z; Y; A; `;  >  > `; .>  > +> @> I; I; I; I; D; D; D; D; #> $> $> $> $> $> $> $> %> %> %> %> %> %> %> %> 6; 6; 6; 6; 6; 6; 7; 7; 7; 7; &> &> &> &> R= R= V= Q= R= V= R= ]- Q= U= U= V= S= M; S= *> {- h= c& b& b& b& b& b& b& b& W% W% W% W% W% W% W% W% N* z% s$ s$ X$ f$ 2$ [. [. [. [. 5$ 5$ r$ G$ r$ [. K@ K@ $@ $@ y  y  8. 7. h+ N+ %. %. +. s= +. => 4# I  M+ Y  6. Y  M  z  z  <  <  (  (  (  (  P+ p. d+ D  d+ d+ D  p  D  D  D  D  D  D  D  C  ]  u  u  u  u  u  u  u  d  d  d  d  d  d  d  d  d  u  >  !  !  )  )  )  -  -  -  -  -  -  -  ",
"y=  -  - H- H- H- H- -> -> ;> ;> ;> ;> ;> ;> ;> ;> >> ;> ,> '> '> -> >> )> !> !> !> !> !> !> !> !> i; i; ~; !> !> f; H- H- >; >; >; >; >; >; >; >;  -  -  -  -  -  -  -  - <= <= <= <= <= <= <= <= <= R* }= := z= := := '* I  I  I  I  I  I  I  I  $@ $@ $@ 4. 4. N+ N+ h+ 8. R  R  R  R  R  R  R  P  P  P  P  P  P  P  P  c+ c+ c+ c+ c+ c+ c+ c+ 7. 7. 7. c+ c+ 8. 8. =$ .- ~> {> ]> ^> /> (> _> :> <> [> }> |> 1> E* z& }* A* @= @=  =  = l= >- 8- 7- Z- Y- z; z; y; 2> +> J; I; I; D; D; I; I; I; J; J; 3> B; 4> `; D; 5> 6> 7> 8> 9> 7> 6> 0> 7> 0> 0> a> a> b> b> B; c> d> d> d> d> d> d> d> %> %> %> %> %> %> %> %> e> e> e> e> 6; 6; 6; 6; f> f> g> g> g> g> g> g> U= R= V= T= S= P= Q= N; S= Q= V= N; V= h> i> h= c& b& b& b& b& b& b& b& W% W% W% W% W% W% W% W% N* .% G$ t% j> |$ 1$ f$ 5$ 5$ 5$ r$ G$ G$ u$ G$ 5$ K@ K@ $@ $@ y  y  y  h+ h+ N+ %. ,. s= s= s= k> 9@ 4. M+ '. y  '. Y  a. a. a. z  <  (  (  (  d+ D  p  D  q. q. d+ p  D  D  D  D  D  D  D  C  ]  u  u  u  u  u  u  u  d  d  d  d  d  d  d  d  u  >  >  -  -  -  >  >  -  -  -  -  -  -  -  ",
"y= >; >; f; f; f; f; f; ,> ;> ;> ;> ;> ;> ;> ;> ;> o; l> o; )> )> ,> '> -> ~; m> ~; ~; ~; ~; ~; ~; n> o> o> p> q> o; '> !> f; >; >; f; f; f; f; f; H- H- H- H- H-  -  -  - r> r> r> s> s> s> s> s> t> u> v> w> z= >* *; x> S  I  S  I  S  I  S  I  K@ $@ K@ 4. Z@ N+ I@ N+ `# [  [  [  [  [  `# `# c+ c+ c+ c+ c+ c+ c+ c+ y  y  y  y  y  y  y  y  h+ h+ h+ '. .$ y  '$ y  A= @- _- (- y> @% z> A> B> C> D> E> F> K= B* Y* w* .= @= a= a= a= F= x- 9- z- B-  ; A; 3> I; +> +> J; I; D; D; D; D; I; J; +> +> D; `; 4> .> 5> G> H> I> 5> 0> b> .> 3> a> a> H> J> K> L> M> N> O> P> P> P> P> Q> Q> Q>  ; R> R> %> %> %> %> %> 6; e> e> e> 6; 6; 6; 6; f> f> f> g> f> g> f> g> d- P= Q= U= V= {- ]- U= T= R= S= L; S= h> i> 9; d& c& c& c& c& c& c& c& X% X% X% X% X% X% X% X% f& u$ C% t% |% 2% |% S> r$ r$ r$ G$ G$ u$ u$ G$ 5$ [. K@ K@ $@ $@ $@ y  N+ N+ I@ %. ,. s= s= +. Z@ X  L  (. y  3# 5@ c+ a. a. a. <  <  (  (  (  v+ v+ {  D  p. p. d+ p  D  D  D  D  D  C  D  C  ]  u  ]  u  ]  u  ]  u  C  d  C  d  C  d  C  d  >  m  >  >  u  d  b. f  -  -  -  -  -  -  -  ",
"r> T> T> T> T> T> U> r> V> ,; L- L- H- !> ~; ~; i; f; f; f; f; f; f; f; f; m> W> X> Y> V> m> Z> `>  , ., +, @, .% M* #, $, !> L- f;  , %, &, *, =, -, -, ;, ;, ,> f; f; >, ,, ', ), !, ~, {, ], ^, /, (, _, :, }= 1. <, [, }, 6# C# 6# C# 6# C# 6# A# K@ T  Z@ [. 6# D# |, '$ 1, 1, 1, 1, 1, '$ '$ .$ [, 2, u# 3, v# v# X  4. <$ 4. 4. 4. 4. w# w# r# 3, ($ 4, 5, 6, 7, 8, 9, 0, *; W  {. D$ r% _& 0; ;- 7= l= a, b, c, c, d, e, f, g, g, h, i, j, j, k, l, m, n, o, p, q, r, r, r, s, s, t, t, t, t, t, t, t, t, t, t, 7> u, v, w, x, a>  > y, z, A, B, C, D, E, F, G, H, I, J, K, L, M, N, O, P, Q, 0> D;  ; %> f> J* R, K; C- C- z- z- B- B- B- C- z- A- 6- Y- 8- z- 0- D- d- d- d- d- d- V= V= V= V= d= c= c= g= g= E* _& 7* 7* Y% Y% 7* D* d& D* 7* A& d& d& d& d& A& s% r% r% r% r% r% r% q% V$ V$ V$ V$ V$ V$ V$ U$ [. K@ K@ Z@ Z@ I@ I@ N+ Z@ Z@ Z@ Z@ Z@ T  T  Z@ N+ h+ h+ h+ h+ h+ 7. 7. a. _  _  _  _  g. g. g. <  <  <  <  s  s  s  s  N  N  N  N  N  O  N  N  6  6  O. 6  O. 6  O. 6  }  k  }  k  }  k  }  k  ,  #+ ,  ,  ,  ,  ,  ,  m  m  >  -  -  !  !  ",
"U> U> T> W& T> U> S, S, r> f; f; f; f; f; f; !> !> f; f; f; f; f; f; f; >, T, U, V, V, W, X, Y, Z> )> Z, `, H$ F* M*  ' z% o; ~; '> ,> .' +' @' #' $' $' -, ;, ;, ,> f; >, %' &' *' =' -' ;' >' ,' '' o& M& )' [= <, !' ~' }, C# C# C# C# C# C# C# B# A# [. T  [. B# F# x> '$ 1, 1, 1, '$ '$ '$ '$ {' )$ ]' )$ x# C$ ^' *; Z@ 0* Z@ Z@ Z@ Z@ x# x# }$ /' T* (' _' :' <' [' }' |' C$ 1' !$ d$ t* ]* ^* ^* 2' 3' 4' 5' 6' 7' e, e, 8' g, h, h, j, j, l, 9' s, 0' a' b' c' d' p, r, s, s, s, t, t, t, t, t, t, t, t, t, t, I> e' f' g' J> h' .> y, i' G; j' k' l' m' n' o' p' q' r' s' t' u' v' w' x' y' z' a> 3> K; A' B' B' K; C- C- z- z- z- B- B- B- B- A- B- C- C' D' E' D- D- d- d- d- d- V= V= V= V= d= c= c= c= E* E* B& &= &= e& e& == E* _& E* B& e& e& _& _& _& Y% s% r% r% r% r% r% r% r% V$ V$ V$ V$ V$ V$ V$ U$ A# /. /. /. K@ K@ Z@ Z@ Z@ Z@ Z@ Z@ Z@ Z@ Z@ 4. N+ h+ h+ h+ h+ h+ 7. 7. _  _  _  _  g. g. g. g. <  <  <  <  s  s  s  s  N  N  N  N  O  O  O  O  O. O. O. O. O. O. O. O. }  }  }  }  }  }  }  k  ,  #+ #+ #+ ,  ,  ,  ,  m  m  >  -  -  -  !  ",
"F' V> G' Y> F' V> H' V> G' o; '> '> '> ,> ,> -> -> ,> ,> ,> ,> ,> ,> ,> I' J' K' L' M' N' O' P' Q' ;, R' $, N* M* S' I$ H$ ,> !> ;> T' .' U' V' W' $' $' -, ;, ;, ,> f; >, X' Y' Z' `'  ) .) +) @) #) $) %) X& R* &) *) =) }, C# C# C# C# C# C# C# F# C# A# [. [. A# C# -) '$ 1, '$ '$ '$ '$ ($ ($ v# 4, ;) y# /' 1' T$ z# Z@ 0* Z@ Z@ Z@ Z@ x# x# y# /' _' (' s* >) (' ,) ') )) n$ !$ p$ p$ 4= 4= v* v* !) ~) {) ]) 6' ^) f, 8' /) /) () j, _) _) :) <) [) }) |) 1) 2) 3) q, s, s, t, t, t, 4) 4) 4) 4) 4) 4) 4) 4) 4) 0> K> 5) w, 6) 8> 7) 8) 9) 0) a) b) c) d) e) f) g) h) i) j) k) l) m) n) o) p) q) b> .> #> $> r) r) s) A; #; #; #;  ;  ;  ;  ;  ;  ; #; t) u) v) E' D- D- D- D- d- d- V= V= V= V= d= d= c= c= c= g= == (= *= E* B& &= == e& B& B& e& e& _& _& _& Y% s% r% r% r% r% r% r% r% V$ V$ V$ V$ V$ V$ V$ U$ C# 6# S  S  /. /. /. /. Z@ Z@ Z@ Z@ Z@ Z@ Z@ 4. N+ h+ h+ h+ h+ h+ 7. 7. a. a. _  _  _  _  g. g. (  (  (  (  (  (  q  q  N  N  N  N  O  O  O  O  O. O. O. O. O. O. O. O. }  }  }  }  }  }  }  k  u  ,  ,  ,  ,  ,  ,  ,  >  >  >  >  -  -  -  ",
"G' H' G' Y> G' H' w) V> F' '> '> '> '> '> '> '> '> '> '> '> '> '> '> '> x) y) z) A) B) C) D) D) N' E) %, $, I$ #, F) M* Z% f; i; -> ;> G) H) I) J) K) K) L) R' R' '> !> V> V, M) N) O) P) Q) R) S) T) U) V) W) R* &) *) =) ;) F# F# F# F# F# F# F# F# F# B# A# A# A# A# S  |# c% |# |# |# |# )$ )$ X) 4, c$ }$ }$ c$ n$ $. K@ ,* K@ K@ K@ K@ y# y# c$ 1' _' Y) (' T* T* }, y# Z@ n$ d$ V% p$ X* 4= v* v* Z) !) {) ]) `) ^) g, g, /) h, j,  ! _) .! +! s, @! d' #! $! %! 1) [) t, [) t, &! 4) &! <) *! <) *! <) *! <) *! a> J> =! -! ;! >! E; ,! '! )! !! ~! {! ]! ^! /! (! _! :! <! [! }! |! 1! 2! 3! p) H> a> 4! #> $> $> t) A; A; A; #; #; #; #; t) A; #;  ; z;  ;  ; C- 6; 7; 7; 7; &> &> &> R= R= R= d= d= d= c= c= c= E* *= *= E* == (= (= == B& E* E* E* B& B& e& Y% Y% X% X% X% X% X% X% X% r% r% r% r% r% r% r% q% C# S  S  S  /. /. /. K@ Z@ Z@ Z@ Z@ Z@ Z@ Z@ Z@ N+ h+ h+ h+ h+ h+ 7. 7. a. a. _  _  _  _  g. g. (  (  (  (  (  (  q  q  _. _. _. _. 4  4  4  _. }  }  }  }  }  }  }  }  }  }  }  }  }  }  }  k  u  ,  ,  ,  ,  ,  ,  ,  u  u  >  >  >  -  -  ",
">, m> V> >, V> w) w) V> F' -> -> ,> '> o; o; q> q> '> '> '> '> '> '> '> x) 5! 6! 7! 8! 9! 0! a! b! =, L) $, F) c! f& t% Z% p> d! q> e! f! g! h! i! K) K) L) R' R' '> !> V> V, j! k! l! m! n! o! p! q! r! s! t!  - u! v! w! W- 1$ 1$ 1$ 1$ 1$ 1$ 1$ 1$ 1$ f$ 2$ 6$ 6$ 6$ A# )$ |# )$ )$ )$ )$ c$ c$ c$ }$ x! T$ y! z! A! E# K@ 0$ $@ $@ $@ $@ ($ ($ 4, v# B! C! w! D! E! }$ /' T  q$ q$ U$ U$ u* v* Y* Y* F! {) d, G! ^) H! g, h, () j, _) .! r, r, p, [) 1) %! I! J! K! L! |) &! M! &! Q, *! Q, *! Q, *! Q, *! Q, *! Q, N! O! x, N! P! Q! R! S! T! U! V! W! X! Y! Z! `!  ~ .~ +~ @~ #~ $~ %~ &~ *~ w' =~ -~ ;~ D; A; A; A; t) t) t) t) A; A; A; #; Y; t) #; z; }; y; >~ Z- 6; 7; 7; 7; 7; &> &> &> R= R= R= V= d= d= c= c= e& == &= E* == ,~ E- (= == &= &= &= &= == E* A& Y% X% X% X% X% X% X% X% r% r% r% r% r% r% r% q% 2$ A# A# A# [. [. [. T  T  T  T  T  T  T  T  Z@ N+ N+ N+ N+ h+ h+ h+ h+ a. a. _  _  _  _  _  _  G  G  (  (  (  (  q  q  q  q  _. _. _. _. _. _. }  }  }  }  }  }  }  }  }  }  }  }  }  }  }  k  u  u  u  u  u  u  u  u  u  u  u  >  >  >  -  ",
"V> V> m> w) w) w) m> V> >, ;> -> ,> '> o; q> l>  , o; o; o; o; o; o; o; '~ )~ !~ ~~ {~ ]~ ^~ /~ a! $' L)  ' F) M* z% u% v% ~; p> o;  , (~ _~ :~ V' <~ <~ [~ }~ }~ o; ~; m> |~ 1~ 2~ 3~ 4~ 5~ 6~ 7~ 8~ 9~ 0~ t!  - D# v! ]' a~ U& U& U& U& U& U& U& f$ f$ f$ 2$ 2$ 6$ 6$ [. X) 2, X) X) X) X) C$ C$ }, x# x! b~ c~ d~ e~ A# /. <% 5. 5. 5. 5. )$ )$ 4, ($ E! C! w! w! C! 1' n$ f$ 9* U$ D$ r% E= Y* }* w* {) G! a, f~ g~ h~ h, () j, _) .! r, s, q, @! i~ Q, j~ y' k~ l~ m~ n~ M! Q, Q, Q, z' z' z' z' z' z' z' z' z' z' z' o~ p~ q~ h' t, r~ s~ t~ u~ v~ w~ x~ y~ z~ A~ B~ C~ D~ E~ F~ G~ H~ I~ J~ m) K~ L~ M~ 7> D; 3> A; Y; Y; Y; t) t) t) A; A; A; #; #; #; #; #;  ;  ; %> f> f> f> f> f> g> g> g> R= R= R= d= d= d= d= e& == &= E* == ,~ E- *= &= *= (= (= (= *= == 7* d& c& c& c& c& c& c& c& X% X% X% X% X% X% X% W% 6$ A# A# A# [. [. T  T  T  T  T  T  T  T  T  T  I@ N+ N+ N+ h+ h+ h+ h+ a. a. a. _  _  _  _  _  z  z  <  <  <  <  <  s  s  s  q@ q@ q@ q@ q@ q@ r  r  r  r  r  r  r  r  }  }  }  }  }  }  }  }  ]  u  u  u  u  u  u  u  d  u  u  u  >  >  >  ",
"W, N~ `> O~ P~ Z> I' I' Q~ ;, R' R' }~ }~ %, %, %, }~ }~ }~ }~ }~ }~ }~ R~ S~ T~ U~ V~ W~ X~ Y~ Z~ K) `~  { F) I$ w% h- h- L- ~; o; ,> .{ +{ @{ @' <~ <~ [~ }~ }~ o; ~; m> #{ ${ %{ &{ *{ ={ -{ ;{ >{ ,{ '{ ){ L- D# !{ ^' a~ U& U& U& U& U& U& U& 2$ 2$ f$ f$ 2$ 2$ 6$ A# C$ X) C$ C$ C$ C$ o$ o$ U% o$ r* ~{ r* V% e$ #. /. ;* /. /. /. /. c$ c$ }, C$ Y) Y) (' {{ Y) }$ q$ j> x& V$ /* Y% |* y* A* @= G! f~ ]{ ^{ /{ /{ ({ _{ :{ <{ [{ }{ |{ 1{ 2{ 3{ 4{ 5{ 6{ 7{ 8{ 9{ 0{ 0{ 0{ 4{ 4{ 4{ a{ a{ a{ a{ a{ a{ a{ a{ a{ i~ H> P> q~ G; b{ [) c{ d{ e{ f{ g{ h{ i{ j{ k{ l{ m{ n{ o{ p{ q{ r{ s{ t{ u{ v{ w{ x{ Q, *! <) <) B; B; `; `; `; .> .> .> J; I; D; 3> .> .> .> t) %> %> %> %> f> f> f> g> g> g> R= R= R= V= V= d= E* *= *= E* E* *= *= E* == &= *= (= (= &= E* A& d& c& c& c& c& c& c& c& X% X% X% X% X% X% X% W% f$ C# B# B# A# A# A# A# T  T  T  T  T  T  T  T  I@ I@ N+ N+ N+ N+ h+ h+ 6. a. a. a. a. a. _  _  a. a. a. a. a. _  _  _  s  s  s  s  q@ q@ q@ q@ r  r  r  r  r  r  r  r  }  }  }  }  }  }  }  }  ]  ]  ]  ]  ]  ]  ]  ]  d  d  u  u  u  >  m  ",
"W, Y, `> y{ z{ Q~ Y, I' `> %, %, }~ }~ }~ }~ R' R' }~ }~ }~ }~ }~ }~ }~ R~ A{ B{ C{ D{ E{ X~ F{ 0! G{ V' 7% $, M* H{ w% u% f; d! Z, q> *, [~ I{ J{ <~ <~ [~ }~ }~ o; ~; ~; K{ L{ M{ N{ O{ P{ Q{ R{ ,{ '{ S{ X, L- |$ T{ a~ U& U& U& U& U& U& U& U& 6$ 2$ 2$ f$ f$ 2$ 2$ 6$ C$ C$ C$ C$ C$ C$ o$ o$ U{ p$ 9* e$ r* U$ W% X$ A# ;* A# /. A# /. d$ c$ U% }, *- Y) {* {{ V{ !$ U$ `% z& <* <* B& A* W{ @= l= f~ X{ ^{ ^{ Y{ Y{ _{ Z{ <{ `{ `{  ] 1{ .] .] +] @] #] $] %] &] *] =] 0{ =] 4{ +] a{ -] a{ -] a{ -] a{ -] a{ -] q) ;] >] b> H; ,] &! '] )] !] ~] {] ]] ^] /] (] _] :] <] [] }] |] 1] 2] 3] 4] 5] 6] 7] y' z' d' 8] B; B; B; `; `; .> .> .> J; I; D; D; 3> 3> 3> #; R> %> %> %> f> f> f> f> g> g> g> R= R= V= V= d= e= ,~ (= E* B& E* B& c; E* == *= (= *= == B& d& d& c& c& c& c& c& c& c& X% X% X% X% X% X% X% W% 1$ F# F# C# C# B# B# B# T  T  T  T  T  T  T  T  I@ I@ N+ N+ N+ N+ h+ h+ 6. 6. a. a. a. a. _  _  7. 7. 7. 7. 7. 7. F  F  <  s  s  s  q@ q@ q@ q@ r  r  r  r  r  r  r  r  }  }  }  }  }  }  }  }  p  ]  p  ]  ]  ]  ]  ]  d  d  d  u  u  >  m  ",
"W, Q~ Q~ Q~ Q~ Q~ Q~ Q~ Q~ R' 9] %, %, 9] 0] a] %, ;, R' %, }~ R' R' }~ i* b] c] d] d] b] e] e] f] g] J{ h] F) F) v% v% v% i; i; q> q> i] i] j] j] j] j] i] %, %, q> i; i; K{ N' Q' k] l] m] n] o] p] q] r] O' ,> |% s] t] 1% 1% 1% 1% 1% 1% 1% 1% r$ r$ r$ W$ W$ W$ W$ 2$ d$ d$ d$ d$ d$ d$ q$ q$ q$ U$ U$ U$ U$ V$ V$ W$ 5$ z= 5$ T  5$ B# p$ d$ r* !$ t* *- u] v] w] x] r% F* <* c; e& B&  = l= l= F= X{ h, i, i, y] y] z] A] B] C] C] C] D] E] F] G] H] I] J] K] L] M] N] O] G] P] Q] E] R] S] N] T] N] O] U] V] R] W] %! G> %! o, X] X] Y] Z] `]  ^ .^ +^ @^ #^ $^ %^ &^ *^ =^ -^ ;^ >^ ,^ '^ )^ !^ ~^ {^ ]^ ^^ o, d' C; 4> 4> D; D; I; `; /^ I; D; 3> `; 4> G; A, 1; R> K; s) K; %> %> A' (^ (^ &> e- d- P= ]- V= 9; d= &= &= &= &= &= &= &= == == == == == == == D* 7* R& R& z& z& c& c& c& X% X% X% X% X% X% X% W% 5$ 1$ S> |$ f$ 5$ 6$ f$ 5$ 5$ 5$ 3$ 3$ 4$ {. ,. Z@ Z@ Z@ Z@ 4. 4. 4. 4. h+ h+ h+ 6. a. z  z  z  0. Y  h+ 6. a. a. G  :  <  <  s  q  q  r  r  r  h. h. g. s  q  }  _^ :^ r  r  r  r  r  r  r  r  D  q. =@ d+ {  v+ ~  &. ]  ]  u  u  ,  ,  ,  ",
"W, Q~ Q~ Q~ Q~ Q~ Q~ Q~ Q~ %, ;, %, }~ <^ %, E) R' R' }~ [^ %, }~ }~ %, a! b] d] d] }^ b] e] |^ f] J{ `~ h] F) F) v% v% v% i; i; q> q> i] i] j] j] j] j] i] %, %, q> i; i; 1^ N' Q' x) 2^ 3^ 4^ 5^ 2^ b! O' ;, ,> Z% S& s] 1% 1% 1% 1% 1% 1% 1% 1% 1% X$ X$ X$ Y$ Y$ Y$ Y$ p$ o$ o$ o$ o$ p$ p$ p$ U$ U$ U$ U$ V$ V$ V$  % W$ 6^ X$ 1% 1% 1% b& W% D$ U$ X* =- 7^ 8^ 9^ y& Y% @% _& e& E* g= 8= F= F= v- h, j, j, j, _{ _{ A] 0^ a^ C] C] b^ c^ H] H] M] d^ e^ f^ f^ g^ h^ i^ j^ k^ l^ K] N] m^ R] J] n^ m^ n^ J] U] d^ o^ p^ P, p^ p^ q^ q^ O] n^ r^ s^ t^ u^ v^ w^ x^ y^ z^ A^ B^ C^ D^ E^ F^ G^ H^ I^ J^ K^ W] 3{ %! 3) L^ /^ H; .> A, /^ 4> M^ A, H; 3> J; N^ +> I; 3> O^ $> $> $> s) s) (^ P^ 7; f> Q^ Q^ &> V= V= V= d= &= &= &= &= &= &= &= == == == == == == == D* 7* R& R& z& z& z& c& c& X% X% X% X% X% X% X% X% Y$ 1$ U& U& f$ 2$ 2$ 2$ 2$ 2$ 6$ 5$ 5$ 5$ 6$ 6$ T  Z@ Z@ Z@ 4. 4. 4. 4. h+ h+ h+ 6. a. a. z  z  h+ '. h+ 6. 7. c+ 8. 8. <  <  <  q  q  q  r  r  q  q  s  s  g. g. s  s  r  r  r  r  r  r  r  r  *@ >@ R^ R^ q+ d+ d+ &. ]  ]  u  u  ,  ,  ,  ",
"x) P' P' P' P' P' N' N' N' `~ -, `~ i] .' =, S^ .{ [~ `~ T^ T^ `~ i] T^ U^ e] V^ V^ V^ e] |^ f] i* J{ `~ h] F) F) F) v% v% p> p> l> l> `~ `~ J{ J{ j] j] i] %, %, q> i; i; W^ }~ %, ;, W^ 1^ &, X^ }~ }~ R' R' ;, W^ H$ u% `% `% `% `% `% `% `% `% u% u% `% `% t$ t% t% X$ 9* 9* 9* 9* 9* b& b& b& r% r% r% r% s% s% s% .% s$ )> t% t% s$ s$ c& R& r% r% E= E= -- -- -- A& e& ;= g= d= d= S= 8= F= 6- Z- () Y^ Y^ Y^ <{ <{ 0^ D] D] b^ b^ Z^ Z^ j^ M] e^ L] `^ g^  / ./ +/ @/ I] @/ m^ #/ $/ e^ i^ %/ J] &/ */ &/ m^ e^ &] K^ =/ p) p) -] F] F] R] L] -/ ;/ >/ ,/ '/ )/ !/ ~/ {/ ]/ ^/ // (/ _/ :/ </ [/ }/ |/ 1/ 3{ i~ 3) >! 2/ 0> a> 5> h' 3/ 7> 9> b> 0> 7> 7> 0> b> B; #> #> #> #> $> $> $> $> $; A' 4/ 5/ d- 6/ d- P= d= &= &= &= &= &= &= &= == == == == == == == D* 7* R& R& R& z& z& z& c& X% X% X% X% X% X% X% X% Z$ 1% Y$ Y$ X$ X$ X$ Y$ 1% X$ Y$ W$ Y$ X$ 1% U& T  T  Z@ Z@ Z@ Z@ 4. 4. N+ N+ h+ h+ 6. 6. 6. Y  6. Y  .. .. .. 6. c+ `# z  <  <  <  (  (  q  r  r  r  q  q  s  s  s  g. }  }  }  }  }  }  }  ^  W# 7/ 8/ H@ q+ q. q. p  ]  ]  u  u  ,  ,  ,  ",
"P' P' P' P' N' N' N' N' Q' i] -, `~ T^ i] S^ 9/ +{ `~ T^ .{ =, T^ T^ =, 0/ 0! a/ b/ b/ 0! 0! a! y) T^ T^ S' S' S' S' w% w% o> o>  ,  , T^ T^ I{ I{ J{ J{ `~ [^ [^ l> p> p> W^ ;, R' R' M* }~ M* ;, I$ %, }~ R' ;, W^ H$ N* u% u% u% u% u% u% u% u% `% `% `% `% `% `% `% `% b& 9* 9* 9* b& b& b& b& X% X% X% X% Y% Y% Y% f& 4% c/ '= J$ 4% 5% c; &= e& e& 2* 2* 2* 2* 2* e& a; ;= d= R= V= 6/ F= v- Y- Y- Y^ Y^ d/ +! [{ `{ D] D] D] c^ c^ j^ G] k^ L] L] e/ `^ f/ g/ h/ i/ j/ k/ f^ l/ e^ m/ &/ L] m/ &/ &/ &/ m/ m/ &/ r^ 6] 3! 6] |/ R] R] R] J] m^ n/ o/ p/ q/ r/ s/ t/ u/ v/ w/ t/ x/ y/ :/ z/ A/ r^ *] +] q^ q^ i~ z' B/ C/ D/ E/ 5> q~ 9> b> B, 6> 0> 9> C/ C/ 8> 4> F/ O^ G/ O^ $> $> s) K; 7; (^ 4/ P^ g> d- &> Q= d= &= &= &= &= &= &= &= == == == == == == == D* D* S& R& R& R& z& z& z& c& c& c& c& c& c& c& c& 2% 1% r$ r$ X$ 1% X$ W$ 1% X$ Y$ W$ Y$ 1% Z$ S> 5$ [. K@ K@ K@ K@ $@ $@ 4. 4. h+ h+ h+ 6. 6. 6. Y  .. 6. y  6@ 6. z  z  a. a. <  <  <  (  q  q  s  q  q  r  }  }  }  }  }  }  }  }  }  }  }  ^  0# H/ H/ 0# M# >@ ,@ v+ C  C  d  d  '  '  '  ",
"P' P' P' P' N' N' Q' Q' I/ i] L) T^ =, `~ S^ J/ G) `~ =, .{ .{ =, =, .{ K/ a! L/ L/ L/ a! y) y) I/ 0] 0] S' S' S' S' S' w% o> o>  ,  , T^ T^ I{ I{ J{ J{ `~ [^ [^ l> p> p> M* $, H$ $, M/ v% N/ @, O/ I$ I$ c! L) -, *, W^ u% u% u% u% u% u% u% u% t% t$ t$ `% `% u% u% u% b& b& b& b& b& b& c& c& Y% Y% Y% Y% _& _& _& @% P/ K) Q/ R/ S/ T/ 9; g= h= h=  = @= @= @= @= a; L; >= V= d- 6/ 1> v- Y- B- }; d/ d/ @! p, }{ |{ b^ U/ U/ V/ W/ X/ Y/ Z/ Z/ `/  ( .( +( @( #( $( %( &( *( `/ =( -( ;( ;( >( =( `/ `/ ,( *( *( '( [/ v~ )( )( %/ J] Y/ Y/ J] !( ~( {( ]( u' ^( /( (( _( :( <( [( }( |( n/ 1( N] R] F] q^ X] %! i~ 2( 7> B, b> 8> b> 8> C/ 9> b> a> a> a> a> b> B; 3( 4( O^ #> c> 5( 6( s) $> s) f> A' P^ P^ Q^ V= d= &= &= &= &= &= &= &= == == == == == == == D* D* S& S& R& R& R& z& z& c& c& c& c& c& c& c& c& 2% 1% r$ r$ X$ 1% X$ W$ Y$ Y$ W$ W$ Y$ X$ j> |$ 5$ [. [. [. K@ K@ K@ K@ 4. 4. 4. N+ h+ h+ 6. 6. 4. 4. %@ 7( 8( 3# 6. Y  a. a. _  <  <  <  (  (  g. s  q  q  q  q  s  g. }  }  }  }  }  }  }  ^  H/ ;$ f# m$ )# ,@ R^ {  C  C  d  d  '  '  !+ ",
"N' P' P' N' N' Q' I/ I/ I/ T^ [~ =, =, L) .{ 9( `~ `~ =, .{ .{ =, =, .{ K/ 0( a( a( a( b( b( b( b( c( c( #, #, #, #, #, #, d( n> d( d( =, =, V' V' I{ I{ T^ 0] 0]  , o> o> S' M* 7* D* T& T& e( f( g( g( I$ c! L) L) -, -, $, Z% Z% Z% Z% Z% Z% Z% `% `% `% `% u% u% u% Z% b& b& b& b& b& b& c& c& d& d& d& d& e& e& e& h( i( j( k( l( m( n( S= M; T= T= a= a= a= l= l= N; L; >= e- e- 1> o( Y- C-  ; z; +! d/ }) p, |{ c{ p( U/ V/ V/ W/ q( Z/ r( *( s( t( u( v( w( x( y( z( A( ,( ,( >( -( -( >( *( B( C( C( ,( *( =( D( E( F( E( `] e/ L] G( G( n^ H( I( J( K( L( M( N( O( P( u' Q( R( S( T( K] U( S] V( Y] X] W( X( %! Y( P! h' 5> b> C/ D/ Z( D/ P! a> 5> 7> h' 2( `(  _ 5( 4( c> ._ +_ @_ 6( d> s) 7; A' #_ $_ %_ S= d= &= &= &= &= &= &= &= == == == == == == == D* 8* S& S& S& R& R& R& R& z& z& z& z& z& z& z& z& Z$ 1% Y$ Y$ X$ X$ X$ Y$ W$ W$ Y$ Y$ Y$ Y$ Y$ 2$ 6$ A# A# A# /. /. /. /. $@ 4. 4. 4. h+ h+ h+ h+ N+ M+ #@ 7( 8( 5@ .. Y  7. a. _  _  <  <  <  <  s  s  s  s  h. r. j# &_ r  r  r  r  r  r  r  /  w& [& @- *_ U# R# q+ q. d+ &. b. b. e  e  =_ ",
"N' P' P' N' N' Q' I/ b( b( `~ <~ J) J) $' J{ J) @' J{ V' J) J) V' I{ J) K/ b( -_ -_ -_ ;_ ;_ ;_ ;_ d( d( #, #, #, #,  { #, e! d! e! e! .{ .{ J) J) I{ I{ T^ 0] 0]  , o> o> #, >_ S& ,_ '_ )_ )_ !_ M/ M/ c! c! [~ [~ <~ L) M* x% x% x% x% x% x% x% ~_ ~_ {_ x% Z% u% `% `% y& y& y& y& R& R& R& R& A& A& B& B& B& B& B& ;= ]_ ^_ /_ (_ __ :_ d- <_ <_ <_ F= F= F= F= F= 1> [_ }_ d- e- o( |_ C- 1_ #; I; }) @! 1) 2_ c{ 3_ 4_ W/ V/ V/ 5_ Y/ 6_ 7_ 8_ z( w( v( 9_ 0_ a_ b_ c_ d_ t( .( e_ e_ .( .( e_  (  ( f_ z( g_ u( h_ i_ ;/ j_ -/ '( &/ k_ k_ N] ]^ ]^ O, l_ m_ n_ o_ p_ q_ r_ s_ t_ u_ v_ w_ x_ y_ z_ A_ W( ^^ B_ B_ C/ C_ D_ 2( b> 8> h' E_ F_ C/ a> 7> 9> 3/ L^ G_ H_ I_ G/ #> J_ ._ d> s) 6( $> P^ P^ 4/ P^ (^ g> d= &= &= &= &= &= &= &= == == == == == == == D* 8* T& S& S& S& R& R& R& z& z& z& z& z& z& z& z& Y$ 1% j> j> X$ Y$ Y$ Y$ W$ Y$ X$ 1% 1% X$ W$ 3$ 6$ A# A# A# A# A# /. /. K@ K@ 4. 4. '. h+ h+ h+ N+ L  (. #@ >$ 6. 6. 3# 7. 7. a. a. _  <  <  <  q  q  r  q  g. s. j# K_ q  q  q  q  q  q  q  (  L_ <% .- f# ;$ M# >@ p. d+ &. b. b. e  e  =_ ",
"N' P' P' N' M_ y) y) 0( U^ R~ R~ 0/ N_ c* U^ N_ #' J{ I{ J) J) I{ I{ J) U' ;_ O_ ;_ P_ ;_ ;_ ;_ b( c( c( #,  {  {  {  {  { e! e! e! Q_ .{ .{ J) J) I{ I{ T^ T^ 0]  ,  ,  , S' 8* >_ N/ R_ T& 6* ,_ 8* >_ c! c! [~ [~ j] i] M* x% x% x% x% x% x% x% S_ H{ S' I$ 8* H$ d& X% s] s] s] S& S& D* D* == B& h= T= T= 1> 1> F= 1> T_ U_ V_ W_ X_ Y_ e- $; o( x- x- v- /) 6- h, 6- o( $; 7; $; y- Y- Y; Z_ D; 5> }) `_ 1)  : .: 4{ G] 5_ +: +: @: #: *( >( $: %: +( &: 9_ *: =: -: ;: >: >: @( ,: ': @( ): f_ f_ ): !: ~: {: ]: h_ ^: /: (: o/ _: m/ K] K] v_ 9{ ]^ K! :: :: <: <: J( [: }: |: W] S] 1: 2: 3: 4: 5: ^^ 6: '] 7: 8: j' 9: 0: 2/ j' a: a> 7> 0> a> b> b> b> a> 0> 7> b: c: d: e: #> c> G/ 8; K; 6( @_ $_ s) f> K; 4/ V= d= d= d= d= d= d= d= c= c= c= c= c= c= c= == 8* T& 8* S& D* R& 7* R& A& z& A& z& A& z& A& z& r$ 1$ S> Z$ X$ r$ W$ X$ W$ X$ j> Z% u% t% G$ g$ 6$ A# A# A# /. /. /. /. [. [. K@ 4. '. 7. 7. 7. >$ M  9. 6. c+ a. x  f: 7. 7. 7. a. a. <  z  <  b@ D  q+ {  q+ d+ w+ i. s  s  s  s  s  s  s  <  ~& #- g: w& h: 0# >@ b@ d+ &. &. b. b. e  e  ",
"i: N' b( 0( c* /~ 0! j: k: l: 5^ 5^ 5^ 5^ 5^ 5^ M_ y) y) T^ T^ I{ I{ I{ T^ c( ;_ c( e! Q_ m: m: U' =, =, =, V' V' V' V' V' =, c( c( =, =, =, =, =, .{ .{ .{ .{ .{ Q_ Q_ Q_ 7% 7% 7% F) h] I$ (= I$  '  '  '  '  '  '  '  ' R' '> x% x% x% x% 8* 8* n: o: F- &= B* == %= A& S& |% x% x% 8* *= e= R= [; w- p: I; L^ q: |) M^ o( ]- r: s: t: N= 8- Y- u: v: .! k, [{ d/ w: m, x: J; D; N^ m, s, q, @! |) |) |) n~ n~ y: x{ =] k^ z: z: A: B( ,( e_ @( +( 0_ B: C: D: E: F: G: H: I: J: K: L: M: N: O: v( ': P: Q: R: S: T: U: E( -/ V: W: X: Y: t_ Z: Z: I( I( ]^ `: `: `: `: x' x' x' `:  < W( .< +< @< @< #< 8: $< `: `: %< -~ N! &< o~ :: *< =< =< 9> 9> 9> b> `; .> .> a> P! b> 5> 0> 4> -< Y; z; Z; Y; Y; ;< t) X- A; X- g> ]- Q= S= V= Q= R= N; T= *> i> T= L; Q= ]- S= == D* == D* == D* == D* B& A& B& A& B& A& B& z& _= T{ a~ p$ e$ e$ q% x& c& X% X% s% s% <* <* D= /* e$ !$ y# ($ ($ y# !$ e$ e$ e$ n$ .$ /$ >< >< h. F  F  F  F  F  F  7. 7. 7. 7. 7. 7. 7. h+ Y# H# ,< H# _$ H# _$ _$ b@ >@ >@ >@ b@ (  <  s  <  A  M  M  G  G  <  <  _  q  q  q  _. _. 4  4  ",
"i: Q' '< a! )< ^~ Y~ !< ~< L/ {< ]< {< ]< ]< ]< ]< y) y) T^ T^ I{ I{ I{ T^ c( c( Q_ Q_ Q_ m: U' U' V' V' V' V' ^< ^< ^< ^< J) .{ .{ .{ .{ .{ .{ .{ .{ .{ .{ .{ .{ .{ .{ .{ 7% 7% 7% h] h] h]  '  '  '  '  '  '  '  '  ' I$ R' '> x% x% x% x% 8* 8* E* (= /< B* @= 5= q= == S& |% Z% $, &= d= V= 7; Y-  ; 2/ H> (< _< p) j' y- S= ]- i> '- :< w- B- .! _) << [< }< |< 1< 2< 3< [) &! }) @! |) M!  : 4< 4< n~ n~ 5< x{ x{ o^ e^ `/ `/ `/  ( .( x( @( -: -: 6< F: F: D: 7< 8< 9< 0< a< b< c< 9< d< e< ': ': f< g< h< T: i< I^ j< A/ k< W: l< Y: t_ t_ Z: Z: I( I( I( I( I( I( x' x' %<  < B_ m< n, n< o< p< m< B_ K! p) q< x{ r< :: :: :: :: :: *< *< 9> 9> 9> b> `; `; .> .> 9> H> N! a> .> .> A; #; Y; Y; t) t) A; A; #; C- f> Q^ g> d- g> ~- 5/ d- s< g> r- Q^ 5/ t< u< Q= c= == == == == == == == B& B& B& B& B& B& B& A& V% U% W- 9* 9* 9* x& x& X% X% s% s% c; c; c; <* /* D$ !$ ($ ($ '$ y# !$ e$ D$ D$ r* w# s& v< w< j- h. h. h. h. h. F  F  7. 7. 7. 7. h+ h+ h+ e# x< y< y< y< x< x< 7# 7# >@ >@ >@ b@ (  <  s  <  B  G  G  G  (  (  <  <  q  q  q  q  _. _. _. ",
"i: Q' b( i* )< z< A< B< C< D< a( b( a( b( b( b( b( 0( 0( =, =, =, =, =, =, c( Q_ .{ .{ U' U' E< E< J) J) F< F< F< F< F< F< E< E< E< E< E< E< E< E< V' V' V' V' V' V' V' V' 7% 7% 7% 7% h] h] h]  ' G< G< G< G< G< G< G< c! R' '> x% x% M* M* 8* 8* e& E* b=  = /= q= H< == 7* u% H$ $, == d= V= D- y- z; :) p, I< 7: L! J< B- d- L= L= :< K< v: L< 9' s, 1< 1< M<  ] 2{ N< M< c{ 3_  ] M< .: 4{ 0{ O< O< O< =] o^ o^ *] }/ %/ `/ t(  (  ( e_ @( v( &: *: P< E: 7< Q< 7< R< S< 0< a< 9< T< U< V< W< =: *: P: f< j_ j_ o/ V: j< A/ k< W: l< Y: Y: Y: t_ t_ t_ t_ X< X< X< X< Y< Y< %< 7: 8: m< p< p< p< Z< `< 8: 7:  [ Y< %< .[ +[ @[ l_ #[ :: G> G> G> G> 9> 9> 9> b> `; `; 7> a> 9> b> D; I; #; t) X- X- X- X- C- C- C- C- f> Q^ Q^ d- g> ~- 5/ &> Y_ $[ &> %[ ~- &[ *[ S= c= == == == == == == == B& B& B& B& B& B& B& A& b& 9* 9* x& y& y& x& W% r% r% r% r% Y% Y% Y% Y% /* D$ !$ ($ ($ '$ y# !$ D$ /* /* e$ w# s& =[ v< j- h. h. h. F  F  F  F  7. 7. h+ h+ h+ h+ h+ h+ Y# -[ -[ -[ ;@ ;@ ;@ ;@ b@ b@ b@ b@ <  <  <  <  z  z  z  z  G  G  (  (  q  q  q  q  _. _. _. ",
";[ P' Q' i* /~ >[ ,[ '[ )[ y) I/ 0] I/ 0] I/ I/ I/ 4^ 4^ .{ .{ .{ .{ .{ .{ Q_ Q_ .{ U' U' U' ![ ![ E< E< ~[ ~[ ~[ ~[ ~[ ~[ {[ ![ {[ ![ {[ ![ {[ ![ ^< V' ^< V' ^< V' ^< V'  {  { 7% 7% 7% h] h] h] G< G< G< G< G< G< G< G< }~ o; {_ {_ c! c! >_ >_ *= *= q= 5= q= H< q= b= 7* H$ H$ J$ c= c= V= d- K< Y- i' Q! q, }) ][ ^[ Y- &> 0- 0- 5- A-  ! k, t, q, /[ W( ([ _[ 1{ :[ .] c{ 0{ .] <[ .] +] -] =] =] o^ o^ *] *] }/ J] B(  (  (  ( .( x( v( v( B: B: [[ P< }[ |[ 7< 1[ U< 2[ 3[ 4[ b< 5[ 6[ 7[ 8[ -: 9[ 0[ P: a[ b[ c[ A/ k< k< W: Y: l< l< l< d[ d[ d[ d[ %] %] %] %] e[ Y<  [  [ 7: 8: `< Z< m< f[ 8: K! `: g[ h[ e[ .[ +[ @[ l_ #[ :: G> G> i[ G> 8> 8> 9> 9> B; B; a> a> b> `; .> 3> t) t) C- C- C- C- C- C- C- 9- A' %_ Q^ d- &> 5/ Q^ e- j[ k[ $[ u< l[ m[ n[ L; d= &= &= &= &= &= &= &= E* E* E* E* E* E* E* 7* T& x& W% W% c& x& W% q% V$ V$ r% r% X% c& d& c& V$ U$ d$ c$ )$ )$ c$ d$ U$ V$ /* D$ y# ,$ @$ =[ i. i. i. i. P  P  P  P  7. 7. h+ h+ h+ h+ h+ h+ _  =@ _  =@ _  =@ _  =@ *@ *@ *@ *@ <  <  <  <  a. a. a. z  G  G  /  /  <  s  s  s  q@ q@ q@ ",
"`> L{ o[ l: p[ h* q[ r[ s[ T^  , w%  , w%  , 0] 0] Q_ Q_ '< '< 4^ 4^ 4^ 4^ .{ .{ U' U' E< ![ ![ ![ ~[ ~[ t[ t[ t[ t[ t[ t[ u[ {[ u[ {[ u[ {[ u[ {[ v[ ^< v[ ^< v[ ^< v[ ^< w[  {  { 7% 7% 7% h] h] G< G< G< G< G< G< G< G< }~ }~ c! c! G< G< *= *= &; e= b= q= 9= 9= o= b= E* E* E* == c= d= o= H= h, L<  ! x[ y[ <{ |< t, `- 7- C- C- z- z; _) m, <{ 2< 1{ 3{ z[ A[ B[ C[ c^ b^ Z^ Z^ c^ E] j^ R] G] U] k^ k^ J] J] %/ %/ .( ,: ,: ,: D[ E[ F[ F[ G[ H[ I[ J[ K[ 1[ 8< L[ M[ N[ O[ P[ Q[ R[ S[ T[ U[ 8[ v( 9[ V[ W[ X[ Y[ k< k< k< W: W: X: l< Z[ Y: Y: d[ d[ d[ d[ %] %] e[ e[ g[ g[ $< `[ `[ `< `[  } `[ y' x{ `: x' {^ .} .} .} .} :: :: :: :: i[ i[ C/ C/ 8> 8> 8> 9> G; `; D; .> H; -< u) A; C- C- C- C- 9- 9- 9- 9- 7; A' A' 7; (^ $_ $_ A' $; $; +} f> @} #} $} 1> d= &= &= &= &= &= &= &= E* E* E* E* E* E* E* E* 7* c& V$ /* <* c& R& S& r% r% q% W% b& b& z& z& V$ U$ q$ c$ )$ )$ c$ q$ V$ <* <* D$ !$ '$ +$ @$ i. P  P  P  c+ c+ c+ c+ h+ h+ h+ h+ N+ N+ N+ h+ _  g. i$ g. p# _  p# _  <  <  z  z  X# X# X# X# h+ h+ 6. 6. z  G  G  (  <  <  s  s  s  s  s  ",
"%} K' ]< L/ &} *} =} -} ;} T^ w% S' w% S' S' 0] 0] m: m: >} >} D) D) D) D) U' U' U' E< ![ ![ ![ j( {[ {[ u[ u[ u[ u[ u[ u[ u[ u[ ,} u[ ,} u[ ,} u[ '} )} '} )} '} )} '} )} !}  {  {  { 7% 7% 7% 7%  '  '  '  '  '  '  '  ' i] %, I$ I$  '  ' (= (= &; c= .= 8= r= r= o= r= c= == &= d= d= e= r= K= ~} {} ]} j, ^} /} _{ (} .! C-  ; y; y; I; 4) q,  ] _} :} 6{ Z^ F] F] U] H] <} j^ R] k^ I] I] J] e^ e^ %/ %/ [} e/ e/ ,( D[ D[ }} }} E[ V< F[ |} 1} 2} 3} 4} L[ L[ L[ K[ 5} 6} 7} 8} 4[ 3[ J[ |} 9} 9_ *: 0} y( a} b} P: c} W: W: k< W: X: Z[ !] l< l< d} d} d} d} $] $] e} h[ f} g[ g[ g} $< `[ K! g} g} h}  [ _< i} j} k} k} r< r< #[ #[ l_ l_ *< *< *< C/ C/ C/ 8> 8> A, `; I; .> v) Z_ l} A; #; C- C- C- 0- 0- 0- 0- $; f> A' A' #_ m} n} $} @} |_ o} A' A' o} o} %_ e= *= *= *= *= *= *= *= == == == == == == == == <; c; c; s% s% A& >_ p} X% X% W% W% b& b& b& b& r% q% p$ C$ X) X) o$ p$ r% <* <* V$ e$ ($ q} r} R  R  R  R  8. 8. 8. 8. h+ h+ h+ N+ N+ N+ N+ h+ M$ j$ k$ M$ M$ M$ M$ M$ _  _  a. a. X# X# X# X# 6. 6. 6. 6. z  z  z  z  _  _  _  g. g. g. g. ",
"%} o[ 3^ s} &} t} u} v} w} x} n: y} n: z} z} U' U' A} A} K/ K/ B} B} B} K/ E< E< E< {[ {[ {[ j( C} C} C} D} D} D} D} D} D} E} E} F} E} F} E} F} E} F} E} F} E} F} E} F} E} G} !} w[ w[ w[ H} H} H} L* L* L* L* L* L* L* h] i] i]  '  ' T/ T/ f= f= I} Q= l= G= K= H= L= r= d= d= e= R= 9= 9= J} J} ~} K} Y{ L} M} N} y] O} k, t) t, +! r, 3) P} c{ Q} 6{ R} S} Q] H] X/ q( +: +: q( T} 7_ z: @: Z/ B( B( B( ,( .( .( e_ x( }} }} 4} J[ J[ U} |} R< V} W} K[ K[ X} L[ 8< X} Y} Z} 6} M[ `} `} 4}  | U} F[ F[ F[ .| 8[ +| y( @| @| c} Y[ #| $| %| +/ k/ k/ k/ k/ u_ u_ u_ &| *| *| e} e} e} )] )] =| 1/ -| ;| X< >| ,| '| )| !| !| .} .} O, O, @[ @[ l_ =< *< *< *< i[ C/ C/ 4> Y; A; Y; H; G; H; Z; #; #; X- X- c- c- ~| ~| 7; A' A' f> P^ $} $} 4/ 7; #_ P^ q- q- (^ #_ Q^ R= e= e= e= e= e= e= e= c= c= c= c= c= c= c= c= {| g= %; ,~ E* d& D* O/ z& c& b& b& 9* 9* V% W% r% q% p$ C$ X) X) o$ q% s% c; <; <* U$ y# 1, q} R  8. 8. 8. y  y  y  y  N+ N+ N+ I@ I@ I@ I@ v# ]| @& ^| ]| ]| ]|  $  $  $  $ h+ 6. ;$ d# d# d# Y  Y  6. 6. 6. 6. a. 7. a. _  _  _  g. g. g. ",
"I/ K' 3^ /| (| w} _| :| <| C} [| [| [| [| }| }| }| ![ N_ N_ K/ B} B} B} B} E< ~[ ~[ {[ {[ j( C} C} C} C} D} D} D} D} D} || F} F} F} F} F} F} F} F} 1| 1| 1| 1| 1| 1| 1| ,} G} !} !} w[ w[ H} H} H} H} H} H} H} H} H} H} H} j] i]  ' T/ T/ T/ f= Q= 2| 3| K= K= I= L= G= H= R= R= Q= Q= 9= t- 4| 4| 5| {} 6| 7| 8| 9| N} 0| Q! q~ [) q, |) i~ .] a| b| c| G] J] d^ l/ d| d| C( C( ,( e| z(  ( f| e_ +( +( +( ': g| =: =: =: J[ 8< 8< J[ L[ 1[ K[ R< 8< h| i| j| k| K[ 8< R< l| m| `} O[ 6} 8} H[ n| U} o| p| N: V< F[ q| r| b} @| c} Y[ #| $| +/ s| k/ k/ k/ k/ u_ u_ u_ u_ t| *| *| e} e} $] $] $] *| u| v| Z] H( u| w| x| Y< J( y| y| y| y| @[ @[ l_ l_ =< *< *< i[ C/ C/ D; t) Z; B; .> a> 9> H; 3> A; A; ;< c- b- ~| z| A' (^ f> $; $; f> D- q- q- P^ #_ 7; 7; #_ 4/ 6/ R= e= e= e= e= e= e= e= c= c= c= c= c= c= c= c= N; {- A| B| f= c; <; d& 7* z& z& b& b& V% V% p$ r% q% p$ o$ C$ C$ p$ q% s% 0; 0; <; V$ !$ '$ 1, 8. 8. 8. y  y  y  y  $@ N+ N+ I@ I@ I@ I@ I@ }$ C| D| E| C| C| .$ .$ .$ u# u# h+ 6. ;$ d# d# d# .. Y  Y  6. 6. h+ 7. c+ a. a. _  _  _  g. g. ",
"b( l: F| G| H| I| J| K| L| M| 1| 1| N| O| ,[ P| Q| R| R| Z~ S| S| S| T| U| ~[ t[ t[ t[ t[ t[ E} E} V| E} W| || X| X| N| Y| Z| Z| Z| Z| Z| Z| Z| Z| Y| `| Z|  1 .1 +1 @1 F} #1 $1 $1 G} G} %1 %1 %1 &1 &1 &1 &1 &1 &1 &1 H} j] j] T/ H* H* H* Q= g> 6/ d- 5- 4- 8- 7- 7- 8- H= H= L= L= ^{ *1 ~} =1 -1 ({ ({ M} ;1 >1 >1 y[ q, 2_ 2_ 2_ Q} ,1 '1 )1 H] I] I] @/ @: C( s( s( !1 ~1 {1 ]1 D[ ,: ^1 /1 d< }} V< E[ 4} I[ 4} 8< (1 (1 Z} M[ m| _1 Y} Y} m| m| m| m| m| m| :1 :1 <1 [1 }1 |1 8} O[ P[ 11 3[ c< 9< S< 21 31 41 51 y( 61 71 g_ 81 ): 91 -( e| e| 01 01 01 01 a1 b1 1( $/ c1 u_ J] d1 e1 u_ f1 1( d1 b1 1( u_ c1 g1 h[ N, J( !| =/ =/ .} y| :: :: :: :: i[ i[ i[ C/ .> u) H; B; b> o~ G> H> N! a> .> t) ;< c- h1 h1 f> %> K; K; K; K; K; s) 8; 6; %> 6; i1 i1 6; (^ &> R= R= V= V= S= S= S= T= S= V= V= S= U= U= S= ]- ]- Q= e= c= E* B& d& D* T& T& y& W% U$ p$ 9* /* U$ p$ U% ;) ^' _= c& j1 X; L; b; k1 ~{ )$ l1 y  y  y  $@ $@ $@ $@ K@ I@ I@ T  [. [. [. T  T  x# }$ >) 1' v# ($ ($ 4. N+ N+ M+ M+ M+ N+ <$ <$ X  X  X  X  0. 0. .. Y  a. a. a. _  _  _  _  ",
"0( p[ m1 n1 o1 p1 q1 r1 s1 t1 u1 v1 w1 x1 y1 z1 =} -} A1 B1 C1 C1 S| S| U| t[ t[ t[ t[ t[ t[ E} E} D} 1| 1| || ||  1  1  1 Z| Z| Z| Z| Z| Z| Z| Z| D1 E1 D1 F1 G1 H1 Z| I1 #1 $1 $1 G} G} %1 %1 %1 &1 &1 &1 &1 &1 &1 &1 &1 G{ G{ H* H* H* H* g> g> d- g> 0- 9- 5- 4- B- z- 9- '- I= K= J1 =1 5| ]} 8| y[ y[ K1 L1 M1 M1 N1  ] j~ L! l~ ,1 O1 )1 P1 I] l/  /  / f| f| f| b_ Q1 d< M: }} 4} 4} R1 R1 8< L[ K[ K[ S1 <1 <1 T1 U1 U1 U1 Z} V1 W1 W1 W1 m| m| m| m| m| m| :1 :1 X1 X1 S1 X1 :1 P[ P[ :1 4[ S< 9< U< 21 Y1 Z1 `1 +| 61 !: !:  2 g_ g_ ;( e| e| 01 01 01 01 a1 a1 b1 d1 .2 e1 b1 +2 @2 #2 s| #/ $2 %2 1( u_ &2 t_ x' J( N, N, y| y| .[ *2 :: :: :: :: i[ i[ i[ C/ 7) =2 G; 8> o~ -2 &< M~ -~ N! a> .> ;< c- c- c- s) K; K; K; K; K; K; K; 6; %> %> %> 6; %> K; (^ &> R= R= V= V= V= S= S= S= V= R= R= R= V= V= V= P= Q= R= V= c= g= B& B& D* A& Y% r% X% b& b& x& z& x& _= W- ;) W- 9* c& d= N; ;2 >2 %- x& c$ ,2 $@ $@ $@ $@ $@ $@ K@ K@ I@ I@ T  [. [. [. 5$ 5$ '2 r$ j> 1$ 4$ $. $. ,. T  I@ I@ M+ M+ N+ <$ <$ M+ N+ N+ M+ Y  Y  6. h+ a. a. a. a. _  _  _  ",
")2 *} !2 ~2 {2 ]2 ^2 /2 (2 _2 :2 <2 [2 }2 ^2 |2 12 22 32 42 52 62 C1 S| S| u[ ,} ,} ,} ,} ,} 1| 1| 1|  1 Y|  1 D1 72 82  1 Z| 1| 1| 1| 1| 1| 1| 1| F} N| X| 92 F} 02 !< a2 #1 $1 $1 G} G} %1 %1 %1 &1 &1 &1 &1 &1 &1 &1 &1 G{ b2 c2 c2 c2 c2 f> f> f> (^ C' C' X- C- #; X- b- ~| K} d2 e2 f2 M} ^} K1 [{ g2 B] a^ h2 i2 j2 '1 '1 ,1 #] O1 k2 M] f^  /  / f| f| b_ w( Q1 K: a< Q[ Q[ b< O[ O[ M[ M[ Z} m| Y} _1 l2 m2 U1 n2 o2 o2 o2 p2 o2 p2 p2 p2 p2 p2 q2 q2 q2 q2 q2 W1 r2 s2 T1 t2 u2 v2 11 :1 w2 x2 y2 z2 A2 B2 C2 D2 E2 b} y( F2 b} ): ): 81 ;( ;( ;( ;( G2 G2 G2 G2 %2 u_ H2 T( m/ %| s| I2 J2 #| K2 L2 M2 k/ e1 N2 O2 K( P2 Q2 P2 R2 .[ *2 .} .} #[ #[ #[ #[ #[ *< C/ .> 6> S2 T2 U2 V2 L~ L~ W2 -~ a> t) ;< c- c- $> #> O^ O^ G/ R> R> R> R> e> e> R> G/ O^ O^ K; &> R= R= R= V= V= V= S= S= S= V= R= R= V= S= S= d= d= d= c= c= g= E* E* E* d& s% <* Y% z& R& R& O/ ,_ s] a~ }, U% W% Y% X; e- +} X2 1- z& 9* Y2 K@ K@ K@ K@ K@ K@ [. [. z# T  3$ 5$ 5$ 6$ W$ Z2 }~ `2  3 .3 &, ,> H- 6^ I- g& Z@ I@ N+ N+ '. 4. N+ I@ N+ N+ N+ N+ h+ h+ 6. 6. a. a. a. a. _  ",
"Q| w} +3 @3 #3 $3 /2 %3 &3 *3 =3 -3 ;3 >3 ,3 '3 )3 !3 ~3 {3 42 ]3 62 C1 ^3 D} D} D} D} D} D} || || D1 /3 (3  1 _3 72 82 82 || || || || || || || || :3 O| <3 !< W| N| F} [3 #1 $1 $1 G} G} %1 %1 %1 %1 %1 %1 %1 %1 %1 %1 %1 j: j: }3 }3 }3 }3 A' A' A' P^ C' C' ;< X- A; ;< u- z| K} d2 f2 |3 ^} 13 23 2< 0^ 33 43 P] 53 <} j^ )1 k2 k2 P1 63 e^ `^ 73 73 w( w( &: &: d< R1 83 83 (1 (1 Z} W1 93 03 a3 m2 b3 c3 d3 n2 e3 e3 f3 f3 f3 g3 g3 h3 h3 i3 p2 p2 p2 q2 q2 q2 q2 W1 j3 k3 X1 l3 m3 n3 o3 P[ w2 p3 q3 r3 s3 t3 u3 r3 W< F2 F2 b} 0} v3 g_ !: w3 w3 w3 w3 x3 x3 x3 x3 y3 b1 H2 k/ z3 h/ i/ i/ A3 B3 J2 K2 M2 T( f1 C3 }: D3 Q2 P2 R2 J( .[ *2 O, O, l_ l_ l_ l_ l_ =< 0) 0) E3 @[ O, !| F3 r_ G3 L~ W2 N! a> t) ;< ;< 4( 4( #> O^ G/ R> R> e> R> e> H3 e> O^ #> G/ 6; g> Q= R= R= R= V= V= V= S= U= U= S= V= V= S= T= g= E* c= c= c= c= == == _& E* &= 8* B& e& B& == f- ,_ s] 9* o$ o$ W% d& >2 I3 J3 K3 1- L3 b& a~ /. /. /. /. /. /. A# A# T  T  3$ 5$ 5$ 6$ Y$ <^ 8! M3 N3 O3 P3 Q3 R3 S3 T3 J- (- Z@ 4. 4. '. y  %. J@ J  J  M+ N+ Y  .. h+ h+ 7. 7. 7. 7. F  ",
"U3 V3 W3 X3 Y3 Z3 `3  4 .4 +4 @4 #4 $4 %4 &4 *4 =4 -4 ^2 ~3 {3 ;4 >4 ,4 ,4 D} || || || || ||  1  1 D1 (3 '4 82 72 )4 !4 82 || D} D} D} D} D} D} D} ~4 {4 '} ]4 D} E} E} D} #1 #1 #1 K* K* ^4 ^4 ^4 ^4 ^4 ^4 ^4 ^4 ^4 ^4 ^4 j: j: R, R, R, R, K; K; %> s) t) t) A; #; D; A; {} /4 d2 e2 M} ^} (4 |{ _4 j2 V( t| a1 k_ @: @/ f^ &] 63 63 f^ `^ [} D(  ( +( &: &: I[ I[ 4} :4 Z} <4 [4 [4 }4 |4 h3 g3 14 24 34 34 34 34 44 54 64 64 64 f3 74 h3 h3 h3 o2 p2 p2 p2 q2 q2 q2 W1 03 84 94 84 Y} 04 a4 b4 c4 d4 e4 f4 g4 h4 i4 j4 21 k4 l4 O: l4 m4 n4 o4 p4 p4 q4 q4 q4 q4 q4 x3 r4 r4 s4 s4 t4 u4 v4 w4 x4 y4 g_ ;( z4 A4 B4 u_ C4 D4 D3 K( R2 P2 E4 F4 O, O, O, O, l_ l_ l_ l_ G4 H4 I4 O, G3 J4 K4 L4 M4 J4 L~ -~ N! .> ;< ;< c> 4( 4( #> O^ G/ R> R> e> e> e> R> G/ G/ e> 8; f> g> g> &> &> &> d- d- g> d- e- &> Q^ Q^ &> S= E* 7* == == == &= &= &= b; f= N4 F- e= a; a; c= &= S& b& p$ o$ V% c& E* <_ O4 P4 Q4 V- R4 D$ U% /. /. A# A# A# A# 6$ 6$ 5$ 5$ r$ r$ W$ Y$ t$ S4 T4 U4 V4 W4 X4 Y4 Z4 `4 S{  5 J- [. Z@ w# '$ '$ I@ J@ J@ %. 4. $@ M+ X  h+ h+ h+ h+ 7. 7. 7. ",
".5 +5 12 @5 #5 $5 %5 &5 *5 =5 -5 ;5 >5 ,5 '5 )5 !5 =4 ~5 {5 ]5 z1 !2 ;} P| N| N| N| N| N| N| Y| Y| Z| (3 ^5 72 /5 (5 _5 82 N| V| V| V| V| V| V| V| a2 :5 ]4 E} <5 '} E} ]4 #1 #1 #1 K* K* ^4 ^4 ^4 K* K* K* K* K* K* K* K* [5 [5 B' B' B' B' s) s) 6; K; t) A; #;  ; I; #; d2 4| 5| ]} y[ (4 |{ c{ b^ c^ m^ $2 01 ,( c_ g^ %/ }5 }5 }5 `^ [} g/ ./ ': ': g| =: 4} 4} 8< Z} [4 [4 }4 }4 o2 |5 |5 |5 15 34 34 25 35 45 54 55 65 65 65 54 54 75 75 85 |5 |5 |4 |4 b4 b4 b4 m| l2 95 05 05 m| m| a4 a5 b5 c5 d5 e5 f5 g5 h5 i5 j5 W< k5 k5 l4 r| l5 m5 n5 n5 o5 o5 o5 o5 o5 p5 x3 a1 A4 q5 r5 s5 t5 u5 x4 v5 y4 w5 e| A4 x5 d1 y5 D4 D3 [: P2 z5 A5 B5 y| y| y| y| @[ @[ @[ @[ ;] C5 .[ D5 w' E5 F5 G5 H5 M4 J4 W2 -~ a> t) t) 4( 4( 4( #> O^ O^ G/ G/ e> O^ 4( 4( G/ H3 H3 8; A' g> g> g> &> &> &> &> ~- %_ g> %_ l[ I5 5/ R= &= 8* 8* 8* &= &= &= *= a; J5 K5 B| %; N; N; S= B& z& W% V% U% 9* z& E* %[ L5 M5 N5 N; c; V$ O5 B# S  B# B# B# B# 2$ 2$ 6$ 5$ r$ r$ W$ X$ `% C) U4 P5 Q5 R5 U4 S5 T5 U5 '{ V5 6^ z= y# ($ W5 '$ )$ Z@ I@ K@ 1. 1. $@ J  '. '. '. '. c+ c+ c+ ",
"X5 Y5 Z5 `5  6 .6 +6 @6 #6 $6 %6 &6 *6 =6 -6 ;6 >6 ,6 `3 '6 )6 !6 ~6 {6 ]6 X| X| X| X| /3 /3 /3 /3 )4 '4 ^6 /6 (6 _6 :6 82 V| <6 <6 <6 <6 <6 <6 <6 t[ [6 [5 }6 |6 v[ <6 )} #1 #1 #1 K* K* ^4 ^4 ^4 K* K* K* K* K* K* K* K* 16 16 B' B' 26 26 s) s) e> G/ t) t) D; I; D; A; 5| J} 5| ]} ^} 13 36 46 E] 56 66 ,( .( c_ 76 86 [} )( [/ [/ D( g/ x( @( =: =: 4} 4} 8< 8< S1 96 06 a6 b6 c6 d6 e6 f6 g6 h6 i6 j6 k6 l6 k6 m6 n6 o6 o6 o6 p6 p6 75 75 75 h3 h3 i3 i3 q6 q6 q6 _1 r6 k3 k3 k3 s6 s6 t6 u6 v6 w6 x6 y6 z6 A6 B6 A6 C6 .| N: N: k5 q| D6 E6 F6 F6 G6 G6 G6 G6 G6 H6 s4 a1 G2 e| 81 I6 J6 K6 L6 M6 I6 N6 O6 x3 P6 c1 y5 o) D4 D3 D3 Q6 F4 A5 R2 R2 .[ .[ +[ +[ +[ +[ &< R6 S6 K~ T6 U6 V6 W6 X6 Y6 M4 L~ W2 N! .> t) #> #> #> #> #> #> #> O^ G/ J_ Z6 +_ O^ `6 H3 K; A' Q^ g> g> g> &> &> &> ~- Q^ &> Q^ l[ I5 %_ V= g( ,_ ,_ M/ >_ >_ *= *= e= %; {- {- P= &> d- S= E* R& y&  7 T{  7 R& E* u< .7 +7 @7 #7 e& X% r* B# B# B# B# 2$ 2$ 2$ 2$ Y$ W$ r$ r$  % t$ u% 7! $7 %7 &7 *7 =7 -7 ;7 >7 ,7 '7 j; z= y# ($ W5 '$ X) Z@ I@ /. *; *; 5. J  '. '. '. '. c+ c+ c+ ",
"X5 )7 !7 ~7 {7 ]7 ^7 /7 (7 _7 :7 <7 [7 }7 |7 17 ;6 !5 27 37 47 y1 57 57 O| X| X| X| X| /3 /3 /3 /3 ^5 '4 82 67 77 87 _6 82 N| V| V| V| V| V| V| V| ~4 97 07 V| :5 a7 b7 D} #1 #1 #1 K* K* ^4 ^4 ^4 K* K* K* c7 c7 c7 c7 c7 16 16 B' B' 26 26 s) s) R> O^ Y; Y; 3> D; D; O} ]} 5| ]} f2 13 36 P} q^ F] j^ 66 `/ t( c_ d7 +( g| e7 &: &: f7 f7 4} J[ 4} :4 O[ O[ O[ M[ 96 V1 g7 g6 e6 h7 i7 k6 j7 k7 l7 m7 n7 o7 k6 p7 q7 r7 65 s7 65 s7 t7 t7 t7 t7 74 g3 g3 g3 g3 g3 g3 g3 03 84 V1 93 r6 s6 a4 b4 u7 v7 w7 x7 y7 z7 A7 B7 C7 D7 E7 k4 Y1 k5 F7 k5 G7 H7 I7 F6 I7 F6 I7 G6 J7 G2 K7 L7 !: #( v5 &: 9_ M7 N7 O7 &( 01 s4 P7 Q7 R7 S7 T7 U7 V7 }: h[ e[ R2 .[ .[ +[ +[ +[ +[ =/ W7 =~ X7 Y7 Z7 Z7 `7 H5 Y6 J4 G3 W2 N! a> .> A; #> #> #> #> #> 4( 4( #>  8 .8 +8 #> i1 8; $> A' Q^ Q^ g> g> &> &> &> Q^ d- 1> d- %_ 5/ &> T= ,~ O/ O/  '  ' T/ R= R= h1 H= >- F= g> 5/ }3 ,= c= 8* T& @8 t] x] R& A& c= 6/ 1> #8 w; j1 V$ b& 2$ B# B# B# 2$ 2$ 2$ 2$ Y$ W$ r$ G$  % t$ $, $8 %8 &8 *8 =8 -8 ;8 >8 ,8 '8 )8 !8 := /. ($ '$ '$ $@ M+ J@ 4. -) 1. 4. K  '. '. '. '. .$ '. .$ ",
"~8 {8 ]8 ^8 /8 (8 _8 :8 <8 [8 }8 |8 18 28 38 48 58 68 78 88 98 57 ^5 08 08 a8 b8 b8 c8 c8 d8 d8 d8 c8 c8 c8 b8 a8 e8 f8 e8 c8 b8 b8 b8 b8 b8 e8 e8 e8 e8 e8 e8 e8 e8 e8 g8 c7 K* #1 h8 h8 #1 c7 c7 i8 j8 c7 k8 k8 k8 l8 m8 j8 #1 #_ 4/ 4/ P^ ;< ;< z- ;< n< n8 n8 n< 9' k, |3 k, k, s, s, [) c{ 0{ 43 G] G] d^ z: z: z: ^1 o8 p8 64 q8 r8 s8 g3 t8 u8 v8 06 <4 <4 w8 q2 x8 y8 z8 A8 B8 C8 D8 E8 F8 G8 H8 I8 J8 K8 L8 M8 N8 O8 94 O8 P8 Q8 R8 S8 T8 t7 35 65 U8 V8 W8 q7 55 X8 Y8 w8 a4 q6 Z8 t6 a4 q6 b4 a5 `8  9 .9 v6 x2 +9 4[ @9 9< #9 $9 #9 41 Z1 %9 &9 J: *9 $9 &9 G7 =9 -9 q4 p4 =9 F6 l4 E6 ;9 q| >9 =9 ,9 '9 )9 -( !9 ~9 z3 {9 ~( ]9 ^9 /9 *| (9 _9 f} :9 g} g} g[ h[ K^ C4 <9 J^ [9 }9 |9 19 ~^ 29 |: 7] j~ |) 8> 3> A; A; A; A; A; X- X- z- 39 49 59 A- 8- 0- u- 4- 0- c- 9- 9- b- b- 5- c- 69 b- 6- 8- u- 0- 79 q= (= L* g] 89 99 09 a9 4) (4 b9 M} c- K* >[ 0! c9 &= 8* S& s] y& x& x& b& c& c& X% X% r% r% q% e$ W- a~ o$ p$ _= b& D$ X% r% r% s% Y% A& == d9 e9 f9 g9 h9 i9 j9 k9 l9 m9 n9 o9 }= /. K@ Z@ K@ 5. c# 5. y  N+ M+ w# )$ &) w# {' 3, D! ]' D! ",
"p9 q9 r9 s9 t9 u9 v9 w9 x9 y9 z9 A9 B9 C9 D9 E9 F9 G9 H9 I9 J9 K9 '4 L9 L9 M9 b8 b8 c8 c8 d8 d8 d8 c8 c8 c8 b8 b8 b8 e8 e8 a8 a8 a8 a8 a8 a8 a8 N9 f8 f8 f8 f8 f8 f8 f8 e8 j8 #1 K* K* K* K* j8 j8 c7 c7 l8 l8 O9 P9 P9 m8 j8 #1 #_ 4/ 4/ 4/ ;< ;< X- ;< Q9 y, y, Q9 R9 K1 4) t, t, [) [) M! 3_ 4{ V] V] U] U] Y/ Y/ Y/ S9 35 T9 U9 V9 W9 X9 i6 h7 Y9 Y9 g7 Z9 `9  0 v6 x8 .0 z8 +0 @0 #0 $0 %0 &0 *0 =0 #0 -0 ;0 >0 >0 ,0 93 T1 '0 95 s2 )0 T8 !0 55 45 ~0 {0 ]0 ]0 o7 ^0 /0 (0 _0 <4 <4 :0 q6 a4 `8 <0 `8 [0 }0 u6 a4 |0 10 20 30 +9 40 A2 +9 +9 50 60 70 +9 80 B2 #9 90 00 a0 a0 b0 c0 d0 p4 e0 =9 f0 F6 g0 c0 h0 g0 i0 q5 s4 -( {9 j0 k0 .2 C3 *| *| _9 f} :9 :9 g} g[ e[ l0 m0 n0 o0 w{ V7 29 p0 q0 q0 x{ p^ X( Q, p, 3> A; A; A; A; A; X- X- Z- 1_ r0 a- 4- 4- '- J= 5- c- c- 5- 5- c- 0- 4- 5- 6- 7- c- 0- 7- 7- h1 H< f= }3 16 s0 t0 u0 -~ a{ v0 w0 x0 n< m8 y0 z0 A0 e= d= &= D* y& y& _= 9* W- W- V% W% W% r% q% _= U% !$ n$ r* e$ W% x& r% r% <* s% _& E* &= B0 C0 D0 E0 F0 G0 H0 I0 J0 K0 L0 N~ x= f$ o$ p$ A# <% f# 1. 5@ $@ N+ v# w# v# v# M0 T* s* Y) s* ",
"N0 O0 P0 Q0 R0 S0 T0 U0 V0 W0 X0 Y0 Z0 `0  a .a +a >6 @a #a $a W~ %a &a &a *a N9 N9 N9 =a =a =a =a N9 N9 N9 N9 a8 a8 a8 f8 f8 f8 f8 a8 N9 N9 =a =a f8 f8 f8 f8 f8 f8 f8 e8 i8 #1 #1 K* c7 j8 j8 i8 k8 l8 m8 m8 P9 P9 O9 l8 j8 j8 #_ #_ 4/ 4/ C' ;< Y; Y; 9' O} 4) <) -a -a *! *! &! M! Q, y' a{ -] F] R] J] m^ Z/ 6_ 6_ E[ ;a >a ,a 'a )a !a V8 i7 Y9 ~a g7 a6 {a x8 x8 b6 M8 ]a ^a /a (a _a :a <a [a }a |a 1a 2a 3a 3a 4a r6 05 94 '0 b3 5a 6a 7a 8a 34 55 9a m6 q7 0a aa ba (0 ca da ea fa ga ha u6 a5 t6 `8 `8 u6 d4 ia ja ka la ma q3 ma +9 r3 na oa pa 70 qa ra r3 sa ta r| O: +| ua H7 l4 va ua D6 r| wa D6 m4 xa F6 x3 &2 ya e1 %2 v| %] *| >| za _9 _9 S6 *2 *2 *2 Aa V2 Ba Ca Da !| Ea D4 !| !| Fa r< Ga Ha Ia 6> 3> 3> 3> 3> A; A; A; A; Z- C- b- 0- 5- 9- 9- 4- 5- c- c- 5- 5- c- c- 5- 4- u- Ja 59 9- 7- 4- h1 t- %; Ka :3 La Ma Na k} R] Oa Pa Qa Ra `; Sa F} R, g> g> e= &= D* R& y& _= _= 9* 9* b& W% W% W%  7 !$ e$  7  7 e$ D$ y& V$ V$ <* s% e& E* *= Ta Ua Va Wa Xa Ya Za `a  b .b k: @% /* v* v* :* x; B# G% *; 1. S  K@ x# y# /' x# *- *- V* U* V* ",
"Z6 O0 P0 +b @b #b $b %b &b *b =b -b ;b >b ,b 'b )b !b ~b {b ]b ^b /b (b _b :b =a =a =a =a =a =a =a =a =a N9 N9 N9 a8 a8 a8 <b f8 f8 a8 N9 =a [b [b f8 f8 f8 f8 f8 f8 f8 e8 i8 }b |b |b 1b 1b 2b i8 l8 m8 m8 m8 P9 3b 4b 09 5b i8 #_ #_ #_ 4/ C' C' Y; Y; (} (} 6b 6b -a 7b d' z' z' y' y' p) 1/ H( U] J] J] L] 6_ =( *( E[ 8b h7 9b 0b h7 ab bb cb ~a ~a a6 a6 {a b6 c6 c6 db eb fb ;0 -0 gb (a #0 }a |a 1a ;0 A8 L8 hb f6 c3 ib ib 05 5a jb T8 kb 8a lb 55 mb j6 nb 0a i7 g3 da ob |4 pb qb rb a4 b4 w8 b4 u6 sb sb tb ub +9 #9 ma 40 +9 r3 B2 +9 vb wb xb yb wb zb Ab Bb Cb ua Db D6 Eb Fb va wa m4 r| wa r| m4 ua m4 =9 Gb Hb Ib v_ Jb Kb Lb Mb Nb za Ob Pb S6 S6 S6 S6 Qb Aa r< Fa R2 Rb Sb K~ !| R2 y| l_ H4 Tb Ub D; .> .> .> .> .> t) t) t) Y; ;< z- 5- 9- c- 0- 5- 5- c- c- 9- 0- a- 69 b- 4- Vb Wb 69 x- a- Xb :< 0= ]- r) Sa Yb Zb `b }:  c .c +c @c #c '] $c %c O^ s) A' g> R= &= D* S& y& _= _= _= b& b& b& b& V% &c _= *c *c _= x; W% V$ V$ <* s% e& == (= =c -c ;c >c ,c 'c )c !c ~c {c ]c ;- ^c /c {) (c _c f$ [= F# C# A# A# U% a~ U% U% ]* {* W* V* t* ",
":c O0 <c [c }c |c 1c 2c 3c 4c 5c 6c 7c 8c 9c 0c ac bc cc dc ]b ec fc (b (b :b =a =a =a =a =a =a =a =a =a =a N9 N9 N9 a8 a8 f8 f8 a8 N9 =a [b [b gc f8 f8 f8 f8 f8 f8 f8 e8 j8 |b hc ic ic hc g8 m8 5b 5b P9 P9 O9 4b 09 jc 5b 5b kc d> d> d> Y; Y; `; B; n, p< m< lc #< 7b i~ q) q) p) p) {^ H( ]9 k^ %/ %/ [} ,( .( e_ }} mc nc oc g7 nc oc f6 Y9 ~a ~a g6 f6 e6 e6 d6 d6 pc qc A8 K8 ^a rc sc sc tc sc uc vc wc xc yc N8 zc Ac Bc 5a Cc Dc Ec Fc Gc t7 Hc Ic g6 Jc .0 ab 24 |5 g3 g3 h3 p2 Kc Kc t6 a4 a5 `8 Lc Lc ub Mc 40 +9 la 30 yb 70 Ab A2 @9 ra A2 70 Nc Ab zb Oc 90 Pc Qc Rc Sc Tc Uc Vc Wc ta Xc Xc Wc Yc Wc Zc `c  d .d ]^ +d @d #d g[ $d W7 %d %d Q2 k' k' &d *d =d R6 k} Fa P2 =~ R2 -d ;d k} &< =< D/ A, +> .> a> a> .> .> .> .> t) >d D' z- B- X- C' C' ;< B- ;< ;< C- ;< ,d 'd E' Y- )d !d ~d w- {d E' 6- 5/ ~- l8 82 ]d ^d /d (d d0 _d :d <d [d }d y5 R2 |d I_ #> K; f> R= d= == R& y& y& y& x& x& x& b& W% x; x& 1d 1d x& _* X% r% r% s% Y% d& D* (= 2d 3d 4d 5d 6d 7d 8d 9d 0d O! k, h~ ad bd H! cd e, t% `= 6$ 5$ 3$ 2$ x] dd ed x] 4= fd 4= ]* ^* ",
"gd hd r9 id jd kd #b ld md nd od pd qd rd sd td ud vd wd xd yd 02 (5 zd Ad /; [b [b [b =a =a =a =a [b =a =a =a N9 N9 N9 N9 a8 a8 N9 N9 =a [b [b [b f8 f8 f8 f8 f8 f8 f8 e8 i8 |b Bd Cd Cd Bd g8 5b Dd Dd Ed P9 O9 P9 P9 Ed Fd 5b kc kc d> d> Z; Z; `; 4> p< Z< `< m< Gd 46 q) p) p) K^ K^ Hd ]9 ~( L] e/ e/ g/ .( ': ': M: Id Jd Jd v7 Kd Kd `9 Ld a6 g6 g6 f6 e6 d6 i7 h7 Md M8 3a z8 Nd ;0 Od Pd J8 K8 Qd Rd Sd Td 3a i7 Ud )0 Ud o8 c3 Vd Wd Xd t7 75 Ic Jc Jc Yd Zd Ic `d X8  e .e +e h3 +e |4 @e t6 t6 `8 #e ia c5 $e +9 r3 la xb xb %e ra vb la %e A2 zb zb +9 70 zb &e Xc *e =e -e ;e >e G7 ,e 'e )e ta ,e !e ,e Zc ~e {e ]e ^e /e =| Ob (e _e _e :e %d <e <e /d k' [e *< R6 .} J( N, !! P2 =~ =~ Aa -~ N! .> 3> D; b> b> b> b> b> `; `; `; }e v) #; z- ;< C' ;< C' z- ;< ;< C- ;< ,d 39 'd Z- X- 1_ ~d z- B- C' ,d #_ j8 P9 ^6 |e 1e 2e 3e 4e 5e 6e 7e 8e r| a} 9e Fa O! |d F/ G/ f> V= d= D* S& S& y& y& y& x& x& s] U$ U$ s] s] U$ V$ S& c& c& Y% Y% A& D* *= 0e ae be ce de ee fe ge he 2) ie je ad ke le me ne 4% oe  % C% C% s$ T& pe qe @8 re se X* 7^ ^* ",
"te O0 ue ve Q0 we xe ye ze Ae Be Ce De Ee Fe Ge He Ie Je Ke 02 fc Le Me Me Ne Oe Oe /; /; :b :b :b /; /; :b :b :b *a *a *a N9 =a =a =a =a =a =a =a f8 f8 f8 f8 f8 f8 f8 e8 g8 1b Pe Pe Qe Qe g8 g8 e8 Fd Ed Ed <b =a Re Se Fd Fd 5( 5( 5( c> B; B; 8> 8> o, o, %! %! X] X] p) K^ Te w{ 6] Ue n/ j< z3 Y[ Y[ P: x( g| g| M: Ve @9 x2 b5 q2 mc Z8 i3 We We Xe Xe p6 54 Ye 65 Ze `e f6 i6 h7 q7  f k6 .f l6 W8 m6 W8 j7 j7 h7 +f @f #f $f Xe 74 %f &f e6 f6 N8 N8 *f =f -f ;f ab 74 >f ,f 15 o2 g3 'f ca )f a5 <0 w2 |0 |0 w2 !f ma #9 A2 B2 vb ra zb 30 %e +9 70 la +9 50 70 ~f Cb {f ]f ^f /f (f ,e _f 4e :f 4e ~f ]f <f g0 [f }f |f 1f 2f 3f 4f 5f 6f E4 Q6 Q6 7f 8f 9f <e 0f af bf Pb A5 Q6 cf df ef J( =/ #[ i[ D; 3> A, b> H> H> b> b> b> b> `; =2 Y; z; A; Z; A; #; A; C- ;< ;< B- C- 1_ ,d {d ~d B- A- ;< ;< B- X- ,d $_ 5b ^; ff gf <> hf if Mc jf kf lf jf mf nf of pf K> qf |d 4! %> &> V= &= 8* D* S& S& R& R& R& R& c& r% V$ V$ r% d& 7* 7* 7* A& d& d& 7* 8* <~ rf sf tf uf vf wf V2 y: xf yf zf Af e, Bf :< |_ Cf b* f& .% F* F* Y% z& 7* X% :* Df u* u* v* ",
"Ef Ne Ff Gf Hf If Jf Kf Lf Mf Nf Of Pf Qf Rf Sf Tf Uf Vf Wf Xf Yf Zf M( M( (b Oe Oe /; /; :b :b :b /; /; /; :b :b *a *a *a [b [b =a =a =a =a =a N9 f8 f8 f8 f8 f8 f8 f8 e8 `f 1b i8 c7 l8 5b g8 `f e8 Fd Ed Fd N9  g .g +g <b Fd J_ 5( 5( 3( B; B; h' 8> 3) M! M! z' X] 6: K^ Te w{ w{ J^ ~^ `] j< ]: ]: g< 9[ @g =: =: M: #g $g %g &g ma *g b5 q2 [4 We Xe 75 p6 54 Ye 65 =g -g =g N8 y8 aa ;g >g aa W8 W8 W8 l6 k7 k6 n6 U8 ,g ,g 'g )g t7 35 34 i6 N8 i7 !g ~g {g ]g M8 nb ^g /g ^g /g (g _g |5 :g )f u6 <g tb ia ia tb A2 B2 vb vb vb Ab ra la B2 +9 A2 Nc 30 vb [g %e }g |g 1g ~f |g :f 2g 3g _f _f ~f ~f }g :f 4g d0 5g 6g 7g 8g 9g 0g ag f} bg E4 cg Q6 dg 9f 9f 8f eg P, +[ fg gg hg ig jg kg lg L~ O, mg 7> D; ng H> H> H> H> H> b> b> b> b> +> N^ t) u) #; };  ; t) C' X- A- A- X- C' ;< og pg 'd z- z- D' {d Y- kc kc <b qg rg sg tg ug vg wg xg yg zg Ag Bg Cg Dg Eg Fg -! Gg G/ 7; &> d= &= &= D* D* R& R& R& r% R& D* z& A& D* 7* s% 8* D* A& d& d& A& D* 8% Hg Ig Jg Kg Lg Mg I> :) Ng Og Pg Qg ,~ ,= R, j8 Rg W' Sg J$ h( +% %- k1 Tg k1 }* 1* u* Df re ",
"P> O0 Ug Vg id Tf Wg Xg Yg Zg `g  h .h i) +h @h #h $h %h  g &h *h =h N( N( -h ;h /; *a M9 :b Oe ;h >h ,h :b M9 Oe *a 'h :b N9 Re  g &h =a f8 a8 [b a8 a8 a8 a8 a8 a8 a8 b8 )h !h ~h `f `f 5b P9 Fd Ed Ed ^; ^; ^; ^; 'h ^; <b a8 {h F/ I_ ]h F_ C/ mg H> M!  < g} K! q^ '] u~ 29 29 29 s_ s_ j< j< ./ f< ^h /h D: 6< 6< V< (h _h :h J: C6 3[ O[ (1 V1 c3 @f 6a ,g <h [h 55 e6 b6 b6 b6 c6 N8 Jc Ic Jc j6 j6 i7 ^0 p7 n7 }h 55 54 o6 |h 1h 44 l6 i7 m6 i6 A8 Td 2h 3h 3h z8 4h 1h 5h 6h 7h 8h 9h .e 0h :g sb `8 #e c5 +9 A2 +9 A2 +9 B2 Ab xb yb Nc vb ah bh ra #9 70 yb Ab mf ch Mc dh eh dh Mc fh ch ch gh mf ub ub hh Wc ih jh kh lh mh  d nh oh u| ph qh rh sh th th uh (9 5< vh wh xh yh zh Ah Bh Ch Dh Y< $< 8: Z< p< H> &< -2 P, P, G> o~ 9> 5> 7> a> `; B; `; .> A; t) Y; Z; u) Z; Y; t) A; -< u) Z; l} v) -< Z; C- C- c> *a Eh M( Fh Gh Hh Ih Jh Kh Lh Mh Nh Oh Ph Qh Rh Sh L9 Th Uh Vh +} S= == == 7* 7* A& A& d& A& d& _& Y% _& Y% <* D= s% Y% d& d& s% s% Y% 6% ;= Wh Xh Yh Zh Zh `h 6/ (= T& Z$ Z$ '> '~ /~ z<  i .i +i @i ,= 8% 0; _& <; c; }* Y* Y* Y* E= ",
"#i Eh Ug $i %i &i *i =i +h -i ;i >i ,i 'i )i !i ~i {i %h ]i ^i /i (i ge N( Eh ,h ]i {i ]i /; >h _i *a *a *a *a :b :b >h %c :i <i <i f8 [b Re [b N9 a8 a8 a8 a8 a8 a8 a8 b8 [i hc m8 Dd `f Qe d8 ~8 Fd Fd <b <b <b <b %c %c }i <i {h  _ |i P> 0> 5> =< o~ y'  <  < y' 0{ 1/ u~ 29 29 29 s_ s_ j< j< ./ f< ^h /h D: 6< 6< @g _h 1i :h 2i C6 C6 3[ O[ l| V1 Q8 3i 4i 5i 6i #f |5 b6 b6 `9 b6 x8 c6 4a {a f6 f6 7i l6 k6 8i n7 9i 0i ai bi ci di ei fi o7 gi hi hi ii ii ii ji ki li li ~0 di mi ni 74 oi ca sb `8 #e c5 +9 +9 r3 r3 B2 r3 vb la xb 30 r3 qa pi qi bh 50 30 30 ch fh ri dh ri Mc gh mf Mc Mc fh ch gh gh mf si ti ui vi wi xi yi zi %2 Ai Bi Ci Di S( Ei Ei S7 ph Hd !] Fi Gi Hi Ii Ji Ki Li Mi Ni $] $< ^^ B_ &< &< -2 -2 -2 -2 -2 H> I> 0> a> b> 9> B; B; B; 3> A; t) t) t) t) t) A; l} u) Z; u) -< l} Y; #; ~d Z; Oi n_ Pi Qi Ri Si Ti Ui Vi Wi Xi Yi Zi `i  j .j +j `b @j #j R> o( R= e= d= &= == D* E* E* == E* B& B& == &= &= 8* Y% A& 7* A& d& Y% d& 7* H$ J$ Sg }_ $j $j }_ J$ s$ x= <= %j o9 &j *j =j )~ -j c2 ;j >j ;j c= 9; _& _& |* |* }* v* v* ",
",j 'j Ad $i Pi )j !j ~j {j ]j ^j ^j /j (j _j :j <j [j [j }j |j 1j /d b) 2j -h ^i O0 O0 3j ~i 4j 5j ^i {8 O0 ^i hd Ne 3j %c 6j 7j [b a8 Re  g [b :i a8 a8 a8 a8 a8 a8 a8 b8 ~h Qe g8 `f b8 Fd e8 d8 f8 f8 >h >h >h >h >h >h %c 8j Gg |i 9j 0j G> mg :: P, h} `: m~ 7] -] ]^ u~ u~ 29 29 s_ s_ j< j< ./ ./ f< P: *: @g @g v( 1i aj bj cj 2i C6 U< M[ (1 V1 03 5a O8 6a e3 e3 |5 p2 }4 <4 [4 <4 }4 }4 i3 |5 75 54 ~0 |h dj dj ej fj gj hj fi ]0 ij jj kj kj lj lj mj nj oj pj qj rj sj tj 1h 55 ,f ,f oi ca sb `8 #e c5 B2 B2 ra Ab vb r3 r3 Ab la zb Ab 70 uj vj wj 80 zb xj yj zj Aj Bj Bj Aj zj Cj Bj Bj Aj Aj zj Cj Cj 70 Dj Ej Fj Gj Hj y3 B4 Ij Jj Kj j/ Lj Mj Nj Nj Oj Bi Pj ]: Qj Cg Rj Sj Tj Uj Vj Wj Xj +/ d} Yj ]^ 7] =/ =/ Aa Aa &< &< H> N! N! N! b> 9> 8> C/ G; .> .> .> .> `; B; 4> H; 4> B; `; B; 4> 4> `; A; Zj Z; P> &a `j  k .k +k @k #k $k %k &k *k =k -k Dg L( M> ;k |i c> 8; (^ Q= f= e= e= e= *= d= d= g= g= h= g= c= (= E- g- e& E* D* 7* A& d& z& S& W$ Z2 k* >k .i W' +' ){ w> ,k 'k )k !k ~k {k ]k ^k /k }3 (k l( _k d= h= e& e& 1* 1* E= u* v* ",
":k <k <k /i [k Pi }k |k )j 1k 2k 2k 3k :j {i [j [j }j 4k 4k 1j 1j 5k k' 5k 2k 6k O0 hd ^i 7k 8k 9k ^i 08 Ne ^i 0k {8 6k *a ak bk .g N9 N9 gc [b a8 N9 N9 N9 N9 N9 N9 N9 N9 ck ~h dk dk d8 e8 Ed Fd a8 a8 M9 M9 M9 M9 M9 M9 ek ,h fk b: 6) 0j =< gk -2 P, `: %< `: m~ 9{ ;| |: |: |: O2 O2 hk ~( A/ ./ ./ f< P: *: @g @g v( ik aj bj bj 2i 2i C6 U< 5} m| Z} U1 jk o8 5a jb p2 q2 w8 <4 mc p3 mc mc a4 |4 o2 74 mb kk lk mk nk 5h ~0 |h ok pk qk rk sk tk uk vk wk xk yk zk Ak Bk Ck Dk Ek Ye 64 Fk Gk @e @e `8 c5 #e r3 r3 Ab Ab vb r3 vb Ab ra ra zb ra Nc Hk bh la la Ik zj Aj Jk Kk Lk Lk Lk Lk Kk Jk Jk Bj Aj zj zj Mk Nk Ok Pk Qk Rk Sk Sk -9 Tk t4 t4 Uk Vk r5 r5 r5 !: Wk M6 Xk Yk Zk `k  l .l +l @l #l $l e| z4 1( {^ =/ =/ Aa Aa Aa Aa &< -2 H> H> H> o~ C/ P! B/ H; 4> 4> 4> H; A, ng =2 B; B; `; B; B; B; `; Y; Q9 n< F_ 'j Pi |k %l Xk &l *l =l -l ;l >l ,l 'l v' )l K> x, I_ O^ f> !l Q= Q= e= e= e= e= e= e= N; h= 9; 9; 9; g= e= E- e& E* D* 7* A& d& z& S& Y$ 6^ <^ +' ~l @' 1^ G' {l 'k ]l ^l /l 1~ (l _l ^k :l <l U_ [l }l 9; B& e& Y% |* -- 4* 8^ =- ",
"&a |j |j |j 1j |l 1l Q6 2l 3l 4l -h 5l 5l 5l 6l 7l 1l 1l %d %d *d af D/ >] q9 3j 3k 8l 9l ~i 5l 3j {8 0l q9 hd 0k 0l O0 Oe al bl gc ^; <b =a &h  g N9 N9 N9 N9 N9 N9 N9 N9 Ed c8 cl cl ck ck =a =a a8 a8 M9 M9 M9 M9 {8 {8 dl el |d |d fl J> -~ P, k} .} x' |: u~ |: I( I( `: `: `: |: |: O2 ~( ~( '( '( ./ gl @( v( v( v( ik ik ;: ;: >: >: F[ U} o| L[ :4 S1 S1 hl il jl q2 w8 <4 p3 p3 2[ p3 p3 kl mc ll Xe 6h li ml nl m6 nb ol X9 pl ql rl sl tl yk ul vl wl xl yl zl Al Bl Bl Cl Ek ~0 6h Gc Dl @e @e `8 c5 r3 r3 vb r3 r3 r3 vb Ab ra la zb xb zb la %e xb 70 80 eh Jk El El Ag Ag Ag El El El El El Fl Gl Hl Hl Il Jl Kl Ll Ml Nl Ol Pl Ql Rl Rl Sl d0 d0 d0 Tl Tl Ul Vl +k Wl Xl Yl Zl `l  m .m +m @m k| k4 i0 01 O2 Da Fa =~ =~ Aa =/ -2 P, -2 &< H> o~ i[ =< F_ G; H; 4> 4> H; A, =2 #m B; B; B; B; B; B; B; u) y, n8 #m 9j $m %m &m *m =m -m ;m >m ,m 'm )m !m ~m {m ,j Oi ._ $> $; %_ V= V= e= e= R= R= R= R= 1> U= S= T= M; a; g= e= _& B& 7* A& c& X% c& R& ]m S_ ^m w[ I{ j] [~ o; `= /m /m (m _m i* ec :m <m [m }m z> A0 |m {| _& e& Y% }* -- 9^ 1m w] ",
"&a |j |j |j 4k _e _e 6f E4 2m 3m 3l 4m 4m 4m 5m 6m 7m 7m 8m %d *d /^ 9m 9m 0m ^i 5l _j ~i ~i _j 3k q9 5l Ne 3j 4j 7k ^i _j %c f8 f8 N9 =a [b gc gc =a =a =a =a =a =a =a =a c8 cl cl c8 c8 ck =a <b a8 a8 M9 M9 M9 M9 {8 {8 am ~i O! 0j 'j m_ -2 -~ O, y| |: K^ K^ |: Z] O1 %< %< %< %< x' x' t_ bm '( '( ./ gl @( v( v( v( ik ]1 D[ D[ D[ ;: V< F[ I[ cm L[ dm dm X1 X1 em 96 kl b5 0< 0< 0< fm fm x2 w8 }4 8a 6h gm ml hm q7 i7 ol n7 im qj jm km lm mm nm om pm qm rm sm tm um vm wm xm ym di ni ni zm zm ia c5 r3 vb Ab B2 r3 vb Ab la zb %e xb xb 80 xb la 30 wb xj ch Am -m Bm Ag Fl Gl Gl Hl Bm Ag Ag El Fl Fl Gl Bj Cm Dm Em Fm Gm Jl Hm Im Jm Jm Jm Rl Rl Sl Sl Pc 2g Km Lm Mm Nm Om Pm Qm Pm Rm Sm Tm Bg Um 21 n5 d[ Vm Da ;d ;d ;d k} r< P, P, -2 -2 G> G> i[ *< 8> B; B; B; 4> H; G; A, B; 4> H; 4> B; B; H; z, Wm Xm Ym Zm `m  n .n +n P[ `8 @n #n $n %n &n *n =n -n [j {h N5 P^ 6/ R= V= V= e= e= R= R= g> g> d- Q^ ]- Q= U= N; h= d= _& B& 7* A& c& X% c& R& ;n >n ,n G} }3 'n ;= 6% h$ 2$ Z$ Z% )n !n ~n :i {n 07 p- ]n ^n }- <; E* 8* c& v* ^* w] /n 1m ",
"<k |j |j Ga Ga (n (n t~ z5 _n :n <n [n [n [n _n }n |n |n 1n o) 2n 3n 4n 5n 6n -h (b 7n zd (j 8n 9n 7n 0n Eh an bn cn -h 3k *a =a [b Re &h Re =a a8 =a =a =a =a =a =a =a =a dn dn ck e8 c8 dn &h a8 >h >h >h >h 08 08 08 08 7n n_ fl m_ _b _b .[ .[ y| O, {^ Te Y< en &| *] %< 7: %< %< %< x' t_ t_ &/ &/ '( _: f_ u( u( u( D[ ,: S9 S9 M: }} E[ V< I[ fn J[ gn hn in jn 1[ M[ O[ O[ kn kn J: J: U< P[ Y} s6 4i [h ln mn nn 4h !a k7 on pn qn rn sn tn un vn wn xn yn zn An Bn Cn Dn En Fn Gn Gn _g Hn In zm ia c5 r3 Jn Kn vb Ab ra la zb %e xb xb 30 50 50 30 Nc ah xj ri Am -m -m -m -m Ln Ln >m Ln Ln -m -m Bm Ag El El Mn Nn On Pn Qn Rn Sn Tn Un Vn Vn Ol Wn Xn Xn Ml $e &l Yn fj Zn `n  o .o +o @o #o $o %o :0 B2 H7 !] K( Vm Da Fa Fa r< .} k} k} P, P, P, -2 &< H> 9> 4> 4> H; H; H; 4> 4> 4> H; G; H; B; B; A, &o *o =o Ym ;! -o .j ;o >o ,o mf Lc 4g 'o )o !o ~o |j gd H_ G/ d> P^ g> {o R= e= Q= Q= Q^ Q^ (^ (^ e- Q^ l[ ~- R= U= g= d= e& E* D* 7* z& c& z& D* ,~ %; &> D- ]o ^o [_ a; Y% z& 6* /o *1 x[ (o _o :o <o }_ T_ [o ;= e& }o R_ T& E= X* u] |o 1o ",
"|l 1j |l |l 6f 6f eg 2o 3o t' 4o 5o }n }n }n c) 6o 6o |n 1n o) 2n 7o 8o 9o te 0o 0o 0o -h -h -h an Na ao bo ^i co do hd 08 eo  g N9 a8 [b &h &h gc =a =a =a =a =a =a =a =a N9 c8 <b Ed &h fo go +g >h >h >h >h 08 08 08 08 08 5l ho _b J> J> L9 io O, .} ;d Fa :e jo ko T7 x' x' x' x' %< %< X< X< */ */ */ m/ m/ #/ A( A( .( .(  ( ~1 Q1 ,: D[ ;: W< M: d< C6 31 H: R[ 9< kn kn fm kn z2 U< lo P[ <4 l2 h3 mo no oo po li ~0 ei 0a ]0 #0 qo ro so to uo vo wo xo yo zo Ao Bo Co Do Eo Fo gi {0 _g Go X8 zm sb c5 r3 Kn Ho ra la zb %e %e %e %e %e yb 80 Mc Mc Mc ri Io Jo Lk Ko Lo vg Mo No Oo Po Qo vg Ro >m Lo -m So So To Uo Vo Wo Xo Yo Zo `o  p  p .p .p +p @p +p #p r3 $p %p &p *p =p -p ;p >p ,p 'p )p !p )a ~p C7 {p ]p 9e pf Sb Da .} O, -2 P, i[ i[ P, &< -~ T2 i[ h' =< F_ F_ h' C/ 8> 8> G; A, G; 4> 4> @> ^p /p Wm (p gk <e _p i< :p <p [p }p |p 1p 2p <> $i Oi N0 ._ $> d> (^ Q^ I} P= P= P= ]- %_ 5/ 5/ ~- o( 7; #_ #_ f> 6/ 6/ V= U= c= &= &= 7* R& S& T& <; 0; [_ 3p d: e: R> A' m= 4p 5= p= Y- @! 5p a) 6p <l z> %1 7p Sg E* 8p 9p e( -- v* =- 8^ 7^ ",
"$i =h $i [k 5m 5m 5m 1l 0p ap bp cp dp ep W! !o F5 fp 2e gp df hp ip Ub a: 6l jp 7n zd Eh 0o 3k hd O0 q9 {8 M9 O0 Oe :b a8 %a kp kp kp kp kp kp kp lp lp lp lp lp lp lp mp [b N9 M9 N9 Oe :j np op %c >h >h M9 M9 *a *a :b >h 'h 0l q9 q9 0l Na pp qp rp `m sp tp up vp wp hk Y: !] &| *] @] +] ;| 3{ 3{ 3{ 1/ 1/ -] R] R] d^ L] l/ d| *( *( xp yp _h _h zp Ap Ap Bp Cp Cp $g z2 u3 kl v6 i3 Dp ,f N8 65 j6 55 i6 55 h7 o6 po Ek Ep Fp Gp nj Hp Ip Jp Kp Lp Mp Np Op Pp Qp Rp Sp Tp Up Vp Wp Xp Yp ni Go Zp `p <g *g  q Jn .q .q  p 5e +q @q yj yj #q $q Bj %q @n &q *q Ko =q -q ;q jf >q ,q 'q ,q )q Qo !q ~q {q ]q {q ^q /q (q _q :q Gl <q [q [q [q zj Bj Aj @n }q  9 B7 |q 1q 2q 3q 4q 5q 6q Mh 7q 8q 9q 0q aq bq cq 06 dq eq Ki fq f{ s_ `: p^ mg P! P> gq |d J> hq L9 *2 O, !| y| O, =/ P, @[ *< F_ 8> P! 2( 0) 4> iq Wm jq kq X( `: ph lq mq hf T: b[ nq Q6 5k 'j oq pq 'd {d ,d ,d b- 0- z| F= J= qq qq 0= o= r= '- $} v; +7 +7 rq sq pq `6 s) q- <_ c= e& T& ,_ V$ N* ;= p- tq uq vq J< 6> #> $; +} R, wq xq yq zq 3b $; <_ T= U= 9; B& *= == == == E* g= h= T= ",
"Aq Aq Aq Pi Pi 2m 2m `j |k Bq Cq q/ Dq Eq Fq  j Gq 1n th Hq o) z5 Rb Iq eg io Jq Kq Lq Mq zd 2k ~i Ne 3j ;h ;h Oe Oe Re &h ck kp kp kp kp kp kp kp lp lp lp lp lp lp lp lp gc /; *a >h >h *a Oe ;h >h M9 M9 M9 M9 M9 *a *a >h %c *a ;h ^i q9 Nq pp Oq Pq Qq Rq Sq Tq Uq Vq Wq Xq Yq d[ >| Zq 3{ X] W( W( X] X] q^ a{ a{ -] *| d[ K] m^ e^ Z/ >( `q  r  r .r .r +r @r @r @r #r #r $r  0 x8 4a Ic h6 W8 m6 %r m6 h7 j6 &r *r gm li ij ql =r -r ;r >r ,r Rp 'r )r !r ~r {r ]r ^r /r (r _r :r <r Sd [r Fk f3 @f }r zm #e Ho |r .q .q  p 5e +q @q yj yj 1r 2r Cj *q 3r Ag 4r 4r 5r 6r 6r 7r 8r 9r 0r ar ar br cr dr {q dr dr ;m So er fr 4r Ag Ag Hl gr hr ir gr jr ~p fr er kr lr mr nr or pr qr rr sr tr ur vr wr xr Bo yr xm zr Ar Br Cr Dr Er x' X( P! G; {h P> O> <: Fr v, A5 D4 3! Fa J( Vm .} O, l_ Ia o~ >! ;] 9> h' Gr Xm Hr Ir ([ -] Jr Kr Lr Gq Mr Nr Or io 9j Pr  _ Qr ,d 1_ D' D' C' b- 69 b- h1 J= '- 9= t- M= z| 8; Rr  _ {h Sr Tr [j Ur Zh 3p (^ *> e& Y% R&  % M* K) Vr Wr Xr rp Aa k} _o Zh R> P9 /5 Yb Yr Zr `r +} $; g> V= 9; a; == == == c= g= U= 6/ 1> ",
"8f 7f 7f 8f 8f 7f 6m  s .s +s @s #s $s %s p/ &s *s E5 =s 8m o) E4 Rb Rb Rb N> -s ;s >s -s _b ,s ho 9j }j 's )s 0m Ef oq !s ck ck ck ck ck ck ck ck d8 d8 d8 d8 d8 d8 d8 d8 :c ~s {s  _ H_ {h {h {h {s {s {s {s  _  _  _  _ H_ H_ Ef <j <j Ef $c $c <: 6l `b ]s sp ^s /s (s _s :s Ue <s p) 7: `[ f[ lc o, o, o, i~ i~ q) p) q< [s I( $] }s |s 6_ 1s 2s 2s 1i 1i 3s 3s 4s 5s #r #r $r v6 6s Ld Ic i6 p7 %r 4h ol V8 j6 7s 8s 1h gm gi 9s 0s as bs Ip cs ds es fs gs hs is js ks ls ms ns os ps qs rs ss Zi 3i ts us hh Ho Ml .q  p 5e vs +q @q yj Il &q ws xs ys zs :q El As Bs >q Cs )q )q Ds Es {q Fs cr Gs =l Hs =l Is ~q Js vg Gl (q Bm 4r Ks Fl 3r -m (q Ls 4r (q er Ms Ns Os Ps Qs Rs Ss Ts Us Vs Ws Xs Ys Zs `s  t .t +t @t #t $t %t X: |: g} *< h' C/ C/ Zm &a &d <e &t *t q< q< e[ _9  [ m~ 5p =t -t ;t >t ,t X( m< 't )t !t 0g *| t_ ~t {t ]t R( uh N, S6 Ia Ef  _ v) l} l} -< {d C' ~d Ja 59 b- I= K= '- h1 h1 '- ]o H3 F/ ^t p~ /t P> ^t d: s) #} (t %; A& M/ Z% H$ #' _t Wr :t L~ {^ u~ 7: =< 9> p~ <t [t }t |t 1t 3p i1 A' R= 9; a; g= == == == c= g= U= U= ",
"7f 6m 2l 8f 8f 7f 2t 3t 4t 5t 6t 7t 8t 9t 0t at bt ct dt et ft df Rb Rb z5 1l Fr |l gt &d 1j gt <k <k :k }j :k ht 0m >] te [b ck ck ck ck ck ck ck ck ck ck ck ck ck ck ck {s it it ~s ~s ~s it it it it it {s  _  _ H_ H_ {s  _ Ef [j [j Ef Zm 6) 'j _b <: jt K> kt lt mt nt ot pt qt rt N! m< F_ o, 8> o, 9> i~ o~ y' &< p) l~ j} st *| C3 tt 6_ Z/ 2s ]1 1i ut vt 5s Kl wt xt yt zt At Ld aa aa m6 %r %r ol p7 i6 *r Bt 65 1h ij Ct Dt so Et Ip Ft Gt Ht It Jt Kt Lt Mt Nt Ot Pt Qt Rt St Md Tt Ut Vt Wt Cc 'f Lc Oc _d  p  p 5e vs +q Xt yj Il Ko 1r zj Yt Zt -m Hl As ar br br Ds Es `t  u .u Fs +u @u Is +u #u $u %u &u hr *u *u =u >m Ks Gl 4r Ms Ms 4r er er Ms -u ;u >u ,u 'u )u !u ~u {u ]u {u ^u /u (u _u :u <u [u }u |u 1u 2u `] 29 Ob B_ *< *< *< l_ `b v, P2 3u bg Te Te g[ _9 g[ %< %< `: 7] m~ f} 7] x{ (n Ra +< 4u 5u u| 6u 7u 8u ]t R( Hq R2 .[ G4 0m {s 4> l} -< -< 1_ C' 1_ ,d b- b- c- ~| ~| h1 J= 5- K; e> c: 9u 0u au bu c: `6 $> #} cu J5 == f- F) *, du eu fu gu 3! Ue Hd X< 7] 4< M~ =~ hu iu wf 6) O^ `h i1 d- U= T= g= &= &= == == c= g= g= ",
"0p .j ju 0p 9f 0p .j ku lu mu nu ou pu qu ru su tu ct dt et ft ft 3o 3o df V; v, +j )l v, gt uu 5k gt |j _b 'j ,s 's }j Ef [b [b [b [b [b [b [b [b [b [b [b [b [b [b [b [b  _ {s ~s :c vu vu vu vu ~s ~s it it {s  _  _  _ ~s  _  _ ~s Ef |i |i Ef wu (; $c 'j fl &a gt xu yu zu Pb <: *< Oi b> F/ 4> Q> B; 3( 9> b: H> -! :: [e Au Bu  [ e} w| $/ L] Z/ =( Cu Du cj cj Eu wt s3 Fu w6 Gu Ld aa aa 4h o7 ok ol q7  f nb -g 74 ni on Hu Iu Ju Ku vo Lu Mu Nu Ou Kt Pu ^u Qu Ru Su Tu Uu Vu Wu Xu Tt Yu Zu 3i Bc us #e `u  v  p 5e 5e +q @q Xt Il Il Cj %q %q Aj El Fl Fl Ag .v Fs +v @v cr #v $v %v #v &v $u *v =v -v ;v >v ]q ,v Ns 'v )v !v ~v $p {v {v Ns ]v ^v /v {v Am 8e El (v _v :v <v [v }v |v 1v 2v 3v 4v 5v 6v >f 7v 8v Uj 9v 0v b[ bm u~ %< 7:  < #[ .} !| Vm Vm vh -| W] ]^ )] )] %] e} av I( I( bv cv x| *] dv ev fv 4: V( $] gv hv iv 9e jv Nr J( O, i[ C/ A, H; A, v) -< u) u) 1_ ~d X- u- a- u- c- u- kv lv s) c> mv nv Uh a9 9u 4! Rr ov P^ l[ T= h= ,~ G* I{ j: 4b pv F3 ]( mq W: H2 K] qv rv (d f{ fq sv tv /t c: Rr D- &> S= g= &= &= 8* D* == == E* ",
"ju .j ju 0p 0p 0p ju uv vv wv Dq xv yv zv :/ Fq Av fp F5 1n 8m gp Bv Bv 3o  s 2l Cv Dv 2j )l Ev 1j uu 7l Fr <k Fv Gv Hv 9j Ef [b /; [b /; [b /; [b Oe gc Oe gc Oe gc Oe gc it it ~s ~s ~s ~s it it it it it it {s {s {s {s :c H_ {h  _ |i Oi ]h 0m #i ht 6) O> Zm _b J> vq `b K> J> Zm Iv H_ Q> J_ c> c> 3( 3( b: b: |d wu 0j D> &< -2 Jv 5p I( o^ m^ L] =( *( Du yp Kv Lv Mv s3 w6 Gu Nv Ic j6 ol ij o7 Ov o7  f 0a aa g6 .e _g Pv Qv Rv Sv Tv Uv Vv Wv Xv Yv Zv `v Kt  w .w +w @w #w $w vc r7 Hn 4i 4i Zu %w &w tb Un *w  p 5e vs +q @q Xt Il kr zj Ko Am Kk -m =w =w -m @v +v cr .u %v #v #v %v -w &v ;w >w ,w 'w )w !w ~w {w ]w ^w /w (w @k $p Ns ^w _w ~v {v -u Ns #q :w <w [w }w |w 1w 2w 3w 4w 5w 6w 7w 8w 9w ws Ab 0w aw bw cw dw ew Pj k2 X< %< %< %< |: V! Ea 29 %] ]^ 9{ -| )] ]^ %] >| e} Z: fw gw hw iw )( Z: z_ 3: jw V( t_ kw S( j< R( hk Ni F4 Iq #[ G> D/ P! @> A, l} -< 1; -< ;< {d {d ~d 9- 5- 69 lw mw 4( ._ nw ow pw I_ qw 4! H3 +7 i1 7; [_ S= &; 8% rw e] ~n sw lg tw Xj V[ ~: L7 }d Uk b} uw vw ww ot xw Oi qw %> f> d- g= e= &= 8* 8* == == == ",
"=s =s =s =s =s 2p 2p 2p yw zw Aw wv Eq Bw Cw Dw Ew Fw Gq Gq 1n 2e E5 E5 ft dg dg Gw Hw lg Or Q6 Q2 F4 E4 P2 W7 hp Iw eg <k 9j Ef 9j Ef 9j Ef 9j Ef #i 0m #i 0m #i 0m #i 0m #m #m =2 =2 ng ng ng ng @> @> ng ng ng ng ng =2 ng G; h' B/ B/ h' h' B/ Jw G_ 3/ 5> 8> Ia mg P, &a sw |d gq P> 3( ._ Kw d> d> c> I_ b: b: wu wu O0 08 O> wu T2 Aa |: Y< !( r^ '( _: ): 81 k5 Lw Mw Nw Ow Pw Nv Ic j6 p7 8i o7 Qw gi n6 n6 m6 V8 f3 Hn )a Rw Sw Tw Uw Vw Ww Xw Yw Zw `w  x .x +x @x #x $x %x &x *x rs ni =x -x ;x >x pb Lc Tn ,x 5e 5e vs +q Xt Mk kr kr [q Aj Jk Aj El As ir El .u #u #v 'x )x !x !x !x ~x {x ]x ^x /x (x _x :x <x {w {w [x }x ]v |x $p 1x $p 2x 3x {w 4x -u .q 5x 6x 7x 8x 9x 9x 0x ax bx cx dx ex fx gx hx ix jx kx 0w lx mx nx @| A/ bm t_ d[ U7 U7 ox ox ox %] T] px qx qv N] 1( &2 &2 #/ %/ K2 rx sx g/ s| tx ux vx t| c1 H2 X: `] Oj Dh Di wx xx =t G> q: P! P! C/ 4> =2 yx =2 t) -< {d C' C- C- {d 49 zx #> H_ c: #j vu Ax O^ H3 G/ `h K; (^ 1> d- *> c2 Bx Cx Dx L> 2p Ex Fx Gx Hx Ix Jx Kx j| Lx Mx Nx Ox Gv $c Gg R> 6; d- e= e= *= 8* 8* 8* D* D* ",
"=s =s =s =s =s 2p 1n th Px 0t Qx Bw Eq Rx Eq Sx Tx  j Ux F5 Ux Vx Wx 2e 2p Xx 8m 2p gp uh ft Yx df o) %d D4 Q2 %d _e %d Pb _b 9j 9j 9j 9j 9j 9j 9j #i #i #i #i #i #i #i #i 0) #m =2 =2 #m 7) /^ /^ A, @> @> ng ng =2 =2 #m A, C/ P! D/ D/ P! C/ P! B/ a: D/ 3/ 3/ 0> ;] G4 m_ 0j Oi Pr  _ 5( 6( kc d> d> c> I_ b: Zx wu wu `x  y .y (; @[ #[ q0 Te !( r^ '( gl ): v3 k5 j5 q3 +y Ow Pw Dp aa ol p7 o7 gi 8i 8i 8i %r %r 4h 54 1h n7 Ct @y #y $y %y &y *y =y -y ;y >y ,y 'y )y !y ~y {y ]y ;g ^y /y 'g (y 'g _y :y Lc Tn <y [y 5e vs +q Xt Mk kr kr Lk Jk Bj Jk -m ir *u 3r @u }y |y $v )x !x )x 1y 2y 3y (x 4y 5y 4y _x 6y 7y Ih 8y 2x 8y @k @k 4x {v {v Ns ]w 9y 9y Ns Il 0y *9 ay by cy dy ey fy gy hy iy jy ky ly my )e ny oy py qy ry [[ x( sy '( ~( Y: l< Z[ ty ty !] `c S] l^ v_ qv 1( d1 T( k/ uy s| gl vy wy a} xy x5 yy Yj %2 P7 M2 Pj zy (d )( Ay By Cy =t ;~ gk h' C/ b> 9> D/ Dy Ey B; 4> Z; Y; ~d 1_ ~d X- z; d:  _ Fy qw c: Zh ._ Gy H3 `h s) $> q- q- 7; $j 16 E1 Hy )l Iy Ri Jy Ky Ly My Ny Oy Py Qy Ry Sy ty L> ;k Gg e: ]o &> *> e= *= *= 8* 8* D* D* ",
"Ux Vx Ux F5 F5 fp Vx sv Vx !m Rx Ty wv mu Uy Vy Wy Sx Fq Tx Gq Vx fp F5 Xy Vx 2e ]p 2e Yy 2e Zy lg `y  z Bv [: D4 z5 cg Q2 fl fl &a <k 4k 6l |j 'j &a 'j <k _b &a 'j |j }j 3/ D/ 0) P! B/ a: D/ h' 3/ F_ P! B/ E/ a: 0) F_ Ub .z +z j' H4 G4 @z #z P! P! P! F_ B/ P! 8> b> O> Zm Pr Oi 3( c> @_ @_ d> @_ J_ I_ P> Iv 6) O! %c :b 6) O! -~ :: Y< x' g1 l< #| ]: 61 =: d< $9 z2 $z v6 %z ,0 aa %r n7 &z *z =z gi ij 8i ol 8i -z ;z ;z -z >z ,z 'z )z !z ~z {z ]z ^z /z (z _z #x :z <z rl Xp _g [z jb }z |z }z 4i zm #e 1z 2z 3z 4z 4z .q 5z 6z Il 7z Ko 8z Ko Aj -m No :q -m }y Gs #v 9z 0z !x -w az bz bz 4v /x cz 4y dz cq ez fz gz hz iz Yi jz kz lz mz ;f nz iz oz Yd pz qz rz sz tz uz vz wz 0x xz yz zz Az Bz Cz Dz Ez Fz Gz Hz Iz Jz Kz 6< @g 0} c} @| %| %| c[ b[ W: 1( Lz a1 Mz y3 K7 x3 w3 O6 71 81 y( Nz Oz Pz 61 ;( r4 r4 x3 H2 K2 sx sx Q7 kw N2 |/ `: (n ,t Q, gk o~ Qz Rz b> F_ h' ng .> H; G; u) Z; u) Z; #; 3( p~ Ax d: O^ #> R> Rr 6; %> 8; 3p 6; $> K; Sz Tz E1 Nq Uz Vz Wz Xz Yz Zz `z  A .A +A @A #A $A %A &A J> wu c: 8; $; V= d= &= &= &= 8* 8* &= ",
"Ux  j Ux *A Ux  j fp  j  j %s =A %s -A zv ;A >A mu Qh  j  j ,A 'A Vx )A yw )A Vx Tx ]p Vx Xx Ux E5 !A ~A gp uh 8m df dg D3 Pb |j 4k 4k <k 'j <k 4k 'j <k <k |j 4k 4k 'j m_ G4 a: Ia P! =< 0) G4 P! G4 3/ mg F_ {A B/ mg *< ]A ^A /A &< I4 (A -~ gk _A :A L^ 8> a> h' 0) a: G> $c P! ]h G; ._ l} kc ,d ._ 4> gq b> wu -~ -! O> _i O! 0j #[ O, Y< U7 r^ `] 73 0[ U[ C: <A kn w2 v6 [A Ld [r >g m6 Qw }A *z |A 1A Ep 2A 2A ql 3A 4A 5A nn ij Ep qo 6A Ju 7A 8A 9A 0A aA bA cA dA eA fA Fo q8 gA hA Cc iA jA kA lA ob ch mA nA oA pA qA 4z B7 Xt x7 Jo %q Aj Ko Ko Bm Ln >m Ln rA sA %v #u tA )x uA 7w bz ~x ~x _x cz 4y dz cq vA wA jz jz jz xA wA lz yA ;u Yi oz zA mz Yi )a AA BA CA DA EA FA GA HA IA JA KA LA MA NA OA PA QA 6a RA SA TA UA k| VA 9} F2 y( W[ W[ J2 V[ B3 01 WA z4  c 91 -( e|  2  ( v3 y( y4 XA YA ZA 9_ !: K7 q5 q5 `A `A `A +2  B .B v| %] $d 4f 4f 2n G4 H> )! +B E3 L^ 3/ 9> P! B; `; 4> 4> A; t) H; Gg Gg 4! F/ 4( 4( #> G/ Vh 6; i1 $> K; +7 @B 4( 6p #B -! Nr $B %B &B *B =B -B ;B >B ,B 'B 'g )B !B L> J> |d F/ s) A' g> R= e= e= *= *= *= *= ",
"~B {B ~B ]B ^B ]B ~B /B /B Eq =A zw !m !m =A Bw Rx zv zw %s mu >A Av !m Av /B zh ]B Ah ^B (B Ah _B _B :B Ei sh Ei rh sh Hq P2 W7 W7 S6 y| O, *2 _e *2 O, .} y| Pb 6f _e bf <B [B (n  } g}  } <B  } =t  } =t I< $< `[ :9 <B _9 }B Ob 7] f} <B `: $< |B 1B 2B B_ X( 8: 8: X( B_ i[ lc h' b{ v) o< l} iq H; r~ P! %! [e x{ S6 9j |d M~ l_ _9 %< ]9 Y: '( ]: 61 $l 3} :4 3B 4B 5B 6B 6s 7B oz 8B n6 ok |A 9B *z im jj Qw Qw rk 0B 0B 3A nn ,f @e ~p Yp aB bB cB dB eB fB gB hB JA iB jB Fp kB hA /y @m |z lB mB }z Kc }q nB oB [y  p C2 pB Xt qB f4 $q [q Aj &q rB vg >m sB tB uB !q @v .u #v sA #v |y tA tA vB >w wB ]x ]x xB vA yB 9b zB AB BB CB DB 8B 9b zB 7s 7s zB zB m7 Dz EB FB GB HB bB IB JB KB LB $w MB NB OB PB QB RB $f !0 Qy 93 X1 l3 jn X} SB SB U[ U[ y( TB F2 UB Zc VB q4 WB i0 n5 xa l4 6[ XB W< N: D7 S[ p| F6 YB ZB L7 &( &( `B `B P7 f1  C v| .C +C +C @C +[ @[ #C :: T2 H> G> 3/ F_ b> 9> =2 ng `; 3> G; $C p~ F/ F/ G/ e> %> s) i1 @7 +_ %C &C F/ Zh :c P9 ~n *C pf $B =C ug -C ;C >C ,C 'C )C !C ~C {C ]C qf *C ^C c: 6; D- e- P= %; %; %; %; %; %; ",
"{B /B {B )o )o {B /B /C /C wv %s =A Eq Ty %s zw zv =A zv wv !m (C =A zw _C Ex ]B :C ]B <C ~] [C }C ~] |C tw Ei sh sh sh rh P2 S6 S6 S6 S6 S6 Pb W7 eg Pb .[ *2 S6 S6 _e hp f} 1C 2C (e $d $d 1C 1C f} Ob $d Ob _9 $d _< 3C x' 29 29 {^ u~ (9 za 7] x{ q) 7: 4C  } `[ %! M! `[ %! 46 o, 5C p< 6C Z< 7C d' .< 2n 8C p) *| 9C 0f *< M~ g[ $d H( }5 #| g/ @( @g U} 0C aC bC cC Aj  9 Gu dC zA eC Fp gi 1A jj *z *z |A 9B ok fC gC gC hC dj oi w2 B7 iC jC ]g pn kC fA lC xk mC @y nC Ct ym !0 oC Wl pC qC iA rC sC %z tC uC vC 3z wC @q xC qB yC }q zC Kk Aj Kk xs ir *u tB AC ar +v  u rA zg BC CC $v #v vB *v &v DC $u EC ez >v FC GC 8s GC HC CB IC Bt 9b DB 8B Xu JC JC KC LC MC NC OC Pv PC QC RC SC TC UC VC WC 5A XC YC ~0 Fk f3 e3 O8 ZC `C |1 [1 R< X}  D  D 9} 8[ 8[ .D +D ;9 m4 H7 H7 D7 XB Hx k4 k4 W< .| W< k4 D7 xa f0 ZB r5 r5 Uk @2 @2 e1 Ai x| Jb @D #D $D %D =t l_ ip [e &D bf *< (A G> C/ B/ D/ 0) @> 4> `; b: b: Gg c: e> e> %> K; Vh i1 O^ *D =D Zx -D ;D Re Q> gu Ue >D ,D 'D )D !D ~D {D ]D ^D /D (D _D w' sw 0j gq R> i1 +} e- Q= Q= Q= Q= Q= g> g> ",
":D <D :D [D [D :D <D }D |D -A zv Bw zv Eq Rx zw =A Eq zv 1D q/ 2D 3D 2D 4D :D 5D 6D Ex 7D 8D <C }( 9D }( ~B tw 0D 0D tw lq 3o E4 %d :e Rb Rb :e N, Rb z5 aD bD z5 R2 R2 E4 Y< e[ Nb bg bg Nb za Nb h[ za en Nb za Nb vh cD dD nq S7 pt }: R7 Ay {^ e[ Ob $d =t $< $< eD >t fD W( gD .< hD Gd iD jD kD #< lD mD nD t_ e1 oD pD :9 x{ )] >| Z: '( 71 qD p| i| _1 rD p2 8b h3 sD w6 6s ,0 [r q7 gi *z Fo 9s qj tD *z }A n7 uD vD vD wD di oi u6 xD u6 Nv yD q7 ij zD  f *f r7 rk uD ij mb Bc AD BD )B CD DD ED FD fr yt nB vC 8e +q 4z GD +q 5e zC HD &q Cj [q Bj Bm >m hr ID JD Ds KD Ds Ds Fs `t wg LD #u |y Gs +u }y MD ND OD FC FC DB 9b FC AB PD 8s PD IC PD IC QD Xu 7h RD SD TD UD Hl To VD WD XD YD ]y }h )g .e ts ZD ,f Hn Gc f3 Hn Q8 d3 Y8 03 l3 |1 `D `D  E  D VA .E {f C7 +E S< @E S< #E C6 J: j5 )e &e 90 #E $E D7 xa xa Tl r5 Uk %E %E Ai Ai &E *E  d nh .d f} (e =/ S6 S6 =E -E C5 mg H> E3 E3 b> a> F_ F_ 0> ;E 0m b: a9 #> c> d> 4/ K; i1 `6 qw >E ,E @j 'E vu Q> U2 J^ :p %t U[ )E !E ~E {E %| ]E 2u ^E Eq V2 6) [j =D 5( %> f> ~- Q= Q= Q= g> g> f> f> ",
":D }D |D /E |D }D }D [D (E Bw (C (C =A Eq !m Rx zv Ty >A _E :E Qx <E [E 2D 5D }E |E 5D 1E 2E 3E /: Ex }C ^B 9D 0D |C 4E 5E 3o :e Q2 P2 Q2 Q2 R2 Vm =~ ;d P2 bD bD P2 R2 %d y5 }: U7 C4 y5 T7 }: 6E y5 R7 y5 C4 6E T7 y5 qh 7E 8E 9E 0E aE S7 rh O2 T7 Nb en Ob g[ =t >t bE z[ 1: cE dE Qa eE fE fv gE lD hE iE a1 #/ G2 Gb jE $< -] X< N2 #2  2 kE lE Vl W1 s6 mE nE oE lb 6s v6 Ld 7B h6 ol gi }A qj pE tD qE 9B 1A Ep }A rE Bl di mb oi oi Gc |h jj Fo sE 9s zD &r Ks }x Fp tE di Zu uE vE wE @l xE yE mB zE -m $r AE BE CE 5e 5e C2 @q 5e kr DE EE rB Kk Kk Bm Bm Ag Bm FE GE HE IE JE .v KE LE .u cr |y +u }y @u Is ME NE yB CB GC zB DB 9b DB zB 8B ;g IC JC Bt ;g OE Yu PE QE mf @n 4r qc YD &x RE 1A 4h ^y SE TE UE g3 Jc t7 Fk Go 75 VE }r ts ZC uE em em nf WE j| :1 :1 _1 `} XE C7 {f YE ZE `E 21 @E $9 00 G7  F XB XB XB ua Vk Uk Uk Jj Ai .F +F @F dv @D  d $d 1C Pb Iq y| #F I4 [e =d =< E3 i[ j' B, 8> F_ C/ $F #i Gg e: O^ kc #_ (^ v; 6; 5( 3( p~ x, ;k |d {h D; L! w{ V: of %F |p q5 H2 &F C3 9E *F 0t =F w, ]h =D -F kc f> g> ~- R= R= &> 7; 7; 6; 6; ",
";F =C >F ,F 'F %B =C )F !F ~F {F mu zw Rx !m Eq %s [E ]F ^F 4D Qx /F (F Cq _F :F <F [F }F |F 1F 2F 3F 4F ew 5F 5F ew ew (B D4 %d %d R2 Da Vm :e Ca 6F N, !| %d aD %d Q2 z5 7F Bi l< Z[  B 8F !] 8F 9F  B 8F 8F 8F 8F !] Z[ Lj 0F Nj aF bF l< Z[ C3 &| $] $] *| Jb nh .d -| cF y_ dF eF fF v0 gF hF iF cF jF tx kF  c lF 01 $] Zq Yj v_ d1 01  2 l4 U< mF w8 nF nc ~a j6 oz Pw Ow Dp ^v oF 4h 2A pF qF 9s rF 9s ki 9B jj 4h ,f ca ca Gk U8 dj sF tF uF vF wF xF yF vm zF AF Ez Dk mb }r BF vE lx CF DF EF FF GF Po x7 lr lr HF IF .q 5e JF 6z HD KF LF MF NF 8z Bm >m >m Bm OF PF QF RF SF TF OF JD UF UF +v @v Fs !q !q VF !w 0b GC AB 9b JC 8s 0b PD PD QD 8B zB FC 9b WF XF YC OE YF fr |x ZF `F  G .G +G pF Ek Gn mB @G mi &r rs ;f RD ^y Hn X8 }r #G #G $G vE nf nf dm m3 $G ZC %G &G o3 *G :f =G -G E7 F7 Lw Vc  F Qc 6[ ;G ;G D6 g0 -9 ~E >G ,G 'G )G !G jE @D nh (e (9 Ca hp gu U2 Qb +[ Ga C5 P, i[ (A (A G> b> F_ 6) O> ^C e: R> s) A' f> Vh N5 G/ 9u ~G {G *C -! 3> J; L! w{ o/ a[ g< vy +2 &|  d $d ]G ^G /G (G :t F/ I_ #> K; f> g> Q^ Q^ Q^ A' A' K; G/ G/ ",
";F ;F >F ,F Qj _G Qj :G <G [G }G Fq %s /B /C /B )o |G 1G 2G :D 3G [D )m 4G 5G 6G 7G 8G 9G Wz dw 0G aG Qj bG ew 3e cG wy 1p nq 3o dG Q6 F3 Q2 eG fG gG fG F4 %d E4 o) D3 bg hG yi K2 B3 iG `A Hb +F jw iE $2 K2 Mj {: xy s| 9[ a} W[ X[ iG J2 K2 rx jG kG b1 $/ c1 Hb lG N] mG nG oG pG qG rG sG Pa jF tG uG vG kF wG xG r( R] qv lG yG  c 91 yp D[ $9 :f mF <4 0h Gk 75 34 %z At 4a ,0 =g i6 gi 8i *z !p zG AG ql 9B jj n6 0h u6 :g Gk di BG CG DG EG FG GG HG IG JG KG LG Fn tj (y T8 ZD MG uE )0 NG OG PG RD QG RG Tn SG TG UG HD 5z e4 yj tC VG WG XG YG Jo zj *q ZG ZG `G  H .H +H @H #H $H %H UF &H +v *H dr ;m {q =H ;l DB 8s AB GC PD PD 0b Bt 0b zB ;g 9b -H ;H Ez >H ,H KC %f 1x 'H ZF )H !H &0 ~H {H ]H im um tE %r V8 i7 j6 aa ^y 'H Xe ^H ts .e ZC ZC `C %G s6 bC /H Y8 `C r6 %G (H _H qi ~f !f :H +p Oc _d 'e sa sa 'e wa <H a0 [H }H |H 1H 2H 3H 4H *E iE +d Y< _e r< .[ 5H 6H 7H :: +[ S2 E3 8H 9H {A B, P! Gg b: P> Q> 4( $> $> d> 8; `h e: Q> |i |d 0H uq t)  ; 0> h} 29 v~ `] W: |9 U7 e[ R2 aH iu bH cH 6) #> `6 H3 $> $_ #_ (^ (^ (^ s) s) O^ 4! 4! ",
"if dH dH dH wy wy wy eH Nj 0D (B fH hf 5F {p 5F cG gH Qj hH iH Fx dw hH jH kH lH Xk mH ry mH nH 9G oH aG M6 bG M7 aG M6 Q: pH qH !B sh rH C4 wh sH tH uH vH Hd l0 qh |9 Lb wH Qa 0} xH yH Wk zH AH BH CH a1 TB em vE H[ +| nH E: DH EH -: M7 ]D FH GH HH IH x3 %E 6_ K7 01 e| g_ z( z( -( 91 z4 z4 7_ x3 K7 JH KH T} WA yG a1 yG yG LH MH NH OH d0 >: m4 M: {f Q[ o3 5} _1 us ^v 7B Dp Hc h6 >g  f ij m7 PH !p QH RH =z m7 mi Fk Gc 64 di kk Bl ;z SH TH TH 5A 5A ;z mk gm 5h kB U8 ni 8h Zp 5a Yu Zu %f [z +e zm [0 }0 UH Ko DE Cj iC @n 7z zC VH WH XH qB GD YH JF xC ZH &q 8z Qo As _q *u Mo 2x *l ,v ;m {w `H _w  I Ns pz yA pz nz .I GC IC 8s 9b Bt }h eC )a +I ei eC ym @I QD yD #I db UC $I %I &I *I =I -I ;I >I ,I 'I Pd )I !I xc oF ~I {I N8 %f -g 24 ba ]I 15 74 Go YF ^I us :g a5 d4 ia .9 ia iC wC /I B7 yj /I (I _I Xn ix :I Ql <H a0 <I [H [I P6 }I ih |I qx 1I .} eg +[ 2I 3I 4I =< o~ i[ G4 L^ q: 3/ C/ C/ 5> D; D; 3> .> Y; Z; u) 2>  > +> D; D; 5> 7> `; %> f> K; 3> H> -2 k} Da Sb F3 Nr 5I u{ 6I 7I 8I (; #; #; #; #; #;  ;  ; A; z; +> +> I; 7> 5> ",
"iH dH dH wy wy eH eH !9 !9 1p pH 9I ]E 0I 5F aI bI nx aG oH nH cI dI dI *m mx #l Xk ry ry ry ry 'D eI oH oH $l eI M7 oH nx 2u }C }( qH 8E Di fI gI hI iI jI S7 0E :B R( ^9 kI lI ,o mI jx Db nI oI pI qI f0 MG FD SD ]f rI gn sI tI uI n| gn vI wI xI yI b0 p4 a0 o5 -9 f0 61 U[ TB TB TB F2 F2 g_ 81 q5 L7 01 z4 JH G2 a1 H6 zI AI AI AI BI CI i0 DI m4 >: D6 E[ D7  E mF In EI ,0 Dp Ic Hc h6 nb +I j7 on ]0 FI GI ql o7 |h 6h 54 65 1h 1h Ye 5h li li Ek Ek nn nn HI li 1h 64 65 6h Fk Gc Gc _g .e II 'f @e :g In ob 'f <q Aj %q %q 8z Am HD JI KI 4z C2 LI MI [y JF yC Ko -m Ln vg ir ir 'v 'v [x ,v 2x {w @k $p NI OI yA wA pz `d ;g 7s 7s JC Xu 8B PI Pv QI )a l7 QD mz rs yD Bt ]g RI )I wc SI TI UI VI WI XI YI ZI `I  J ]y Od $I .J yc +J &r [r rs rs @J #J zF qz 8a f3 oi Gk Gk ca 6B tC d5 +y .9 f4 $J %J &J *J =J -J ;J >J ,J Wn 'J 'J 'e Ql CI )J !J ~J xi {J 2C .[ ]J :: M~ &D G4 N! G4 mg h' P! C/ a> a> C/ Dy }e 7) A, B; .> 3> 3> .> `; `; .> I; +> J;  ; f> g> A' s) 4( 3( O> sw v, 7f ^J /J (J [( 7I _J I> C- #; #; #; #; D; 3> 3> .> b> a> 0> 7> 5> ",
":J bG bG Q: Q: xy xy xy xy <J [J }J |J 0I 5F aG 1J %F aG 2J 2J nH eI 3} .E #l 3J 4J 5J 5J 5J 5J ry 6J 7J ry nH ry nH 7J 8J %t }J cG <J Oj !] 9J 0J aJ bJ cJ (d dJ eJ 9I vy g_ fJ gJ hJ iJ NH nI jJ kJ lJ Zi >H Nm mJ nJ oJ O: U} pJ qJ  E gn .E rJ sJ tJ H7 >: xa DI p4 q| k4 gn gn Ul Ul q| l4 p4 i0 f0 Tl q4 xG AI o5 wG o5 `q Zc 2s uJ vJ wJ ^1 O: Ul N: 6[ |} gn o| Um sb xJ Dp Nv Nv Nv Hc -g >g j6 4h ^0 ei yJ Qw 8i |h 64 64 mb kB kB {0 1h Ek Ek dj Cl Bl lk lk Ek ym 6h mb q8 f3 74 ni Go .e +e II Gk :g zm ob rb  9 1r zJ [q *q xs ws @n @n zC HD GD AJ 4z BJ BJ Kk Ag Bm Ln Ln >m >m Ln [x _w {w {w Ih Ns CJ DJ EJ FJ GJ mz HJ IJ JJ nz Yp Yi 0b 0b zB JC Bt Xu ;u =g r7 IC yD *r KJ )I LJ MJ NJ OJ PJ QJ RJ SJ TJ UJ VJ 2a +0 A8 Nd WJ XJ YJ j6 >g IC DB aa h7 &f 9h ^y +e Gk @e sD u7 1r Ow 1r 6B ZJ zt `J  K .K +K @K #K $K _d ,e 'e %K &K YB J7 B4 *K *K &E _9 y| /A Ga -~ C5 Ia gk #z G4 P! P! C/ b> 9> F_ =K 7) A, B; 3> 3> `; 4> J; I; J; N^ C; C; N^ z; %> f> K; s) #> I_ O! J> rp -K ;K 5I *~ >K ,K 'K 5> z-  ; #; A; A; .> .> I; D; a> 0> 7> 6> 6> ",
"hH iH bG bG Q: Q: xy xy xy h< <J 0I 0I 5F )K nx dH 1J !K dI 'D )D L6 hn ~K 3J 4J 5J 5J {K yH Yk 5J ]K ^K yH /K /K yH ^K ug (K _K :K Xj eJ (d (d <K [K }K j< h< ew |K 1K 2K Xk ny lB qC 3K 4K 5K dF 6K 7K 8K 9K XF jl 0K aK bK cK o|  E Vl ,o hn S[ dK eK  E fK gK ;G Hx gn S[ S[ ~K n| gn k4 k4 H7 l4 ua ua p4 i0 n5 F6 i0 >9 Tl a0 hK iK jK kK E[ p| V< o|  E  E S[ X} Um <0 lK Dp Nv Nv Nv Ic Hc d6 Xu 7s yD m6 mK j7 ei mb 9a )g OE /g OE nK tj Ek dj Cl kk rE rE Bl Cl di 6h oK pK RD Hn _g ,f Dl Dl Dl Dl In 'f 'f us ws [q 2r <q zj Aj @n [q Aj Jk 8z [q 1r Lk Kk Ko Fl El Ag -m -m Ln Ln -m ~v ~v @k {w 2x @k fz qK rK sK jz zA tK uK vK zA oz xA gz iz IC Yi QD 'H `d Yp JC 7s j6 CB wK Td xK yK zK -I AK BK CK >I DK ,I ,I EK aB FK GK HK KJ L8 ei 7s nb yD h7 i6 IK JK KK nE .e Gk ^v ~p ~p LK Aj Ow ZJ MK NK OK PK QK RK SK TK UK Cb #E )e H7 p4 G6 %E ,G P6 `c 2o y| R6 ]J VK Ga Ia {A E3 =< P! 0) D/ F_ h' P! `; 3> D; I; D; .> 4> G; I; `; B; .> B; ng Ey WK %> f> K; s) #> I_ b: O! C> qp XK YK ZK `K  L .L 6> z-  ; #; A; t) `; `; B; 3> 6> 5> 0> 9> 9> ",
"6< oH M7 M7 y4 y4 y4 y4 Q: Xj 5F ew ew Q: +L nx bG D: nH Gx  D @L iJ @L #L vE r2 AD MG $L MG $L AD MG uE uE jx jx uE uE {K lH 9G %L dH &L *L vy +/ iG ]: +L =L -L nx ;L >L )B ,L 'L )L !L ~L {L Cb ]L Zi ^L /L (L @e _L :L Qc 2g _f <f 7K <L Um ]L XE 5} 7K [L 4B }L =m v2 u2 o3 u2 o3 (H |L C7 C7 +E $9 $9 Y1 Y1 G7 G7 $E Lw Vc  F $E 1L 2L 3L :f S< Q[ o3 M[ XE ]L Y} &G u6 4L %z %z Pw Pw Nv Nv Ld &r 5L Hc Xu aa >g nb 74 Gc Fk Hn )g kB 9a mb |h {0 Cl kk kk kk kk kk di 1h 6L 7L 8L OE _g Gc %f nE .e X8 9L 9L us :g Cj [q [q %q 0L fr 4r Ms (q sD Fl 3r ir (q 0L >m Fl Kk Lk Ko -m -m -m -m @k _w iz yA lz hz ;f -g }x {w @k Ns ~v 'v @k }x 4x @k @k Ns 'H ]v Yd 'H Go Hn oK /g aa aL bL q7 cL wc dL eL eL fL gL ii hL gb #0 G8 iL jL kL lL pn K8 ]y qs z8 )I HK QD nz {I =g Ic Hc [r `d 1x /v Gu Ls x8 Hl >m mL ZH nL oL Im pL 3L $9 }g E7 Hx 51 iK qL A4 ,G rL lG 1I Pb +[ VK @[ -2 mg G> {A G> 9> P! B/ C/ b> 9> 4> 4> 4> 4> B; `; 3> 3> N^ 3> .> J; I; H; =2 sL %> %> K; K; O^ #> F/ b: $c ;k tL ]s uL vL wL xu I; z- #; A; t) Y; `; B; Ey H; 6> 7> P! a: 2( ",
"Xk #l Gx Gx )E )E |p |p |p wy ew 0I 0I aI aI dH dH 6< xL dI E: `D ~K dm em r2 r2 oC $L @m @m $L $L $L yL zL AL BL zL CL $L DL /D EL Fx oH dH %: FL kE Q: ZA if 7J GL HL Yk IL JL KL LL ML NL OL PL _y Zi Ez Ez WF [z Hm @p  q 2g <f *G o3 QL v2 RL SL r6 TL UL VL WL XL }r j3 j3 In m3 <g u2 `8 u2 w2 o3 w2 5} #9 {f A2 4[ +E {f {f 9< YL YE ZL Um 5} P[ `L m| %G TE r6 a5 4L 4L lK lK %z %z Dp Nv Ld Dp  M c6 {I /v =g Ic 74 ,f Fk ni mb U8 U8 mb 1h |h dj kk kk kk kk kk ym |h /g 8L mi mb ni Fk _g nE .e II .M +M 'f zm 0L  9 ws Aj fr @M (q @M [x #M $M %M wA [x fz }x Bj Jk Kk Lk Bm Bm Bm Bm }x %M wA Yi iz hz iz mz oz ^w Ih $p 8y 4x 1x -u {v -u |x 9y -u 1x 1x -u %o f3 )g &M 7s 8B *M Xp A8 Sd =M -M ;M fL ps >M ,M 'M ,M )M !M ~M {M (a (a sc aB 2a Pd ]M ^M /M .0 Hc &r Yp 'H Yp &r Hc &r ^v 9y x8 fr Gl v7 c5 $K (M 4s _M :M )e <f fK p| <M [M }M e| 01 B4 ~e za _e bf I4 @[ Ga |M 1M 2M af C/ 8> C/ 8> 8> h' `; B; H; G; H; B; 3> I; I; B; `; C; M^  > +> 3M R> %> K; K; O^ O^ 4! F/ p~ p~ x, x, :t :t C> {G #; C- A; A; t) Y; `; `; Ey H; q~ 6> h' a: 2( ",
"4M Xk 'D 'D M6 M6 M6 M6 M6 wy wy dH aG aG aG Gx oH ZA 5M V} 6M o3 *G QL QL r2 oC $L $L 7M 7M 8M 8M 9M 0M 9M aM NG 9M bM 9M $L Yk BD ^K R<  D fK )D cM Gx dM eM fM @l BL gM 5J hM iM jM kM lM mM nM oM 9L %q [q 4r zA qc {I QE ch $e }0 my QG pM &w TD .e _g *k qM rM mi kB ^y YF ]v 'f jr 'f 0L us ~p In sD :g sD us  9 a5 }0 `8 QE q6 t6 ga }0 b4 t6 my sM In )f ob ^H :g u7 u7 u7 u7 u7 4L %z %z x8 Ks jr Pw Dp Pw {a 7B nE ni Go Hn nE ,f mb kB 6h 55 |h di kk kk kk kk ym tj {0 {0 q8 mb 55 mi Go nE nE %f ^I YF +M tM jr Pw Ls Gl @M er Ih /v JJ uM vM Yi 7s lz wM -u zj kr BJ #q Kk Kk El El {v _w fz pz DB 9b 0b lz fz pz 1x -u @k ]w dC {v El @M Ls >m ir (q 0L ]v 9h Fk 9a zF 7h U8 4h Xp }h PI xM Wu yM zM AM <r G8 RE BM CM DM EM FM GM HM IM &x <r JM KM LM MM RI NM OM ]g 7s oF i6 j6 >g Yd +M Gk p2 )f }0 eh &9 PM @E E7 4g 2g fK S[ gn QM RM O7 K2 T( e1 Jb u~ Iq Ga SM Ga TM UM VM WM #z B/ F_ 3/ F_ P! F_ I; D; 3> `; `; `; `; `; 7) XM }e A, B; G; H; D; R> R> G/ G/ G/ O^ O^ O^ ^t vu YM >] fk $C Gg 3( A; ;< t) t) t) t) .> .> 4> .> 7> 5> 0> 9> C/ ",
"ZM 5J ry ry nH nH v5 v5 v5 nx a} %F nx bG bG eI SB SB *m `M X} 83 P[ 04 &G zL oC $L @m 7M 7M 7M 8M 8M  N qC NG NG qC .N jA +N Ac }r @N v2 $n RL UA RL vE Vd #N $N %N &N Xl *N =N -N ;N >N ,N 'N )N !N %o vs +q ~N {N ]N Wp 1x ^N :y 'f X8 [z /N ^y qz q8 (N bi _N sj :N <N Xu ;f #I Yd [N Yd }N 'H |N `d NM =g NM 'H 1N ,0 ]w 8b TD ]I 85 g3 [z X8 oi 2N 3N .M g3 X8 f3 Dl xJ 6B 6B 6B 6B u7 lK %z 6s lK @M `9 Pw @M At 0L Gk ni Hn Fk f3 74 64 9a 6h 6h |h {0 Cl kk kk kk di WF {0 {0 @I mi 6h /g Fk Fk Hn %f +e +e ba 4N $p lK ~p 4r 0L (q ^w dC yA qK 8s PD IC IC 5N ]w ws yj Il kr Bj Bj Gl Gl {v }x pz jz CB IC r7 JC Bt mz Yi Ih Ih 9y 'v 6N 2x (q Fl 7N =u Bm ~p ~p Gk 9h 7h mb )g q8 n6  f +I W8 ;0 Qd 'I YD >M uc Gp gb 8N pj Eo 9N 0N {y aN bN cN RJ dN eN fN gN hN NM +J XJ /M i6 oF 7s r7 [r nE +M 'f u6 QE w2 *e PM *e sa S< iN .E fK eI U[ y(  2 j/ jN f1 %] za kN @[ +[ P, R6 lN lN af mg P! D/ 2( 0) C/ a> A, G; 4> `; .> .> .> .> 3> ng =2 `; D; H; H; I; R> R> G/ G/ G/ G/ O^ O^ 5( mN nN 4! Ax ._ {s `6 C' C' t) t) t) t) .> 3> D; B; P! C/ 0> 6> 0> ",
"AD MG oN k| n| n| n| n| M6 bG bG bG bG oH oH oH oH :4 pN qN rN sN tN uN Km hA jb jb jb Wt =x gA lA vN ;x wN &N &N xN QA Fz Tm _y Hn Wt X8 /y us Y8 [z %w OE ;x sj yN zN AN BN CN DN EN FN GN HN IN JN KN LN `J MN XD NN GM Bt 4r 9y ]w Yi Yi IC Bt eC eC gx gx ON ON ON ON ]M ]g PN ]g PN ]g QN ]M RN wc SN qs TN *x UN VN *r *r r7 r7 r7 yD rs rs d6 Hc [r rs &r -g i6 Hc lK xJ sD Ks sD xJ %z Pw lK lK 4L ZJ ZJ LK LK Pw .e .e .e .e Gc Gc Gc Gc 6h 6h 6h 55 |h {0 di ym Ek xm Dk ym di tj q8 )g q8 q8 Go Go Go Go Go II ^v ^v 1x |x -u Ns ]w /v {I &r iz oz `d mz Yi 4x Bj 4z #q Cm Ko [q Ms Ln Ih $p Yi AB l7 WN XN HC 8B 8s Xu pz wA 'H HJ YN ,v {w Fl 4r <q 2r <q @M [z gA ZN sC OE /g KC WF q7 PI KN zD Pd GK `N DK DK 1A Gp  O .O +O @O #O $O %O &O *O =O -O ;O >O ,O 'O )O !O ~O {g {O Xp 9a ^y ni Gk rD $G :1 T< ta Sl 00 00 6[ ;G fK nH TB )E wy J2 s| L2 %2 $] q< Qb bf M~ bf C5 G> ]A Ia *< 9> C/ h' 8> C/ P! B; B; B; `; `; .> .> .> 3> .> .> 3> I; I; 3> `; c> H3 @B `6 R> R> G/ #> #> R> H3 e> #> 6( G/ 8; ;< ;< t) Y; Y; Z; B; B; .> `; 9> 8> 8> 8> 8> ",
"oC $L AD ]O k| ~K n| S[ S[ oH bG bG bG oH oH oH oH sI k| 8} ^O /O (O _O a3 Y8 jb jb jb =x =x gA lA +f -x :O <O [O [O [O [O Gn Gn bi OE /g RD 9h %o mi OE Fn Fn Dn Cn }O |O 1O 2O 3O 4O 5O 6O 7O 8O 9O 0O aO bO cO dO eO RJ .J zA qc 8B ]M eC Wu fO gO VC gO hO iO hO iO iO LB LB jO LB jO LB YI St kO ps RJ ps kO St kO ps lO m7 vc m7 Rd ei *x ei mO *M L8 h6 KJ Bt UC 8B ^v Ks ^v Ks ^v sD xJ xJ lK lK lK ZJ ZJ ZJ LK LK 0h .e .e .e Gc Gc Gc Gc 55 6h 6h 55 |h {0 di ym kk Dk Dk rj Gn nO nO mi q8 q8 Go Go Go Go Go Go ]w EI Ns 4x ,0 1x ^w ]w ^w ^v 4x ]w ]v }x {v El Jo oO pO WG qO *q Hl Ms 4x Yi IC yB PI rO sO tO ei uO eC ;g 8s yD yD vO mz Ns -u fr jr 2r 1r rb Qy gA ZN sC mi OE bi nK q7 eC wO zD Pd GK pn DK }A 1A uc Gp  O +O @O xO yO zO AO BO CO DO EO FO GO HO IO JO *f {g Xp Xp U8 ni [z Y8 04 5} 2g *e &K KO I7 H7 ua XB )E M7 U[ LO MO NO OO c1 1( oh (e gu &< I4 SM bf =< *< *< *< 3/ q: L^ 0) 8> b> B; B; B; `; `; .> .> .> D; I; I; I; D; D; I; I; #> G/ c> PO p9  8 4( G/ 4( #> O^ G/ O^ s) G/ %> ;< ;< t) Y; Y; Z; B; B; .> `; 9> 8> 8> 8> 8> ",
"$L @m MG AD ]O ]O k| k| .E Gx Gx Gx Gx Gx Gx ~K ~K o3 o3 %G TE QO RO In QG zm In In In II II Go %f mi mi bi bi _N sj Fn Ez Ep zD on }h +I 0a ei l7 zD m7 rF Rw SO TO ay UO VO WO XO YO ZO `O  P .P +P @P #P $P %P &P *P =P -P ;P >P $I IB ,P 'P )P !P ~P !P {P NN {P NN NN ]P ^P /P ^P /P ^P (P ]P _P :P <P [P }P |P 1P 2P 3P `F 4P )H 5P Wp 5P vc 6P 7P 8P Sd YD VN 9P Td Yp /v rs ^v [r ^v ^v ^v ,0 lK lK lK %z %z ZJ LK 0h 0h .e .e .e .e Gc Gc f3 f3 55 55 64 U8 di ym dj kk kk dj kk bi bi ym q8 q8 q8 q8 Go Go Go Go {I Ic Yd Yi Ld ^v Ih |x /v ~p Fl (q Ls =w Jk f4 qB 0P TG aP bP zj Ag fr Ih pz JC 9b }h yJ cP KN wO dP eP zD fP gP n6 oF 'H ]v 1x jr jr fr @M &w Qy 8M ZN ZN sC vN Gn tj di hP >a W9 ij Fp UJ DK n7 ij 1A iP  O +O @O xO jP kP lP mP nP oP pP qP rP sP tP uP vP wP ;g xP mb %f yP zP 7K gn r| p4 G6 G6 G6 f0 d0 kE y4 61 AP BP CP NO DP !( e} EP FP GP @[ Ga M~ HP af af i[ i[ 0) IP `( D/ 8> a> B; B; B; `; `; .> .> .> 3> I; J; D; `; `; D; +> e> e> 4( PO -F ._ G/ e> O^ G/ a9 a9 a9 R> e: e> ;< ;< t) Y; Y; Z; B; B; .> `; 9> 8> 8> 8> 8> ",
"7M 7M @m MG AD oN oN oN @L 'D 'D 'D 'D 'D 'D k| k| 5} 11 v2 JP KP LP v8 ca `8 <g <g us 'f [z II Go MP 8L hj nO Fn sj Fn Fn T9 ]H NP on ,I Fp ]y KN `N rF 5v OP fA PP QP RP SP TP UP VP WP XP YP ZP `P  Q .Q +Q @Q #Q $Q %Q &Q *Q =Q -Q ;Q >Q ,Q 'Q ;Q ;Q ;Q ;Q ;Q ;Q )Q !Q }P ~Q }P }P }P }P }P {Q {Q ]Q ^Q /Q (Q _Q :Q <Q $O [Q [Q $w $w &x &x &x }Q 'P |Q 'I LB eL eL LB WJ r7 oF &r nb &r [r dC 7B 7B ,0 lK lK %z %z ZJ 0h 0h .e .e .e .e Gc Gc f3 f3 55 55 55 64 {0 di Ek xm _N kk Ek Cl tj ym nK q8 q8 q8 Go Go Go Go rs rs &r {I wA 8y |x jr jr Ko 1Q Il d5 2Q 3Q @q HF 4Q 5Q 6Q VH w7 vg fr nz pz zB gP 9w 7Q 8Q &z 9Q 0Q aQ &z bQ cQ wO ei QD oz oz 9y |x fr jr II Yu 8M -x -x ZN ZN tj di di KC on W9 n7 Fp UJ dQ n6 q7 ij 1A Gp pj eQ yO fQ gQ hQ iQ jQ kQ lQ mQ nQ oQ pQ qQ rQ sQ tQ QD )g ni uQ vQ wQ ua b0 `q xQ xQ yQ Tk ~E zQ ZB 71 CP uy #| AQ rv Z] .d BQ CQ hp -~ ]J /A Ga {A o~ {A i[ 8> P! F_ C/ 8> C/ B; B; B; `; `; .> .> .> B; 3> D; `; A, A, `; +> G/ H3 `6 R> G/ e> R> #> O^ a9 a9 3( Pr |i b: qw t) ;< t) Y; Y; Z; B; B; .> `; 9> 8> 8> 8> 8> ",
"Yu Yu %w rD j3 Y8 m3 QL #L 'D 'D 'D 'D k| k| o3 o3 DQ &G [0 EQ FQ qb 0h t6 c5 #e tb }0 [0 'f 'f II &f /N qz 7h KC KC Fn ]H RE `F *Q NP GQ )P HQ E8 &x 5v IQ iB JQ KQ LQ MQ NQ OQ PQ QQ RQ SQ SQ TQ UQ VQ WQ XQ YQ ZQ `Q  R .R +R @R #R $R %R &R *R =R =R =R =R -R -R -R -R ;R >R ,R ,R ,R ,R ,R 'R 'R )R !R ~R {R {R ]R ^R /R (R (R Vp Vp _R _R :R <R [R }R kO kO .R ^P |R GK 0a n6 >g q7 >g nb [r =g 7B 7B ,0 ,0 lK %z %z 0h 0h 0h 0h .e .e .e .e Gc Gc f3 f3 55 64 U8 di rj zN 1R 2R Cl dj xm WF nK nK q8 q8 q8 q8 q8 q8 yD GC nb mz 3R 4R /v 4r ws HD +q 4Q 5R 6R 7R 8R hx mA Jl 5z }q #q >m 0L Yi oz DB 9R eP 0R aR bR cR dR >u eR fR gR ON fO QI PD IC zA {I ]v dC +e Yu 8M hR hR ZN ZN mB iR ym nK _N xm Ep Fp ql n7 nb =g q7 ij Gp pj eQ yO jR kR lR mR nR oR pR qR rR sR tR uR RC vR wR e6 ^y We m3 7K M: p4 xR yR ti ti zR }d Jj Uk `A s| uy &/ Yq d} nh AR =| =t p) r< P, BR CR DR =< H> G4 G> 0> a> 9> b> 9> h' B; B; B; `; `; .> .> .> B; 3> D; `; A, A, `; +> 5( K; H3 e> e> e> F/  _ 3( ^C Gg Pr @j $F ;! p~ t) ;< t) Y; Y; Z; B; B; .> `; 9> 8> 8> 8> 8> ",
"ER _y Yu Qy rD j3 j3 v2 FR @L nH nH nH @L @L Um Um $G m3 <g `8 ca p2 :g GR c5 r3 Lc $e :0 [0 'f us YF ^y OE OE WF KC Ez HR IR JR JR GQ GQ KR LR MR HM {y lm NR OR PR QR RR SR TR UR VR RQ WR |v XR YR .Q ZR `R  S .S +S @S #S $S %S &S *S @R %P =S #R =R =R =R -R -R -R -S ;S ;S ;S ;S >S >S >S ,S ,S 'S )S !S !S !S ~S {S ]S /R /R (R ^S ^S ^S Vp /S (S !Q :P ]P _S YI :S ,I Fp Ep n6 q7 q7 n6 nb nb =g =g 7B ,0 ,0 lK lK 0h 0h 0h 0h .e .e .e .e ,f Gc Gc f3 55 64 U8 {0 Cl En <S [S Ek li kk Dk nK nK q8 q8 q8 q8 q8 q8 0a }S n6 JC |S 1S sD Cj x7 2S Hm 3S 4S 5S 6S 7S *w 8S Tn 9S 4z BJ %q Hl 4x oz 0S *M aS bS cS dS eS fS gS >u hS hO iS gR gx eC )a 8B ;g `d Yp +e lA 8M bM bM sC vN :O mB ym tj xm rj Ep Ep ql n7 &r 7B >g q7 uc 'M zO yO jS kS lS mS nS oS pS qS rS sS tS uS vS wS jC ab Yp 85 Y} H[ ;: q4 Ij xS yS tG JH r4 x3 x3 $2 M2 &/ b1 zS *| =| ([ ([ 8: Ga AS Ga #[ BS /A *< gk =< o~ 9> P! F_ C/ b> 9> B; B; B; `; `; .> .> .> 3> I; J; D; `; `; D; }; G/ 6; G/ 4( #> R> a9 3( ^C $C {G O! }j 6l <: CS t) ;< t) Y; Y; Z; B; B; .> `; 9> 8> 8> 8> 8> ",
"FD Zi _y %w Qy rD rD rD DS #L L6 fK fK #L #L QL QL ES m3 )f zm 'f 'f 0L zt B2 Oc Ab la hh $e }0 us X8 Go mi OE nO nO nO on FS JR [Q $w HM $w [Q JR GS IQ NR HS JA IS JS KS LS MS NS OS PS QS RS SS TS US VS WS XS YS ZS `S  T .T +T @T #T $T $T %P #R #R =R =R -R -R -R -S %T &T &T &T *T *T *T =T -T ;T >T ,T 'T 'T )T !T ~T {T {T %x ]T Rt Rt $O _R :R ^T }R /T (T (T 'P ,I pF _T W9 Fp  f n6 nb nb &r =g =g 7B ,0 ,0 ,0 0h 0h 0h 0h 0h 0h .e .e ,f Gc Gc f3 55 64 64 {0 li rE tE nn li dj dj li nK nK nK nK q8 q8 q8 q8 +I }h 4h Bt vO ,v Ks [q 5e `u :T <T [T }T |T 1T 2T 3T oA Jl 4z }q zJ Bm @k Yi WN 6v eP bR 4T 5T 6T 7T 8T 9T 0T aT bT cT ON gx )a ;g 7s `d Yp Go lA 8M bM jA dT qC <O Fz ym di Cl rj Fp Ep }A ij Fk Gk =g >g Pd 'M zO eT fT gT hT iT jT kT lT mT nT oT pT qT rT HO sT tT Dp 0h o3 fJ d0 K7 yG uT Lz #c tx tx JH JH d1 1( b1 %2 v| 9{ a{ ^^  } 2B vT k} #[ :: C5 C5 *< *< *< o~ 8> B/ 3/ h' b> b> B; B; B; `; `; .> .> .> D; I; I; I; D; D; I;  ; `6 i1 K; 6( #> H3 qw Gg ,E {G 0H C> *C C, rp C> .> ;< t) Y; Y; Z; B; B; .> `; 9> 8> 8> 8> 8> ",
"kA Tt _y ^y lA [z Qy YF jl wT #L #L #L wT wT QL QL &G u2 <g }0 u6 <g xT $e B2 r3 Lc hh ub :0 }0 us ^I Tt zF QD eC )a }h m7 yT zT HM JR AT AT JR $w GS IQ BT CT DT ET FT GT HT IT JT KT LT MT NT OT PT QT RT ST TT UT VT WT XT YT ZT `T  U .U +U @U #U $U $U -S -S -S -S %U &T &U &U *T &U =T =T =T ;T >T ,T )T *U Xv Xv =U  T -U -U ;U >U >U ,U ,U (R Vp 'U )U :R !U ~U AT ,M UJ pn 4T `N W9  f n6 nb &r &r 7B 7B ,0 ,0 lK .e 0h .e 0h .e .e .e .e ,f ,f Gc f3 55 55 64 64 di dj gm gm ym KC nK 1h nK nK nK nK nK q8 nK nK )a ok n6 6v yD -g Ls @n RG vs {U ]U ^U /U (U _U 8e  p .q w7 f4 kr Lk :U <U qc :x [U }U |U FS 1U 2U 2U 3U 4U fS fS 5U TO 6U 7U 8U Md wc Rd qs yD lA 8M ZN jA ;x ER ER xN ym {0 {0 rj Fp Ep ij q7 9a nE >g q7 Pd DK 9U [R 0U aU bU cU dU eU fU gU hU iU jU kU lU  0 EE mU Z} `D -: v( +/ k/ $/ `c iE A[ S] S] U( t| e} e} $] 1/ +] $< nU  } `< lc ]J P, Ga ]A M~ H> gk *< mg o~ N! G> i[ o~ H> G> B; Z; B; Y; `; t) t) t) A; t) t) A;  ;  ; A; Y; s) K; s) $> G/ H3 4! ]h gq P> o~ I> oU vT W2 =< .> ;< t) Y; Y; Z; Z; Z; .> `; B; 4> 4> 4> 4> ",
"zF *r &M 8B 8L Xu 9a Xu q8 SD hA jb XL pU qU $G ES mF 7K 1g Ve ,e %9 rU sU tU uU vU RL wU qU ca YF dC Yp *r xU ]M 8U JB yU |Q zU =Q yT KR *Q AU ;Q JR BU IQ ro CU DU EU }w FU GU HU IU JU KU LU MU NU OU PU QU RU SU TU  U UU VU WU WU XU YU YU ZU `U  V .V +V @V #V $V %V &V *V *V =V -V ;V ;V ;V >V ,V 'V )V ;T !V )V ~V {V ]V ]V ]V ]V >U %x ]T ^V ^S ^S ^S ^S ^S ^S Vp $w 3P &x `N <r Rd qs qs /V (V =g 7B EI xJ :g )f II ll t7 YF ,f lb 74 Fk t7 Hn nE f3 Fk f3 75 ,f 9a mb 55 65 55 kB q8 Gn ym Gn bi nK tj tj _N nO 6v 4h }h *M oF Ic 'H |x Ls %q Am _V :V <V IF w7 'f YF mE Ms Ms [V }V |V 1V 2V 3V 4V )Q 5V 6V 7V 8V 9V 0V cQ $0 aV bV cV dV cO VD eV IM {y HM `N q8 gA Go =x Hn ni ni kB mb mb mb di di ym tj Gn o7 fV Qw on Ep o7 hi Pd !I VN gV hV iV jV kV lV Kd @e 'f m| (1 ~K n| mV F2 gl j< l< nq U7 hk x' 7: I<  } ,t 4C I< `[ `[  } 4C 4C {A ,] F_ F_ F_ C/ 3/ 0) P! i[ =< =< G> -~ l_ #[ T2 gu y| J( T2 4! d> J_ kc #> s) 6( kc A' A' A' A' Q^ Q^ Q^ A' ov 6; 6( $> z- y; z; .> `; `; &! [) |) |) |) [) Y; C' C' C' C' C' C' C' A; t) t) Y; Y; Z; Z; ",
"QD 8s nb 0a +I  f )a eC n6 mi FD Zi @A mJ }r 03 Py tU P[ 4[ nV oV pV qV 2i XE Jz rV `C sV SL Dl II Yp `d WJ xU tV QN uV vV <r 'P yT 9U !P GQ AU GM GM GM BU BU wV xV yV zV AV BV CV DV EV Xw FV GV HV IV JV KV LV MV ]S os NV OV PV PV QV QV RV SV TV UV VV WV XV YV ZV `V &V  W .W +W +W +W ;V ;V ;V @W #W $W ;T $W !V 'S {V ]V ]V ]V ]V >U %x ]T ^V ^V ^V ^V /R /R /R (R 2P ]P IM 3P ps <r GK Sd RI wR =g 7B EI sD ca :g .e 74 Fk nE 8a nE %f Gc nE Go nE Gc %f Hn f3 Fk 34 ,f _g ^y Fk 74 6h 55 ym Gn bi bi _N sj KG %W 0a Xp %r Xp &W aL rs Jc dC 7B Gu gr hr El LK jr Hn OE Tt 9L :U *W =W -W =P ;W >W ,W 'W )W !W ~W {W ]W ^W /W (W _W :W <W [W 3V }W |W {y fA 1W vc r7 Go Hn Hn Hn ni ni ni 9a 9a mb mb ym tj Gn Gn 2W 4T |A 8i Ov k6 4h h6 3W xA 4W -u ^v Ks 5W 6W 7W 8W 9W 0W Ky *: a} xy !] Z: Hd x' Or V! V! J( =< F_ 3/ 3/ B/ F_ F_ F_ P! P! P! P! F_ F_ F_ F_ G; =2 0) F_ h' F_ mg i[ #[ .[ =/ aW aD bW cW =/ I_ $> $> $> $> $> $> P^ A' Q^ Q^ Q^ Q^ P= P= Q^ D- s) @_ kc ;< C- t) u) (} 9' 4) t, |{ |{ |{ 4) (} C' C' C' C' C' C' C' ;< ;< C' C' C' C' C' ",
"IC 0b j6 dW eW n6 QI l7 0a q8 )g 74 nE fW gW hW QE ub xD ah iW jW kW lW mW m| nW rD ZC ob 'f +M [z 'H `d WJ xU oW tV RN LB IB -Q &x yT pW KR [Q qW rW wV sW sW CU tW uW LQ vW wW xW yW zW AW BW CW DW EW FW GW HW IW JW KW VU >V LW OV MW NW OW PW QW RW SW TW UW VW WW UV &V *V *V *V -V -V =V XW YW PV VU -T ZW -T `W  X {V -U -U -U -U ;U {T .X +X +X @X @X .X .X {T %x Vp #X HM &x ps <r Rd qs VN /V &r EI EI 7B Gk Gk 75 ni _g f3 8a /N *k Fk f3 ni f3 75 Gc 74 75 Fk 74 ,f Fk Fk ,f Gc 9a mi mb kB Gn nK bi WF oM %W q7 uO n6 +I $X %X zA ;f 9y -u 0L @M 4r lK %z $p ^y kA 9h 9L &X &X MN *X =X -X ;X >X ,X 'X )X !X ~X {X ]X ^X /X (X _X :X <X _a 7U VC [X }X wN %w Go Hn Hn Hn ni ni kB kB kB 9a 9a 9a 9a kB Gn Gn |X 1X dj 1h ~0 di OE Go _g 9L 2X QG )f q6 LP 3X 4X 5X 6X 7X 8X 9X @| T( &| H( K^ `: Y< |: !| y| =< P! P! P! P! P! P! P! 8> 8> C/ h' h' P! F_ F_ H; @> B/ h' h' F_ =< o~ -~ +[ k} aW Qb 0X aX r< I_ G/ e> R> 4( kc d> 6( K; A' A' A' A' Q^ Q^ Q^ f> P^ kc kc $> s) Y; u) (} 9' 4) t, (4 (4 /[ 4) (} Y; Y; Y; Y; Y; Y; Y; Y; Y; Y; Y; t) t) t) ",
"IC IC nb bX sO Xp PI +I )a /g &M Hn ni ss cX dX us <0 #e eX fX gX hX iX ja $G jX rD Bg In In kX II Yd 'H xU OM oW SN oW YD gL GQ IM =Q lX KR NN mX xV xV rW rW nX tW oX eA pX qX rX sX tX uX vX wX xX yX zX AX BX CX DX EX VU FX OV MW MW MW OW GX HX IX JX KX `V LX MX NX OX PX *V *V *V -V =V =V YW XW WU =T QX -T RX TU {V -U -U -U -U ;U {T .X +X @X @X .X {T {T ;U >U SX TX =r UX VX ps `N vc Rd *x r7 [r =g ,0 ,f ,f Xe ,f Hn 74 8a /N Yn Hn t7 Fk Gc 74 ni nE t7 ,f %f f3 Xe t7 Fk ni mb 64 U8 mb di ym tj nK sj KC %r 6v n6 q7 AB 8s Hc Yd /v EI sD Ms Fl 4r 0L YF Hn lA ^I ^I :U WX QC XX YX ZX `X  Y .Y +Y @Y #Y $Y %Y &Y *Y =Y -Y ;Y >Y ,Y [W 'Y MC )Y !Y ~Y 6J hA Hn Hn ni ni ni 9a 9a kB kB 9a 9a 9a 9a tj Gn {Y KC 1h mb kB /g KK II o2 ]Y 06 <g w8 Ik ^Y /Y (Y DL WE *m kE [} m/ i^ X< 1/ h} g} =t  [ .} #[ *< C/ C/ C/ h' P! P! h' C/ C/ C/ h' h' h' h' h' B; G; C/ 9> 8> P! i[ N! a) #[ l_ U2 r< kN Iw P, Gg G/ c: G/ 4( 5( J_ @_ %> %> %> f> f> f> f> f> D- f> s) s) %> %> #; t) 9' 9' 4) t, (4 (4 /[ <) .> t) t) t) t) t) t) t) Z; Z; Y; Y; t) A; A; ",
"IC 8B r7 _Y :Y eC PI +I 6v <Y [Y rM }Y %f II +e zm |Y x2 dh 1Y 2Y 3Y 4Y 70 m3 rD In hW +e oi }x EI ;f 'H OM qc Md 5Y xU .J <r 9U &x !P GM [Q GM qW )Q xV xV xV tW tW oX DU ET 6Y 7Y 8Y 9Y 0Y aY bY cY dY eY fY gY hY iY jY kY lY mY XU nY =T oY pY oY qY rY sY sY tY uY vY OX OX OX &V wY wY QV QV oY oY xY xY yY VT zY AY {V -U -U -U -U ;U {T .X @X @X @X .X .X {T {T %x ^S Vp GS HM zT yT BY pn CY qs +I oF >g =g kB %f Fk 75 t7 f3 8a ,f Go f3 Fk nE Gc /N DY EY %o 8a oi g3 .e +e ni f3 74 nE kB 9a di di ym tj tj tj PI oF *r Bt oF h7 -g rs |x ,0 Nv EI 0L @M fr +e ni !0 Dl [z FY &u GY HY IY JY KY LY MY NY OY PY QY RY SY TY UY VY WY XY YY ZY `Y  Z .Z +Z @Z _K hA yD oF oF oF nb nb nb oF nb nb >g >g >g nb 9a kB ,g <h #Z 3i Bc hA s6 /H $Z :1 o3 ZL YE S< 4g H[ L6 9_ %Z gl #2 k^ =] q^ 46 B_ 2n [B :9 K! %! h' 8> 9> C/ P! F_ P! C/ B/ F_ F_ P! h' C/ 8> 8> 4> G; H; 4> h' B/ P! b> H> o~ G> &< HP oU [e P, p~ 4! Zx F/ 4! a9 4! #> R> R> R> %> %> %> %> f> _t !n Vr Vr 8; 6; %> K; t) A; |3 |3 t, 4) <) <) .> .> .> .> .> .> .> .> `; `; `; .> 3> 3> D; ",
"IC zB r7 &Z bL l7 Pv eC )a *Z =Z -Z ;Z ni ni Dl +e tM a4 <0 >Z ,Z 'Z )Z w2 In rD In QG mE Dl }x ]v Yd `d Md !Z db {g xU ~Z {Z VX 3P pW JR [Q qW NN xV xV xV )Q oX oX oX oX ]Z /R ^Z /Z VU (Z _Z :Z <Z [Z }Z |Z 1Z 2Z 3Z 4Z YU lY 5Z NV NV 6Z 7Z 8Z  Y oY 9Z 0Z aZ bZ cZ dZ eZ OX OX OX wY wY wY wY fZ oY xY /Z zY ,S yY gZ ;U -U -U -U -U ;U {T .X .X .X .X .X @X @X @X /R #R hZ rW sW [Q zT RE iZ ji Pd Ep  f n6 oF KC &M *k ,f f3 %f ,f Xe 8a t7 Hn 8a 34 Yn jZ kZ lZ mZ ^H Gk X8 Dl Xe 8a nZ oZ OE q8 tj tj Gn Gn Gn tj 7s 7i oF 8s Xu Bt yA Yd -u -u Ih }x Ks Ks @M EI &f @A mE YF ]v #I |W pZ qZ rZ sZ tZ uZ vZ wZ xZ yZ zZ AZ BZ CZ DZ EZ FZ GZ ,Y HZ IZ JZ +Z KZ )m jb oF oF oF nb nb nb >g nb =g h6 -g i6 Hc h6 ,f !0 #N ts LZ m2 94 &G [1 rN K[ kn E[ 41 MZ $E S9 0} NZ B3 OZ T( Yj b| 8C 46 36 lc PZ QZ RZ o, d' C/ 9> 9> h' 3/ 3/ P! 8> 3/ B/ F_ P! C/ 8> 9> b> A, @> G; H; B/ E/ 3/ 8> H4 G> S2 o~ i[ ;] [e G> (; Gg Zx b: gq F/ e: Zh e: e> e> e> e> 6; 6; 6; J* J* Vr Vr %> K; s) s) A; A; |3 |3 t, 4) <) 6b 3> 3> 3> 3> 3> 3> 3> 3> .> .> .> .> 3> 3> 3> ",
"JC FC QD QI Pv )a Pv *M }h $X SZ aL 7s Yi iz zA 1x ]v Ls Ls zJ 6B iC  9 QE 'f .M YF ]I ^w 1x zA oz `d Yp oz iz ;u 'H Yd NE TZ UZ 3P KR *Q !P >Q AT NN NN xV )Q VZ VZ uW VZ WZ gQ XZ YZ &T ZZ `Z  ` .` +` @` #` $` %` &` *` fZ NV mY 5Z =` 7Z -` ;` >` xY ,` fZ '` fZ pY =` HX HX )` )` )` ZZ aZ aZ aZ &T !` ~` !` (Q {` @U >U ]V ]V ]V ]V >U %x ]T ]T ]T ]T /R ^V ]` ]` ]` ^` /` wV BU $w HM BY RE G8 aB _T Fp ij n6 Fn @I (` ni ,f ^y Fk t7 f3 f3 Gc 8a 15 ^y _` DY /N 8a X8 :g .e g3 We g3 JK :` Go ni mb mb )g q8 Gn tj 7i `d 'H Ic rs ;u zA -g -g &r }x }x ,0 dC 9y Ld nZ nZ ba YF =g +J <` [` }` |` 1` 2` 3` 4` 5` 6` 7` 8` 9` 0` a` b` c` d` e` f` g` Zn h` i` j` k` -x oF [r &r &r &r =g =g =g ,0 Hc Nv Ic Nv Ic ^H AD !C vE DL T1 l` gn VA XB &: ;: @( WB ): xp 81 j/ zy  B d} >| 4{ M< m` 6b t, <) Z< n` p< r~ r~ 4> `; B; @> /^ /^ @> `; A, A, G; H; 4> B; `; `; G; G; 4> 4> @> 7) ng `; E/ 8> 5> b> h' 8> H> H> wu ,E ,E 0j ,j o` Iv 4! e: e: e: e> e> e> e> 6; B' }3 Vr Vr J* B' $> $> s) K; #; #; |3 O} 9' 6b 3> 0> 0> 0> 0> 0> 0> 0> 7> 0> 0> 0> 0> 0> a> ",
"8s CB AB )a 6v QI eC Pv Xp ;g GC zB 7s Yd ;f `d Yd ;f 9y dC Hl (q 1r Gl xJ [z ba YF dX ~v ^v rs 'H Yp rs zA fz iz Yd ;f 9b p` {Z |Q 4P yT =Q lX VX AT NN qW ;Q VZ yV yV VZ q` &P r` s` NX t` u` v` w` x` y` z` A` B` C` WW dZ D` >` pY oY E` 7Z F` E` oY D` G` D` H` xY dZ HX HX HX )` )` ZZ aZ aZ aZ >S >S I` J` /Q (Q K` >U ]V ]V ]V ]V >U %x ]T %x ]T ]T ^V ]` L` M` N` SX SX O` 0s zT HM hL `F BY `F ]H _T 2A 8i rj KC >f t7 75 f3 t7 f3 nE t7 t7 Hn ,f Xe 75 75 ,f ba +e p2 o2 X8 YF ^H Xe t7 nE Gc 6h 55 9a )g Gn 9a nz 3R P` [r ;f yA `d rs mz &r dC dC ,0 8y $M $p nE ^y mE +e -g IC Q` R` S` VU T` U` V` W` X` Y` Z` ``   .. .+ .@ .# .$ .% .& .* .= .%W ,H - .; .rj [r [r &r &r 7B =g 7B ,0 %z Pw Gu Gu Gu Gu a4 S1 > .E: dw 6< , .U[ f<  ( Y[ A( %| 01 ' .}H f^ ]9 o0 o^ W] Q} 7b 7C R9 Q9 ]} ) .9' y, Q9 Q9 n, B; `; 4> ng yx Ey @> .> 4> B; B; B; B; B; `; `; `; `; 3> 3> H; ng G; D; N^ `; C/ D; q~ D; 0> 5> wu u; ! .6) xw ~ .{ .0m e: e: e: e: e> e> e> 6; R, I* !n _t Vr R, s) s) K; K; #; #; |3 O} (} (} 3> 0> 0> 0> 0> 0> 0> 0> 5> 7> 7> 0> 0> a> a> ",
"Bt yB DB 6v PI 6v PI 6v gP IC IC Bt QD 8B 8B Xu Yd ;u =g [r ^w $p Gu Dp @k ]v oz zA oz ;f ;f Yd `d 'H 'H ]v ]v YF YF YF 'H Q` ] .LB ^ ./ .( .UZ _ .GQ GQ *Q =Q qW ;Q mX : .< .[ .} .| .1 .2 .v` 3 .4 .5 .6 .<Z 7 .8 .9 .KX `U 0 .a .I` I` a .b .c .d .e .c .0 .a .~` a .cZ SV 9 .f .UV g .h .i .j .k .l .,R m .n .o .p .q .+R +R +R r .r .,U ,U ,U ^` s .@R %P t .^S u .r ._R v .AT JR zT =r BY IR RE iZ _T pF pF ql rE kk mb nE nE ,f ,f Gc Gc Gc Go Fk ,f nE Fk Fk ,f .e Gk i3 :g @e |5 g3 Gk h3 75 Hn ,f 8a kB )g 6h 65 fz w .x .]v $p dC y8 ;f &r [r rs `d Yd {I oz zA 'H `d rs rs 'H Bt y .z .q .A .B .C .D .E .F .G .H .I .Lt  A J .K .L .$ .M .N .O .P .Q .zT R .S .T9 Dl .e oi X8 In oi p2 )f a5 a5 a4 *g *g c4 c<  D %t T .2u P: j_ gl k< M2 }5 e1 k2 U .V .W .o^ x{ gu n~ Q, *! <) O} e2 {} {} {} X .X .X .X .(} 3> H; ng A, `; 3> B; A, `; `; `; `; `; `; `; `; .> 4> @> H; I;  > #; -< A; A; 3> A; 3> A; 3> 3> P> u; u; )s Y .Z .` .>E e: e: e: e: e> e> e> 6; !n Bx )} j: <l c2 2b B' K; s) 6( 6( z; 2> }; Z;  ..@> +> D; B; D; D; 4> D; D; D; D; D; D; D; ",
"QD Bt DB Pv 6v 9R Pv }h )a IC IC IC Bt QD 8B Xu Xu ;g `d yA tK IK {v [r ;f {I ;f 'H rs [r Yp 'H Yd 'H 'H ]v ]v YF YF YF 'H ...3y UN RN ,w EC YD 4y LB gL IB +..@..KR pW pW #..$..%..%..&..*..&V =..-..;..>..PX ,..'..IX )..!..~..{..{..]..EX ^../..(.._..:..0 .a .a .a .<..[..f .RW *..j .i .}..^..|..^..1..m .]Q 2..{Q m ./` /` /S /S /S 'U 'U 'U /S 3..$O /` jP 4..5..6..|P /T NN *Q [Q &x BY hL ,M )M }A }A }A }A tE xm mb nE nE ,f ,f Gc Gc Gc Xe Xe 75 t7 Gc ,f nE Gk In Kc :g zm ^H oi +e h3 Fk _g ,f 75 kB OE )g Hn g7 (w Ih nc 7B {v nz {I &r &r [r Yp `d Yd ;f ;f `d Yp [r [r `d 8B KN 7..@R 8..B .C .9..0..a..b..c..d..e..f..g..h..i..j..k..l..m..n..o..kR p..q..ql #G )f s6 :g DQ a5 m| |0 `} !f 4[ r..41 r...| P: V: b[ V: A/ k< l< !] s..e} e} +] #D t..a{ L! P, i[ G> 9> .> 9' {} u..v..v..{} {} X .X .X .X .u) 4> 4> B; `; `; 4> H; `; `; `; `; `; `; `; `; 4> 3> I; 3> B; u) Y; t) A; A; A; X- A; X- A; A; Gg u; u; 6) w..{ .Ef Ax e: e: e: e> e> e> e> ]c a7 C} <6 j: c2 |b x..Cd %> 8; 8; %> #; Y; y..z..yx B; J; `; 4> I; +> 3> D; D; D; D; D; D; D; ",
"PD QD BB eW PI <N WN eC Pv A...J .J 8U KJ KJ ]M ]M ]M ]g NE B..ez PC OM ]g {g xU ]g ~O db Md Yp [r ]v ]v YF YF ob ob jl YF !O C..WD D..E..F..G..SN QN YD >P H..I..'P UZ UZ &Q J..K..| .h .f .L..M..N..>..O..-V M..P..Q..R..`S S..%..T..~..U..V..W..X..{..!..<..|..<..<..EX [..Y..jY Z..`..Z..W..`S V..gQ kP  +..+.-R |P !Q |P .+..+..+.2P 2P 2P 2P ++.eT #X v .:R @+.#+.$+.%+.&+.*Q gL IM 4P pn ,I )H Wp _T ql }A }A tE xm mb nE nE ,f ,f Gc Gc Gc f3 Gc nE ,f f3 74 74 g3 :g q2 Kc :g i3 )f Dl |5 85 g3 34 oE ,f ni 74 t7 Dp fr 0L jr dC ~v (w |x &r &r oF yD yD r7 *r *r NM NM *+.rs *r /g oM hO tW =+.-+.;+.>+.,+.'+.)+.!+.qR 1v ~+.{+.]+.^+./+.(+._+.:+.<+.[+.}+.|+.1+.Bl }1 %G `D `} X} 4[ o| 41 N: Lw k5 Kv DI cj ): `] 2+.hk hk 29 O2 Y< (9 3+.K! p^ M! z' Q, 4+.o, 0> Gg Gg c: e> A- 5- '- v..5+.v..v..6+.6+.8| X .u) t) #; #; t) Z; Y; A; t) t) t) t) t) t) t) t) .> D; z;  ; t) Z; t) z- X- X- X- 0- X- 0- X- X- c: fk p~ Zx P> Q> 4! qw e: e> e> e> e> 6; 6; Vr -j R| {[ 'n v[ }6 7+.8+.J* _t i1 8; i1 6; D' pg v) Z; u) 9+.sL t)  ; t) #; #; #; #; #; #; #; ",
"zB JC 0+.WN Xp uO WN *M <N A..A...J .J 8U 8U KJ KJ KJ KJ KJ ]g UC Md UC ]g OM WJ xU qc db Md `d `d |x |x ^I ^I &w &w Bg &w jC 'O -W a+.MN SC b+.c+.PN PN |W WD -P XD XD KB KB d+.>W e+.ZQ f+.g+.h+.&V M..i+.wY j+.k+.[..ZQ l+.m+.n+.o+.p+.q+.l+.r+.s+.T..%..V..V..V..EX U..`..t+.u+.ZS v+.`S `S w+.-S x+.y+. +.|P -R -R :P z+.>W >W .R .R .R ^P ^P ^P RJ ^P kO A+._S B+.C+.>W jO ps fL 5P |R UJ Pd D+.)P ON T9 ql }A rE rj mb nE nE ,f ,f Gc Gc Gc ,f Fk ni nE f3 t7 t7 g3 i3 q2 @e In Kc 0h [z II |5 Dl nE %f nZ }Y Hn oi Dp Gu lK Ls Ld Dp $p b6 [r [r oF yD yD yD yD {g E+.F+.+J Yp *r WF Fn Dn G+.H+.I+.JV J+.K+.L+.M+.N+.O+.P+.Ws Q+.R+.S+.T+.U+.V+.W+.X+.Y+.Z+.`+. @..@.WE WE SB VA 8[ 9} 61 v3 81 >( >(  c 7_ 7_ #/ O2 V! O2 Da K^ Aa h} #[  < ;] 8: 6> }) G; r, A, e: d: Zh e> $> P^ I= G= +@.+@./4 /4 @@.@@.9| #@.|3 #; A; t) Y; t) #;  ; A; A; A; A; A; A; A; A; N^ .> Z; A; }; }; z- C- C- 9- 9- 9- 9- '- 9- 9- a9 4! Zx 4! e: qw e: G/ e> e> e> 6; 6; 6; 6; Vr /k ^3 rw $@.v[ t[ }_ %@._t _t 6; s) 6; ov w- Y- ;< C' v) @; Z_ ;< #; C'  ; z-  ; z-  ; z-  ; ",
"DB QD .I 0S l7 Pv gP 6v uO A..A..A..A...J .J .J .J ]y $I &@.A..&@..J Wu *x *@.tV =@.-@./V 5Y ;f pz ^I ^I &w &w Bg Bg Bg &w ;@.>@.,@.'@.)@.>@.'O {q !@.!@.eV eV WD ~@.~@.~@.{@.]@.^@./@.(@._@.:@.<@.`V [@.KX R..`..}@.|@.1@.2@.3@.4@.5@.6@.6@.6@.7@.8@.7@.7@.K..K..K..9@.%..0@.a@.b@.c@.| .S..}@.d@.d@.e@.f@.z+.]P %+.(T 0U g@.g@.&Q &Q &Q h@.h@.h@.i@.j@.&Q vV k@.XI jO l@.vV m@.eL SN |R RN vc Sd n@.o@.fO W9 n7 ij kk ym mb nE nE ,f ,f Gc Gc Gc 34 lb 75 8a t7 f3 nE +e Kc <0 #n |Y @e In QG p@.h3 Dl Dl ^I *k &f Go X8 4x Ms Kd At xJ x8 EI EI rs rs yD yD 0a 0a 0a 5Y q@.q@.WJ *r 7s WF [O YC r@.s@.t@.Tu u@.v@.w@.x@.y@.z@.A@.B@.C@.D@.E@.F@.G@.H@.RJ I@.JR J@..O Bk K@.T .T .X[ 9[ c} @| +/ z3 #/ $/ K] N] N] V( W] Fa M> Da qf W2 ;k &< O> L@.F/ =2 R> z; Z6 Z; G/ I_ #B Wr Fd M@.N@.O@.&> h1 h1 /4 /4 @@.9| R9 9' x[ t) 1; Z_ l} t) #; A; A; A; A; A; A; A; A; A; z; A; t) #; C' ,d {d C- 9- 9- 9- '- '- t- '- '- G/ O^ 4! G/ R> R> R> K; 6; 6; 6; 7; 7; 7; 7; I* g] )2 0e 5! g] P@.-j /k $j $j J* j8 d> %> 6; s) Z- 8- ;< u- X- 7- Y- 9- z- 5- z- 5- z- 5- z- ",
"JC Xu JC }S Q@.<N 9R *M PI A..A..A..A..A..A..A..A..xM &@.Wu ]y Wu $I ;P [U JB oW RN R@.S@.T@.;f ;f mE mE rb rb SL SL SL QE U@.V@.Bs W@.RF X@.Y@.Z@.|V |V MN `@.`@.QC c+.QC WX PC MD  #..#.+#.@#.##.2Z $#.%#.&#.*#.=#.-#.;#.>#.,#.'#.)#.!#.4@.5@.6@.6@.6@.7@.7@.K..K..K..K..0@.a@.b@.$V S..T..~#.{#.]#.e@.%+.^#.z+.]P eO ^P /#.(#./#.(#._#.:#._#.<#.LM [#.;W :#.m@.}#.m@.}#.|#.1#.TN oW RN QN UC ZF ZF *x Fp ij 2A ij kk tj mb nE nE ,f ,f Gc Gc Gc Hn nE 74 t7 f3 ,f nE Gk |4 u6 #n 5B :g ca UD 2#.|5 g3 ll 85 Fk ,f f3 YF 3#.4#.sD Gu Hl jr ^v |x [r rs yD yD 0a 0a +I qs q@.5#.q@.{g mi vN 6#.7#.8#.9#.0#.a#.b#.c#.d#.e#.f#.g#.h#.i#.j#.k#.l#.m#.IA $0 Hu n#.o#.p#.q#.xL /h (: a[ V: b[ k< A/ n/ ~( Z: H( W] 1/ q^ q^ p^ -~ C, C, ;k *C (; |d P> I_ G/ G/ s) s) K; %> s) Ed r#.jc g8 s#.Q4 t#.g> J= J= u#.d2 v#.v#.K1 O} Y^ u) Qr y..1; Y; Y; Z; #; #; #; #; #; #; #; #; u) #; |; y; @; )d 49 8- 5- I= I= I= 9= 9= 9= I= 6; H3 H3 e> G/ K; %> 8; 6; 7; 7; 7; 7; &> &> I* F< w#.x#.y#.^< z#.A#.j: c7 J* Vr R, K; %> s) kc 8- I= 0- '- 8- L= 4- J= 4- K= 4- K= 4- K= 4- ",
"PD zB 7s B#.C#.D#.9R <N QI ~Z ~Z ~Z ~Z ~Z ~Z 7U 7U E#.[U vc lO F#.)H ,P n@.TN G#.KB bz H#.ND ;f [r mE mE SL SL SL SL I#.TE $J J#.K#.L#.L#.V@.L#.$H X@.M#.|V |V |V RC `@.RC LN LN *l N#.O#.P#.Q#.Q#.R#.S#.T#.U#.V#.W#.X#.Y#.Z#.`#. $..$..$.)#.!#.3@.+$.+$.6@.6@.@$.#$.#$.[ .c@.0@.$$.| .|@.r+.%$.&$.~Q q` :P *$.=$.-$.9U @../#.;$.(#.=P :#.=P <#.>$.,$.'$.)$.!$.~$.{$.}#.!$.1#.]$.E..^$./$.C..xU OM XJ RI q7 4h 4h q7 ym ym mb nE nE ,f ,f Gc Gc Gc JK MP Hn Gc ,f nE f3 |5 |4 q2 `8 <g q2 b4 In zm zm In ^H g3 ni ,f ni kX ($._$.Ks Pw ~p 6s Ld c6 =g =g nb nb  f  f 0a Sd :$.:$.<$.XJ kB ZN [$.7#.}$.|$.1$.2$.3$.CW 4$.5$.6$.7$.8$.9$.0$.a$.b$.zn Eo c$.d$.e$.f$.g$.jv *d Dh Ch Ch h$.0D ty Dh 6] u~ h} h} p^ q) i~ i~ z' -~ -! -! wu .y p~ Gg F/ I_ e> @B K; s) $; A' 4/ 09 i$.F1 99 g8 Pe ~- d- J= J= d2 d2 v#.v#.K1 O} ]} C' D' ,d 1_ C' ;< C' z- z- z- z- z- z- z- z- A; A; z; }; ,d j$.kv 6- 5- I= I= 9= 9= 9= H< 9= 7; 8; i1 8; 6; %> 6; D- 7; &> &> &> &> R= R= A0 'n k$.l$.m$.n$.o$.A#.b2 h8 }3 Vr J* f> +} ]o 7; J= M= h1 0= '- t- J= M= K= r= K= r= K= r= K= ",
"8s hz -g gz p$.iz Ns 2x Ih !Z !Z ~Z ~Z ~Z ~Z ~Z ~Z 7U ]M 7U q$.r$.n@.]y ]y dO i@.:$.Q .s$.c+.#I t$.;f ;f Tt mE mE rb TE ub Yo u$.v$.K#.w$.x$.y$.z$.v$.v$.A$.B$.A$.B$.[V C$.JI x7 D$.~N E$.F$.G$.H$.I$.J$..$.K$.L$.M$.N$.O$.P$.Q$.R$.S$.T$.FO U$.V$.+$.5@.5@.+$.W$.X$.Y$./@.Z$.`$. %..%.+%.@%.8@./@.#%.#%.AK $%.%%.&%.eL *%.c+.QC QC `@.`@.MN !@.!@.=%.b+.b+.F+.b+.b+.-%.eV ;%.SC >%.}N *+.wR nb r7 yD oF oF n6 n6 q7 4h U8 mb nE mb ,f ,f Gc Gc Gc lZ 9h Gc |5 .e Dl oi |5 ca q2 a5 u6 q2 q6 0h }4 [4 Kc i3 5a oi d3 b3 mE ,%._0 zt _0 zt [A er /v Dp Dp -g -g >g nb oF /V I@.-@.=@.h6 U8 +f '%.[$.)%.!%.9#.~%.{%.]%.^%./%.(%._%.:%.<%.[%.}%.|%.1%.6U :O 2%.3%.4%.5%.6%.Q> N, ox 7%.S7 dD Ay (9 h} p^ p^ i~ i~ d' 3) 3) b> 0j $c O> Zx fk $C d: qw `h 5( K; 6; 7; A' l[ |_ wq 8%.jc ]c !n _t d- &> J= J= 0- d2 L< L< L< L< X- 5- 8- 8- 5- 9- 5- 4- 5- 5- 5- 5- 5- 5- 5- z- u: u) 9%.;< x- 6- K= S= Q= Q= f= f= f= f= f= Q= A' K; R> 8; 0%.eu ]c R, Vr Vr Vr I* I* R= R= A0 $@.'n a%.b%.c%.P@.b2 }_ }_ $j J* 2b d%.6( 6; 8; I= '- 9- 4- B- z- z- 8- K= r= r= r= r= r= r= ",
"&f 9y >m Bj BJ e%.f%.g%.h%.i%.wP ND qc db pc ]g ~O j%.]g 6v .I HC DB oz ~O [ .lR Y+.k%.l%.m%.n%.o%.PN QN ]M ]M 8B 9y [q B$.p%.q%.r%.8r s%.u$.t%.u%.v%.*J w%.Un x%.y%.Hm z%.Hm 8e A%.B%.v%.C%.D%.E%.F%.G%.H%.I%.J%.K%.L%.M%.N%.O%.P%.Q%.R%.S%.T%.U%.V%.=X =X =X W%.Hs X%.Y%.Z%.'#.`%.HY  &.XX .&.+&.=P ;$.@&.#&.$&.$&.#&.*X *W }V }V }V }V *W %&.&&.&u *&.|N +J |N [N #I =&.-&.;&.-&.dC X8 X8 =x =x Zu Wt SD OE V8 h6 GC 0+.*r *r 0a oF >g h6 Hc Ic >&.8y ,&.'&.x8 )&.jr 6s LK w6 q2 b4 a5 t6 04 _1 Y} Y} Y} s2 r6 s2 s2 l3 5} 5} |0 XE d4 u6 u6 :g :g :g ,0 7B !&.~&.~&.(V %r 4h 4h mb mb Fk !0 !0 ZN dj ^L +G {&.HB ]&.^&./&.(&._&.:&.<&.gB [&.ay um mB }&.|&.1&.|G V7 K! y| =/ ;d W7 2&.#C =d S2 b> 9> H; G; H; u) t) A; 6n 3&.` .e: c:  _ I_ Ax e: e> 6; 6; 7; 7; &> &> |_ m8 @_ D- +} P^ 4/ 7; f> A' A' 4- 8- 5- 69 kv $[ I5 &> 6/ d- g> g> &> g> g> g> g> g> g> g> g> ]o d> n} t#.i> V= d=  ' G< c! M* M* L) [~ i] H* 3p `h a9 6p 4&.`| 5&.6&.7&.8&.9&.~< <o 0&.|m |m a&.^4 b&.:_ b&.h8 Vr +} P^ 3p c&.%> @_ 5( e> 3p d&.K; a9 u; C> L> J> >E R> g> f= f= f= Q= Q= ",
"kX As Cj e&.Hm f&.g&.h&.i&.=q PC j&.tQ k&.l&.m&.db m&.db Xu PD ;u Yi n&.]@.*O o&.p&.q&.r&.s&.t&.T%._#.h@.gL YD KJ Zd LN u&.v&.v&.w&.x&.y&.X@.Yo z&.A&.B&.C&.<w  v D&.Pl (M 8R 8S 8R 3T x%.E&.F&.G&.C%.x$.8r E%.H&.I&.J&.K&.L&.M&.N&.O&.s&.P&.Q&.Z#.V%.=X W%.W%.uB R&.KE S&.#&.T&.U&.V&.W&.W&.@&.@&.X&.Y&.Z&.Z&.Z&.`&. *.tP `J %q %q %q @M @M fr fr Nv 1x pz pz Yd =g -g 7B ;&.;&.~p In X8 hA oC oC 7M .*.3i Yu 7s nb qc vA 0a 0a  f nb >g -g Hc Ic ,0 @k '&.Zt LK zt %q w6 v6 Ow t6 t6 a5 a4 04 %G Y} Y} l3 l3 l3 l3 +*.@*.`D T< T< S< XE XE u6 u6 u6 u6 lK xJ #*.#*.$*.EI 4h {0 di mb Fk Fk Dl +e 74 >f hj sj Cn %*.&*.8T **.=*.-*.;*.>*.,*.'*.)*.!*..N ~*.GL Mi W: Z: m~ &< -~ -~ :: E3 G4 h' 0> 3> `; Z; u) Z; Y; X- z- 5( *D {s @B qw c> a9 H3 e: e> 6; 6; 7; 7; &> &> (^ {*.#} #_ +} 7; (^ f> D- f> A' f> 7; 7; (^ l[ h> {- V= U= S= R= R= V= Q= Q= Q= Q= Q= Q= Q= Q= $; f> 5/ *> ]- e= G* $, }~ }~ R' R' 2^ '~ c* j: e> fk fu fu ]*.^*./*.(*.c] 7&._*.Cx :*.0&.S= S= 1> &> %_ Q^ e- <_ |_ D- 3p K; d> s) `h <*.`h K; i1 8; [*.;k vL Vq XK J> e> 7; e= *= e= e= &> ",
"dX Bm d5 }*.|*.1*.2*.3*.4*.5*.}x Yd ;f vM 6*.OM {N ~O db {N T@.OD T@.~@.|W 7*.8*.@S 9*.r&.0*.t&.a*./#.&Q IB IB ;P db b*./q c*.c*.d*.e*.br qQ f*.*J B%.g*.`u 8R  v *w Im Jm h*.i*.hx <w A%.Un z&.j*.z$.k*.E%.l*.K%.m*.n*. *.o*.p*.q*.r*.s*.t*.u*. $.V%.=X =X W%.uB R&.KE S&.a+.-W -W v*.*X w*.uP uP E$.RC X@.M#.p%.p%.v$.x*.`J 1r <q <q 2r 2r fr fr fr fr {v ,v y*.(w jz /v z*.A*.Ks zm zm ZD zL zL @m zL @f T8 Yd [r >0 XJ >g >g >g h6 h6 Hc Hc Dp dC EI Fl Fl w6 Ow zJ  0 <4 a4 sb `8 t6 q6 04 &G Y} Y} l3 l3 +*.+*.+*.@*.X} o| T< T< 5} XE d4 d4 t6 t6 4L 4L lK xJ #*.7B >g di di mb Fk Dl Dl Dl Gc ;Z ym :N B*.C*.D*.E*.ro ^V F*.G*.H*.I*.J*.wD .@.K*.L*.M*.o/ s_ u~ r< &< -2 G> H> N! H> h' B/ D; 3> t) Y; ;< X- z- B- i1 6( e> ov e> %> `6 %> R> %> %> f> f> f> g> g> (^ N*.N@.O*.+} |_ 7; A' $; 7; A' A' 7; D- D- &> P= e= c= g= c= d= d= c= e= e= e= e= e= e= e= R= A' 7; 6/ S= R= f= G< P*.[~ L) L) L) )< R~ 0e ]4  y ;k Q*.R*.Zb S*.T*.U*.V*.]*.8%.W*.D- L= X*.p= r= Q= &> 6/ [_ [_ $; (^ Y*.$; ]o c&.3p s) K; 3p g> |_ Fy O! Z*.`*.Z*.0j `6 e- c= == c= c= e- ",
"p@.Jk JI  =..=.+=.@=.#=.$=.%=.{v Yi gz =g `d NE !w db ~O {N XD XD KB pZ _#.&=.*=.==.-=.;=.>=.m%.,=.pZ >W =Q =Q [U ~O n&.'=.)=.F$.QC !=.~=.Z@.=q $J  H {=.Xt ]=.4Q 8S Nl ^=./=.i*.*w hx C&.(=._=.j*.w$.C%.5r $H m*.:=.<=.[=.}=.|=.1=.2=. R 3=.4=.U$.V%.=X =X W%.5=.R&.6=.S&.-W -W v*.v*.*X uP =W =W 7=.$H p%.p%.$H 8=.8=.9=.$J d5 2r zJ zJ zJ 2r jr jr %z Dp }x 0=.tT Ih 4a $*.6B sD @e UE UE P8 P8 )0 a=.gA e3 nE Yd b=.c=.i6 i6 i6 Hc Hc Dp Dp Dp Dp d=.Z9 lK zt w6 u7  0 q2 a4 <0 `8 sb u6 04 04 _1 [1 [1 [1 L*.L*.L*.}[ 3} o| 4[ 4[ 5} 5} |0 |0 a5 t6 ZJ ZJ lK lK e=.,0 mb mb mb Fk Dl Dl Dl Dl Go Hn 54 Ye 2R Ck f=.Hu kC g=.h=.i=.j=.Fo 2R @G .*.k=.l=.m=.J^ =~ =/ P, -2 G> G> N! ;] 7> C/ =2 3> 3> t) t) ;< X- z- z- f> (^ D- 7; 4/ D- q- A' f> f> f> f> f> f> g> g> |_ #_ $} (^ |_ +} f> A' D- D- 7; 7; D- 7; 7; g> S= c= c= d= e= e= d= c= d= d= d= d= d= d= d= V= I5 %_ d- U= c= e=  ' G< L) K) K) 'n z< Y~ e] n=.o=.f' p=.0d q=.r=.s=.t=.[t u=.8j e> A- ~} v=.w=.8= R= 5/ 5/ Q^ &> D- 7; $; $_ @_ 8; 8; kc $> o} R= T= c&.a9 ;E x=.}j y=.8; d- d= &= d= d= V= ",
"-m $q JF z=.A=.B=.C=.D=.@=.VG ba E=.F=.]v }x 7y #I ]@.G=.QN j@.l@.vV H=.#%.iQ I=.J=.K=.L=.M=.N=.O=.pZ >W AT AT +..-P ~@.VD o%.>$.TC P=.Q=.KE So R=.B$.Sn MI S=.4Q 9S T=.U=.V=.W=.X=.Y=.Z=.`=. -.4z `o .-.r%.r%.+-.KE )q F%.@-.#-.$-.%-.&-.*-.U&.=-.V%.=X 5=.5=.5=.R&.--.;-.-W -W 7=.>-.uP uP =W $H ;q OF 5r 8=.,-.z$.A$.'-.)-..q }q f4 f4 f4 f4 zJ 2r [q er Ls Ks %z Pw %z 6B 6B 6B sb $G $G BF BF 05 jx Qy Q8 .e X8 rs rs Ic Ic Ic Nv Dp Dp Dp %z lK Kd Z9 4L u7 ZJ ZJ Ow |0 c4 c4 xD _H _H XE 8} R< R< R< }[ }[ }[ }[ }[ 3} 3} 3} 3} 4[ 4[ `} 5} |0 |0 a5 a5 ZJ ZJ %z ,0 nE nE nE Gk Gk ca :g :g Dl lb }Y 7L Gn Ek Ck ml 1A m7 QH !-.xm @G 0M @l cw ~-.m=.19 V2 *C |d O! ;~ 7> 6> 6> 5> D; 3> .> .> t) t) t) ;< X- C- 9- %_ 5/ &> Q^ I5 d- #8 Q^ g> g> g> g> f> f> f> f> 1> d- d- 6/ e- &> g> d- &> d- 6/ 1> e- g> 5/ l[ U= c= e= f= e= e= d= d= d= d= d= d= d= d= d= d= i> {- P= U= a; a; )n T/ $' {-.<o 07 9&.8&.]-.V*.^-./-.(-._-.:-.<-.[-.}-.|-.1-.2-.c: .! Y{ 3-.w=.6= h= R= P= Q= S= 1> <_ e- 4-.5-.6-.+} o} i1 Q^ &= &= e- i1 a9 Zx fk +7 D- V= &= 8* &= d= V= ",
"Ko $q .p 7-.8-.9-.0-.a-.b-.Aj c-.F=.^I 4x ^w #I #I E..|W d-.e-.f-.g-.(P h-.i-.j-.k-.l-.m-.M=.n-.o-.g@.z+.AT wV =Q H..-P VD +&.{$.>%.p-.6=.1V q-.r-.A*.s-.t-.u-.Mk `u v-.w-.V=.x-.X=.Y=.3T y-.z-.Un e%.A-.B-.OF )q =W uP C-.D-.E-.rP  R 3=.F-.W%.'$.V%.W%.5=.5=.5=.Hs --.;-.v*.7=.7=.>-.uP $H $H G-.GE L#.w$.z$.z$.7e H-.z&.I-.I-..q .q .q }q f4 w7 $q Kk Cj <q Ks sD 0L 1r u7 u7 <0 <0 DQ em uE uE J-.95 ts Qy h3 ll Jc Jc Hc Dp Dp %z Dp %z %z %z xJ %z LK u7 6B LK zt q6 xD lo b5 *g _H *G mF 8< K[ K[ l` l` l` l` l` l` |} |} |} 3} c< c< `} `} *g *g a4 a5 LK LK %z 0h oi oi oi 0h 0h 0h 0h )f 0h g3 K-.L-.zF 45 M-.~0 )g ,f t7 N-.O-.MG 5J 2K P-.I^ 19 V2 :t (; Gg F/ 3> I; 6> D; `; `; 3> }; t) t) t) A; X- C- C- 9- S= %; S= d= Q-.e= 9; J5 e= R= R= &> &> 7; 7; 7; Q^ &> e- e- &> g> d- 1> g> e- <_ [_ e- Q^ l[ {o g= d= e= f= d= c= d= e= c= c= c= c= c= c= c= c= Q= Q= R= g= 0; b; h( )n {-.<o :*.I1 _*.R-.V*.S-.T-.U-.V-.W-.X-.Y-.Z-.`-. ;.|-.[t ^C k, N} 3-.w=./= h= N; N; N; T= e- d- #8 t#..;.N*.7; |_ D- P= S& +;.%; d- d&.+7 Rr 8; &> e= >_ >_ >_ e= R= ",
"JI @;.#;.$;.%;.&;.*;.=;.-;.}0 ;;.cX 9L Ih Ns #I >;.C..~$.2@.,;.';.%..);.!;.~;.{;.];.^;./;.(;.F%._;.&Q eO 'U 'U 2P .R &Q (#..&.:;.F+.b+.`@.,O $*.r-.`J <;.}q Mk 6z Xt Ho [;.V=.};.|;.W=.1;.2;.A%..p @q @q .-. H OF 7r S&.3;.4;.5;.6;.7;.8;.9;.0;.8;.Hs 5=.5=.uB ~q *l --.;-.Js =q a;.a;.Mn ~N NK b;.Yo $J c;.)-.kU Sn Sn d;.`u Kn +p si #p ra vb B2 70 ia b5 lo <g QE <g q6 UH UH xD xD mF dm }1 DL e;.f;.il UE |4 tM 'v >&.oi :g :g u6 0h t6 t6 t6 b4 <0 a5 q2 t6 t6 lo c4 d4 :1 M[ P[ 11 o3 j| 1[ K[ l` l` l` g;.g;.g;.g;.P< 9_ .| .| |} 3} c< c< P[ P[ *g *g a4 a5 a5 )f 0h `C s6 04 04 Y} Y} Y} &G `C h;.i;.Zp n2 gA Bc s6 j;.T1 EL k;.l;.=L m;.Kr G3 W2 *C Gg ~n 4b 4b O^ A; 3> t) Y; Y; A; z- X- X- C- z- z- z- z- 5- N; E- d= e& (= (= E* (= &= d= d= V= d- d- D- D- Q^ Q= R= R= V= U= U= U= R= U= M; N; S= Q= P= Q= h= == *= &= B& e& E* &= E* E* E* E* E* E* E* E* c= g= h= E* == &= )n Sg {-.:*.92 n;.o;.p;.q;.r;.s;.t;.u;.v;.w;.x;.y;.z;.A;.B;.C;.u=.c: B- *1 D;.q= == 9; a; h= c= R= P= N; L; %[ <_ Q^ 5/ g> h= t] E;.D* c= |_ 3p i1 f> S= == S& S& D* == S= ",
"e&.j*.G&.F;.G;.H;.I;.J;.K;.L;.ni t7 kX 8y -u PC c+.)$.1#.M;.N;.O;.P;.Q;.T..R;.S;.T;.U;.V;.W;.X;.W&.&Q eO 'U 'U 'U eO &Q /#.1#.Y;.b+.Z;.QC uB `;.$*.`J  >.kr Xt Xt wC Bb Im Nk .>.X=.+>.@>.w-.[y #>.5z pA $>. >.B-.8r KE %>.&>.&-. R 6;.*>.=>.->.<=.R&.uB uB ~q ~q *l --.;@.=q =q a;.Mn Mn A-.b;.b;.A-.Sn z&.'-.'-.;>.w%.<y pL Ol $K |r *9 +p Jn +9 +9 r3 ra Lc c5 d4 *g c4 /I #9 #9 mF dm dm WE DL >>.,>.jx 95 #G '>.)>.p2 ca <0 <0 xD u6 t6 t6 t6 mc <0 q6 Z8 u6 _0 ia ia `} P[ P[ P[ `} `D `D X} l` l` l` l` g;.g;.g;.!>.9_ 9_ F[ .| |} 3} c< c< P[ P[ c4 *g a4 a5 a5 a5 04 04 04 Y} _1 _1 _1 m| &G l| ~>.%G Y} ~>.m2 [1 wQ TB *: a} {>.]>. B <9 U2 *C (; ^>.}i 4b />.(>.]o A- z- B- y; Z- Y- A- C- z- B- A- A- A- A- 4- S= F- ,~ c; D* g( 7* D* D* == == c= S= e- $; e- T= S= Q= Q= T= L; T= Q= S= T= N; T= V= R= U= 9; B& == &= E* c; <; e& == E* E* E* E* E* E* E* E* d= 9; c; == y} }o w[ |m _>.Xh :>.<>.[>.}>.|>.1>.2>.3>.4>.5>.6>.7>.8>.9>.0>.a>.b>.c>.d>.]c &> 5= _& _& e& h= c= c= g= N; ]- V= 6/ e- <_ %[ #8 &= c~ }, -= _& d- 7; $; <_ g= 7* R& y& R& E* U= ",
"e>.f>.g>.h>.i>.j>.k>.l>.L#.Yd 0b CB ;u Zd =f -W QC +&.Q .M;.m>.~Q ]#.n>.o>.p>.q>.r>.s>.Kt t>.u>.n*.g@./T {Q v>.1P w>.x>.y>.z>.=P Is 5=.P=.,O }V LN A>.B>.ZH /I vs C>.Bb @p D>.E>.F>.G>.Pl SK U=.U=.z%.Mk #q #q A7  H H>.)q I>.=>.kf 3;.I>.m*.S&.%>.J>.Es Ro K>.Lo Bm Fl >m a;.A7 e>.e>. H e>.Yo B%.B%.L>.;>.M>.w%.N>.N>. v Ol I7 cj Kv ta !e Wc j5 E7 90 sa YE C7 S< T< S< q3 r..Kn YL cM o| [[ O>.Xz P>.]O vE 04 _O :0 b4 w2 5} XE C7 5} `} _H Q>.R>.:1 P[ 11 `} 8} 6} (H 4[ 4[ 4[ 4[ o| o| o|  D D: VA uw S>.S>., .2K , .-: v( -: TB 9} 9_ 3} H[ Q[ 4[ Um (H |0 lo q6 q6 P[ R< R< R< R< R< R< R< 8< K[ X} R< U} cK |} Hx T>.j/ #| 63 k2 q0 k~ [e B, I_ O^ S- Sz a2 ,} J* 7; 4- 4- 4- B- 4- 4- 4- 69 b- 5- 8- 8- 4- A- 8- S= c= == E* A& D* M/ U>.T& 8* &= d= V= d- D- d- V= d= d= d= d= d= d= d= g= g= g= g= g= g= g= g= &= &= &= &= &= &= &= &= == == == E* E* B& B& B& E* e& <; E* V>.W>.,n ^n b2 Tz X>.<>.Y>.Z>.`>. ,..,.+,.@,.#,.$,.%,.&,.*,.=,.-,.;,.>,.,,.8&.g] h( == Y% s% &= G- }o (= 0; c= 9; T= {- ',.',.P= <; y! C$ q% g( Q= <_ <_ P= B& z& x& x& z& A& h= ",
"$>.k*.),.!,.~,.{,.],.^,.6=./,.(,._,.:,.]g }W *X `@.+&.+&.M;.-#..%.]#.;R #Q <,.n%.N$.[,.},.|,.1,.2,.j@.z+.3,.4,.5,.6,.7,.8,.XX *>.p-. u Fs E$.9,.0,.e>.a,.JF b,.8e A%.Bb c,.E>.E>.F>.G>.Pl SK U=.U=.A%.C>.4z #q $>.`o d,.d,.I%.e,.X&.X&.:=.f,.HE PF 6r g,.`o t%.h,.Ko Cj Lk $>.e>.$J c;..-.j*.Sn ;>.i,.i,.E&.lr f%.j,.BE k,.l,.m,.n,.o,.&K p,.KO 'e G7  F )e E7 21 21 |L E7 Ho q,.Y1 r,.|} oH Fx s,.Xz GL t,.|1 96 QL sb ia {f 21 |L YE C7 +E YL u,.v,.mF N[ :1 _H w,.:1 rN 4[ 4[ 4[ o| o| o|  D  D E: 2J 2K !>.dw (K if x,.0} ': g| 9_ 8[ -: 3} H[ kn 4[ 11 mF |0 c4 a4 5} 3} N: 3} 3} 3} R< R< R< R<  E  E N: V< D[ ;: u( $2 d[ Z] +] y: z' b> .> Rr s) B' _t Vr {4 y,.7+.&> K= K= K= 4- 4- 4- 4- 6- 7- 4- 4- 4- 4- A- 8- Q^ {- i> &; *= 7* R& s] T& T& 8* &= d= V= d- d- d= &= d= &= d= &= d= &= g= E* g= E* g= E* g= E* == == == == == == == == == == E* E* E* B& B& B& c; e& e& e& *= z,.c9 P/ A,.]4 B,.C,.D,.q;.t=. ,.E,.F,.G,.H,.I,.J,.K,.L,.M,.N,.O,.P,.Q,.R,.S,.L) N* s% s% 7* E- g- == <; h= a; 9; Q= {o {o R= <* E;.^' b& 7* V= &> d- S= B& z& x& _= x& A& h= ",
"k*.w$.T,.U,.9;.V,.U&.(#./#.W,.X,.Y,.Z,.`,.,$.U&.@&.W&.+&..&.pZ >W /T |P  '.d+.TC MN .'.+'.@'.#'.#&.H=.(P $'.o .!;.%'.&'.*'.L%.K%.iV !=.!=.='.-'.9=.lU v%.Un ;'.8S hx _d Pl E>.[I F>.G>.G>.rI U=.U=.>'.>'.5z 4z #q e&.A7 ,'.C-.Y#.''.{,.Cs C%.)'.!'.~'.{'._=.JF KI $q Il Cm Il 5z pA Dm ]'.^'./'.C>.Hm Vn mA 2z nA ('._'.:'.<'.['.}'.|'.1'.aj <I D>.2'.I7 00 G7 G7 00 90 Wc 3'.4'.PM Lw XB 9_ dH M*.%L :J )D 1[ :1 (H b5 ia @E Vc #E 21 @E j5 21 :f YL U< 4g +E rN 8} P[ ]L o| W< W< W< W< 9} 9} 9} 5'.6'.6'.5'.of gH 4F %l Q: 9[ 7'.0[ b} v3 -: 9} |} |} c< 4[ `} `} 5} XE N: k5 N: N: N: 3} 3} 3} 3} W< W< Db ik ]1 8'.r( #] x{ q) i~ 3) <) A; ;< +} Q^ %_ I* Ka 9'.b&.9'.R= r= r= r= K= K= K= K= 3- L= c- b- 0- 4- 8- 8- @7 |_ 7; R= d= D* T& 0'.@8 T& T& 8* d= V= V= V= &= 8* &= 8* &= 8* &= 8* E* 7* E* 7* E* 7* E* 7* A& A& A& A& A& A& A& A& D* 7* 7* 7* A& A& A& A& D= A& 8* d& s% Y% @% }- .i a'.b'.c'.d'.S*.e'.f'.g'.h'.i'.j'.k'.l'.m'.n'.o'.p'.q'.r'.s'.t'.u'.b! z% X% X% c& 7* 7* d& s% c; c; e& c= f= e= g= Y% d$ W- b& <; <_ f> g> N; A& x& _= _= x& z& B& ",
"l*.;q 'O T&.v'.dO w'.x'.(S >X y'.z'.A'.#%.Y;.V&.@&.W&.W&.+&.G=.B'.@..-Q -Q C'.C..D'.RC E'.V@.F'._;.G'.H'.AO ;R I'.J'.K'.L'.M'.N'.kV M#.p%.O'.f*.P'.P'.Q'.,x _'.h*.R'.S'.F>.Dj [I F>.G>.G>.T'.X=.U=.T=.>'.Mk 4z #q BJ .-.,'.%>.U'.X;.V'.W'.X'.Y'.Z'.`'. )..).+).(=.@).JF GD 4z Mk JF #).$).%).$).&).hx nA  v *).R'.D&.=).-).;).>).,).').)).[d !).~).!).I7 I7 2'.2'.00 ta Yc {).]).!e ^)./).T .dH %F , .9G L6 E: W} ().b5 C7 Lw $E Vc _).$E 41 j5 21 T< Ve T< U< O[ _H XE U< 3} N: N: N: 8[ 8[ 8[ 8[ M*.5'.M*./h ^: 2F 2u 0v :).Q: 9[ 9[ F2 v3 @g @g 3} cK b< U< `} P[ P[ T< Db Db Db Db .| .| |} .| }} ;: >: Du <).[).}).tx <[ Q, o, r~ O} ) .4- I= r= ]- ]- V= &> K* l[ ]- 5= 5= 5= o= o= o= H= H= L= h1 59 59 0- 8- 7- B- #> e: Rr q- T= *= U>.pe s] s] S& S& == c= c= c= == D* D* D* D* D* D* D* A& A& A& A& A& A& A& A& A& A& A& A& A& A& A& A& 7* 7* 7* A& A& A& d& d& d& D* >_ 7* s% <* 6% J$ J) |).1)./3 2).3).Y>.4).5).6).7).8).9).0).a).b).c).d).e).f).g).h).i).W^ `% z& z& c& s% s% s% Y% c; _& B& B& h= h= h= 7* p$ V% A& g= 1> |_ $; R= d& b& 9* W- 9* b& d& ",
"l*.j).;$.k).l).m).n).o).p).q).7Z r).s).t).u).v).M$.W&.@&.}W ~O -P &@.VJ w).w).~Z NE x).r%.$H Y&.)=.u).*O kS S..iQ y).z).A).B).C).$H 8=.A$.D).F&.w%.lr g%.E).F).G).H).I).J).Dj [I K).L).G>.T'.M).M).N).v-.80 [g JF 4z #q d,.>-.Ds ;q O).P).Q).R).S).T)..K U).V).Nl TK W).v-.X).4Q Un 3z 3z &).Y). v <w Z).h*.`). !.G)..!.+!.@!.#!.$!.ti %!.)J &!.*!.yQ VB YB o5 =!.n5 Tl g0 -!.;!.>!.,!.'!.P: +L )K gH gH 2K D: ,o )!.+E )e p,.n5 f0 F6 n5 q| q| q| k4 Ul !!.Vl X} @L R< 4} 3} N: 8[ 8[ 8[ 8[ 6'.6'.6'.5'.0v 2u 0v 0v 0v 2u :).eH 9[ 9[ X[ g< *: *: N: }} I[ 3} T< 9< 3[ 41 DI 81 81 81 v3 v3 -: -: =: x( .( =( ~!.{!.]!.z_ 3_ 8] y, X .5| *1 ^!./!.H< 4p H< b= p= R= K= p= 5= %= %= 5= 5= 5= o= o= r= M= (!.~| 8- 6- 4- ;< _!.:!.]h `6 e- f= 8* x& s] x] s] S& D* == c= c= == D* D* D* D* D* D* D* A& A& A& A& A& A& A& A& A& A& A& A& A& A& A& A& 7* 7* A& A& A& d& d& d& D* A& d& d& z& z& H$ P*.<!.@{ [!.:*.}!.|!.1!.$3 2!.3!.4!.5!.6!.7!.8!.9!.0!.a!.b!.c!.d!.f]  ' Z% R& s] s] x& r% V$ X% z& d& A& 7* A& e& _& E* 8* e!.y& &= ]- $; f!.g!.Q= d& b& W- W- W- 9* c& ",
"%>.;$.h!.i!.j!.k!.l!.m!.n!.o!.p!.q!.r!.b@.s!.t!.G$.@&.=W '=.t$.db 6v 7Q u!.v!.o@.Md ~&.kV X@.X&.n*.w!./@.mP +%.x!.y!.z!.A!.B!.C!.x*.D!.E!.F!.G!.nB g%.H!.H).I!.J!.1T K!.Dj Dj [I K).L).G>.T'.M).M).L!.U=.v-.xj YH 6z #q Jo 8r FE PF M!.N!.O!.P!.Q!.R!.S!.T!.U!.V!.W!.(M w-.C>.z%.z-.X!.nA <y hx <y Z).Z).:'.Y!.Z!.`!. ~..~.+~.@~.!J #~.$~.#!.yQ p5 xQ xQ YB o5 =!.xG p4 F6 %~.KO &~.u( y4 7'.Xj a[ Qj 2u uw *~.H[ =~.+E E7 WB o5 n5 WB i0 n5 H7 O: d< Ul -~.;~.L[ 8< K[ Vl |} .| -: -: -: -: >~.>~./h e7 i_ 2u of 2u of Xj Q: c} ,~.P: 9[ 0[ @g 9_ F[ }} |} n| |L U< b< .| yp >( ): ): 0} 0} 9_ 9_ 0} f_ =( Z/ G( '~.)~._4 /[ O} L< e2 J} !~.~~.{~.%= /o q= 5= r= r= K= r= b= $= $= $= b= b= p= p= 8= p= H= G= x- 6- 9- Z; ]~.^~.m_ qw i1 R= == X% y&  7 y& y& 7* 7* g= E* 7* 7* 7* 7* 7* 7* 7* 7* d& d& d& d& d& d& d& d& A& A& A& A& A& A& A& A& A& A& A& A& d& d& d& Y% 7* <* k1 s% R& z& z% N* /~.(~.Rg _~.9&.:~.<~.[~.}~.|~.1~.2~.3~.4~.5~.6~.7~.8~.9~.0~.wq %; C* -- y& s] s] x& X% X% c& z& A& 7* 7* A& e& e& E* 8* T& d& 9; 6/ @B a~.v; #8 _& W% U% }, U% V% W% ",
"S&.=-.b~.j!.]Z ZT c~.d~.e~.f~.g~.h~.j+.i~.j~.k~.T$.)=.E$.RC FY QD hj l~.zN m~.w).A..=f J>.B-.n~.>$.o~.p~.q~.r~.*=.s~.t~.2=.u~.v~.w~.x~.y~.z~.A~.B~.A=.C~.6S I!.D~.E~.F~.G~.H~.I~.K).L).CI J~.M).M).Nl w-.>'.K~.L~.JF e&.M~.Cs tP V@.iU N~. ).O~.P~.Q~.R~.S~.T~.U~.V~.(M L!.#p W~.X~.Y~.Z~.U=.Nk |;.Wn Xn `~.`~..>.I). {..{.+~.+{.@{.#{.$~.#~.#!.#!.AI p5 H6 p5 =!.xG =!.q4 Kv <H n5 81 w5 Mj 0I 0I %t 2u ${.dH J[ hn c< @E DI =!.xG <).yp n5 q| +| ;G %{.cK o| S[ qJ nf cK E: -: -: -: -: -: >~.>~.^h &{.*{.0v 2u ^: /: Mi 9[ ./ g/ Y[ 0[ f< @( b} 9_ 9_ n| eK Vl |} Q[ .| `q  c >( ): 0} 0} 9_ 9_ 0} e_ B( Y/ ={.'~.-{.;{.23 /}  ! =1 >{.~~.,{.'{.){.!{.~{.{{.^!.D;.*1 J1 $= 6* 6* 6* $= $= b= b= 8= a= >- ,- x- 7- 5- A; vL Uz ]{.! .Rr e- == S& y&  7 y& y& 7* 7* g= E* 7* R& R& R& R& R& R& R& c& c& c& c& c& c& c& c& Y% Y% Y% Y% Y% Y% Y% Y% A& A& A& d& d& d& Y% Y% B& &- C= d& R& X% s$ t$ W^ L) W' $@.89 9&.A{ ^{./{.({._{.:{.<{./8 [{.}{.|{.[-.1{.2{.v- a, 3{.4{.9^ x& x& x& x& x& c& c& R& z& d& d& A& A& B& B& <* B& V- 5{.e: gd Kw <_ _& X% U% }, U% V% W% ",
"s$.g@.j!.6{.7{.8{.9{.0{.a{.b{.c{.d{.e{.TW f{.} .g{.h{.`@.|V }V 9y RD hj l~.VC D+.]M #I %>.|V i{.j{.v).k{.$..l{.m{.k%.z!.%Q n{.o{.p{.q{.r{.s{.t{.u{.v{.w{.G).x{.D~.y{.z{.A{.Dj B{.)9 G>.C{.rI D{.U=.>'.4Q 5z E{.F{.t%.A7 g,.G{.H{.!,.I{.J{.N~.K{.L{.L{.M{.N{.O{.P{.Q{.W=.R{.TK S{.T{.kW U{.Y=.Y=.SK V=.V{.W{.[d .>.J).X{.;).Y{.'G }I Z{.xS }I x5 r4 yG a1 Mz Mz G2 01 01 G2 AI `{.MH e| uy +/  ].Nj >D |K .].+].M7 o| o| p| i0 G6 q4 lF WB d0 D6 H7 }p K:  E hn U}  E U} hn -: -: -: -: -: -: >~.>~.T .M*.M*.%t T .i_ P-.:p c[ W: #| |( g< 7'.^h >~.>~.dw )D @].ZA VA M: b} >( #| #| #| c} c} c} c} g/ `^ M] G] O] z_ #].7b ^}  ! j, 5- +@.$].%].$= ~{.B* c, b= X*.a= 8' a= $= 6* 6* 6* 6* 6* $= $= 4p q= 8= 8= L= K= 8- H3 uq g' D> {G >E @B 1> g= 7* R& R& R& R& 7* E* E* R& y& R& y& R& y& R& u% t$ t$ t$ t$ t$ t$ t$ t$ s% s% s% s% s% r% s% s% A& A& A& d& e& _& _& _& A& s% c& T& R& V$  % u% n- W^ &].*]._>.z< Xh _*.V*.=].-].;].>].,].'].)].!].~].{].H3 F= ]) ]].^].7^ W% W% b& y& y& c& r% R& c& X% X% A& 7* d& s% D= /].S= X2 (]._].:].O@.a; X% W% V% V% V% W% ",
"<].* .8..n!.>` [].}].|].1].2].3].4].5].6].;T 7].8..<P R@.IO b;.Bj 'f KK &M 6v IC ~O t$.QC `@.n%.n%.V,.8].^@.9]._#.<,.0].a].b].c].d].e].f].g].g%.f].h].i].j].k].v{.l].m].i*.%K sa sa n].Nc 50 80 5z c;.A7 9=.b;.o].OF r>.p].q].r].s].t].u].A$.r%.-q `o `o j*.(=.Ll <w  !.h*.Y!.v].w].x].y].>J z].E>.E>.A].)).B].A].C].&!.P6 Hb {J {J *E *E D].`c `c qv t| `c `c `c lG `c `c #c E].F].N] v_ t| &2 H2 s| G].CP H].W[ g| -: |p z( -( -( e| 71 71 g_ 81 F2 v3 9_ 9_ 8[ 9} 9} 8[ U[ ': F2 #( v( 9X @( F2 0} 0} 0} 0[ v( P: P: gl r^ V7 Y: jv V: 0v I].J].K].I].L].M].*{.P-.j_ o/ b[ V: o/ j< j< n/ hk O2 p0 u~ k} T2 ;] b> b> J; }; `- Z- A' 0- e- G= g> 9= U= 8= R= o= T= 8= Q= &= 8* T& T& T& T& T& T& ,_ 8* E* E* c= V= e- 6/ <_ ^o `r N].O].P].8k #B Q].]_ @% t$ t$ `% `% `% s] x] y&  7 Z$ |$ |% f; ,; L- F' G' G' F' t! ){ $, f& s$ u% `% W$  % t$ u% z% .% 4% R].>= >= h( s$ X$ X$ 1% 1% 1% t% s$ F* .% @% h( Sg 'n A0 Bx 8%.S].S].S].S].S].S].d>.T].$j }_ >= B& d& c& c& b& 1% 1% 1% 1% 1% 1% 1% Y$ Y$ Y$ Y$ s$ s$ s$ s$  % x% z% 5% U].V].W].X].R].@% f& s$ s$ W$ W$ ",
"^ .Y].Z].`]. ^..^.+^.@^.~+.`v #^.$^.%^.&^.*^.=^.-^.=S ;^.,@.A&.}q er nZ q8 Yi Yi t$.t$.QC `@.n%.n%.o%.{$.hN /$.<` >^.A8 ,^.'^.R).AE 8-.A~.)^.nB )^.vC !^.BE )^.vC e].z=.~^.[g ~f zb 70 Il yj HD 9=.u&.;q GE M#.{^.]^.^^./^.(^._^.:^.<^.J>.RC v*.a+.;-.;@.`G [^.Jl <w  !.h*.Z).('.x-.}^.|^.1^.!).G>.2^.6K B].3^.@~.#!.x5 .F {J nh  d  d  d .d .d .d .d .d .d +d ;| )] Zq 4^.5^.dE 6^.5^.D].vx Yj n^ 7^.8^.Kj ]: @| W[ W[ 0[ ZB q5 e| -( g_  2  2 g_ F2 F2 9} 9} 9} 8[ 8[ 8[ v3 x( #( N7 9^.0} v( v( 0} 0} 0} v( v( @( @( gl t_ U7 ox jv </ 0^.a^.b^.'l c^.3G d^.e^.f^.Lr </ V: V: Ch !B hk 29 Da Da r< @[ Zm Zx ^C F/ r#.0%.s) %> $> Vh O*.D- q- [_ <_ <_ T= S= Q= Q= U= 0; &= 8* T& T& @8 @8 @8 @8 x& b& Y% d& c= d= e- U= J$ Cf ^o g^.n_ h^.T; Ne S- <l @% t$ 1% j> `% `% b& W% W% W% W% X$ X$ 1% ,; L- F' F' F' F' t! ){ k* f& G$  % i^.j^.k^.W$ t$ t$ '= 6% ^n i( l^.m^.t% 1$ U& U& X$ X$ t% t$ F* .% @% 6% ;= Sg )n |m !n W*.`r W*.W*.!n T_ ,= Sg J$ '= N* N* t$ t$ t$ 1% 1% 1% 1% 1% 1% 1% 1% Y$ Y$ Y$ Y$ Y$ Y$ Y$ Y$ Y$ 2% t% .& z% n^.%% o^.R].@% @% f& s$ Y$ Y$ ",
"~@.Rt p^.q^.r^.s^.t^.u^.`v v^.Ws w^.x^.:@.Gt y^.z^.Vu ;v GE u%.x7 (q 0S }h db t$.t$.Zd `@.`@.MN MN A^.$&.B^.C^.@u >%.D^.E^.F^.z=.M>.vC G^.H^.E&.I^.d;.AE h%.lr L>.nB G!.J^.xj ri mf ch HD 7z A-.e>.u&.~N G-.B-.r>.Z&.K^.L^.M^.N^.O^.P^.|V S&.KE E$.K>.K>.Kk 6z HF 8R h*.*).(M Q^.R^.S^.V!.Q{.2^.T^.@!.6K C].%!.P6 zR }I U^.{J V^.V^.V^.5u 5u 5u 5u 0g 0g mD V^.5u fD 8C 8C 4^.'] Zq )] ;| ;| $] I( W^.X^.~( Y^.W: Nj h< g/ ~E &( ;( 91 -( e|  2  2 v( F2 61 y( -: *: @g 9_ v3 u( !E Z^.`^. 2 81 f_ ): ): ): u( u( f_ f_ _: r^ 29 Dh 9e i< Vz :C /B b^.;/ Dr  /.0D ty jv v~ -/ -/ !B jv hk 29 Fa ;d .} @[ $c b: Gg F/ ~n `r i1 $; 7; P^ P^ 7; 6/ 6/ #7 i> ./.h> f= e= c= a; == D* S& S& s] s] s] s] y& y& D* >_ J5 &; %_ Q= h] R].Q].+/.@/.Ff #/.u0 S- <l @% t$ 1% j> `% `% r% u* u* u* u* r% r% r% z& z& j> j> j> j> j> `% .% c! t$ s$ $/.%/.&/.j> t$ `% '= @% */.*/.p- c9 t$ |$ S> U& W$ r$ s$ `% .% .% .% .% @% @% 6% h( p- =/.-/.=/.=/.p- >= ;= ;= '= N* t$ t$ 1% X$ X$ 1% 1% 1% 1% 1% 1% 1% 1% X$ X$ X$ X$ X$ X$ X$ X$ 5$ 1$ X$  & $- z% @% ;/.4% @% @% f& t% X$ 1% ",
">/.-R TU ,/.r^.'/.)/.!/.Vi g..~/.{/.]/.^/.//.(/._/.:/.c+.</.e%.&q ]v fO [/.qc Zd Zd Zd MN MN MN 1V }/.|/.3;.1/.K%.2/.*>.>-.3/.'-.z7 A&.P'.z&.*J z6 z7 Sn kU {=.P'.z7 z7 [^.BJ gh ub ch yj HD 9=.$>.,'.A*.4/.E%.5/.`&.f,.6/.7/.8/.9/.O^.$H ar )q LN Js =q BJ 4z C>.8R *).Z).X=.0/.a/.b/.c/.d/.e/.A].6K f/.%!.@~.x5 B4 'G )G *E V^.V^.5u 5u 5u AR AR 5u AR fD fD AR 5u AR AR fD Zq W] 1/ 9{ -| >| v| ]9 d} N2 Z[ Z[ 8F bF X: j/ q5 e| 91 -( e| g_ g_ v3 g/.#( Wk TB @g 9_ b} 71 f_ 71 Vk z( f_ z( z( ): ): ): u( u( f_ f_ _: r^ Hd hk Dh !B Ch  /.^B h/.h/.0^.i< ty nq Dh ~^ [/ `] !B Dh V7 u~ =~ W2 -~ H> b: F/ F/ #> 3b 26 f> D- +} +} +} e- g> %_ M; i/.j/.k/.g= 0; d= E- 7* 7* R& R& y& y& y& y& y& s] 8* O/ Q-.Q-.Q^ R=  ' J$ p- S- l/.m/.n/.o/.p/.]_ f& t$ 1% j> `% N* e& e& 2* B* B* 2* 1* 1* 4* -- -- 7^ 7^ 7^ 7^ 8^ X% I$ `% t$ $/.q/.r/.2% t$ t$ .% 5% P/ H* s/.t/.t% U& |$ 1$ h$ g$  % `% .% F* F* F* +% +% +% Cf ]_ <l <l <l ]_ ]_ R].@% 6% z% t$ 1% X$ f$ f$ 2$ X$ X$ X$ X$ X$ X$ X$ X$ X$ X$ X$ X$ X$ X$ X$ X$ 6$ 6$ Y$ j> `% f& '= G* 4% .% .% t% 1% 1% U& ",
"Bs u/.v/.w/.x/.y/.z/.A/.B/.C/.D/.E/.F/.G/.,S  U q .uV >/.B$.H/.*q Yp T9 Rw KJ =&.=&.=&.#I #I 1V 1V JD I/.J/.#'.K/.pQ L/.M/.x*.<;.f*.s-.f*.B$.C$.%J %J $J lU <;.b;.c;.f*.$J zC x7 zC yj yj zC B$.9=.N/.b;.w$.O/.,-.O'.6r u].P/.g>.Q/.L#.w$.E%.R/.a;.Mn kr kr 5z v-.U=.SK Pl .>.S/.`~._L ').A].T/.U/.C].!J ti Z{.}I 'G V/.*E *E V^.5u 5u 5u AR AR AR fD 4^.6: 6: 4^.=| 4^.'] nh v| e} e} *| *| *| e} W/.I( Jb ^9 C3 C3 C3 N2 $2 #2 #2 k/ s| s| %| $| vy sy X/.Y/.aI W[ a} Q: vy '( z3 $| `^ [} %| $| #| #| #| z3 z3 _: _: _: Y: O2 s_ s_ Kr Z/.f{ mq h$.!B `/.hk 6E za h[ x' }5 )( s_ O2 O2 {^ Aa M~ T2 ;] p~ a9 a9 G/ 09 (>.#_ ~- Q^ d- e- e- d- S= R= 2|  (..(.9; 9; (= ,~ 7* 7* R& R& y& y& y& y& W% W% d& 7* d= c= [_ X; z% @% p- O9 M9 +(.@(.#(.p/.]_ f& t$ 1% j> `% '= $(.p- 6/ e- S= U=  = 2* 5' %(.3' &(.4{.*(.=(.-(.V$ f&  % s$ i- ;(.>(.j> W$  % u$ ,(.P/ H} ;j '(. % f$ 1$ 2$ h$ g$ r$ Y$  %  %  %  % u$ u$ u$ K$ R].]_ R].R].@% @% f& t% t$ X$ X$ f$ 2$ B# B# B# X$ t% t% t% t% t% t% t% t% t% t% t% t% t% t% X$ )(.6$ h$ 1% `% C% $- F* F* .% .% t% X$ 1% 1$ ",
"Sn ^$.z+.!(.~(.s).{(.](.^(./(.((._(.:(.<(.{` y'.#..b+.>q B%.)-.Ms Xu +G J*.]M =&.#I #I #I [N Q=.Q=.2/.$H sP [(.}(.|(.1(.2(.4/.9,.&X &X :U }V *W q-.*W &X q-.3(.4(.Lo &X u&.[q zC HD Il HD d5 s-.B$.Zo 9=.6r 8=.u$.o].5(.E'.6(.D!.f>.f>.8=..-.A-.A7 yj Xt Xt A%.U=.SK Pl V{.7(.8(.K!.U~.J).9(.0(.%!.@~.#{.xi Z{.xS xS a(.b(.5u 5u 5u 5u AR AR AR fD $D mD 8C =| 8C 8C 4^.6: =] |/ I( *| Jb Jb e} I( *| e} X< ]^ *| @D .d I( 1( #/ M2 k/ T( s| %| z3 ]: iG Mj eH W[ X[ X[ B3 $| [} $| s| _: z3 %| e/ #| #| #| z3 z3 _: _: ~( ]9 6] Ue Dh s_ c(.ty d(.e(.Ni Ue 29 h[ $d Ob f} }/ g1 Hd u~ {^ p) -~ ;~ H> 7> c: O^ R> i1 f(.!n [_ e- g> &> &> R= S= M; P= Q-.f= 9; h= ,~ *= <; A& A& z& z& x& x& x& x& b& b& d& A& g= h= #8 X; N* f& ]_ dk g(.h(.'h S- Q].R].f& 1% 1% `% N* ;= i(.j(.k(.92 _t }_ T= 9; B* 4' 3' l(.l(.m(.n(.-(.c& F* .% t$ X$ r$ W$ j> g$ r$ s$ .% 4% h( T/ z} G$ 6$ 6$ 2$ Y$ Y$ W$ r$  %  %  % G$ u$ u$ u$ u$ 4% 4% .% .% s$ s$ s$ Y$ X$ f$ 2$ B# B# /. /. A# Y$ s$ s$ s$ s$ s$ s$ s$ s$ s$ s$ s$ s$ s$ s$ Y$ U& z# o(.W$ 1% G$ $- u$ F*  % s$ Y$ Y$ 2$ B# ",
"BE !&.H..p(.^Q $U -S q(.r(.s(.t(.u(.qZ {Q 5,.{#.|#.HO v(.A&.lU w(.wc x(.ly UC >%.#I [N [N [N &&.&&.E$.y(.z(.A(.B(.C(.D(.E(.F(.1V 'O 'O `@.1V 'O `@.`@.QC `@.G(.E^.>/.'O WX @n [q u&.~N u&.D$.`J Mn Yo C$..-.b;.kU H(.I(.g>.v(.7e J(.M!.v%.e%.kU pA +q z%.q,.w-.w-.Pl |;.V{.lJ K(.L(.H~.M(.N(.O(.P(.~J 'G Q(.|I R(.vx vx 5^.5u S(.S(.nU nU nU 3f 3f T(.U(.nU ([ nU S(.([ '] `: u~ |: x' h[ (9 f}  [ 1C _9 `: p^ f} (n <B W] lG u_ d1 d1 u_ $2 k/ M2 z3 z3 #| z3 Y[ Y[ Y[ Y[ #| &/ k/ H2 M2 k/ T( L] M2 M2 M2 #/ #/ m/ m/ ~( g1 p0 6] }: U7 Dh dD jI pt e[ Te p)  [ =t g}  < |/ |/ K^ K^ 7] y' -~ N! 9> I; R> s) K; $; $j I* 5/ i> ]- U= N; V= V= h= g= c; j1 %- e& 7* A& <* d& d& c& c& b& b& b& b& y& x& d& A& c= c= 6/ T= z% $, }- 2b V(.bl #(.W(.<l @% t% 1% 1% `% N* X(.Y(.Z(.`(. _.d] 9&.A#.du '= d& u* ._.+_.@_.#_.$_.7* z% z% u% 1% W$ 2$ U& 5$ Y$ t% z% f& +% @i ,(. % r$ r$ 1% 2% %_.1% r$ r$ r$ r$ W$  %  %  %  %  %  % W$ W$ W$ 6$ 6$ A# B# S  S  /. /. 5. $@ K@ Y$ s$ s$ s$ s$ s$ s$ s$  %  %  %  %  %  %  % W$ T  ,. ,. 6$ X$ Y$ t% `%  %  %  % W$ 6$ [. [. ",
"/=.`G /V >M (S &R &_.*_.{#.@%.@%.q` =_.-S %+.:$._;.vS 6e -_. >.%u hi Al j=.RN >%.#I [N [N }N &&.&&.|V ;_.>_.E(.,_.'_.)_.!_.~_.c+.C..TC ~@.b+.E+.}W C..}W {_.;%.WD Z;.~@.GY }V -'.`J u&.[V `J a;.jf ]_..-.$J  >.)-.z&.e%.H-.f>.6e D).A&.'-.x%..p C&.4Q 2z w-.SK SK Pl V{.`~.^_./_.G~.(_.__.#{.+{.+{.a(.:_.<_.[_.+F }_.6^.|_.S(.S(.S(.nU nU 3f 3f 3f 1_.4u X] P} 2_.([ _[ 3{ 3_.)| vh Y< {^ h} %< g[ x{ $< <B =t g}  }  } g} av %2 u_ 1( 1( u_ k/ k/ $2 %| #| #| %| B3 B3 %| T( m/ M2 #2 L] #2 P7 #/ M2 M2 M2 #/ #/ m/ m/ ~( U7 6] 6] 29 p0 4_.Hd Mb (9 u~ k~ 5< K! 7: p^ 4< 1/ |/ Te x{ y: Q, N! b> 3> }; 8; P^ P^ &> c2 G} 5_.6_.k/.V= |- a; c= E* %- _& *= >_ s% Tg D= g( d& d& c& c& b& b& b& b& q% D$ C= D= a; h= 6/ h= 7_.x% R].<l g8 3b 8_.$j ]_ f& X$ 1$ 1% `% N* 9_.0_.a_.b_.c_.d_.e_.f_.p[ g_.+' .% U$ h_.i_.j_.k_.s% 4% .%  % `% 2% U& 3$ S> 1$ Y$ s$ t% z% 6% 6% s$ r$ r$ Z$ `$ i- |% r$ r$ r$ r$ W$ W$ Y$ s$ Y$ r$ 5$ 5$ [. [. [. [. K@ S  I  I  5. 5. $@ $@ K@ Y$ s$ s$ s$ s$ s$ s$ s$ G$ G$ G$ G$ G$ G$ G$ r$ T  S  C# A# {. l_.y% C%  % W$ W$ 5$ [. Z@ I@ ",
"x-. p WX ]M GQ AT )Q yV $R .+.-R -R eO .R I..!@.wS x*.m_.A&.D$.#I ]y qo ,M /$.1V SC -&.}N Yi zA 1N Z@.u>.$-.n_.o_.p_.q_.r_.s_.q@.RN PN t_.u_.I@.WD tV 0].QN C..oW ~@.UN |W '=.`;.&X &X /q }V ~N v_.w_.%J v%.x_.F&.)-.G!.y_.z_.z&.i,.G!.A_.2z Z=.R'.Y=.X=.Nk `~.lJ X{.F>.J).+~.B_.C_.D_.+{.E_.~J F_.#c G_.H_.I_.6^.J_.K_.L_.M_.46 S(.T(.nU _[ N_.2_.4u 4u 4u _[ _[ 2_.2_.'] O_.P_.}B Ob  [ K! q) p^ K! 2n 1) i~ M! Q_.m<  } )] $] $] $] $] $] d} d} P1  B R_.S_.l< Y^.j< (d Z[ &| d} d[ d[ t_ Z: Z: d} P1 !( ^9 N2 Jr &] rv ph 6E K^ Te {^ u~ Te k~ T_.%< p) T_.`: g[ `: %< +] +] 7] y: y: M! 0> 3> t) z- A' Q^ <_ T= ;j U_.V_.W_.&; X_.b; == == e& &- s% A& D* D* z& X% V$ s% s% X% c& b& W% q% q% +;.D$ Tg s% f= %; 6/ a; t% X$ @% ]_ Q].p/.Q].]_ 4% t% 1$ f$ Y$ t% J$ Y_.Z_.`_. :..:.ae +:.@:.#:.$:.%:._m j; V% U% V{ V% <* +% .% t% s$ W$ 3$ 4$ 6$ 6$ 6$ W$  % F* F* F*  % Y$ X$ X$ Y$ r$ h$ h$ 3$ 3$ 3$ 5$ 5$ 6$ W$ 6$ B# B# B# S  S  S  S  I  4. 4. 4. '. '. '. '. 4. 5$ r$ r$ r$ r$ r$ r$ r$ &:.*:.`$ Y$ h$ j> j> 4$ Z@ 4. Z@ [. 5$ 6$ W$ W$ g$ h$ h$ 5$ [. /. /. ",
"=:.B2 %q oz 9w IR Os -:.{y rW qW [P |Q 8P E..QC M#.z$.z$.Yo &X 5Y Od BY F#.-%.Q=.'O -&.|N oz ;f [r ;:.C-.>:.,:.':.):.!:.~:.{:.]:.^:.tV TN XD /:.I@.-@.(:._:.R@.G..XD RN E..Q=.|V &X q-.`;.q-.</.a;.`o x6 ::.<:.[:.A_.9S (=.z&.}:.d;..=.,x i*.Y!.G).`~.7(.7(.`~.G>.|:.F>.1:.U/.C_.D_.~J Y{.2:.F_.3:.4:.5:.6:.7:.8:.L_.8:.#].1_.P} S(.9:.nU _[ nU W( 4u 4u _[ _[ _[ 2_.2_.2_.$< $< $<  < K! ;t 0:.a:.X( b:.c:.d:.e:.&! *! 2B =| )] $] $] $] $] d} d} g1 .B f:.<K S_.!] l< 8F &| &| d} d[ d[ t_ Z: Z: d[ Z: g:.W^.h:.&| Z: .B R7 Y< K^ q< {^ m~ p) 5< 7] %< h} 5< K^ q< i:.q0 =] 0{ y: M! M! [) D; #; C- 8- d- R= N; 9; U].j:.k:.l:.Q-.e& E* E- E- >_ D= <* <* r% X% z& R& S& d& d& X% X% W% W% b& b& q% x& D* d& {| X_.#8 g= t% X$ f& R].Q].Q].<l R]..% X$ F# C# 2$ t% J$ t} m:.n:.o:.p:.q:.r:.s:.t:.u:.v:.S{ !8 `= C# 6# C# F* 4% f& t$ t% Y$ 6$ 5$ 2$ 6$ 6$ 6$ W$  %  % G$ g$ h$ h$ h$ h$ r$ W$ X$ 3$ 3$ 3$ 5$ 5$ 6$ 6$ A# /. 5. /. 5. 5. 5. 5. 5. 4. 4. '. '. '. '. '. 4. [. 5$ r$ 5$ r$ 5$ r$ 5$ Z$ w:.2% 3$ g$ 1$ j> 3$ Z@ 4. Z@ K@ [. 5$ W$ W$ h$ 3$ 5$ [. K@ $@ $@ ",
"G7 4g hh In t7 ol 4T hO {M 1W 5v <r CY WJ  I ;@.,'.</.-'.}V %&.5Y VN vc 8U Q=.x:.1V &&.#I QD Xu r7 db ,O $Q y:.z:.A:.B:.C:.D:.E:.F:.v'._#._#.uV <,.|#.G:.H:.I:.:$._#.|#.:#.TC QC `@.*X J>.7=.[V =q f*.B$.J:.K:.C>.Jl 8e L:.L>.Q'.z%.2z Z).M:.V~.N:.K!.O:.K(.)).lJ X{.[H 3^.P:.Q:.R:.R:.S:.hE 5:.G_.T:.dE #].lD U:.V:.W:.36 X:.m` X:.Y:.X:.Ir Z:.m` `:.m` m` m` 5C 5C 5C 5C 1) G> E3 mg o~ 0) 9H  <.H> .<.+<.@<.#<.G> o~ G4 g} g} g[ g[ g[ g[ e[ e[ u~ Nb ko vH Ay T7 U7 }: 6E h[ e[ Y< Y< x' |: |: K^ K^ Nb $<.i} e[ {^ h[ h[ |: Te x{ h} K! p^ y' 7] 7] K^ {^ Hd p0 %<.6] O< c{ M! [) [) s,  ; z- 4- F= 1> V= h= _& ^m &<.8p V>.== c; e& D* D* 7* o: *<.,_ x& q% q% b& z& A& d& c& X% W% b& b& x& =<.b& 7* D= X_.a; <_ b; X$ f$ t% @% <l <l ]_ @% s$ f$ F# C# 2$ t% Sg t} -<.;<.><.,<.'<.)<.!<.~<.Y& v:.&j u> (m }= '* C# F* 4% f& t$ t$ X$ f$ B# B# B# B# 6$ W$ r$ r$ r$ r$ h$ g$ g$ h$ r$ 2$ f$ 3$ 3$ T  T  [. [. [. K@ 4. '. 4. '. '. '. '. '. y  y  y  y  y  y  y  $@ [. [. 5$ [. 5$ [. 5$ [. 5$ F# f$ ,. {. C# U& [. 4. '. 4. Z@ [. [. 5$ 6$ 5$ 5$ 5$ [. Z@ 4. 4. ",
"4e 4g YE }0 pb KK OE Dk 4T ql pn ]y ]g *&.LN NK NK {<.#*.w(.[N OM xU *x -%.n~. *.IO &&.[N ;g Xp ei y .]<.X#.^<./<.(<._<.:<.<<.uV G#.|#.^@.:$.[<.h!.}<._#.LM <,.9].<,.|<.Y;.1<.'O P=.JO w*.E$.-'.~N $J .-.2<.3<.0P C>.y%.4<.5<.B&.Vn k,..!.6<.7<.8<.9<.0<.a<.6K b<.c<.[H d<.P:.e<.f<.g<.h<.y_ 5:.i<.j<.j<.3: fv k<.Y:.l<.jD `:.`:.Ir X:.Ir Ir Ir m` m` m` m` 5C 5C 5C Ra m< (p /^ /^ /^ ng 8> P! a: G> m<.n<.o<.p<.Ia {A G4 g} g} g[ g[ g[ g[ e[ e[ h[ h[ }: V7 O2 O2 V7 }: e[ e[ e[ Y< Y< x' x' x' K^ q< K^ x' u~ q<.q0 x' |: h} x{ y: q) K! p^ q) h} q<.K^ 29 r<.s<.%A t<.O< /[ &! t, t, k, z- 5- K= a= T= c= == e& P*. { == B& c; <* <* s% <* V$ u<.v<.w<.s] W% q% q% W% X% d& z& z& x& x& b& W% U$ U$ x<.k1 y<.z<.O@.A<.Y$ 2$ s$ 4% ^n ^n }- .% Y$ C# -) C# 2$ t% Sg t} B<.C<.D<.E<.F<.G<.H<.I<.J<.~k K<.,, v> w= := 2$ F* +% .% s$ s$ 2$ 2$ B# C# C# B# A# 6$ r$ h$ h$ X$ Y$ W$ W$ Y$ Y$ 6$ 5$ 3$ T  T  T  T  Z@ Z@ 4. '. '. '. '. '. '. '. '. y  y  y  y  y  y  y  $@ Z@ Z@ Z@ Z@ Z@ Z@ Z@ Z@ I@ /. /. J@ %. S  6# K@ h+ h+ 4. 4. Z@ [. 5$ 5$ 6$ A# [. K@ 4. h+ h+ ",
"X} n|  E (f L<.M<.N<.Q8 Fk Xp ;g ;f -u 2r  9 O<.&X FY |N /V 5Y OM =&.}N wS P<.pQ wS -&.NM 0a Dk m7 CY Q<.R<.S<.T<.U<.V<.W<.X<.Y<.|#.Z<.G#.^@.|#.|#.;W `<. [. [.9].pZ G#.HY W%.'$.o%..[.'=.uP u&.a;.$J c;.Xt ]=.+[.@[.#[.$[.C&.%[.&[.*[.=[.-[.;[.>[.,[.'[.'[.)[.![.~[.{[.&!.g<.][.y_ ^[./[.3:.7:.lD ([._[.k<.:[.m` 7C <[.kq #< jD jD .< 5C !t `:.Ra m` m` 5C 5C 5C Ra Ra p< o< Z; l} Qr >d @> B; .> B/ L^ |M  <.SM #[ C5 bf I< I< g} g} g} g} g[ g[ 1C _9 Y< |: x' e[ 6E T7 e[ g[  [  [  [  [ %< %<  [ m~ p) 7] x{ x{ h} g[ p) 7] x{ y: q) %! p^ q)  [ q0 ~^ v~ [[.}[.|[.1[.O< /[ &! t, t, |3 z- 5- K= 8= g= &= &= 7* z% N* Y% d& 7* D* 7* c& X% X% z& b& W% q% p$ V% 9* b& /* s% R& T& @8 y& q% D$ b& W% C= A& 2[.3[.*[ X_.2$ B# Y$ .% }- }- 4% s$ 2$ C# -) 6# 2$ t% Sg z< S5 4[.5[.6[.7[.8[.9[.0[.a[.b[.oe 6^ 2$ 2$ B# 2$ u$ K$ u$ G$ G$ 5$ 5$ A# S  S  S  A# A# 5$ 5$ r$ h$ C% h$ W$ 1% 1% 6$ 4$ T  T  T  Z@ Z@ Z@ Z@ 4. '. '. '. '. '. '. '. '. $@ $@ $@ $@ $@ $@ $@ $@ 4. 4. 4. 4. 4. 4. 4. 4. 4. 5. 5. N+ N+ 5. 5. '. h+ 7. h+ 4. Z@ Z@ [. [. [. [. [. Z@ N+ h+ 6. ",
"]O W} o| )e >e c[.2g 5} TL [z dC Ks MK f4 x7 d[.&H mr NE Sd A8 *+.%&.:U K#.e[.f[.F(.%&.}N Xp g[.h[.,P i[.j[.k[.l[.m[.n[.o[.p[.[<.;W q[.G#._#._#.m@.q[.9].;W G#.G#.r[./#.<#.s[.t[.u[.;$.v*.7=.LN ~N c;.P'.4z z-.v[.$K UK Ml w[.x[.y[.z[.I).A[.B[.C[.0K D[.E[.C_.F[.G[.H[.MH R:.I[.J[.K[.L[.cF 3: ([.M[.N[.`:.`:.<[.kq <[.7C :[.O[.k<.Gd `:.X:.!t jD 5C 5C 5C 5C Ra Ra Ra n, L< b- ,d 39 E' u) @> =K P! F_ *< ]A P[.+[ C5 @[ I< I< g} g} g} g} g[ g[  [  [ h[ za Nb za U7 u~  [  [  [  [  [  [  [  [ `:  [  [ `: m~ %< `: h} x{ y: y: y' z' i~ q) p) {^ <9 v~ I^ Q[.R[.S[.Li '1 (4 t, k, k, ) .4- K= r= b= == == 8* 7* t$ s$ Y% A& D* 8* R& c& c& c& q% q% W% W% V% p$ q$ U$ k= <* z& S& s] x& U$ -= T[.U$ A& D* U[.A| %_ X_.6$ A# W$  % +% +% F*  % 2$ 6# 1. 6# 2$ t% Sg Bx V[.W[.X[.Y[.Z[.62 `[. }.&].F* V$ U$ t* t* {* q$ <; +% K$ C%  & 4$ 3$ T  /. /. /. /. A# A# 6$ 6$ y% 7_.'2 g$ Y$ 1% 6$ 4$ T  T  Z@ Z@ I@ I@ N+ N+ '. '. '. '. '. '. '. '. 4. 4. 4. 4. 4. 4. 4. 4. h+ h+ h+ h+ h+ h+ h+ h+ 6@ 6@ 6@ y  y  y  '. '. a. 7. h+ h+ 4. Z@ T  T  T  Z@ Z@ 4. h+ h+ 7. ",
".}.+k gn k5 O: l4 +| 6[ (f sb u6 +}.wC .q +q AJ @}.~w j%.*x )I *+.&X O'.#}.$}.e[.1,.}V Md l7 h[.%}.&}.*}.=}.-}.;}.>}.,}.'}.)}.!}.>#.~}.`%.{}.]}.^}./}.>#.(}.^}._}.:}.<}.<}.:}.(}.;$.V,.`@.=W !=.R=. >. p 5e 0P Nl Nl bK [}.4Q }}.|}.i*.<'.1}.2}.3}.4}.5}.6}.Y{.~[.7}.8}.[I x_ 9}.0}.0}.hF a}.b}.b}.c}.N[.d}.<[.e}.e}.n` Z< f}.g}.h}.Ra :[.k<.!t !t 5C 5C 5C Ra Ra Ra .< n, i}.j}.kv r0 {d ;< l} /^ C/ P! *< +[ O, W7 S6 .} g} I< I< I< g} g} g} g} m~ %< f} Ob za h[ x' u~  [  [  [  [  [  [  [  [ p) %<  [ h} h}  [ `: k~ 4< y: y' z' z' Q, y' 7] q0 k}.z/ l}.a^.m}.n}.!F 6{ <{ +! Y^ Y^ j, 6- G= p= 5= == B& A& z& `% t$ Y% Y% X% r% r% r% W% W% s] s]  7 9* V% q$ n$ &c V$ <* r% r% q% q% U$ U$ =<.-= Y% d& b; w; ;2 X_.6$ /. 6$  % +% +% F* W$ B# 6# 1. 6# Y$ f& o}.I* a7 ~< p}.q}.r}.s}.i( c= <; Y* t}.._.u}.u}.v}.h_.e& @% +% C%  & 4$ 4$ z# Z@ Z@ K@ /. A# B# f$ f$ {_ t% g$ E$ r$ Y$ 6$ 4$ T  T  Z@ I@ N+ M+ M+ M+ 6. 6. 6. 6. 6. 6. M+ M+ N+ N+ I@ I@ I@ I@ I@ N+ h+ 7. 7. 7. 7. 7. 7. 7. c+ 7. c+ 8. 8. c+ c+ c+ a. a. h+ h+ N+ 4. Z@ Z@ %. I@ I@ N+ h+ h+ c+ ",
"em R< 6[ r| F6 I7 Wc Wc #E #e `8 f4 d5 qA .9 u7 Ms |N WJ wc xU }N 9,.Zo w}.C!.u>.kV -&.5Y 0a [/.aR x}.<r y}.z}.A}.B}.C}.D}.E}.^}.]}.F}.V%..&.=X 1#.=X G}.R;.o~.H}.s!.I}.n+.J}.t!.K}.M$.],.L}.M}.o].N}.2r Aj [0 fh 9< ,e %K O}.P}.Q}.R}.S}.:L T}.U}.V}.4}.W}.tG X}.wG Y}.Z}.`}. |..|.L_.lD 7:.+|. ] N[.!t @|.@|.#|.+< r~ n, e:.$|.%|.<) *o Hr &|.&|.5C 5C 5C Ra Ra +< +< n< *|.=|.K} 59 -|.9+.v) G; 0) P! G4 HP VK M~ .[ Ga g} I< I< I< g} g} g} g} Ob Ob _9 g[ g[ f} za 1C  [  [  [  [  [  [ Y<  [ x' f} %< k~ 5< 7: $< y' |) Q, z' z' Q, M! y: y: h} i:.J^ Wq ;|.>|.,|.qH 2) x[ l, y- v: x- >- l= /= $= == d& X% c& `% `% z& X% U$ U$ q% b& x&  7 -= r* &c &c r* e$ d$ p$ b& r% D$ x; &c e$ p$ 9* t] W% U$ X% Y% &- <; d& 6$ /. 6$ W$  % F*  % 6$ B# 6# -) 6# 2$ t% J$ c9 '|.%1 H} P/ a; *= e& Y* Y* v* ._.._.u}.u}.v}.h_.S& N* t% r$ h$ 4$ z# T  I@ I@ Z@ K@ B# C# F# 1% )|.!|.N* C% h$ r$ 3$ z# Z@ 4. 4. N+ h+ 6. 6. 6. Y  Y  Y  Y  Y  Y  Y  Y  M+ M+ M+ M+ M+ M+ M+ 6. 7. F  F  F  7. 7. 7. 7. z  G  z  c+ 8. c+ c+ 8. a. a. a. h+ h+ '. 4. 4. J  M+ 6. h+ h+ c+ c+ ",
"#E E7  F  F  F [;.Bb Bb B2 u7 4r %q LK ZJ [q @M At /v ~|.$p 4a ]v 0L Ow LN *+.<$.RI HK Sd *x wc wc WJ =&.F+.{|.v&.]|.^|./|.(|._|.(#.8].E+.|W -P TN oW jO ^P (P :|.g .<|.&T [|.}|.||.1|.2|.3|.4|.6(.}V h6 Gn 5|.6|.7|.8|.$l Y{.9|.9|.0|.0|.dF a|.b|.c|.d|.E_.@{.#!.#!.ti e|.jw Z:.N_.Ir Ir Ir :[.f|.f}.PZ m< g|.h|.PZ i|.j|.b:.E/ iq 59 k|.l|.m|.n|.o|.m<  : f[ Ym (} {} p|.q|.r|.s|.n8 Hr Ym n` f[ m< m< h' h' h' h' h' *< *< =d M~ P, :: -2 VK C5 +[ +[ +[ +[ +[ +[ .[ .[ W2 S6 J( ;d R2 N, Ea Vm F3 !| O, *2 bf {A o~ 0> .> H; H; 8> 9> 8> I> @z ;~ I> S2 S2 S2 5> 7> D; y; B- C- f> 6- [_ <_ U= h= B& B& d& c& X% X% W% U$ q$ q$ q$ q$ q$ q$ d$ e$ !$ !$ d$ d$ o$ o$ o$ B# B# B# A# A# [. [. [. A# A# A# A# 6$ 6$ 6$ 6$ 3$ T  3$ 3$ h$ h$ 3$ T  B# S  /. K@ [. A# 2$ Y$  %  %  % s$ s$ X$ X$ W% =<.x; &c O5 ~{ p$ V% q$ {. 4$ [. A# A# [. I@ %. K@ K@ K@ Z@ J@ %. t|.u|.v|.w|.L* 5% y% 5$ T  J  h+ 7. 7. F  7. 7. 7. 7. 7. 7. 7. 7. 7. 7. 7. 7. h+ h+ h+ h+ h+ h+ h+ 7. F  h. h. h. F  F  F  F  F  F  7. 7. 7. a. .. G  7. F  F  7. 7. 7. 7. 7. 7. 7. 7. 7. 7. F  F  ",
"I7 00 00 _d _d :H :H 9S B7 ZJ Pw lK jr Ls jr sD xJ @M No El %z @M jr At |x y .;P GK VN wc Md OM +J -&.&&.z*.#*.</.</.A*.IO C^.}#.5#.E+.]g x|.A..HK 'I ^P |P 1P y|.z|.A|.B|.*V C|.D|.E|.F|.G|.H|.7r ]q 8B WF ER I|.Yk )D t4 J|.K|.L|.L|.M|.M|.b|.b|.N|.c|.O|.P|.Q|.E_.R|.S|.N_.h|.PZ PZ f|.f|.f|.f|.T|.U|.V|.d' *! RZ W|.X|.(A D/ 1; 59 N= O= *|.-|.m< i~ %D U! j|.Y|.L< 6+.Z|.`|.6C d}.#|.!t ,] `< m< m< h' h' G; G; G; h' o~ T2 C5  1..1.*d -2 l_ +[ +[ +[ +[ +[ +[ +[ +[ .} Pb J( Fa Or Ea K~ [: V! L~ Aa @[ C5 i[ 9> H; u) l} B; 3> 0> 8> i[ H> B, 6> D;  ; Y- v- F= G= D- A' (^ Q^ d- U= U= c= B& B& d& d& c& X% X% W% q$ d$ d$ d$ d$ d$ d$ d$ !$ !$ !$ d$ d$ o$ o$ o$ S  S  S  /. /. K@ K@ K@ /. /. /. /. /. /. /. /. T  T  3$ 3$ 3$ 3$ T  T  ,. ,. I@ Z@ Z@ Z@ Z@ T  [. [. 5$ [. 6$ A# 2$ B# |$ +1.|$ A# 5$ B# 6$ z# Z@ K@ S  6# 6# S  K@ Z@ K@ %. I@ K@ K@ Z@ 6# @1.#1.K* ^n ;/.y% 5$ K@ h+ 7. F  h. h. F  F  F  F  7. 7. 7. 7. 7. 7. 7. 7. 7. 7. 7. 7. 7. 7. 7. F  h. j- h. h. h. h. F  F  _  F  7. 7. 7. a. Y  G  7. F  F  F  F  F  F  F  _  _  _  _  _  _  _  ",
"KO 2'.2'.UK UK UK UK $1.#9 Ko fr Ls As As jr Pw jr ~p >m Hl xJ @M jr Gu 1x ez ~Z Sd HK wc qc Md NM 1N 1N 9,.R=.-'.-'.c;.R=.P=.;%.F+.>%.<x mr m&.VN 'I ^P y+..S z|.+W %1.&1.*1.=1.-1.;1.k+.s+.#$.>1.#u gr hh Wc xQ V/.,1.'1.L|.L|.M|.M|.M|.)1.)1.)1.!1.~1.{1.jF O|.]1.^1./1.Ir (p (1.(1.(1.Ym Ym Ym _1.(p n` R! (p Z< n, ,] C5 {A A, -< D' 59 n8 :1.p^ {^ y5 cD <1.^^ #< #|.[1.hD Ra 5C `:.4u `[ B_ m< m< h' h' G; G; -< G; G4 T2 #[ }1.}1.@[ -2 VK +[ +[ +[ +[ +[ +[ +[ +[ @[ +[ .} .} J( L~ 3! wp z5 ;d aW :: @[ H> b> @> Y; u) B; D; 5> a> a> 7> L@.q~ 3> t) z- 7- L= H= |_ +} d- e- 1> M; M; a; B& e& d& d& X% X% W% W% q$ d$ d$ d$ d$ d$ d$ d$ !$ !$ !$ !$ d$ d$ d$ d$ /. /. /. /. K@ K@ K@ K@ /. /. /. /. /. /. /. /. K@ K@ [. [. [. [. [. [. $. +. z# [. A# [. T  ,. z# I@ T  Z@ [. K@ [. K@ ]. |1.11.6# [. /. [. %. Z@ K@ /. S  S  /. K@ Z@ K@ %. I@ 6# x> S  I@ {. +% @i ;/.9% g$ [. 4. h+ 7. F  h. h. F  F  7. 7. 7. 7. 7. 7. 7. 7. 7. 7. 7. 7. 7. 7. 7. 7. 7. F  h. j- h. h. h. h. F  F  _  _  7. 7. 7. a. Y  G  7. F  F  F  F  F  F  F  <  <  <  <  <  <  <  ",
"KO I7 I7 21.21.21.21.D2 A2 xs Ms er 3r As jr Pw jr 6s Ls jr lK jr 0L lK /v ~O wc )I b=.5Y [N [N 1N -&.e=.A*.</.A*.f*.c;.A*.2/.P=.P=.1V *l 31.j&.SN vV _P >R aZ 41.51.61.71.81.91.91.01.a1.0Y 'S 5,.b1.$J  ~.c1.d1.e1.f1.g1.qI M|.)1.)1.h1.h1.h1.h1.i1.j1.k1.l1.l1.m1.n1.o1.:[.(1.Ym Ym n` n` n` n` 6b t, 6b :1.(1.b{ n, lc l_ l_ *< G; -< -< p< B_ h[ hk Ch i< n/ *] )] ag A[ p1.'] '] 4^.4^.7: X( B_ m< h' h' G; G; -< G; Ia bf -~ C5 =d -2 VK R6 @[ @[ @[ @[ @[ @[ @[ @[ #[ #[ =/ O, N, =~ K( &t q1._e aW -2 mg b> .> v)  ; Y; 4> 3> 5> 7> 5> 2/ 2/  > y; A- 5- '- I= K= o( 1> 1> T= N; a; 0; c; e& d& d& X% X% X% q% p$ d$ d$ d$ d$ d$ d$ d$ d$ !$ !$ !$ !$ !$ !$ !$ y# K@ K@ K@ K@ K@ K@ K@ K@ K@ K@ K@ K@ K@ K@ K@ K@ $@ $@ $@ K@ K@ [. [. [. ,. T  B# F# F# B# 3$ z# I@ 4. Z@ 4. K@ $@ K@ 5. 6# %@ -) 4. I@ 5. /. I@ %. I@ Z@ Z@ Z@ Z@ I@ %. K@ I@ /. |, )) 6# I@ ,. y% $- G$ r$ T  I@ 6. a. _  _  g. g. _  _  a. a. a. a. a. a. a. a. a. a. a. a. a. a. a. a. a. _  g. W= g. g. g. g. _  _  <  _  7. 7. 7. a. Y  z  a. _  _  _  _  _  _  _  (  (  (  (  (  (  (  ",
"YB I7 I7 G7 G7 21.21.21.D2 r1.zt Ow MK <q  9 4L 6B zt  9  9 u7 zJ zJ 6B Ks *f b=.XJ XJ XJ (V NM 1N $*.s1.U@.%J t1.u1.z7 v1.&J e=.#*.$*.:U b*.>%.E+.&Q w1. V eZ x1.y1.z1.A1.B1.C1.D1.E1.F1.G1.H1.I1.J1.6e K1.L1.M1.N1.O1.P1.Q1.kI kI kI R1.R1.S1.S1.S1.T1.U1.gE V1.W1.X1.B] #|.&o &o &o iq iq n8 n8 Y1.&o o< n< z, z, iq g|.r< r< :: h' G; G; B_ m~ ~( o/ of _G Q: sx T( c1 &2 b1 d[ d[ %] %] `: p^ B_ B_ h' h' G; G; -< G; ;~ VK l_ P, P, +[ SM P, @[ @[ @[ @[ @[ @[ @[ @[ mg =< :: +[ S6 =/ N, Z1.`1. 2.=/ &< mg C/ .> Y; z; ;< Y; #; 3> A, a: q: B; J; .2.+2.7- I= H= l= &> d- &> R= R= e= c= E* e& d& Y% X% X% q% q% p$ d$ c$ c$ c$ c$ c$ c$ c$ y# y# y# y# y# y# y# y# K@ $@ $@ $@ $@ $@ $@ $@ $@ $@ $@ $@ $@ $@ $@ $@ y  y  y  $@ $@ K@ K@ K@ [. A# 2$ f$ f$ 2$ r$ T  Z@ y  $@ y  5. 6@ 5. 5@ M+ y  $@ Y  M+ 6@ 5. 4. M+ M+ N+ N+ N+ N+ M+ M+ M+ M+ 5. %@ 1. 4. 4. 6# 3$ 6$ C# /. N+ Y  a. F  _  g. g. g. _  _  a. a. a. a. a. a. a. a. a. a. a. a. a. a. a. a. a. _  g. W= g. g. g. g. _  _  <  <  a. 7. 7. 7. 6. z  a. _  _  _  _  _  _  _  (  (  (  (  (  (  (  ",
"o5 KO KO 00 00 _d _d _d :H +y LK LK zt LK  9 6B LK  9 MK zJ 2r zJ MK  9 xJ *f *+.xU |N (V @2.#2.z*.R=.x6 b;.B%.$2.%2.z&.-_.&2.+}.Zo Zo *2.z*.'O TC g@.O .=2.-2.;2.>2.,2.'2.)2.!2.~2.{2.E1.]2.^2./2.(2._2.:2.<2.[2.[2.}2.b|.{1.|2.R1.S1.S1.S1.hF W1.W1.12.22.32.42.52.52.`|.=o 62.iq 72.n8 72.z, 82.O} X .n< 62.&o 82.9' +! r< r< i[ C/ H; G; B_ `: j< 2u ,D %B :J 3e `A +/ eH iG Pj X: l< d[ x' m~  < B_ h' G; G; G; -< G; N! @[ -2 bf bf :: bf :: l_ l_ l_ l_ l_ l_ l_ l_ E3 Ia @[ @[ *2 =/ !| 2&.92.02.+[ H> h' G; t) B- X- ;<  ; >~ 3> }e a2.b2.E; Z_ C- 8- K= t- o= l= d- S= U= c= e= *= == A& Y% X% X% W% q% q% q% q$ d$ c$ c$ c$ c$ c$ c$ c$ y# y# y# y# x# x# x# x# 4. 4. 4. 4. $@ $@ $@ $@ 4. 4. 4. 4. 4. 4. 4. '. c+ c+ c+ '. '. 4. 4. Z@ [. T  3$ 3$ r$ W$ X$ 1$ $@ y  y  y  6@ 6@ 5@ 5@ '. 5@ 6@ 6. 6. y  6@ h+ $@ $@ $@ 4. 4. $@ $@ $@ X  (. M+ $@ N+ X  N+ 1. N+ N+ h+ 6. z  z  _  P  s  s  s  s  <  <  z  z  z  z  z  z  z  z  z  z  z  z  z  z  z  z  z  <  s  q@ s  s  s  s  <  <  (  <  a. 7. 7. 7. 6. a. z  <  <  <  <  <  <  <  (  (  (  (  (  (  (  ",
";( o5 o5 2'.2'.2'.2'.PM $1.I-.}q w7 +}.iC tC +}.RG d5 iC w7 d5 tC tC f4 u7 /v 1x 'H /v ^v xJ xJ 6B <q tC yC c2.9S 5R z%.SG Tn Bb 2<.wC f4 f4 :U `@./#.d2.e2.f2.g2.h2.i2.j2.k2.l2.m2.n2.o2.p2.q2.r2.s2.g>.t2.u2.v2.A{.YE Ul $~.4:.S1.S1.W1.W1.w2.x2.y2.z2.A2.B2.C2.D2.E2.F2.G2.H2.72.H2.82.I2.J2.K2.L2.I2.M2.d2 M2.N2.3n O2.i[ hq C/ u) l} -< `<  [ Pj cG Fx 2K VA |p `^.`^.x,.dH Xj P2.Q2.l< x' `:  < B_ h' G; G; -< -< G; =< #[ vT l_ @[ T2 C5 =d l_ l_ l_ l_ l_ l_ l_ l_ *< D/ mg i[ @[ :: =/ S6 R2.]J bf o~ .> u) Y; B- ;< u- X- Z- }; Qr S2.T2.WK >d 'd u- '- r= o= q= N; L; V- a; h= E* e& <* Y% X% X% q% q% p$ q$ d$ c$ c$ c$ c$ c$ c$ c$ c$ y# y# y# x# x# }$ }$ }$ N+ N+ N+ 4. 4. $@ $@ $@ 4. 4. 4. 4. 4. 4. 4. '. F  F  F  7. 7. h+ N+ I@ T  z# s= s= h$ t$ v% U2.N+ 7. c+ c+ 8. 8. 8. 8. c+ `# 8. z  z  c+ 8. 6. $@ 4. 4. 4. 4. 4. 4. $@ N+ (. K  M+ 4. N+ N+ y  z  (  (  (  <  _  g. g. s  s  <  <  <  <  z  z  z  z  z  z  z  z  z  z  z  z  z  z  z  z  z  <  s  q@ s  s  s  s  <  <  (  <  a. 7. 7. 7. h+ a. z  <  <  <  <  <  <  <  <  <  <  <  <  <  <  ",
"e| q4 q4 V2.V2.V2.V2._)._).Nw W2.$r r1.iC RG .9 r1.tC Fu r1.w7 +}.tC d5 iC Ls 0L 7B xJ Ks MK MK tC UH X2.z-. -.SG Y2. v Z2.S'.O}.UK pL Kn I-.<q :U >$.`2. 3..3.+3.@3.#3.$3.Zv Lt Zv %3.&3.*3.lY =3. &.-3.;3.>3.,3.Oc !0 84 G2 S1.hF W1.W1.x2.x2.'3.)3.!3.E2.~3.{3.]3.AH ^3./3.H2.I2.I2.I2.K2.K2.K2.K2.K2.(3._3.(3.K2._3.X- h' ]h l} 1_ 69 D' b{ g} &| :3.<3.x4 [3.}3.{[.h0 dI mH %B %t P2.l< U7 `:  < m< G; G; -< -< -< G; H> =d -2 :: #[ :: VK #[ l_ l_ l_ l_ l_ l_ l_ =< 7> B/ *< N! l_ @[ =/ :: oU {A af 9> z; C' ~d 5- 9- a- u- B- Z- #; v) Qr #; 1_ Xb ~| a= += @= H< g= 9; a; e& == 8* 7* X% X% W% W% p$ p$ d$ d$ c$ c$ c$ c$ c$ c$ c$ c$ c$ y# y# y# x# x# }$ }$ v# N+ N+ N+ 4. 4. $@ $@ $@ 4. 4. 4. 4. 4. 4. 4. '. _  g. _  _  a. a. 6. M+ K@ z# o(.o(.r$ {_ |3.13.M+ a. a. 7. 7. c+ c+ c+ B  a. a. B  G  c+ 8. 7. h+ M+ M+ J  J  M+ M+ N+ %@ J  L  N+ 1. #@ 4. Y  g. _. _. s  h. h. s  r  s  s  <  <  <  <  z  z  z  z  z  z  z  z  z  z  z  z  z  z  z  z  z  <  s  q@ s  s  s  s  <  <  (  (  a. 7. 7. 7. h+ 7. z  <  <  <  <  <  <  <  <  <  <  <  <  <  <  ",
"x3 ;( ;( =!.=!.p,.p,.p,.Vc /I X2.X2.X2.X2./I C2 B7 /I C2 B7 qA 2<.wC 2<.w7 *q Lk 4r MK 6B iC iC B7 /I 5R 5R ;'.;'.:d <d 7S <'.!).KO &K Pc pL wC </.2,.23.33.43.53.63.73.83.~+.93.03.a3.b3.c3.d3.e3.f3.g3.:2.h3._L $9 T8 s2 JH N[.N[.i3.i3.j3.k3.F2.l3.m3.n3.o3.p3.q3.r3.s3.t3.u3.u3.k|.k|.u..u..u..u..u..u..u..u..u..u..a- -< #> $} t#.n= v3.3n m` R(.AQ w3.h0 e0 ').x3.[H Yz y3.z3.=C )K Pj }: f} %! o, B; B; B; 4> H; C/ {A +[ l_ P, :: @[ =d =d #[ #[ l_ l_ l_ l_ l_ =< h' G; h' C/ i[ G> P, P, :: G> 8> B; Y; ;< X- 0- h1 J= '- 9- z- B- A- A- y- Z- 6- G= 8= /= $= $= <; e& E* B& c; D= <* X% V$ U$ q$ d$ d$ d$ d$ c$ y# ($ ($ ($ ($ ($ ($ ($ ,2 4, A3.w# 3, ($ ($ B3.4. '. '. '. '. '. '. '. h+ h+ h+ h+ h+ h+ h+ 7. R  s. s. R  8. 8. y  $@ J@ +. {. 4$ g$ E$ F$ s= h+ F  F  F  F  F  F  F  F  F  F  F  F  F  F  7. h+ h+ h+ h+ h+ h+ h+ h+ 6. 6. 6. 6. 6. 6. 6. a. _. j  j  W= W= j- h. i. P  P  P  P  P  P  P  P  a. a. a. a. a. a. a. a. G  G  a. a. a. a. G  (  q  _. q  q  q  q  (  (  /  <  G  A  z  `# y  G  a. _  _  _  _  _  _  _  P  P  F  F  <  (  ^  ",
"x3 ;( ;( =!.=!.p,.p,.p,.p,.$1.CE X2.CE X2.5R C2 9S /I SG B7 Tn 2<.3z 2<.2<.e4 <q  9 iC tC qA B7 SG 5R C3.;'.D3.D3.E3.E3.A{.F3.b<.b<.G3.c<.KO [;.qA X@.q>.H3.I3.J3.K3.L3.M3.P+.1v g..N3.O3.P3.Q3._}.R3.S3.T3.U3.5}.b<.4[ .| b(.V3.j3.j3.k3.F2.F2.W3.X3.Y3.Z3.`3. 4..4.+4.@4.#4.#4.k|.$4.k|.%4.u..%4.u..%4.u..%4.u..%4.u..(!.;< %> %_ ]- q= &4.*4.=o z[ V/.Tk =4.-4.;4.>4.,4.'4.)4.!4.;F )K Q2.U7 g[ %! r~ B; B; B; H; G; P! i[ l_ @[ @[ l_ @[ #[ :: l_ #[ #[ #[ #[ #[ #[ *< h' G; C/ C/ i[ G> P, G> o~ b> `; t) X- 9- 9- I= 0= 0= '- I= 4- A- A- A- Z- 6- G= 8= /= #= 5* 3* e& E* &= D* d& X% X% x& U$ q$ d$ d$ d$ c$ c$ )$ ($ ($ ($ ($ ($ ($ ($ ($ &) ~4.{4.]4.r# ^4.r# .$ '. '. '. '. '. '. '. '. h+ h+ h+ h+ h+ h+ h+ 7. P  i. i. P  c+ c+ '. '. N+ I@ ,. {. {. E$ g$ z# h+ F  F  F  F  F  F  F  F  F  F  F  F  F  F  7. 7. h+ h+ h+ h+ h+ h+ h+ 6. 6. 6. 6. 6. 6. 6. _  q@ 3  i  i  W= g. g. F  F  F  F  F  F  F  F  F  a. a. a. a. a. a. a. a. a. z  z  G  G  z  z  _  q  _. q  q  q  q  (  (  (  _  G  ^$ ^$ G  .. ^$ z  <  <  <  <  <  <  <  /4.m# s+ :  /  (  <  ",
"H2 01 01 e| ;( =!.=!.=!.p,.@[.;'.CE ;'.CE C3.SG L:.5R C3.9S 4<.3z ,x 3z 3z d4 d4 xD B2 vb Oc :H @[.UK S'.O}. {. {.R}.R}.(4._4.:4.$~.#~.p5 b<.!).21.5e tP <4.[4.}4.|4.14.24.34.v^.44.54.64.74.,#.m*.84.94.04.a4.b4.c4.d4.e4.j3.f4.G2.G2.G2.g4.g4.h4.i4.j4.k4.l4.m4.m4.n4.l4.$4.o4.$4.p4.%4.p4.&4.q4.&4.q4.&4.q4.&4.q4.&4.z| X- kc !l *> s- r4.s4.t4.([.|I [I u4.v4.w4.x4.y4.5M z4.-k 'F 1p l< x' $< lc r~ B; Y; B; G; F_ 3/ *< #[ :: :: :: :: :: :: @[ l_ l_ #[ #[ :: P, G> H; l} H; 4> 8> 8> o~ o~ N! a> 3> #; C- 5- 4- K= t- 4p 9= I= K= 8- 8- 7- 7- L= L= 8=  = B* 1* -- d& 7* D* D* A& X% X% b& q$ d$ d$ c$ c$ )$ )$ )$ ($ '$ '$ '$ '$ '$ '$ '$ '$ A4.B4.C4.q# D4..$ [, '. c+ c+ c+ c+ c+ c+ c+ 7. 7. 7. 7. 7. 7. 7. 7. F  F  F  F  7. 7. h+ h+ 4. Z@ I@ z# z# 4$ 3$ Z@ h+ 7. 7. 7. 7. 7. 7. 7. 7. 7. 7. 7. 7. 7. 7. 7. 7. 7. 7. 7. 7. 7. 7. 7. 7. 7. 7. 7. 7. 7. 7. F  W= i  W= W= s  s  <  z  z  z  z  z  <  <  s  <  a. a. a. a. a. a. a. a. c+ a. G  A  A  G  a. P  q  _. q  q  q  q  (  (  R  `  ^& z  A  G  Y  G  B  /  /  /  /  /  /  /  (  (  (  (  /  /  /  ",
"T( WA 01 e| e| xG =!.=!.E4.@[.;'.1z 1z ;'.;'.C3.L:.;'.C3.L:.4<.4<.,x ,x Tn B2 B2 B2 Jn Kn pL UK F4.S'.G4.G4.H4.I4.J4.J4.E[.@c tG yS nG 6}.#~.p5 ~).Ol wC r%.K4.L4.M4.N4.O4.P4.Q4.R4.S4.T4.U4.F%.V4.W4.X4.Y4.Z4.`4. 5..5.+5.@5.@5.h4.h4.t3.t3.t3.t3.#5.#5.m4.m4.l4.@4.$5.%5.p4.p4.p4.p4.q4.q4.q4.&5.&5.&5.&5.&5.&5.&5.&5.m= *5.J_ =5.l[ #4.-5.;5.>5.S1.,5.>).Ok '5. A ^u )5.!5.~5.{5.4F 1p d[ `: 8: n, Q9 Y; Y; B; h' 3/ Ia C5 :: &< -~ &< -2 @[ *d +[ +[ @[ l_ #[ :: P, G> 4> u) 4> 4> 9> 9> o~ b> 0> 3> #; C- 5- I= I= r= H< H< r= r= H= H= 7- 7- H= L= p= /= B* 1* E= E= s% Y% Y% X% r% U$ U$ q$ d$ d$ c$ c$ )$ )$ )$ )$ .$ .$ .$ .$ .$ .$ .$ .$ ]5.s# q# D4.q# 2, '$ D4.7. 7. 7. 7. 7. 7. 7. 7. a. a. a. a. a. a. a. a. a. _  a. a. a. a. 6. 6. N+ 4. $@ K@ K@ K@ Z@ N+ h+ 7. 7. 7. 7. 7. 7. 7. a. a. a. a. a. a. a. a. a. a. a. a. a. a. a. a. 7. 7. 7. 7. 7. 7. 7. F  j- j- W= g. s  (  G  G  6. a. a. a. _  g. g. g. <  z  z  z  z  z  z  z  a. z  z  G  G  z  z  _  q  _. q  q  q  q  (  (  [  ^5.^- a. A  z  h+ a. B  /  /  /  /  /  /  /  R  P  _  <  /  ^  ^  ",
"c1 #2 k/ WA 01 e| ;( =!.E4.@[.1z 1z 1z 1z ;'.C3.L:.;'.C3.L:.<y 4<.4<.4<.4<.Ho Jn Oc Oc Oc [;.21./5.S'.G4. {.I4.I4.+c (5._5.@c Pa :5.:5.<5.a(.xi p5 G6 Ol z%.O'.H&. $.L4.[5.}5.|5.15.25.35./;.D).45.F).55.65.75. 5.85.95.05.a5.l4.l4.l4.n4.n4.m4.m4.n4.n4.n4.n4.b5.#5.c5.d5.p4.{~.{~.{~.,{.,{.,{.,{.,{.,{.,{.,{.,{.,{.,{.~| fk ~i oq e> #@.72.Wm e5.<5.!J lJ V!.f5.g5.h5.i5.j5.k5.l5.0F  B 9{ X( n, Q9 Q9 Y; Y; B; h' {A =d #[ &< &< #[ @[ #[ @[ Ga C5 C5 +[ @[ l_ #[ :: i[ u) ~d Z; Z; `; `; b> b> 0> 3> A; C- 9- '- '- t- 5= %= 5= o= L= L= L= L= L= L= 8=  = 2* |* E= ^* r% r% r% r% X% q% U$ r* d$ d$ c$ )$ )$ )$ |# |# .$ .$ .$ .$ .$ .$ .$ .$ .$ u# D4.m5.q# '$ q# n5.7. 7. 7. 7. 7. 7. 7. 7. a. a. a. a. a. a. a. a. a. a. 6. 6. 6. 6. 6. 6. .. h+ 6@ #@ #@ 5. N+ .. h+ h+ h+ h+ h+ h+ h+ h+ 6. 6. 6. 6. 6. 6. 6. 6. a. a. a. a. a. a. a. a. 7. 7. 7. 7. 7. 7. 7. F  g. g. g. <  G  .. M  M  M+ 6. a. a. _  g. g. g. <  z  z  z  z  z  z  z  A  G  a. c+ c+ a. G  ^  q  _. q  q  q  q  (  (  ^  <  G  p% o5.B  .. B  B  /  /  /  /  /  /  /  E  E  s+ E  :  ^  (  ",
"b1 #2 #2 z4 WA e| e| =!.E4./5.1z p5.p5.1z ;'.C3.C3.;'.;'.L:.<y 4<.4<.4<.4<.Oc :H $1.UK 21.,J ,J <'.G4.R}.H4.+c +c q5.r5.s5.e<.e<.t5.y_ u5.<5.x_ a(.G2 =4.$K `u f*.r%.$&.v5.w5.x5.y5.z5.A5.4|.B5.3T #K ;).a(.fv C5.D5.E5.F5.G5.H5.H5.I5.J5.J5.K5.L5.m4.m4.m4.m4.b5.#5.M5.N5.q4.{~.,{.,{.,{.O5.O5.O5.O5.O5.O5.O5.O5.O5.O5.h1 P5.Q5.;s O! *! `< #].}_.ti o5 Wn V=.N{.R5.S5.T5.U5.V5.%l aF N2 6: d' Q9 X .X .Y; Z; 4> C/ #[ l_ T2 [e P, VK I4 +[ P, l_ +[ +[ @[ l_ l_ #[ #[ i[ Z; ~d Y; Y; `; .> a> a> D; #; #; 9- 9- '- t- 4p $= $= b= b= p= L= L= L= G= 8=  = B* 1* E= =- =- z& c& X% c& x& x& V% d$ d$ c$ )$ )$ )$ )$ |# |# u# u# u# u# u# u# u# u# D4.'$ <, |# D4.]5.s# |# a. a. a. a. a. a. a. a. z  z  z  z  z  z  z  z  6. 6. 6. 6. 6. 6. 6. 6. M  6. y  5@ 5@ y  6. M  h+ h+ h+ h+ h+ h+ h+ h+ Y  Y  Y  Y  Y  Y  Y  Y  z  z  z  z  z  z  z  z  a. a. a. a. a. a. a. a. <  <  <  z  .. X  X  X  N+ N+ h+ 7. F  h. j- h. (  G  G  G  G  G  G  G  ^$ B  7. 8. 8. 7. B  :  q  _. q  q  q  q  (  (  :  ^  A  ^$ B  c+ h+ B  B  /  /  /  /  /  /  /  P  _  (  ^  ^  ^  /  ",
"b1 1( 1( z4 WA e| e| ;( =!./5.('.W5.W5.('.('.D3.:d ('.D3.:d k,.k,.D&.D&.<y D2 @E _).PM 00 &K KO !).<I e/.T/.X5.Y5.Z5.Z5.`5.rG  6..6..6.cF A[ A[ vx t| y3 YB Xc :H .q R/.+6.$Q @6.#6.$6.%6.&6.*6._'.$9 p| b} #2 4u 62.=6.-6.;6.;6.;6.;6.>6.>6.,6.'6.N5.N5.c5.#5.)6.)6.)6.b5.,{.!6.!6.'{.'{.'{.~6.~6.~6.~6.~6.~6.~6.~6.~6.0- {6.]6.^6.M> q) $< V] 1( WB l4 si n].i*./6.(6.:w +D Fx {p Pj e} ^^ 6b (} L< K} C' u) 4> 8> -2 -2 -2 T2 P, Ga Ga P, -~ :: :: :: :: :: :: :: :: i[ Y; b- C' t) .> .> 3> 3> J; z; z; 4- 5- I= 9= H< #= #= /= /= 8= 8= G= G= a= l= @= 2* 1* -- 7^ 7^ z& X% q% W% x& x& p$ !$ d$ c$ )$ )$ |# |# |# |# u# u# u# u# u# u# u# u# m5.q# '$ .$ s# m5.u# [, a. a. a. a. a. a. a. a. z  z  z  z  z  z  z  z  h+ N+ N+ N+ N+ N+ h+ h+ 6. 6. 7. 7. 7. 7. a. a. h+ N+ N+ N+ N+ N+ N+ N+ J  J  J  J  J  J  J  Y  z  z  z  z  z  z  z  z  z  z  z  z  z  z  z  z  /  (  G  .. X  <. J@ J@ J@ J  Y  z  <  s  q@ q@ (  G  G  G  G  G  G  G  A  G  a. c+ c+ a. G  ^  q  _. q  q  q  q  (  (  <  <  B  G  `# T% 6@ A  ^$ :  :  :  :  :  :  :  _6.:6.`  F  /  :  E  ",
"b1 $/ T} z4 MH <6.xG =!.E4./5.W5.W5.W5.W5.('.D3.:d ('.D3.:d <d k,.k,.k,.,J KO KO KO 1'.[6.1:.G3.$~./_.nG yS Pa e<.l1.l1.}6.|6.v0 w0 w0 [1.e5.16.16.z[ vx a1 J7 !).Sl Im `u z&.J#.26.36.46.56.66.kF w3 B3 c} bm 7: z, 76.86.96.06.a6.b6.a6.!6.,6.,{.c6.r4.n4.&4.c5./4 d6.>{.,{.!6.!6.'{.'{.~6.~6.~6.~6.~6.~6.~6.e6.~6.e6.J= L> f6.wL g6.;] 7: O< */ I2 v( }p *e  F };.0y )).h6.(d ox e[ g} lc 6b t) f2 X- Z; u) 4> 9> N! M~ (A G> ;~ i[ G> S2 ;~ {A H> H> H> o~ o~ o~ o~ 9> Y; b- C' ;< t) A; A; A; y; A- A- 8- H= o= o= 5= #= #= /= /= /= /= 8= 8= .= .= 2* 1* -- -- 7^ x& W% U$ r* e$ V% V% !$ b~ c$ c$ )$ )$ )$ |# )$ |# h+ h+ h+ u# u# u# u# u# i6.c% j6.t# 2, k6.t# o5.a. )# )# )# )# )# a. a. z  z  z  z  z  z  z  z  h+ h+ h+ h+ h+ h+ h+ 7. y  7. z  B  B  z  F  8. h+ h+ h+ h+ h+ h+ h+ h+ Y  Y  Y  Y  Y  Y  Y  Y  z  z  z  z  z  z  z  z  G  G  G  G  G  G  G  G  ^  /  B  .. X  J  J@ %. X  X  .. G  (  q  _. _. (  (  G  (  G  (  G  (  z  <  z  <  z  <  z  <  q  _. q  q  q  q  q  q  (  /  :  /  Q  l6.7. m6.E  _^ E  _^ E  _^ E  _^ `  s. _  r  ^  }  /  ",
"U( T} kF n6.X5.T/.T/.H4.R}.o6.o6.o6.p6.p6.q6.q6.q6.E3.E3.E3.E3.E3.E3.E3.>J b<.ti ti ti ti ~J ~J r6.d|.y_ .6.hF 4: kD M[.s6.t6.u6.v6.w6.x6.b9 y6.z6.wH K_.([.y_ <5.r6.xS xS A6..F vx B6.C6.D6.E6.13 n` Z< n, y, 69 F6.G6.H6.I6.I6.~6.I6.~6.I6.~6.I6.J6.K6.J6.K6.J6.K6.J6.K6.1* L6.Qg I6.M6.N6.O6.B* K6.K6.K6.K6.4p K6.4p t- [; Z- 4- 8- y- z; `< ;t P6.O2 9F Pj c[ Nj eJ kw <B 3/ mg C/ 4> H; G;  _ Q6.*D c: d: Zx gq O> 0j b: b: b: b: b: b: b: b: b: b: b: b: b: b: b: I_ Y; X- ;< 1_ a- 0- I= J= K= K= K= H= o= p= p= b= == == == E* E* B& B& B& d& A& z& z& x& b& W% p$ _= B# B# E# ]. R6.x> /. K@ K@ K@ K@ K@ $@ K@ $@ -$ :- -$ h+ u# q# P& P& !' S6.!' F% ,$ T6.F  ^  U6.M- M- v$ :- :- ;$ ~& ;$ ;$ 6. 6. 6. 6. 6. a. z  z  z  z  z  z  z  <  `# <  (  F  P  <  /  <  a. a. a. a. a. a. a. a. z  z  z  z  z  z  z  z  <  <  <  <  <  <  <  <  <  <  <  <  <  <  <  <  b@ b@ b@ W# W# W# W# W# X# X# X# *@ *@ *@ q. q. d+ d+ b@ d+ b@ d+ b@ d+ >@ D  >@ D  >@ D  >@ D  C  C  C  C  C  C  C  C  p  p  p  p  p  p  p  p  p  ]  p  ]  p  ]  p  ]  v+ ~  {  ]  p  C  D  ",
"U( T} kF Y5.Y5..{.I4.V6.V6.o6.o6.o6.p6.p6.p6.q6.q6.E3.E3.E3.E3.E3.E3.E3.8(.W6.~J ~J d|.d|.X6.Y6.kI v0 Z6.e5.`6.6C Wm Xm  7..7.n3.+7.@7.#7.$7.%7.&7.x6.*7.i3.e5.N[.=7.3: Z:.f[ 2( a: ng -7.;7.>7.a- v3.F6.n= ,7.G6.'7.H6.)7.I6.I6.I6.I6.I6.I6.I6.I6.M6.M6.M6.M6.M6.M6.M6.M6.!7.!7.I6.6* 6* M6.O6.~7.K6.K6.4p 4p 4p 4p 4p 4p O6.O6./!.H< 0= r0 {7.]7.^7.@[ !! 3! kg /7.*s (7.Iv Vh J_ c> 4( 4( Q> {h _7.:7.|i b: gq Gg x, p~ I_ I_ I_ I_ I_ I_ I_ I_ F/ F/ F/ F/ F/ F/ F/ #> {d X- B- 5- I= H= 9= <7.r= r= o= o= o= p= p= b= c= == E* E* 7* A& A& A& c& c& x& x& b& b& W% p$ C# K@ K@ 6# |, )) -) Z@ Z@ Z@ Z@ Z@ Z@ Z@ Z@ <$ :- :- e# e# h+ q# P& P& 1# b% D| 7$ [7.m# _  {@ x< }7.L# }7.v$ v$ M- K# d# d# Y  Y  Y  Y  Y  z  <  <  <  <  <  <  <  <  ^  /  (  (  (  <  _  _  <  <  <  <  <  <  <  <  <  <  <  <  <  <  <  <  <  <  <  <  <  <  <  <  <  <  <  <  <  <  <  <  b@ b@ b@ b@ b@ b@ b@ b@ *@ *@ *@ *@ *@ *@ *@ *@ d+ d+ d+ d+ d+ d+ d+ d+ D  D  D  D  D  D  D  D  C  C  C  C  C  C  C  C  ]  ]  ]  ]  ]  ]  ]  ]  ]  ]  ]  ]  ]  ]  ]  ]  ~  ~  ]  ]  ]  ]  ]  ",
"b(.tx P|.Y5.Y5.+c (5.(5.(5.|7.|7..{..{..{.I4.I4.I4.R}.R}.R}.R}.R}.R}.R}.R}.17.nG 27.27.<5.4:.4:.S1.37.M[.c}.`6.-a *o t4.s|./3.47.b5.57.6+.@@.q|.67.77.t4.*o 6C d}.#|.!t #|.:1.#m yx Z; v) @; X- kv z| m= m= $].G6.86.87.I6.M6.97.97.97.97.97.97.97.'_ '_ '_ '_ '_ '_ '_ '_ L6.07.a7.a7.6* 6* b7.N6./< /< /< /< H< H< H< H< O6.K6.q= q= m= c7.d7.+; 0) i[ T2 Aa aD e7.f7.-d {h kc 6( s) K; K; O^ #> 6n {s 4! a9 Gg p~ p~ ^C F/ #> #> #> #> #> #> #> G/ G/ G/ G/ G/ G/ G/ G/ C' C- 9- c- h1 K= r= 0= r= o= 5= 5= b= b= p= b= c= E* 7* 7* A& A& z& z& c& c& x& x& b& W% q% p$ [. Z@ I@ K@ -) -) /. %. %. %. %. %. %. %. %. V# :- 2= Y# Y# a. a. q# q# |#  $ [, g7.;$ B= h7.i7.y< j7.J# J# x< x< H# ~$ W# W# G  G  G  G  G  G  <  <  <  <  <  <  <  <  E  P  [  /  :  <  F  (  <  <  <  <  <  <  <  <  _  _  _  _  _  _  _  _  <  <  <  <  <  <  <  <  <  <  <  <  <  <  <  <  b@ b@ b@ b@ b@ b@ b@ b@ *@ *@ *@ *@ *@ *@ *@ *@ d+ d+ d+ d+ d+ d+ d+ d+ D  D  D  D  D  D  D  D  C  C  C  C  C  C  C  C  ]  ]  ]  ]  ]  ]  ]  ]  ]  ]  ]  ]  ]  ]  ]  ]  ]  ]  ]  ]  ~  ~  ~  ",
"qx tx tx kF Y5.k7.+c +c (5.l7.|7.|7.|7..{..{..{..{.H4.H4.H4.H4.H4.H4.H4.17.yS :5.:5.~1.u5.hF hF W1.iD m7.n7.w6.0| r|.s|.@@.h~ @4.l4.o7.c5.c5.p7.57.g4.q|.q7.q7.)t Wm Wm o< iq Z; Z_ C' 1_ r0 9- r7.M= /!./!.O6.87.)7.I6.'_ '_ '_ '_ '_ '_ '_ '_ '_ 07.07.07.07.07.07.07.07.)_ 4* '_ s7.N6.5* 6* N6./o /o /o /o q= q= q= /o B* B* /= q= M= <7.c- z- p: D; h' H> HP aW W2 &< 4( $> K; %> %> %> G/ G/ `h 9u 9u d: e: p~ Gg F/ O^ O^ O^ O^ O^ O^ O^ O^ G/ G/ G/ G/ G/ G/ G/ K; A- 5- a- t7.)- z| o= 8= o= o= 5= b= b= b= /= /= E* E* 7* A& A& A& c& c& X% c& b& b& b& W% q% q$ [. I@ I@ K@ S  S  K@ %. I@ I@ I@ I@ I@ I@ I@ N+ e# 2= Y# )# a. a. s# s# u# 0. 9. <% u7.v7.w7.x7.y7.y< J# J# H# x< H# I# M# M# B  B  B  B  B  B  <  <  <  <  <  <  <  <  (  z7._6._  s+ _  P  ^  (  (  (  (  (  (  (  (  _  _  _  _  _  _  _  _  (  (  (  (  (  (  (  (  (  (  (  (  (  (  (  (  >@ >@ >@ >@ >@ >@ >@ >@ b@ b@ b@ b@ b@ b@ b@ b@ D  D  D  D  D  D  D  D  D  D  D  D  D  D  D  D  ]  ]  ]  ]  ]  ]  ]  ]  ]  ]  ]  ]  ]  ]  ]  ]  ]  ]  ]  ]  ]  ]  ]  ]  C  C  ]  ]  ~  ;  ;  ",
"qx A7.A7.P|.uG Z5.Z5.Z5.@c B7.B7.B7.B7.Y5.Y5.Y5.X5.X5.X5.X5.X5.X5.X5.X5.X5.e<.!1.cF cF cF Qa 16.kD hD C7.D7.Hr 0| r|.s|.d6.E7.c6.c6.F7.m4.$5.L5.d6.#5.M5.G7.@@.H7.)6.)6.=|.J2.C- ,d 9- u- I7.qq t- M= 4p 4p K6.~7.I6.M6.07.'_ J7.J7.J7.J7.J7.J7.J7.K7.K7.K7.K7.K7.K7.K7.K7.K7.J7.L7.M7.!7.E= -- N7.O7.O7.O7.O7./o /o /o /o %= 6* $= /o s- 0= p= 3- 8- B- z; J; D; a> 7> N^ s) A' A' f> f> f> %> %> 6; G/ O^ O^ G/ a9 a9 c: O^ s) s) s) s) s) s) s) K; K; K; K; K; K; K; K; 7- K= z| )- c7.~| L= F= o= o= b= b= b= /= /= #= E* 7* A& A& A& d& c& c& W% W% b& b& V% V% p$ d$ /. $@ $@ $@ 5. 5. $@ 4. N+ N+ N+ N+ N+ N+ N+ h+ Y# ;@ =@ =@ a. z  Y  Y  N+ ]$ P7.W@ _# Q7.R7.S7.T7.U7.y< j7.x< U6.x< H# M# M# B  B  B  B  B  B  <  <  <  <  <  <  <  <  /  :6._6._  s+ <  F  :  (  (  (  (  (  (  (  (  _  _  _  _  _  _  _  _  (  (  (  (  (  (  (  (  (  (  (  (  (  (  (  (  >@ >@ >@ >@ >@ >@ >@ >@ b@ b@ b@ b@ b@ b@ b@ b@ D  D  D  D  D  D  D  D  D  D  D  D  D  D  D  D  ]  ]  ]  ]  ]  ]  ]  ]  ]  ]  ]  ]  ]  ]  ]  ]  ]  ]  ]  ]  ]  ]  ]  ]  ]  ]  ]  ~  ;  ;  7  ",
"S] A7.A7.P|.P|.P|.Z5.Z5.Z5.V7.V7.W7.X7.B7.X7.Y5.Z5.Y5.Z5.Y5.Z5.Y5.Z5.Y5.uG l1.l1..6.cE cE Y7.e5.Z7.`7.w6. 8.s|.9| )6..8.#5.+8.@8.#8.$8.'6.c6.J5.'6.%8.&8.F7.*8.N5.d5.d5.>{.r7.N= I7.h1 >- =8.76.q= ,7.O6./< O7.b7.'_ '_ -8.K7.K7.K7.K7.K7.K7.K7.K7.-8.-8.-8.-8.-8.-8.-8.-8.;8.J7.K7.K7.8^ Df v* 4* C* C* C* C* %= %= %= %= I6.C* 2* 2* $= H< 4p 9= J= I= 8- 4- 0- b- C- 7- g> g> g> g> f> f> f> 6; %> $> $> G/ G/ #> O^ e> K; K; K; K; K; K; K; K; K; K; K; K; K; K; K; A' J= K= H= '- I= L= L= I= p= p= b= b= /= #= #= B* A& A& A& A& d& c& c& X% W% W% W% W% V% p$ q$ d$ /. 5. 5. 5. $@ $@ $@ $@ 4. 4. 4. 4. 4. 4. 4. '. )# =@ =@ =@ z  z  Y  .. #- >8.,8.'8.)8.!8.~8.{8.]8.^8.y< j7.x< U6.U6.x< M# M# B  B  B  B  B  /  <  <  <  <  <  <  <  <  s+ F  R  ^  E  (  _  /  <  <  <  <  <  <  <  <  <  <  <  <  <  <  <  <  /  /  /  /  /  /  /  /  /  /  /  /  /  /  /  /  q+ q+ q+ q+ q+ q+ q+ q+ >@ >@ >@ >@ >@ >@ >@ >@ p  p  p  p  p  p  p  p  D  D  D  D  D  D  D  D  ~  ~  ~  ~  ~  ~  ~  ~  ]  ]  ]  ]  ]  ]  ]  ]  ]  ]  ]  ]  ]  ]  ]  ]  ~  ~  ~  ~  ;  ;  ;  ",
"4^.p1.p1.A7.A7.A7.jF jF jF Oa Oa P(.rG P(.jF P|.jF P|.jF P|.jF P|.jF P|.jF /8.w0 w0 (8.hD x0 x0 `|.0| _8.r|.H7.K} /4 :8.$4.<8.[8.}8.|8.O5.,{.18.18.J6.18.18.J6.~~.~~.28.%].38.<7.48.58.`* /!.$].K6.68.N6.b7.78.78.K7.K7.K7.-8./n /n /n /n /n /n /n 1m 1m 1m 1m 1m 1m 1m 1m 88._= p$ 9* 98.08.pe U$ S& S& S& S& D* D* D* D* C* 5* |* }* 1* $= /< ~7.@= 5= /!.4p /= .= p= 0= V= V= V= R= &> &> d- D- |_ $; +} ov 8; d> d> %> %> f> f> f> f> f> f> f> 7; 7; 7; 7; 7; 7; 7; 7; 5/ V= U= U= 6/ <_ 6/ Q^ e- S= c= g= E* E* B& A& A& A& z& c& c& c& X% W% q% W% V% V% V% p$ d$ !$ /. 5. 5. $@ 4. N+ 4. $@ M+ M+ M+ M+ M+ M+ M+ 6. =@ p. _  <  z  z  .. .. a8.=% b8.8& c8.d8.e8.f8.g% g8.,< o+ p+ _$ _$ _$ b@ b@ (  (  (  (  (  (  <  s  s  s  s  s  s  s  O. O. }  }  r  r  q  q  s  s  s  s  s  s  s  s  q  q  q  q  q  q  q  q  r  r  r  r  r  r  r  r  r  r  r  r  r  r  r  r  p  p  p  p  p  p  p  p  D  D  D  D  D  D  D  D  p  p  p  p  p  p  p  p  D  D  D  D  D  D  D  D  ~  ~  ~  ~  ~  ~  ~  ~  ]  ]  ]  ]  ]  ]  ]  ]  ]  ]  ]  ]  ]  ]  ]  ]  7  ;  ;  ;  ;  ;  ~  ",
"_[ p1.p1..6.A7.A7.A7.A7.jF Oa /8.Oa  6.rG l1.jF l1.jF l1.jF l1.jF l1.jF l1.w0 (8.(8.h8.x0 `|.`|.Z|.f4.)6.6+.#5.v..!~.>{.p4.{) i8.j8.){.96.96.i8.k8.|8.l8.j8.i8.'{.'{.~6.|8.O6.x* m8.n8.B* O7.O7.6* o8.s7.97.p8.p8.-8.K7.q8./n /n /n /n /n /n /n /n 1m 1m 1m 1m 1m 1m 1m 1m x] _= _= r8.s8.t8.u8.s] s] S& S& S& S& D* D* D* |* 4* 6* 07.O7.78.6* 5* O7.6* 5* C* O7.C* C* /o g= g= S= V= V= S= S= e- Q^ Q^ $; q- $; 4/ $> $; f> f> f> f> f> f> f> f> D- D- D- D- D- D- D- d- Q= V= R= ]- %_ e- 6/ d- e- S= S= g= E* A& A& A& A& A& z& c& c& X% W% W% q% W% V% V% V% p$ d$ y# $@ 5. 5. 4. M+ M+ N+ 4. J  J  J  J  J  J  J  Y  =@ p. _  <  z  G  .. ~& ,* v8.w8.x8.y8.z8.A8.B8.C8.D8.o+ E8.&$ p+ p+ p+ b@ b@ (  (  (  (  (  (  s  s  s  s  s  s  s  s  i. r  }  s  g. r  O. r  g. g. g. g. g. g. g. g. r  r  r  r  r  r  r  r  r  r  r  r  r  r  r  r  r  r  r  r  r  r  r  r  p  p  p  p  p  p  p  p  D  D  D  D  D  D  D  D  p  p  p  p  p  p  p  p  D  D  D  D  D  D  D  D  ~  ~  ~  ~  ~  ~  ~  ~  ]  ]  ]  ]  ]  ]  ]  ]  ]  ]  ]  ]  ]  ]  ]  ]  Z. 7  7  ;  ;  ~  ~  ",
"5C W( ^^ ev }_.}_.p1.z_ F8.hE e4.hE e4.hE e4.hE e4.F8.v0 F8.v0 F8.v0 F8.v0 Y7.G8.H8.`|.k3.Z|.q7.6+.H7.c5./4 >{.>{.28.s- O6.~6.l8.I8.J8.k8.K8.l8.L8.l8.M8.l8.l8.l8.l8.l8.l8.C* C* C* 78.78.78.78.-8.p8.p8.p8.1m 1m 1m 1m 1m w] 1o 1o 1o 1o 1o 1o 1o 1o 1o 1o 1o 1o 1o 1o 1o a~ d~ o$ N8.O8.P8.Q8.R8.x] s] y& y& y& R& R& R& a7.9^ a7.9^ a7.9^ a7.a7.a7.78.'_ 97.'_ 07.07.'_ == == c= c= c= c= c= S= M; T= d- Q^ %_ Q^ 7; d- &> &> &> &> &> &> &> &> d- d- d- d- d- d- d- d- d= e= a; N; %_ d- o( A' #7 U= R= d= &= g( R& k= c& c& c& X% W% q% q% q% p$ p$ p$ q$ d$ !$ !$ y# J  6. 6. 6. 6. Y  Y  6. 3# 0. 0. 3# /& y  .. a. D  C  r  r  /  B  M  $$ *% S8.T8.U@ U8.V8.W8.X8.Y8.,< ,< ,< _$ _$ _$ _$ >@ >@ /  /  /  /  /  /  r  r  r  r  r  r  r  r  q  q  q  q  q  q  q  q  r  }  _^ O. r  s  s  q  r  r  r  r  r  r  r  r  }  }  }  }  }  }  }  }  r  r  r  r  r  r  r  r  D  D  D  D  D  D  D  D  q. q. q. q. q. q. q. q. p  p  p  p  p  p  p  p  p  p  p  p  p  p  p  p  ]  ]  ]  ]  ]  ]  ]  ]  ]  ]  ]  ]  ]  ]  ]  ]  ]  ]  ]  ]  ]  ]  ]  ]  ;  ;  ;  ;  ;  ;  ;  ",
"5C W( ^^ 2_._[ p1.'] z_ J_.5: e4.e4.e4.e4.e4.e4.e4.v0 v0 v0 v0 v0 v0 v0 Z8.`8. 9.u6..9.+9.@9.6+.b5.#5.5+.+@.28.28.e6./!.O6.|8.k8.#9.K8.$9.%(.L8.%9.M8.M8.M8.M8.M8.&9.M8.M8.-8.-8.-8.-8./n /n /n /n 1m |o 1m |o 1m |o 1m |o 1o 1o 1o 1o 1o 1o 1o 1o 1o 1o 1o 1o 1o 1o 1o 1o T$ *9.=9.-9.;9.>9.,9.'9.9* 9* b& b& b& b& c& x& 8^ )9.8^ 8^ 8^ 8^ 8^ 8^ 4= =- -8.;8.!9.~9.p8.7^ D* D* == == == == c= c= d= V= S= U= U= T= 6/ 6/ &> &> &> &> &> &> &> &> d- d- d- d- d- d- d- V= E* E- E* 0; R= &> o( |_ 5/ &> T= _& Y% z& @8 +;.b& c& X% X% W% q% q% q% p$ p$ q$ q$ d$ !$ !$ y# 4. 6@ 5@ y  h+ 6. y  3# y  0. M  &@ {9.6@ M  B  D  C  r  r  /  /  B  M  ]9.^9.f% $# /9.(9._9.:9.<9.,< ,< ,< _$ _$ _$ _$ >@ >@ /  /  /  /  /  r  r  r  r  r  r  r  r  r  q  q  q  q  q  q  q  q  }  }  r  r  r  r  r  q  r  r  r  r  r  r  r  r  }  }  }  }  }  }  }  }  }  }  }  }  }  }  }  }  p  p  p  p  p  p  p  p  D  D  D  D  D  D  D  D  p  p  p  p  p  p  p  p  p  p  p  p  p  p  p  p  ]  ]  ]  ]  ]  ]  ]  ]  ]  ]  ]  ]  ]  ]  ]  ]  ~  ~  ~  ~  ~  ~  ~  ~  ;  ;  ;  ;  ;  ;  ;  ",
"p< lc m< `< `< 2_.8: ^^ W( lD hD hD hD hD hD hD hD [9.[9.[9.[9.[9.[9.[9.[9.v6..9.#7.}9.8| G7.6+.|9.5+.~~.28.~7.K6.M6.~7.I6.N7.!_ '_ 78.78.'_ ;8.19./n /n /n /n /n 29./n 29.|o |o |o |o |o |o |o |o 1o !{ 1o !{ 1o !{ 1o !{ 39.39.39.39.39.39.39.39.39.39.39.39.39.39.39.39.u! }. /. 49.59.69.79.89.C# C# 1$ 1$ U& U& Z$ y& u] 99.u] u] u] u] u] u] q8.1m w] /n 09.a9.1m =- S& S& D* D* D* D* == == &= g= h= h= d= J5 b9.',.V= V= V= V= V= V= V= V= V= V= V= V= V= V= V= d= z% #, G* Cf o}.T_ !n c7 _t c9.d9.'= c! `% 1$ S> b& W% W% W% q% q% p$ p$ p$ q$ d$ d$ !$ !$ y# ($ 6. c+ 8. c+ z  G  7. `# a. ^$ G  g7.S% `# A  ^  d+ &. d+ d+ q  (  (  G  H/ e9.f9.g9.h9.i9.j9.k9.l9.m9.m9.m9.m+ m+ m+ m+ D  D  r  r  r  r  r  r  r  N  N  N  N  N  N  N  _. _. _. _. _. _. _. _. g  N  j- W= N  6  6  N  N  N  N  N  N  N  N  N  k  k  k  k  k  k  k  k  k  k  k  k  k  k  k  k  ]  ]  ]  ]  ]  ]  ]  ]  ~  ~  ~  ~  ~  ~  ~  ~  p  p  p  p  p  p  p  p  p  p  p  p  p  p  p  p  ]  ]  ]  ]  ]  ]  ]  ]  ]  ]  ]  ]  ]  ]  ]  ]  ;  ;  ;  ;  ;  ;  ;  ;  ;  ;  ;  ;  ;  ;  ;  ",
"n, lc lc m< m< B_ B_ X( lc .< n9.iD n9.iD n9.iD n9.eE o9.eE o9.eE o9.eE o9.@7.}9.F2.p9.6+.M5.M5.*8.~~.O5.~7.M6.b7.b7.M6.M6.97.a7.v* u* 97.s7.!9.7^ 1m 1m 1m 1m |o |o |o |o !{ 7, !{ 7, !{ 7, !{ !{ 39.39.39.39.39.39.39.39.<' <' <' <' <' <' <' <' <' <' <' <' <' <' <' ;) q9.1. r9.s9.t9.49.u9.[. F# F# U& |$ S> )(.%_.@1.V{ V{ V{ V{ V{ v9.v9.v9.w9.x9.1m ]* u] 1m /n 9^ y& R& R& R& 7* 7* 7* 7* E* B& e& h= e= Q-.K5 y9.S= S= S= S= S= S= S= S= S= S= S= S= S= S= S= c= H$ {_ H$ ;= o}.%@.2b z9.A9.h8 +i '= I$ 1% 5$ C# V% W% W% q% q% q% q$ q$ q$ q$ d$ !$ !$ !$ x# w# '. 7. 7. 8. `# `# 7. z  a. B  G  ^& x  c+ B  /  d+ &. d+ d+ q  q  (  (  ^$ R# K# L# B9.C9.D9.Y8.E9.J+ J+ J+ l+ l+ l+ l+ p  p  }  }  }  }  }  }  k  k  k  k  k  k  k  k  N  N  N  N  N  N  N  N  F9._. G9.G# N  F9.g  k  k  k  k  k  k  k  k  k  k  k  k  k  k  k  k  k  6  6  6  6  6  6  6  6  ~  ~  ~  ~  ~  ~  ~  ~  ;  ;  ;  ;  ;  ;  ;  ;  p  p  p  p  p  p  p  p  p  p  p  p  p  p  p  p  ]  ]  ]  ]  ]  ]  ]  ]  ~  ~  ~  ~  ~  ~  ~  ~  7  7  7  7  7  7  7  7  ;  ;  ;  ;  ;  ;  ;  ",
"n< n, n, r~ r~ 8> 8> C/ lc +< )t +< )t +< )t +< )t H9./p H9./p H9./p H9./p 8| 6+.57.I9.c5.@4.&4.J9.28.e6.K6.b7.b7.'_ ,_ ,_ |* O7.M6.O7.78.07.9^ 4= p8.p8.1m 1m |o |o |o K9.7, L9.7, L9.7, L9.7, 7, v! v! v! v! v! v! v! v! M9.M9.M9.M9.M9.M9.M9.M9.M9.M9.M9.M9.M9.M9.M9.]' v# 9@ 1. N9.9@ 4. -) /. 6# -) F# E# D# O9.)(.)(.V{ {{ {{ {{ {{ V{ V{ V{ w9.x9.9^ 4= ^* 9^ p8.9^ y& y& y& y& R& R& R& R& 8* D* 7* e& e& e& e& B& c= c= c= c= c= c= c= c= c= c= c= c= c= c= c= == {_ t$ f&  ' ,= c9.x..P9.Q9.R9.[| +%  % 5$ B# 11.V% W% q% q% p$ q$ q$ q$ d$ d$ !$ !$ y# x# x# w# >$ 8. c+ g7.S9.B$ ^- A  c+ z  B  a. 7. z  z  _  d+ m+ d+ d+ q  q  8$ 8$ ~% ^  ^  >@ _$ ,< .@ .@ J+ J+ J+ J+ l+ l+ l+ l+ p  p  }  }  }  }  }  }  k  k  k  k  k  k  k  k  N  N  N  N  N  N  N  N  F9._. G9.G# N  F9.g  k  k  k  k  k  k  k  k  k  k  k  k  k  k  k  k  k  6  6  6  6  6  6  6  6  ~  ~  ~  ~  ~  ~  ~  ~  ~  ~  ~  ~  ~  ~  ~  ~  p  p  p  p  p  p  p  p  p  p  p  p  p  p  p  p  ]  ]  ]  ]  ]  ]  ]  ]  ~  ~  ~  ~  ~  ~  ~  ~  7  7  7  7  7  7  7  7  ;  ;  ;  ;  ;  ;  ;  ",
"y, n, r~ 8] 8] 9> 9> 8> H; r~ T9.T9.T9.T9.T9.T9.T9.0| 0| 0| 0| 0| 0| 0| 8| @@.@@.p7.p7.@4.U9.V9.28.e6.i8.b7.07.07.07.M/ ,_ }* W9.X9.Y9.6* re -- J7.9^ 9^ w] w] 1o 1o 1o !{ v! Z9.Z9.Z9.Z9.Z9.Z9.Z9.M9.M9.M9.M9.M9.M9.M9.M9.w! w! w! w! w! w! w! w! w! w! w! w! w! w! w! 4, %@ 9@ 9@ #@ $@ N+ /. 6# K@ /. A# B# C# C# 1$ F# }, {{ {{ {{ {{ {{ V{ V{ a9.1m 7^ 7^ 9^ a7.-- v* x& x& x& x& z& z& z& z& A& A& 7* 7* B& e& _& _& g= g= g= g= g= g= g= g= g= g= g= g= g= g= g= E* {_ Y$ s$ h] A0 l^.~h P9.`9. 0..0.J$ t$ 1$ F# D# p$ q% q% q% q$ q$ q$ e$ !$ !$ !$ !$ x# x# x# v# 5@ 7. z  ^- B$ +0.`# o5.c+ a. B  A  A  G  a. -@ p+ l+ D  D  r  r  h# h# r+ @0.#0.g  ]  {$ *$ P# $0.$0.$0.$0.K+ K+ K+ K+ {  {  O. O. O. O. O. 6  6  6  6  6  6  6  6  6  k  k  k  k  k  k  k  k  g  N  j- W= N  6  6  N  6  6  6  6  6  6  6  6  k  k  k  k  k  k  k  k  k  k  k  k  k  k  k  k  ]  ]  ]  ]  ]  ]  ]  ]  ]  ]  ]  ]  ]  ]  ]  ]  p  p  p  p  p  p  p  p  p  p  p  p  p  p  p  p  ]  ]  ]  ]  ]  ]  ]  ]  ;  ;  ;  ;  ;  ;  ;  ;  7  7  7  7  7  7  7  7  ;  ;  ;  ;  ;  ;  ;  ",
"Q9 l} u) B; `; `; B; 8> H; 8] Q9 Q9 Q9 Q9 Q9 Q9 Q9 9' 9' 9' 9' 9' 9' 9' #@.@@.|9.#5.d6.l4.%0.V9.~~.K6.b7.O7.07.T& @8 e!.M/ 3* &0.*0.=0.C* v* 78.L6.8^ 8^ )9.)9.v] v] v] 39.*) !' !' !' !' !' !' !' =) =) =) =) w! w! w! w! -0.-0.-0.-0.-0.-0.-0.-0.-0.-0.-0.-0.-0.-0.-0.X) ;0.c# e# e# >0.,0.G% <$ ,* ,* (- z= z= z= z= A# ]' M9.M9.M9.<' <' 99.99.]* =- -- a7.a7.3* |* v* x& _= _= _= x& x& x& x& r% X% d& 7* 8* >_ g( g( B& B& B& B& B& B& B& B& E* E* E* E* E* E* E* 7* 1% H- ;> -, {-.r}./>.'0.)0.!0.~0.i] !> l- >* I@ p$ q% q% U$ q$ q$ !$ !$ !$ !$ y# x# x# x# }$ v# Y  B  B  a. `# 8. z  p% z  z  z  B  A  B  z  =@ &$ K+ p  p  k  9+ {0.{0.a+ 6+ ]0.^0.4+ O  5  !  *$ k% k% k% *$ *$ *$ *$ ~  ~  6  6  6  6  6  6  6  5  5  5  5  5  5  5  |  |  |  |  |  |  |  |  |  |  O  O  O  O  O  4  5  5  5  5  5  5  5  5  |  |  |  |  |  |  |  |  |  |  |  |  |  |  |  |  u  u  u  u  u  u  u  u  u  u  u  u  u  u  u  ]  p  p  p  p  p  p  p  p  p  p  p  p  p  p  p  p  ]  ]  ]  ]  ]  ]  ]  ]  ;  ;  ;  ;  ;  ;  ;  ;  ;  ;  ;  ;  ;  ;  ;  ;  ;  ;  ;  ;  ;  ;  ;  ",
"M2.{d u) Y; t) t) `; 4> H; 8] Q9 Q9 Q9 /p /p /p /p R9 R9 R9 R9 R9 9| R9 9| 6| )6.H7.v=.v=.5+.>{..= K6.b7.O7.78.@8 @8 @8 K7.E= /0.(0.N7.-- 8^ p8.=- )9.)9.v] v] v] 39.v] 39.*) !' !' !' !' !' !' !' =) =) =) =) w! w! w! w! -0.X) -0.X) -0.X) -0.X) -0.X) -0.X) -0.X) -0.X) h+ e# (& c# 4. <% M+ O* I  >* S  >* S  >* /. /. ]' M9.M9.M9.<' <' 99.99./n -8.p8.-- u* v* 1* a7.x& _= _= _= x& x& x& x& R& z& d& Y% s% s% Y% Y% B& B& B& B& B& B& B& B& E* E* E* E* E* E* E* 7* g$ i; '> k* ~l $@._0._~.:0.<0.V' k* ^> m- z= [. 2$ p$ p$ q$ q$ !$ !$ y# y# y# y# w# w# v# v# v# z  F  c+ _  G  (  a. P  A  <  a. (  B  (  G  >@ O# P# {  ~  6  f+ f+ f+ 0+ 1+ [0.2+ }0.|0.s@ -  *$ k% *$ *$ *$ *$ *$ *$ ~  ~  6  6  6  6  6  6  5  5  5  5  5  5  5  5  |  |  |  |  |  |  |  |  O  |  h  5  O  j  j  4  5  5  5  5  5  5  5  5  |  |  |  |  |  |  |  |  O  O  O  O  O  O  O  O  d  d  d  d  d  d  d  d  >  >  >  >  >  >  >  >  ]  p  p  p  p  p  p  p  p  p  p  p  p  p  p  ]  ]  ]  ]  ]  ]  ]  ]  ]  ;  ;  ;  ;  ;  ;  ;  -  -  -  -  -  ;  ;  ;  ;  ;  ;  -  -  -  =  =  ",
"a- 69 X- C- ~d ~d #;  ; t) D; +! 8] +< b9 b9  9.10.20.c4.30.40..9.50.60.70.@7.#7.9| 80.h, N= 8= %; d= == D* R& 9^ p8.p8./n |o E;.E;.T{ T{ ^' ^' ^' }, }, }, }, }, 4, }, 4, 2, 2, 2, [, [, <, <, 90.[, [, [, [, [, [, [, [, 2, 5@ 2, 5@ 2, 5@ 2, 5@ '$ 6@ 2, 5@ '$ y  |# 5@ 2, 5@ 2, 5@ 2, 5@ 2, 5@ '$ $@ ($ $@ ($ $@ ($ ($ 4, c$ x# y# C$ }, W- U% V% V% V% W% W% W% X% W% q$ q$ q$ p$ q% q% W% W% 00.c& f- R_ >_ Y% D= D= Y% d& d& A& A& d& d& Y% A& d& s% <* s% d& 7* D* `% `% `% `% N* N* '= '= 6% .% F* s$ t$ j> 1% f$ A# A# A# [. [. Z@ Z@ 4. 4. 4. 4. '. '. '. '. c+ _  g. _  g. _  g. _  g. /  r  /  r  /  r  /  r  C  d  C  u  u  5  5  5  O  O  O  O  O  d  d  d  ~  P# ~  ~  ~  ~  ~  ~  ]  ]  ]  ]  ]  ]  ]  ]  u  u  u  u  u  u  u  u  u  u  u  u  u  u  u  u  >  >  >  >  >  >  >  >  u  u  u  u  u  u  u  u  b. b. b. b. b. b. b. b. >  >  >  >  >  >  >  >  d  u  u  >  u  d  f  v  >  >  >  -  !  !  u  d  ]  ]  ]  ]  ]  ]  ]  ]  ]  ]  ]  ]  ]  ]  ]  ]  ]  u  u  u  u  u  u  u  f  u  -  !  >  >  >  =  *  *  *  =  -  ;  v+ v+ ;  -  =  *  .  a0.b0.",
"z| 0- c- 9- 5- {d og @; ~d l} |3 -a R9 c0.d0.e0.f0.g0.h0.i0.j0.D2.+7.70.G2.({ 9' k0.{d 4- I5 R= U= d= == 7* R& 9^ 9^ p8./n 2- A3.l0.l0.l0.&) &) &) 4, 4, 4, 4, 4, 4, 4, [, 2, 2, 2, [, [, [, <, <, [, [, [, [, [, [, [, [, 5@ 5@ 5@ 5@ 5@ 5@ 5@ 5@ y  y  6@ 6@ 6@ 6@ y  '. |# |# |# |# |# |# |# |# '$ '$ '$ '$ '$ '$ '$ '$ ($ y# c$ }, ^' ^' U% !$ p$ p$ p$ p$ q% q% q% q% q$ p$ p$ p$ W% W% W% W% X% M/ m0.n0.f- D* 7* 7* Y% d& d& A& A& d& d& Y% D* 7* A& A& d& d& d& c& `% `% `% `% `% `% `% `% x% `%  % G$  % s$ t% X$ B# S  S  /. /. /. $@ $@ '. '. '. '. c+ c+ c+ P  _  g. g. g. g. g. g. g. r  r  r  r  r  r  r  N  C  d  u  u  u  >  >  >  u  u  u  u  u  u  u  u  ~  ~  ~  ~  ~  ~  ~  ~  ~  ~  ~  ~  ~  ~  ~  ~  u  u  u  u  u  u  u  u  u  u  u  u  u  u  u  u  >  >  >  >  >  >  >  >  u  u  u  u  u  u  u  u  d  d  d  d  d  d  d  d  >  >  >  >  >  >  >  >  >  u  d  d  d  u  >  -  u  d  b. b. d  >  >  >  ]  ]  ]  ]  ]  ]  ]  ]  ]  ]  ]  ]  ]  ]  ]  ]  >  >  >  >  >  >  >  >  )  -  >  >  -  !  !  =  *  .  *  =  -  ;  ;  ;  ;  -  =  .   + b0.o0.",
"M= H= z| 0- v- a- lw p0.;< X .) .R9 0| >1 q0.r0.s0.t0.u0.u0.v0./p Zj y, E' `f w0.92 `f J* 6/ i> Q= c= $= 5* 4* 8^ 9^ 1m E;.l0.l1 l1 90.90.90.<, <, [, [, [, [, [, [, [, [, |# c% k6.k6.k6.x0.x0.x0.k6.k6.k6.k6.k6.k6.k6.k6.`# `# `# `# `# `# `# `# ^& 8. 8. ^- T% g7.`# a. ,$ ,$ ,$ ,$ ,$ ,$ ,$ ,$ 1, 1, 1, 1, 1, 1, 1, '$ v# w# }, 2- y0.2- o$ T$ d$ d$ q$ q$ q$ q$ q$ q$ p$ p$ p$ V% V% 9* b& b& U$ x& M/ M/ R& X% Y% d& X% X% c& c& c& c& X% X% /* V$ r% r% X% c& z& z& t$ 1% 1% 1% 1% 1% 1% 1% z0.Z$ W$ g$ g$ r$ W$ 2$ C# 6# S  S  I  5. 5. 5. '. '. '. '. c+ 7. 7. F  _  g. g. g. g. g. g. g. r  r  r  r  r  r  r  N  C  u  u  u  >  >  >  >  >  >  >  >  >  >  >  >  ~  ~  ~  ~  ~  ~  ~  ~  ~  ~  ~  ~  ~  ~  ~  ~  u  u  u  u  u  u  u  u  u  u  u  u  u  u  u  u  >  >  >  >  >  >  >  >  u  u  u  u  u  u  u  u  >  >  >  >  >  >  >  >  u  u  u  u  u  u  u  u  -  >  d  b. d  >  )  [+ -  >  d  f  f  d  >  -  C  C  C  C  C  C  C  C  ]  ]  ]  ]  ]  ]  ]  ]  -  -  -  -  -  -  -  -  [+ !  d  d  -  )  !  >  =  *  =  =  =  -  -  -  -  =  =  *  .  .   + ",
"M= I= ~| 0- 6- 0- kv Ja 8- =1 h, 9| _8.60.q0.t0.d0.b9 A0.K1 k, (} 9+.3( E1 B0.C0.e_.Z[.>[ +i b9.q= #= !{.D0.8^ 8^ _=  7 D# &) 90.90.90.<, <, <, [, 2, 2, 2, 2, 2, 2, 2, 2, c% c% c% c% c% k6.k6.k6.c% c% c% c% c% c% c% c% 8. 8. 8. 8. 8. 8. 8. 8. x  `# `# x  a& a& ^- a. ,$ ,$ ,$ ,$ ,$ ,$ ,$ ,$ ,$ ,$ ,$ ,$ ,$ ,$ ,$ ,$ u# ($ C$ u! E0.u! o$ T$ !$ !$ e$ e$ e$ e$ e$ e$ p$ p$ V% V% 9* 9* b& b& x; D$ r% V$ k= _* C= /* r% X% c& c& c& c& X% r% M/ T& z& c& X% X% c& x& X$ X$ X$ X$ X$ X$ X$ X$ |% 1% r$ h$ h$ r$ W$ 6$ B# S  /. /. 5. $@ $@ $@ '. '. '. h+ 7. 7. 7. _  s  s  s  s  s  s  s  s  r  r  r  r  r  r  r  N  u  u  u  >  >  >  -  -  -  -  -  -  -  -  -  -  ;  ;  ;  ;  ;  ;  ;  ;  ;  ;  ;  ;  ;  ;  ;  ;  >  >  >  >  >  >  >  >  >  >  >  >  >  >  >  >  >  >  >  >  >  >  >  >  >  >  >  >  >  >  >  >  u  u  u  u  u  u  u  u  u  u  u  u  u  u  u  u  >  >  u  u  u  >  >  -  !  !  !  >  d  b. d  u  C  C  C  C  C  C  C  C  ~  ~  ~  ~  ~  ~  ~  ~  !  !  !  !  !  !  !  !  -  >  >  u  u  u  u  u  -  -  =  =  =  *  *  *  *  =  =  =  -  -  -  ",
"M= 0= t- '- h1 '- H= K= J= /4 *1 G7.G7.yf y] 70.60.:{ _) G; Zh F/ !s /6 F0.G0.H0.I0.J0.K0.5! B| _c L0.M0.N0.O0.9* F# R* Q* %@ <, <, <, [, [, [, [, 2, 2, 2, 2, 2, 2, 2, 2, c% c% c% c% c% 1, 1, 1, c% c% c% c% c% c% c% c% 8. 8. 8. 8. 8. 8. 8. 8. `# c+ 7. ^& P0.P0.`# B  ,$ ,$ ,$ ,$ ,$ ,$ ,$ ,$ ,$ ,$ ,$ ,$ ,$ ,$ ,$ ,$ |# '$ ($ X) ]' ]' }, c$ y# y# !$ !$ !$ !$ e$ e$ o$ o$ o$ U% U% W- 9* 9* q% q% q% q% V$ V$ r% c& r% q% W% b& b& W% q% q% Q0.R0.S0.s] q% U$ U$ q% X$ f$ f$ f$ f$ f$ f$ f$ 6$ 5$ 3$ 6$ 2$ 2$ 6$ 3$ [. K@ $@ 4. 4. 4. h+ h+ '. '. c+ 7. 7. a. _  <  s  s  s  s  s  s  s  s  r  r  r  r  r  r  r  N  u  ,  m  m  m  =  =  =  =  =  =  =  =  =  =  -  ;  ;  ;  ;  ;  ;  ;  ;  ;  ;  ;  ;  ;  ;  ;  ;  >  >  >  >  >  >  >  >  >  >  >  >  >  >  >  >  >  >  >  >  >  >  >  >  >  >  >  >  >  >  >  >  u  u  u  u  u  u  u  u  u  u  u  u  u  u  u  u  d  u  -  -  >  d  v  R$ n  b. -  !  >  d  b. d  C  C  C  C  C  C  C  C  ~  ~  ~  ~  ~  ~  ~  ~  !  !  !  !  !  !  !  !  f  >  Z  Z  -  d  u  -  ;  ;  -  =  *  .   +  + .  *  =  ;  v+ 7/ H/ ",
"M= 0= 9= J= N= h1 F= H= qq 5+.]{ zf v=.h~ .8.T0.U0.x[ z;  _ +/.V0.W0.X0.Y0.Z0.`0. a..a.8~ +a.n^.@a.#a.$a.%a.&a.U% }= {l *a.>$ <, [, [, [, 2, 2, 2, |# |# |# |# |# |# |# c% c% c% 1, 1, 1, ,$ ,$ ,$ 1, 1, 1, 1, 1, 1, 1, 1, c+ c+ c+ c+ c+ c+ c+ c+ a. G  G  7. `# 8. z  ^$ ,$ ,$ ,$ ,$ ,$ ,$ ,$ ,$  $  $  $  $  $  $  $  $ 2, '$ v# r# w# )$ C$ C$ y# y# !$ !$ !$ !$ !$ !$ d$ d$ d$ o$ o$ o$ V% V% p$ q% U$ U$ q% r% X% b& q% q% W% W% W% W% q% q% S0.0'.y& U$ -= D$ q% 9* 2$ 2$ 2$ 2$ 2$ 2$ 2$ 2$ {. 4$ 3$ 6$ f$ f$ 5$ ,. Z@ Z@ 4. N+ N+ N+ 6. 6. '. '. 7. 7. a. z  <  <  q  q  q  q  q  q  q  q  r  r  r  r  r  r  r  N  >  m  m  m  =  =  =  8  =  =  =  =  =  =  =  =  !  7  7  7  7  7  7  7  ~  ~  ~  ~  ~  ~  ~  ~  -  -  -  -  -  -  -  -  -  -  -  -  -  -  -  -  >  >  >  >  >  >  >  >  -  -  -  -  -  -  -  -  d  d  d  d  d  d  d  d  >  >  >  >  >  >  >  >  d  u  !  )  -  b. R$ o  =a.o  b. -  >  u  u  >  ]  ]  ]  ]  ]  ]  ]  ]  ;  ;  ;  ;  ;  ;  ;  ;  !  !  !  !  !  !  !  !  d  -  Z  [+ )  !  !  -a.v+ v+ ;  =  .   + a0.a0. + .  =  v+ H/ ;# ;a.",
"4p 4p s- m= 0= t- t- 0= 0= Og G! >a.^!.,a.s4.'a.)a.Y- Rr :i !a.~a.{2 {a.]a.^a./a.(a._a.:a.<a.z} ){.[a.}a.m(.|a.o$ '* ]l 1a.3# x0.x0.k6.k6.k6.c% c% c% c% c% c% c% c% c% c% 1, q} q} s& s& s& /$ /$ s& s& s& s& s& s& s& s& F  F  F  F  F  F  F  F  <  <  _  _  _  _  <  (  p# p# p# p# p# p# p# p# /$ /$ /$ /$ /$ /$ /$ /$ c%  $ s# s# u# '$ )$ ($ )$ )$ c$ c$ c$ c$ c$ c$ y# y# y# y# c$ c$ o$ o$ !$ r* &c r* e$ U$ U$ U$ U$ p$ p$ V% V% p$ p$ q$ ~{ ~{ O5 ~{ r* q$ V% 9* 6$ A# A# A# A# A# A# A# [. T  T  [. A# A# T  +. K@ $@ 4. 4. '. h+ h+ h+ c+ c+ 7. 7. _  <  (  (  q  _. _. _. _. _. _. _. N  N  N  N  N  N  N  N  >  m  m  =  =  =  8  8  m  m  m  m  m  m  m  m  !  !  !  !  !  !  !  !  >  >  >  >  >  >  >  >  -  -  -  -  -  -  -  -  -  -  -  -  -  -  -  -  >  >  >  >  >  >  >  >  -  -  -  -  -  -  -  -  >  >  >  >  >  >  >  >  -  -  -  -  -  -  -  -  u  >  -  !  -  d  v  R$ 2a.n  >  !  >  d  >  )  ~  ~  ~  ~  ~  ~  ~  ~  ;  ;  ;  ;  ;  ;  ;  ;  -  -  -  -  -  -  -  -  )  d  n  v  >  [+ Z  7  R^ R^ ;  =  .  a0.b0.b0.a0..  =  R^ ;# 3a.4a.",
"/< 4p 5a.G6.a= 8= n= m= `* 18.5' 18.J6.6a.H! J} 6- 8- 7a.8%.R-.8a.9a.0a.aa.ba.ca.da.ea.fa.ga..% D0.}a.ha.ia.ja.C$ O* ka.la.^- x0.x0.k6.k6.c% c% c% c% c% c% c% c% c% c% c% q} q} q} s& s& /$ /$ p# s& s& s& s& s& s& s& s& F  F  F  F  F  F  F  F  F  P  R  R  F  F  P  R  M$ M$ M$ M$ M$ M$ M$ M$ /$ /$ /$ /$ /$ /$ /$ /$  $ o# t# s# u# '$ .$ v# )$ )$ c$ c$ c$ c$ c$ c$ x# x# x# y# y# y# d$ d$ !$ !$ r* e$ p$ V% p$ q$ q$ p$ p$ V% V% p$ p$ q$ V% V% 9* _= 9* q$ r* b~ A# A# A# A# A# A# A# A# F# B# T  ,. z# z# ,. J@ 5. 5. 5. $@ y  '. '. '. c+ c+ 7. _  <  <  (  r  _. _. _. _. _. _. _. _. N  N  N  N  N  N  N  O  m  m  m  =  =  8  8  8  m  m  m  m  m  m  m  m  !  !  !  !  !  !  !  !  u  u  u  u  u  u  u  u  -  -  -  -  -  -  -  -  -  -  -  -  -  -  -  -  >  >  >  >  >  >  >  >  -  -  -  -  -  -  -  -  -  -  -  -  -  -  -  -  !  !  !  !  !  !  !  !  >  >  -  >  >  >  u  u  >  Z  ma.[+ >  d  >  Z  ;  ;  ;  ;  ;  ;  ;  ;  ;  ;  ;  ;  ;  ;  ;  ;  -  -  -  -  -  -  -  -  }+ R$ na.Y. f  [+ Z  C  R^ R^ ;  =   + b0.o0.o0.b0..  -  R^ oa.pa.qa.",
"b7.'7.ra.sa.H< @= $].,7.A* 6* )_ ){.){.~{.~{.>a.p= ta.j8 ua.va.wa.xa.ya.za.A9 Aa.Ba.Ca.Da.Ea.Z% Fa.ha.ia.Ga.Ha.4, f# Ia.Ja.g7.1, o# 1, c% o# m* t# k6.<& <& c% x0.o# o# Ka.s& s& s& /$ /$ p# p# p# /$ /$ /$ /$ /$ /$ /$ /$ /  /  F  [  F  ^  <  Q  <  <  <  <  _  F  P  R  M$ p# /$ s& s& p# M$ 7$ p# p# p# p# p# p# p# p# /$ /$ /$  $  $  $  $ u# '$ '$ ($ ($ ($ ($ ($ ($ w# w# w# w# w# w# x# x# y# y# !$ !$ !$ !$ !$ !$ o$ o$ o$ o$ o$ o$ o$ o$ !$ !$ !$ !$ !$ !$ !$ !$ T  Z@ Z@ Z@ Z@ Z@ Z@ Z@ I@ I@ I@ I@ I@ I@ I@ I@ J  Y  Y  Y  Y  Y  z  z  a. a. _  <  <  q  q  q  q@ j  j  4  4  O  O  O  |  |  |  |  |  |  |  |  =  *  *  *  *  *  *  *  *  *  *  *  *  *  *  *  =  =  =  =  =  =  =  =  *. *. 8  =  m  m  ,  '  -  -  -  -  -  -  -  -  -  -  -  -  -  -  -  -  -  -  -  -  -  -  -  -  -  -  -  -  -  -  -  -  -  -  -  -  -  -  -  -  -  -  -  -  -  -  -  -  -  -  -  -  -  -  -  -  -  -  -  >  >  u  u  u  Z. ~  C  &. C  ]  C  &. ;  ;  ;  ;  ;  ;  ;  ;  -  -  -  -  -  -  -  -  )  v  R$ d  >  b. f  ]  v+ v+ -  *   + b0.o0.o0.La.b  u  Ma.Na.Oa.*].",
"O7.A* 87.87.w* Pa.5= H< A* )_ p8.Qa.Ra.Ra.){.~{.>a.l= *> r}.Sa.H| W[.;7 Ta.Ua.Va.Wa.Xa.Ya.Za.X$ `a. b.Ga..b.+b.[, m$ @b.@b.`# ,$ ,$ c% c% 1, Ka.#b.$b.%b.m* t#  $ m*  $ &b.s& s& /$ /$ /$ p# p# p# /$ /$ /$ /$ /$ /$ /$ /$ R  _  (  /  (  /  s+ *b._  <  <  (  (  (  <  <  M$ M$ p# p# /$ p# p# M$ p# p# p# p# p# p# p# p# /$ /$ /$ /$  $  $  $  $ .$ .$ .$ w# w# w# w# .$ .$ .$ .$ w# w# w# w# x# y# y# !$ !$ !$ !$ !$ !$ d$ d$ d$ d$ d$ d$ d$ d$ !$ !$ !$ !$ !$ !$ !$ y# Z@ Z@ Z@ Z@ Z@ Z@ Z@ Z@ I@ I@ I@ I@ I@ I@ I@ N+ Y  Y  Y  Y  Y  Y  z  z  a. _  <  <  s  q  q  _. _. 4  O  O  |  |  |  |  5  5  5  5  5  5  5  1  =  *  *  *  *  *  *  *  *  *  *  *  *  *  *  *  =  =  =  =  =  =  =  =  *. *. 8  8  =  m  ,  ,  -  -  -  -  -  -  -  -  -  -  -  -  -  -  -  -  -  -  -  -  -  -  -  -  -  -  -  -  -  -  -  -  -  -  -  -  -  -  -  -  -  -  -  -  -  -  -  -  -  -  -  -  -  -  -  -  -  -  -  -  >  >  >  >  7  ]  -. -. ]  7  =b.-b.;  ;  ;  ;  ;  ;  ;  ;  -  -  -  -  -  -  -  -  Z  d  b. -  Z  -  u  -  v+ ;  =  *   + b0.o0.o0.u+ +  Z  ;b.;# ;> 9( ",
")_ Y* 3* 5* |* w* #= %= C* y&  7 w] 9^ Fa.$9.$9.!{.z* &= }- *].b/ >b.,b.'b.)b.!b.~b.{b.]b.^b.s= /b.(b._b.:b.<b.k6.'@ [b.[b._  /$ }b.}b./$ /$ |b.1b.2b.3b.7$ 4b.p# M$ M$ s& s& 5b.5b.5b.i$ i$ i$ i$ i$ i$ i$ i$ i$ i$ i$ i$ g. s  O. _^ 6b.7b.K_ }  g. g. q  r  }  }  }  }  8$ 8$ 8$ 8$ j$ i$ 5b.+$ i$ i$ i$ i$ i$ i$ i$ i$ 5b.5b.5b.5b./$ /$ /$ /$ o# o# o# q# q# q# q# q# .$ ,$ ,$ .$ .$ .$ .$ w# ($ ($ y# y# y# y# y# y# x# x# x# x# x# x# x# x# y# y# y# y# y# y# y# y# Z@ 4. 4. 4. 4. 4. 4. 4. N+ N+ N+ N+ N+ N+ N+ N+ 6. 6. 6. 6. a. a. a. a. _  <  <  s  q  q  q  _. k  |  |  |  5  5  h  h  %+ %+ %+ %+ %+ %+ %+ B. =  *  *  *  *  *  *  *  *  *  *  *  *  *  *  *  =  =  =  =  =  =  =  =  *. *. 8  8  =  m  m  m  -  -  -  -  -  -  -  -  -  -  -  -  -  -  -  -  -  -  -  -  -  -  -  -  -  -  -  -  -  -  -  -  -  -  -  -  -  -  -  -  -  -  -  -  -  -  -  -  -  -  -  -  -  -  -  -  -  -  -  -  -  -  -  -  =b.;  -. o. =. C  ~  ;  ;  ;  ;  ;  ;  ;  ;  ;  -  -  -  -  -  -  -  -  )  >  u  )  Z  !  >  -  -  =  *  .   + a0.b0.a0.'+ !+ ;  8b.9b.`= Z, ",
")_ b7.C* 6* O7./o #= #= O7.x& _= )9.)9.k_.0b.0b.0b.ab.-- >_ z% bb.cb.db.eb.fb.gb.hb.ib.jb.W& U{ 39.kb.lb.mb.nb.}b.r. >+ >+ F  p# s& s& M$ 4b.q} ob.pb.}b.7$ /$ }b./$ 4b.4b.5b.5b.5b.i$ i$ i$ j$ j$ j$ j$ j$ j$ j$ j$ j$ j$ _^ q  }  O. &_ qb.rb.6b.g. s  q  r  }  }  r  r  h# h# g+ g+ h# j$ 5b.r} j$ j$ j$ j$ j$ j$ j$ j$ i$ i$ i$ i$ p# p# p# p# o# o# o# o# q# q# q# o#  $  $  $  $ u# u# u# u# w# w# x# x# x# x# x# x# y# y# y# y# y# y# y# y# x# x# x# x# x# x# x# w# N+ N+ N+ N+ N+ N+ N+ N+ M+ M+ M+ M+ M+ M+ M+ 6. 6. 6. 6. 6. a. a. a. _  <  <  s  q  q  q  r  N  O  |  |  |  5  5  5  h  h  h  h  h  h  h  h  A. t  t  t  t  t  t  t  t  t  t  t  t  t  t  t  t  8  8  8  8  8  8  8  8  *. *. *. 8  8  =  =  m  -  -  -  -  -  -  -  -  -  -  -  -  -  -  -  -  -  -  -  -  -  -  -  -  -  -  -  -  -  -  -  -  -  -  -  -  -  -  -  -  -  -  -  -  -  -  -  -  -  -  -  -  -  -  -  -  -  -  -  -  !  !  !  !  -b.Z. ]  C  ]  ~  ~  ]  ;  ;  ;  ;  ;  ;  ;  ;  -  -  -  -  -  -  -  -  >  u  >  -  !  -  u  ,  t  +  +  9  9  9  9  9  @  ,  C  ,@ H/ g: sb.",
"p8.'_ 4* 4* 07.C* |* }* 4* _= E# a~ a~ v] k_.k_.k_.`a.]* 1m t] 4$ w= n> tb.*# ub.vb.wb.v> B# U% xb.D! yb.zb.Ab.Ab.0& 0& r. s& 7$ 7$ s& s& M$ 4b.M$ ~% 4b.p# }b.q} M$ 7$ p# 5b.5b.i$ i$ i$ j$ j$ j$ j$ j$ j$ j$ j$ j$ j$ j$ O. h. g. :^ q  K_ j# :^ q  q  r  r  q  s  g. h. h# g+ r+ r+ g+ 8$ 5b.+$ j$ j$ j$ j$ j$ j$ j$ j$ Bb.Bb.Bb.Bb.i$ i$ i$ i$ p# p# p# p# o# o# o# o#  $ /$  $  $  $  $ u# u# .$ .$ w# w# w# w# w# w# ($ ($ ($ ($ ($ ($ ($ ($ w# w# w# w# w# w# w# w# N+ h+ h+ h+ h+ h+ h+ h+ 6. 6. 6. 6. 6. 6. 6. 6. 6. a. a. a. a. a. _  _  <  s  q  q  _. N  N  N  4  2  2  2  s@ s@ s@ 1  A. A. A. A. A. A. A. A. t  +  +  +  +  +  +  +  +  +  +  +  +  +  +  +  t  t  t  t  t  t  t  t  z. z. z. t  t  t  t  =  -  -  -  -  -  -  -  -  -  -  -  -  -  -  -  -  -  -  -  -  -  -  -  -  -  -  -  -  -  -  -  -  -  -  -  -  -  -  -  -  -  -  -  -  -  -  -  -  -  -  -  -  -  -  -  -  -  -  -  -  -  -  -  -  ;  ;  Z. =b.Cb.Cb.=b.Z. ;  ;  ;  ;  ;  ;  ;  ;  -  -  -  -  -  -  -  -  u  >  -  >  >  >  >  ,  9  j+ j+ 9  9  +  t  t  Db.Z  ]  {  R^ R^ Ma.",
"p8.a7.E= E= )_ O7.6* 3* R& 1$ F# W- W- 99.99.j_.Eb.Fb.Gb.Gb.K9.2- |, |, [. Hb.L- i; 6$ U  !$ ;) )$ '$ Ib.'# Jb.Jb.Kb.Kb.Lb.5b.4b.7$ q} T6.q} M$ 7$ 7$ /$ q} /$ 7$ 4b./$ &b.i$ i$ i$ i$ j$ j$ j$ 8$ 8$ 8$ 8$ 8$ 8$ 8$ 8$ 8$ _^ g. g. _^ _^ s  r  k# r  r  r  r  q  g. h. i. g+ g+ g+ g+ g+ h# j$ j$ 8$ 8$ 8$ 8$ 8$ 8$ 8$ 8$ Mb.Mb.Mb.Mb.j$ j$ j$ j$ p# p# p# p# o# o# o# o# p# p# o# o# o# o# q# q# u# u# v# v# v# v# v# v# )$ )$ )$ )$ )$ )$ )$ )$ v# v# v# v# v# v# v# v# 6. 6. 6. 6. 6. 6. 6. 6. Y  Y  Y  Y  Y  Y  Y  Y  z  z  z  z  z  z  <  <  q  q  q  q  N  N  N  |  4  |0.2  2  s@ s@ s@ s@ 1  1  1  1  1  1  1  Nb.z.                                              z. z. z. z. z. z. z. z. z. z. z. z. z. t  t  t  -  -  -  -  -  -  -  -  -  -  -  -  -  -  -  -  -  -  -  -  -  -  -  -  -  -  -  -  -  -  -  -  -  -  -  -  -  -  -  -  -  -  -  -  -  -  -  -  -  -  -  -  -  -  -  -  -  -  -  >  >  u  u  u  -a.-a.-a.=b.Z. ]  L@ /- ;  ;  ;  ;  ;  ;  ;  ;  -  -  -  -  -  -  -  -  >  Z  Z  >  u  -  )  t  5+ La.La.5+    z. *. )  u  =. =. ~  Z. 7  ;  ",
"8^ =- 7^ -- 4* 78.97.O7.c& C# '* 6# }, {{ {{ Ob.Ha.Ob.Pb.Qb.Rb.Sb.Tb.Ub.Y) Vb.Wb.k_.u] Xb.n$ C$ 3, .$ ,$ s& +$ a% Yb.Yb.Yb.i$ M$ p# }b.q} p# p# q} s& q} s& M$ 7$ M$ s& }b.i$ Bb.Bb.Mb.Mb.Mb.:% :% i# i# i# i# i# i# i# i# g  g  6  N  q@ W= q@ _. _. N  N  k  N  N  _. q@ f+ 9+ 9+ i# i# i# 9+ 9+ :% :% :% :% :% :% :% :% Mb.Mb.Mb.Mb.Mb.Mb.j$ j$ 8$ 8$ 7$ 7$ 7$ 7$ m* m* p# p# p# p# p# p# o# o# u# u# u# u# v# v# v# v# w# w# w# w# w# w# w# w# v# v# v# v# v# v# v# v# 6. a. a. a. a. a. a. a. z  z  z  z  z  z  z  z  G  G  G  G  (  (  (  (  q  q  q  r  N  N  k  |  |  s@ s@ s@ 1  1  A. A. B. B. B. B. B. B. B. Zb.z.                                              z. z. z. z. z. z. z. z. z. z. z. z. z. z. z. z. -  -  -  -  -  -  -  -  -  -  -  -  -  -  -  -  -  -  -  -  -  -  -  -  -  -  -  -  -  -  -  -  -  -  -  -  -  -  -  -  -  -  -  -  -  -  -  -  -  -  -  -  -  -  -  -  !  -  >  u  d  b. f  f  -b.-a.Z. ;  C  r@ `b. c.;  ;  ;  ;  ;  ;  ;  ;  -  -  -  -  -  -  -  -  >  Z  )  b. v  u  )  z. La..c.La.5+    z. )  Z. ~# +c.L@ >  Z  *. *  ",
"u] t* u] 7^ X* =- K7.4* @c.C# 6# 6# }, }, {{ Rb.Rb.#c.$c.%c.&c.*c.*) =) w! Eb.=c.-c.;c.Y) y# }, )$ '. c+ s& +$ @$ Yb.>c.>c.5b.+$ q} r} 4b.,c.~% 0& 7$ j$ M$ i$ s& 0& /$ g+ Bb.'c.Bb.)c.Mb._% :% _% i# g# i# g# i# g# i# i# q@ F9.!c.k  W= N  g  g  q@ _. N  6  6  6  6  6  6  k  N  _. _. 9+ f+ @0.:% :% :% :% :% :% :% :% Mb.Mb.Mb.Mb.Mb.Mb.j$ j$ h# h# 4b.4b.4b.4b.4b.4b.p# p# p# p# p# p# o# o#  $  $ u# u# u# u# u# u# u# u# u# u# u# u# u# u# u# u# u# u# u# u# u# h+ a. a. a. a. a. a. a. a. z  z  z  z  z  z  z  z  /  /  /  /  /  r  /  r  q  q  q  r  N  k  k  |  5  1  1  A. A. B. B. B. C. C. C. C. C. C. C. ~c.                                                      z.    z.    z.    z.    z.    z.    z. z. =  =  -  =  -  =  -  =  -  =  -  =  -  =  -  =  =  =  =  =  =  =  =  =  =  =  =  =  =  =  =  =  -  -  -  -  -  -  -  -  -  -  -  -  -  -  -  {+ {c.{c.x+ =  =  h  h  h  !  -  >  ]  &. q@ j- j- ~  *$ ~  ;  Z. -a.7  ~  ;  -  ;  -  -  -  -  -  =  =  =  =  =  =  =  =  '  8  =  ]c.^c.i+ =  +  La./c.La.5+    z. *. )  >  f  v  m  t  b  .+ ",
"a~ U% U% U% U% U% U% U% U% C$ X) X) X) X) X) -0.-0.-0.-0.-0.-0.-0.X) X) 2, T6.(c.s& o# q# N+ /. S  %. M+ .. /  }  :% =[ _c.W= W= g. q@ s  _. q  _. g. W= g. q@ s  _. q  _. j  3  j  |0.4  2  O  2  4  |0.4  |0.4  |0.4  4  O  O  O  O  O  O  O  O  O  O  O  O  O  O  O  N  ]  p  p  p  ]  k  k  k  f+ f+ 3+ 0+ 0+ P% P% :c.i# r  r  r  r  r  r  r  q  q  q  q  q  q  q  (  _  _  _  _  _  _  _  _  _  _  a. a. a. a. a. a. 7. 7. 7. 7. 7. 7. 7. 7. 7. 7. 7. 7. 7. 7. 7. 7. P  =@ b@ b@ =@ '@ S$ [% *@ *@ *@ *@ *@ *@ *@ *@ D  D  D  D  D  C  D  C  ]  ]  ]  ]  ]  ]  ]  u  >  m  m  m  m  m  m  m  8  8  8  8  8  8  8  t  +  9  9  9  9  9  9  9   +  +  +  +  +  +  +  +  + 9  +  0     9  +   +    0     0     0        t  t  8  t  8  t  8  t  8  t  8  t  8  t  8  t  t  t  t  t  t  t  t  t  *  *  *  *  *  *  *  *  =  =  =  =  =  =  =  =  =  =  =  =  =  =  =  {c.<c.[c.}c.k. Zb.|c.3+ 4+ g  r@ &. 1c.s. 2c.3c.4c.p  k% P# 5c.5c.5c.6c.6c.-  =  h  A. A. A. A. 7c.+  +  +  +  +  +  +  +  +  +  +  +  +  +  +  9  j+ j+ j+ 9  9  +  +  +  #  @  @        `. `. ",
";) }, }, }, }, }, }, }, }, X) X) X) X) X) X) X) X) )$ )$ )$ )$ )$ )$ )$ c% G9.8c.G9.s. `# 5. S  B# C# 6# I  `# i. 9c.j  2  W= W= q@ q@ q@ _. _. _. q@ q@ _. _. N  N  N  N  j  3  |0.|0.|0.2  2  2  |0.|0.|0.|0.|0.|0.|0.|0.O  O  O  O  O  O  O  O  |  |  |  |  |  |  |  u  ~  O# O# O# ~  ~  6  6  f+ f+ 3+ 0+ 0+ 0+ 0c.P% h# r  r  r  r  r  r  r  q  q  q  q  q  q  q  q  <  <  <  <  <  <  <  <  _  _  _  _  _  _  _  _  F  F  F  F  F  F  F  F  _  _  _  _  _  _  _  _  =@ *@ b@ b@ *@ ~@ a@ S$ *@ *@ *@ *@ *@ *@ *@ q. D  C  C  C  C  C  C  C  ]  ]  ]  ]  ]  ]  ]  u  >  m  m  m  m  m  m  m  8  8  8  8  8  8  8  t     0  0  0  0  0  0  0   +  +  +  +  +  +  +  + 9  0  `. `. `. `. 0  9  0  0  0  0  0  0  0  0  t  t  t  t  t  t  t  t  t  t  t  t  t  t  t  t  +  +  +  +  +  +  +  +  .  .  .  .  .  .  .  .  =  =  =  =  =  =  =  =  =  =  =  =  =  =  =  I. [c.ac.bc.k. cc.dc.3+ {0.ec.)= &$ &$ Y# ^- fc.gc.D  k% hc.ic.5c.5c.6c.6c.=  =  A. A. 7c.7c.7c.jc.+  9  9  9  9  9  9  9  9  9  9  9  9  9  9  9  9  9  9  9  9  9  9  9  `. 0  9  9  9  9  0  ",
"C$ C$ C$ C$ C$ C$ C$ C$ C$ )$ |# |# |# |# |# |# |# .$ .$ .$ .$ .$ .$ .$ ,$ j- kc.G9.r. `# $@ Z@ z# lc.mc.K  a. r. nc.9c.2  W= q@ q@ q@ _. _. _. _. N  N  N  N  k  k  6  6  4  4  4  O  O  O  |  |  O  O  O  O  O  O  O  O  O  O  O  O  O  O  O  O  5  5  5  5  5  5  5  >  ;  5c.5c.5c.;  ;  g  g  6  6  4+ 4+ 0+ 0+ 0+ P% h# r  r  r  r  r  r  r  q  q  q  q  q  q  q  q  (  (  (  (  (  (  (  (  _  _  _  _  _  _  _  _  F  F  F  F  F  F  F  F  <  <  <  <  <  <  <  <  *@ *@ b@ *@ *@ ;@ -@ ~@ *@ *@ *@ *@ *@ *@ *@ q. D  C  C  C  C  C  C  C  ]  ]  ]  ]  ]  ]  ]  u  >  m  m  m  m  m  m  m  8  8  8  8  8  8  8  t     0  0  0  0  0  0  0   +  +  +  +  +  +  +  + 0  `. ++ ++ ++ ++ `. 0  0  0  0  0  0  0  0  0  t  t  t  t  t  t  t  t  t  t  t  t  t  t  t  t  +  +  +  +  +  +  +  +  .  .  .  .  .  .  .  .  =  =  =  =  =  =  =  =  =  =  =  =  =  =  =  I. [c.oc.pc.k. |c.3+ {0.g+ ~@ D8.N% qc.rc.sc.V  '. p+ tc.k% hc.5c.5c.6c.6c.=  =  A. A. 7c.7c.7c.jc.+  9  9  9  9  9  9  9  9  9  9  9  9  9  9  9  9  9  9  9  9  9  9  9  0  9   +  +  +  + 9  ",
"y# c$ c$ c$ c$ c$ c$ c$ )$ '$ '$ '$ '$ '$ '$ '$ '$ .$ .$ .$ .$ .$ .$ .$ s& G# kc.G# h. 7. Y  <. W  +. mc.Y@ p% g. nc.uc.3  q@ q@ q@ _. _. _. N  N  _. N  N  N  k  k  k  6  O  O  O  O  |  |  |  5  |  |  |  |  |  |  |  |  |  |  |  |  |  |  |  |  h  h  h  h  h  h  h  -  7  vc.vc.vc.7  7  F9.F9.g  g  4+ 4+ 3+ 0+ 0+ 9+ }  }  }  }  }  }  }  }  r  r  r  r  r  r  r  r  /  /  /  /  /  /  /  /  <  <  <  <  <  <  <  <  _  _  _  _  _  _  _  _  (  (  (  (  (  (  (  (  *@ *@ =@ =@ =@ =@ =@ *@ b@ b@ b@ b@ b@ b@ b@ d+ p  ]  ]  ]  ]  ]  ]  ]  ~  ~  ~  ~  ~  ~  ~  >  =  =  =  =  =  =  =  =  8  8  8  8  8  8  8  t  @  `. `. `. `. `. `. `. 9  9  9  9  9  9  9  9  0  0  `. ++ ++ `. 0  0  0  0  0  0  0  0  0  0     z. z. z. z. z. z. z. t  t  t  t  t  t  t  t  +  +  +  +  +  +  +  +  +  +  +  +  +  +  +  +  t  8  8  8  8  8  8  8  =  =  =  =  =  =  =  I. <c.oc.}c.x+ 2+ a+ h# >@ J# n@ wc.xc.yc.zc.Ac.S8.,< +@ k% hc.P# 5c.6c.6c.8  8  B. B. Zb.Zb.Zb.Bc.+  9  9  9  9  9  9  9  9  9  9  9  9  9  9  9  0  0  0  0  0  0  0  0  0  0  9   +  + 9  0  ",
"($ )$ )$ )$ )$ )$ )$ )$ )$ '$ '$ '$ '$ '$ '$ '$ '$ .$ .$ .$ .$ .$ .$ .$ s& G9.kc.W= s  <  h+ $@ 5. Cc.Dc.3# <  s  i  j  2  q@ q@ _. _. _. N  N  N  q@ _. _. _. N  N  N  k  N  k  k  k  6  6  6  6  k  k  k  k  k  k  k  |  |  s@ s@ s@ s@ s@ s@ s@ A. A. A. A. A. A. A. -  7  vc.vc.vc.7  7  7  7  g  g  g  6  f+ f+ 9+ 9+ }  }  }  }  }  }  }  }  r  r  r  r  r  r  r  r  /  /  /  /  /  /  /  /  <  <  <  <  <  <  <  <  _  _  _  _  _  _  _  _  (  (  (  (  (  (  (  (  =@ ;@ ;@ -@ ;@ =@ *@ b@ b@ b@ b@ b@ b@ b@ b@ d+ p  ]  ]  ]  ]  ]  ]  ]  ~  ~  ~  ~  ~  ~  ~  >  =  *  *  *  *  *  *  *  t  t  t  t  t  t  t  t  @  `. `. `. `. `. `. `. 9  9  9  9  9  9  9  9   + 9  0  0  0  0  9   + 0  0  0  0  0  0  0  0                          +  +  +  +  +  +  +  +  +  +  +  +  +  +  +  +  +  +  +  +  +  +  +  +  t  t  t  t  t  t  t  t  *  *  *  *  *  *  *  n. Ec.Ec.{c.=  f+ g+ (  H# Fc.Gc.Hc.Ic.Jc.Kc.Lc.Mc.Nc.N$ tc.k% P# P# 6c.6c.8  8  B. B. Zb.Zb.Zb.Bc.+  9  9  9  9  9  9  9  9  9  9  9  9  9  9  9  0  0  0  0  0  0  0  0  ++ `. 0  0  0  0  `. ",
"X) ($ ($ ($ ($ ($ ($ ($ ($ .$ .$ .$ .$ .$ .$ .$ .$ .$ .$ .$ .$ .$ .$ .$ s& j- i  q@ s  P  ^- 0@ 5# Oc.Pc.P0._  }  N  4  j  4  _. _. _. N  N  N  k  q@ q@ _. _. N  N  N  N  k  k  6  6  6  g  g  g  6  6  6  6  6  6  6  6  5  1  1  1  1  1  1  1  A. A. A. A. A. A. A. =  !  vc.vc.vc.7  7  7  7  F9.g  g  g  6  6  f+ 6  O. O. O. O. O. O. O. O. }  }  }  }  }  }  }  }  /  /  /  /  /  /  /  /  (  (  (  (  (  (  (  (  <  <  <  <  <  <  <  <  (  (  (  (  (  (  (  (  =@ ;@ ;@ ;@ ;@ =@ *@ b@ >@ >@ >@ >@ >@ >@ >@ D  ~  ~  ~  ~  ~  ~  ~  ~  ;  ;  ;  ;  ;  ;  ;  -  8  t  t  t  t  t  t  t  t  t  t  t  t  t  t  +     0  0  0  0  0  0  0  0  0  0  0  0  0  0  0   +  + 9  0  0  9   +  + 0  0  0  0  0  0  0  0  @  @  @  @  @  @  @  @  +  +  +  +  +  +  +  +  +  +  +  +  +  +  +  +                          z. z. z. z. z. z. z. z. *  *  *  *  *  *  *  n. Ec.pc.{c.-  r+ 4b.W# F@ L% Qc.Rc.Sc.Tc.Uc.Vc.Wc.Xc.N$ +@ k% P# P# {+ 6c.*. *. C. C. ~c.~c.~c.Yc.+  9  9  9  9  9  9  9  9  9  9  9  9  9  9  9  `. `. `. `. `. `. `. `. ++ ++ `. 0  0  `. ++ ",
"%@ 4. 4. 4. 4. 4. 4. 4. 4. u#  $  $  $  $  $  $  $ o# o# o# o# o# o# o# p# q@ j  q@ g. P  ^& >$ &@ >$ 6@ a. ^  O. N  j  9c.4  4  4  O  O  O  |  |  O  O  O  O  |  |  5  6  6  O. O. _^ _^ _^ :^ :^ _^ _^ _^ _^ _^ _^ _^ g  5  1  1  1  1  1  1  1  1  1  1  1  1  1  1  m  -  {+ {+ {+ -  -  ;  ;  7  7  ;  ;  v+ {  O. O. 6  6  6  6  6  6  6  6  k  k  k  k  k  k  k  k  q  q  q  q  q  q  q  q  q  q  q  q  q  q  q  q  s  s  s  s  s  s  s  s  s  s  s  s  s  s  s  s  q. q. q. d+ d+ d+ d+ d+ D  D  D  D  D  D  D  D  ~  >  >  >  >  >  >  >  -  -  -  -  -  -  -  -  8  t  t  t  t  t  t  t  t  t  t  t  t  t  t  +     0  0  0  0  0  0  0  0  0  0  0  0  0  0  0  9  9  0  `. `. 0  9  9  0  0  0  0  0  0  0  0  @  @  @  @  @  @  @  @  +  +  +  +  +  +  +  +  +  +  +  +  +  +  +  +                          z. z. z. z. z. z. z. z. *  *  *  *  *  *  *  n. G. G. {+ -  g+ /  M- Zc.`c. d..d.+d.@d.#d.$d.%d.&d.*d.+@ tc.P# P# {+ {+ *. *. C. C. ~c.~c.~c.Yc.+  9  9  9  9  9  9  9  9  9  9  9  9  9  9  9  `. `. `. `. `. `. `. `. `. `. 0  9  9  0  `. ",
"9@ 4. 4. 4. 4. 4. 4. 4. '.  $  $  $  $  $  $  $  $ t# t# t# t# t# t# t# M$ q@ j  W= W= g. <  B  A  =d.o5./  q  N  k  |  O  4  4  4  O  O  |  |  |  |  |  |  5  5  h  h  h  6  O. O. _^ _^ :^ :^ :^ _^ _^ _^ _^ _^ _^ _^ g  5  1  1  1  1  1  1  1  1  1  1  1  1  1  1  1  -  {+ {+ {+ -  -  ;  ;  7  7  7  ;  v+ {  {  {  6  6  6  6  6  6  6  6  k  k  k  k  k  k  k  k  q  q  q  q  q  q  q  q  q  q  q  q  q  q  q  q  s  s  s  s  s  s  s  s  s  s  s  s  s  s  s  s  d+ D  D  p  p  p  D  d+ D  D  D  D  D  D  D  C  >  >  >  >  >  >  >  >  -  -  -  -  -  -  -  =  t  t  t  t  t  t  t  t  t  t  t  t  t  t  t  +  9  9  9  9  9  9  9  9  0  0  0  0  0  0  0  0  0  `. `. ++ ++ `. `. 0  0  0  0  0  0  0  0  0  @  @  @  @  @  @  @  @  +  +  +  +  +  +  +  +  +  +  +  +  +  +  +  +                          z. z. z. z. z. z. z. z. *  *  *  *  *  *  *  n. G. G. {+ ~  g+ G  M- -d.;d.>d.,d.'d.)d.!d.~d.{d.]d.*d.N$ tc.*$ P# {+ {+ *. *. C. C. ~c.~c.~c.Yc.+  9  9  9  9  9  9  9  9  9  9  9  9  9  9  9  `. `. `. `. `. `. `. `. 0  9  9   +  + 9  9  ",
"-$ 9$ {& -$ e# T# U# $$ '.  $  $  $  $  $  $  $  $ o# o# o# o# o# o# o# p# k  O  N  _. q  <  <  _  a. <  <  q  _. N  O  |  |0.|0.|0.2  2  s@ s@ s@ 1  1  1  1  1  1  1  5  F9.F9.F9.g  g  6  6  6  ^d.G# g  !c.F9.6  g  ~+ s@ /d./d./d./d./d./d./d.7c.7c.7c.7c.7c.7c.7c.7c.=  =  =  =  -  -  {+ {+ *$ 5c.K+ (d._d.:d.<d.D  k  |  |  |  |  |  |  |  5  5  5  5  5  5  5  6  O. }  }  r  r  q  q  q  r  r  r  r  r  r  r  r  q  q  q  q  q  q  q  q  }  }  }  }  }  }  }  }  p  p  p  p  p  p  p  p  p  p  p  p  p  p  p  ]  -  =  =  =  =  =  =  =  =  =  =  =  =  =  =  =  t  +  +  +  +  +  +  +                          0  0  0  0  0  0  0  0  0  0  0  0  0  0  0  0  0  0  0  0  0  0  0  0  0  0  0  0  0  0  0  0  0  0  0  0  0  0  0  0  0  0  0  0  0  0  0  0                          +  +  +  +  +  +  +  +  +  +  +  +  +  +  +  +                       u. [d.[d.]+ ;  g+ B  }7.}d.|d.1d.2d.3d.4d.5d.6d.7d.8d.N$ +@ k% P# 5c.]+ ]+ 8  8  B. B. Zb.Zb.Zb.Bc..   +  + 9  9  0  0  0  0  0  0  0  0  0  0  0  0  0  0  0  0  0  0  0  0  0  0  0  0  0  0  ",
"-$ $$ -$ ~& d# f# 9$ ;$ m$ o# o# o# o# o# o# o# o# o# o# o# o# o# o# o# p# N  O  _. _. q  q  q  s  <  s  s  q  _. _. 4  4  |0.|0.2  2  2  s@ s@ s@ 1  1  1  1  1  1  1  1  %+ F9.F9.g  g  6  6  6  9d._. 0d.!c.g  k  6  %+ 1  Nb.Nb.Nb.Nb.Nb.Nb.Nb.7c.7c.7c.7c.7c.7c.7c.7c.=  =  =  =  -  -  {+ {+ ad.:$ bd.O# cd.E8.p+ K+ ]  |  |  |  |  |  |  |  5  5  5  5  5  5  5  5  0d._^ r  g. h. g. q  r  r  r  r  r  r  r  r  r  r  r  r  r  r  r  r  r  }  }  }  }  }  }  }  }  p  p  p  p  p  p  p  p  p  p  p  p  p  p  p  ]  -  =  =  =  =  =  =  =  8  8  8  8  8  8  8  t  +  +  +  +  +  +  +  +                          0  0  0  0  0  0  0  0  0  0  0  0  0  0  0  0  0  0  0  0  0  0  0  0  0  0  0  0  0  0  0  0  0  0  0  0  0  0  0  0  0  0  0  0  0  0  0  0                          +  +  +  +  +  +  +  +  +  +  +  +  +  +  +  +  +  +  +  +  +  +  +  l. dd.[d.]+ -  g+ /  #$ D9.ed.fd.gd.hd.id.jd.kd.ld.8d.N$ tc.k% 5c.5c.]+ ]+ 8  8  B. B. Zb.Zb.Zb.Bc..   +  + 9  9  0  0  0  0  0  0  0  0  0  0  0  0  0  0  0  0  0  0  0  0  0  0  0  0  0  0  ",
"S# Y# m$ S# X# Q# S# W# =$ t# M$ M$ M$ M$ M$ M$ M$ p# p# p# p# p# p# p# p# _. _. _. _. N  N  N  N  q  _. _. q@ q@ q@ q@ j  |0.2  2  2  s@ s@ s@ s@ 1  1  1  1  1  1  1  1  %+ %+ %+ h  h  5  5  5  |  %+ md.~+ 5  O  |  h  A. 7c.7c.7c.7c.7c.7c.7c.7c.7c.7c.7c.7c.7c.7c.7c.*  *  *  *  =  =  {+ {+ nd.k% 4@ (d.n+ od.j7.pd.]  |  |  |  |  |  |  |  5  5  5  5  5  5  5  5  0d.g  _. G# G9.j- _. k  N  N  N  N  N  N  N  N  6  6  6  6  6  6  6  6  N  N  N  N  N  N  N  N  C  C  C  C  C  C  C  C  ]  ]  ]  ]  ]  ]  ]  ]  -  =  =  =  =  =  =  =  8  8  8  8  8  8  8  t  +  9  9  9  9  9  9  9  0  0  0  0  0  0  0  0  0  0  0  0  0  0  0  0  0  0  0  0  0  0  0  0  0  0  0  0  0  0  0  0  0  0  0  0  0  0  0  0  5+ 5+ 5+ 5+ 5+ 5+ 5+ 5+ 5+ 5+ 5+ 5+ 5+ 5+ 5+ 0                          +  +  +  +  +  +  +  +  9  9  9  9  9  9  9  9  9  9  9  9  9  9  9  l. qd.qd.;+ -  r+ ^  I# C9.rd.sd.td.ud.vd.+d.wd.xd.yd.+@ tc.hc.5c.5c.]+ {+ 8  8  B. B. Zb.Zb.Zb.Bc..   +  + 9  9  0  0  0  0  0  0  0  0  0  0  0  0  0  0  0  0  0  0  0  0  0  0  0  0  0  0  ",
"Y# X# 8# =$ M# Y# )# R# Y# (  7$ 7$ 7$ 7$ 7$ 7$ 7$ M$ M$ M$ M$ M$ M$ M$ j$ s  q@ _. _. N  k  k  k  N  N  _. _. q@ q@ W= i  2  2  2  s@ s@ s@ 1  1  1  1  1  1  1  1  1  1  B. B. B. A. A. 1  1  1  B. zd.zd.C. 1  s@ A. C. Zb.Zb.Zb.Zb.Zb.Zb.Zb.Zb.7c.7c.7c.7c.7c.7c.7c.7c.t  t  t  t  8  8  ]+ ]+ k% Ad.J+ Bd.Cd.3@ Dd.g8.~  5  5  5  5  5  5  5  5  5  5  5  5  5  5  5  k  N  q@ j- j- q@ N  k  k  k  k  k  k  k  k  k  k  k  k  k  k  k  k  k  N  N  N  N  N  N  N  N  C  C  C  C  C  C  C  C  ~  ~  ~  ~  ~  ~  ~  >  =  =  =  =  =  =  =  =  =  =  =  =  =  =  =  *     0  0  0  0  0  0  0  0  0  0  0  0  0  0  0  0  0  0  0  0  0  0  0  0  0  0  0  0  0  0  0  0  0  0  0  0  0  0  0  0  0  0  0  0  0  0  0  5+ 5+ 5+ 5+ 5+ 5+ 5+ 5+ 5+ 5+ 5+ 5+ 5+ 5+ 5+ 5+                                                 9  9  9  9  9  9  9  9   +  +  +  +  +  +  + !. Ed.qd.;+ =  f+ g+ q+ J# Fd.Gd.Hd.Id.Jd.Sc.Kd.Ld.Md.+@ k% hc.5c.5c.{+ {+ *. *. C. C. ~c.~c.~c.Yc..   +  + 9  9  0  0  0  0  0  0  0  0  0  0  0  0  0  0  0  0  0  0  0  0  0  0  0  0  0  0  ",
"2= ~$ Nd.Od.~$ U6.2= U6.a# (  7$ 7$ 7$ 7$ 7$ 7$ 7$ M$ M$ M$ M$ M$ M$ M$ j$ q  _. _. N  |  |  5  5  |  |  O  O  _. q@ q@ j  2  Pd./d./d./d.Nb.Nb.Nb.Nb.Nb.Nb.Nb.Nb.Nb.Nb.Nb.Zb.Zb.Zb.7c.7c.Nb.Nb.Nb.Zb.~c.~c.Zb.7c.7c.~c.Qd.Bc.Bc.Bc.Bc.Bc.Bc.Bc.Bc.jc.jc.jc.jc.jc.jc.jc.jc.Bc.Bc.t  t  8  8  ]+ ]+ N$ Rd.Sd.Td.Ud.Vd.Y8.E9.~  1  1  1  1  1  1  1  1  1  1  1  1  1  1  5  G# j- q@ _. k  k  k  k  k  k  k  k  k  k  k  k  k  k  k  k  k  k  k  k  N  N  N  N  N  N  N  N  C  C  C  C  C  C  C  C  ~  ~  ~  ~  ~  ~  ~  >  =  *  *  *  *  *  *  *  #+ #+ #+ #+ #+ #+ #+ #+    0  0  0  0  0  0  0  0  0  0  0  0  0  0  0  0  0  0  0  0  0  0  0  0  0  0  0  0  0  0  0  0  0  0  0  0  0  0  0  0  0  0  0  0  0  0  0  5+ 5+ 5+ 5+ 5+ 5+ 5+ 5+ 5+ 5+ 5+ 5+ 5+ 5+ 5+ 5+                                                 9  9  9  9  9  9  9  9   +  +  +  +  +  +  + !. Wd.Wd.J. 8  2+ f+ O. &$ Xd.Yd.Zd.`d. e..e.+e.@e.#e.tc.hc.ic.5c.vc.{+ {+ *. *. C. C. ~c.~c.~c.Yc..   +  + 9  9  0  0  0  0  0  0  0  0  0  0  0  0  0  0  0  0  0  0  0  0  0  0  0  0  0  0  ",
"U6.$e.%e.&e.*e.=e.=e.2= =$ (  7$ 7$ 7$ 7$ 7$ 7$ 7$ 7$ 7$ 7$ 7$ 7$ 7$ 7$ 8$ r  N  N  N  |  |  |  |  |  |  |  |  k  N  N  O  s@ /d./d./d.Nb.Nb.Nb.7c.Nb.Nb.Nb.Nb.Nb.Nb.Nb.Nb.Bc.Bc.Bc.jc.jc.-e.-e.-e.jc.jc.jc.jc.Bc.Yc.;e.>e.Bc.Bc.Bc.Bc.Bc.Bc.Bc.Bc.jc.jc.jc.jc.jc.jc.jc.jc.Yc.Yc.z. z. *. *. ,e.,e.4@ 'e.)e.!e.~e.{e.]e.E9.;  A. A. A. A. A. A. A. 1  1  1  1  1  1  1  1  uc.j- _. 6  g  g  6  k  6  6  6  6  6  6  6  6  N  N  N  N  N  N  N  N  k  k  k  k  k  k  k  k  ]  ]  ]  ]  ]  ]  ]  ]  ;  ;  ;  ;  ;  ;  ;  -  =  *  *  *  *  *  *  *  #+ #+ #+ #+ #+ #+ #+ $  @  `. `. `. `. `. `. `. 0  0  0  0  0  0  0  0  0  0  0  0  0  0  0  0  0  0  0  0  0  0  0  0  0  0  0  0  0  0  0  0  0  0  0  0  0  0  0  0  5+ 5+ 5+ 5+ 5+ 5+ 5+ 5+ 5+ 5+ 5+ 5+ 5+ 5+ 5+ 5+                         @  @  @  @  @  @  @  @  9  9  9  9  9  9  9  9  9  9  9  9  9  9  9  ^e./e./e.J. t  |c.1+ @0.{  (e._e.:e.<e.[e.V+ }e.|e.3@ k% hc.ic.vc.vc.{+ {+ Q. Q. zd.zd.1e.1e.1e.;e..   +  + 9  9  0  0  0  0  0  0  0  0  0  0  0  0  0  0  0  0  0  0  0  0  0  0  0  0  0  0  ",
"U6.2e.3e.%e.i7.=e.B= H# X# <  M$ M$ M$ M$ M$ M$ M$ 7$ 7$ 7$ 7$ 7$ 7$ 7$ 8$ O. k  k  k  |  |  2  2  1  1  5  5  6  g  g  h  s@ /d./d.Nb.Nb.Nb.7c.7c.Nb.Nb.Nb.Nb.Nb.Nb.Nb.Nb.Bc.4e.4e.5e.5e.6e.6e.6e.5e.6e.6e.5e.4e.7e.4e.4e.jc.jc.jc.jc.jc.jc.jc.jc.jc.jc.jc.jc.jc.jc.jc.jc.Yc.Yc.      z. *. ,e.,e.m9.Rd.8e.9e.0e.ae.[e.be.;  A. A. A. A. A. A. A. 1  1  1  1  1  1  1  1  4  O  |  5  h  5  5  |  5  5  5  5  5  5  5  5  5  5  5  5  5  5  5  5  5  5  5  5  5  5  5  5  >  >  >  >  >  >  >  >  -  -  -  -  -  -  -  -  =  *  *  *  *  *  *  *  *  *  *  *  *  *  *  .  @  `. `. `. `. `. `. `. 0  0  0  0  0  0  0  0  0  0  0  0  0  0  0  0  0  0  0  0  0  0  0  0  0  0  0  0  0  0  0  0  0  0  0  0  0  0  0  0  5+ 5+ 5+ 5+ 5+ 5+ 5+ 5+ 5+ 5+ 5+ 5+ 5+ 5+ 5+ 5+                         @  @  @  @  @  @  @  @  9  9  9  9  9  9  9  9  9  9  9  9  9  9  9  ^e./e./e.ce.t  cc.dc.2+ ;  tc.de.ee.fe.ge.he.ie.je.$0.hc.ic.&+ vc.vc.{+ {+ Q. Q. zd.zd.1e.1e.1e.;e..   +  + 9  9  0  0  0  0  0  0  0  0  0  0  0  0  0  0  0  0  0  0  0  0  0  0  0  0  0  0  ",
"U6.S# ke.b# I# R# x< X# ;@ q@ q@ j$ z  s# J@ U{ +. x! U  le... m* q  :% _. g  6  6  k  |  O  O  |0.1  1  5  h  %+ %+ 0d.$+ /d.N@ /d.-e.Nb.jc.7c.jc.Nb.-e.Nb.-e.Nb.-e.Nb.-e.4e.4e.4e.5e.5e.6e.6e.6e.5e.5e.5e.5e.4e.4e.6e.me.jc.jc.jc.jc.jc.jc.jc.jc.jc.jc.jc.jc.jc.jc.jc.jc.Yc.Yc.         z. N. N. ne.k% oe.pe.j% qe.re./% -  A. A. A. A. A. A. A. 1  1  1  1  1  1  1  1  ~+ %+ h  |  O  |  |  5  5  5  5  5  5  5  5  5  h  h  h  h  h  h  h  h  h  h  h  h  h  h  h  h  -  -  -  -  -  -  -  -  -  -  -  -  -  -  -  =  *  .  *  .  *  .  *  .  z.    z.    z.    z.    `. `. `. `. `. `. `. `. 0  0  0  0  0  0  0  0  0  0  0  0  0  0  0  0  0  0  0  0  0  0  0  0  0  0  0  0  0  0  0  0  0  0  0  0  0  0     0  0  5+ 5+ 5+ 5+ 5+ 5+ 5+ 5+ 5+ 5+ 5+ 5+ 5+ 5+ 0  0                       @  @  @  @  @  @  @  @  9  9  9  9  9  9  9  9  0  0  0  0  0  0  0  se.Wd.Wd.ce.+  Bc.cc.A. =  P$ E. te.ue.ve.we.(d.*d.xe.xe.ye.ze.]+ ]+ x+ x+ y. y. y. y. 1e.@  1e.@   +  +  + 9  9  0  0  0  0  0  0  0  0  0  0  0  0  0  0  0  0  0  0  0  0  5+ 0  5+ 0  5+ 0  ",
"-@ (  b@ (  b@ (  b@ (  &. Ae.b  N  9$ g$ Be.Ce.De.Ee.Fe.Ge.a* 6@ ~  ;e.b  d  D  C  ]  ]  >  >  >  >  >  m  m  m  m  >  m  .   + .   + .   + .   + .   + .   + .   + .   + 9  9  9  9  9  9  9  9  9  9  9  9  9  9  9  9  9  9  9  9  9  9  9  9   +  +  +  +  +  +  +  +  +  +  +  +  + .  .  .  +  k. k. k. k. k. k. k. *. *. *. *. *. *. *. *. m  m  m  m  m  m  m  m  -  -  -  -  -  -  -  -  -  -  -  >  >  u  u  u  m  m  m  m  m  m  m  m  m  m  m  m  m  m  m  m  =  =  =  =  =  =  =  =  =  =  =  =  =  =  =  =  +  9  +  9  +  9  +  9  +  9  +  0     `. @  `. 0  0  0  0  0  0  0  0  0  0  0  0  0  0  0  0  a  a  a  a  a  a  a  a  a  a  a  a  a  a  a  a  He.He.He.He.He.He.a  a  t. t. t. t. t. t. u. t. 0  0  0  0  0  0  0  0  0  0  0  0  0  0  0  0  a  a  a  a  a  a  a  a  a  a  a  a  a  a  a  a  a  a  a  a  a  a  a  a  a  a  a  a  a  a  a  a  Ie.Ie.:. a  0  +  .  m. l. ce.ce.J. J. J. k. k. t. t. t. t. t. t. t. t. t. t. t. t.    a     a  x. 2. ). !. !. a  x. Je.a  a  a  a  a  a  a  a  a  a  a  a  He.He.He.He.He.Ke.He.Ke.He.Ke.He.",
"F  (  (  (  (  (  (  (  _. Le.Me.d  ;$ Oa.Ne.xq Oe.Pe.!a.Ne.Qe.$$ -  '+ Re.d  D  C  ]  ]  ~  >  >  >  >  m  m  m  m  m  e. .   +  +  +  +  +  +  +  +  +  +  +  +  +  +  + 9  9  9  9  9  9  9  9  9  9  9  9  9  9  9  9  9  9  9  9  9  9  9  9   +  +  +  +  +  +  +  +  +  +  +  +  +  +  +  + 9  9  9  9  9  9  9  +  t  8  8  8  8  8  8  8  =  =  =  =  =  =  =  =  -  -  -  -  -  -  -  -  !  !  -  -  -  >  >  >  =  =  =  =  =  =  =  =  m  m  m  m  m  m  m  m  =  =  =  =  =  =  =  =  =  =  =  =  =  =  =  *  +  9  9  9  9  9  9  9  9  9  9  0  0  `. `. `. 0  0  0  0  0  0  0  0  0  0  0  0  0  0  0  0  a  a  a  a  a  a  a  a  a  a  a  a  a  a  a  a  He.He.He.He.He.He.a  a  t. t. t. t. u. u. u. t.    0  0  0  0  0  0  0  0  0  0  0  0  0  0  0  a  a  a  a  a  a  a  a  a  a  a  a  a  a  a  a  a  a  a  a  a  a  a  a  a  a  a  a  a  a  a  a  2. 2. :. a  a  ). !. !. ). ). ). ). ). ). ). ). a  a  a  a  a  a  a  a  a  a  a  a  a  a  a  a  :. :. :. a  ). !. 3. 3. a  a  a  a  a  a  a  a  a  a  a  a  He.He.He.He.Ke.Ke.Ke.Ke.Ke.Ke.Ke.",
"<  (  (  (  (  (  (  (  _. c  )+ f  X# Se.Te.99 @1 Ue.W| Ve.We.H/ >  Me.Re.u  ]  ]  ]  ~  ~  >  >  >  >  m  m  m  m  e. e. .   +  +  +  +  +  +  +  +  +  +  +  +  +  +  + 9  9  9  9  9  9  9  9  9  9  9  9  9  9  9  9  9  9  9  9  9  9  9  9   +  +  +  +  +  +  +  +  +  +  +  +  +  +  +  + 9  9  9  9  9  9  9  +  t  8  8  8  8  8  8  8  *. *. *. *. *. *. *. *. -  -  -  -  -  -  -  -  !  !  !  -  -  -  >  >  -  -  -  -  -  -  -  -  >  >  >  >  >  >  >  >  m  m  m  m  m  m  m  m  =  =  =  =  =  =  =  *  +  9  9  9  9  9  9  9  9  9  0  0  0  0  `. `. 0  0  0  0  0  0  0  0  0  0  0  0  0  0  0  0  a  a  a  a  a  a  a  a  a  a  a  a  a  a  a  a  He.He.He.He.He.He.a  a  t. t. t. t. u. u. u. t.    0  0  0  0  0  0  0  0  0  0  0  0  0  0  0  a  a  a  a  a  a  a  a  a  a  a  a  a  a  a  a  a  a  a  a  a  a  a  a  a  a  a  a  a  a  a  a  2. 2. :. a  a  ). !. !. ). ). ). ). ). ). ). ). a  a  a  a  a  a  a  a  a  a  a  a  a  a  a  a  !. a  2. 2. a  Xe.Ye.Ze.a  a  a  a  a  a  a  a  a  a  a  a  He.He.He.He.He.He.He.He.Ke.Ke.Ke.",
"/  (  (  (  (  (  (  (  _. #+ $  =. S# sb.`e.Q- ^< u[ >k Qe. f.W# d  e. $  >  ~  ~  ~  ~  ~  >  >  -  -  =  =  =  =  *  .  .   +  +  +  +  +  +  +  +  +  +  +  +  +  +  + 9  9  9  9  9  9  9  9  0  0  0  0  0  0  0  0  0  0  0  0  0  0  0  0  9  9  9  9  9  9  9  9  9  9  9  9  9  9  9  9  0  0  0  0  0  0  0     *  =  =  =  =  =  =  =  8  8  8  8  8  8  8  8  !  !  !  !  !  !  !  !  -  -  -  -  >  >  u  u  !  !  !  !  !  !  !  !  -  -  -  -  -  -  -  -  m  m  m  m  m  m  m  m  8  8  8  8  8  8  8  t  +  9  9  9  9  9  9  9  0  0  0  0  0  0  0  0  0  0  0  0  0  0  0  0  0  0  0  0  0  0  0  0  a  a  a  a  a  a  a  a  a  a  a  a  a  a  a  a  He.He.He.He.He.He.a  a  t. t. t. t. u. u. u. t.    0  0  0  0  0  0  0  0  0  0  0  0  0  0  0  a  a  a  a  a  a  a  a  a  a  a  a  a  a  a  a  a  a  a  a  a  a  a  a  a  a  a  a  a  a  a  a  :. :. :. a  a  ). ). ). a  a  a  a  a  a  a  a  a  a  a  a  a  a  a  a  a  a  a  a  a  a  a  a  3. ). :. 2. a  Xe.Ye.Ze.a  a  a  a  a  a  a  a  a  a  a  a  He.He.He.He.He.He.He.He.Ke.Ke.Ke.",
"^  (  (  (  (  (  (  (  q  '  ,  C  *@ L_ &* Se..f.`e.Se.&* L_ *@ ]  =  m  >  ~  ~  ~  >  >  >  >  =  =  =  =  *  *  *  .  .   +  +  +  +  +  +  +  +  +  +  +  +  +  +  + 9  9  9  9  9  9  9  9  0  0  0  0  0  0  0  0  0  0  0  0  0  0  0  0  9  9  9  9  9  9  9  9  9  9  9  9  9  9  9  9  0  0  0  0  0  0  0     *  *  *  *  *  *  *  *  t  t  t  t  t  t  t  t  8  8  8  8  8  8  8  8  m  m  m  m  ,  ,  '  d  !  7  7  7  7  7  7  7  ;  ;  ;  ;  ;  ;  ;  -  m  e. e. e. e. e. e. e. t  t  t  t  t  t  t  t  +  9  9  9  9  9  9  9  0  0  0  0  0  0  0  0  0  0  0  0  0  0  0  0  0  0  0  0  0  0  0  0  a  a  a  a  a  a  a  a  a  a  a  a  a  a  a  a  He.He.He.He.He.He.a  a  t. t. t. t. u. u. u. t.    0  0  0  0  0  0  0  0  0  0  0  0  0  0  0  a  a  a  a  a  a  a  a  a  a  a  a  a  a  a  a  a  a  a  a  a  a  a  a  a  a  a  a  a  a  a  a  :. :. a  a  a  a  ). ). a  a  a  a  a  a  a  a  a  a  a  a  a  a  a  a  a  a  a  a  a  a  a  a  ). ). a  a  ). !. 3. Xe.a  a  a  a  a  a  a  a  He.He.He.He.He.He.He.He.He.He.He.He.He.He.He.",
"^  (  (  (  (  (  (  (  q  o. d  7  )= R# $$ g: ]9.9b.]9.$$ M# v+ 7  >  b. ;  ;  ;  ;  >  >  >  >  8  8  8  t  t  t  t  +   +  +  +  +  +  +  +  +  +  +  +  +  +  +  +  + 9  9  9  9  9  9  9  9  `. `. `. `. `. `. `. `. `. `. `. `. `. `. `. `. 0  0  0  0  0  0  0  0  0  0  0  0  0  0  0  0  `. `. `. `. `. `. `. `. t  t  t  t  t  t  t  t  *  *  *  *  *  *  *  *  *. *. *. *. *. *. *. *. =  =  m  m  m  ,  ,  ,  ;  ;  ;  ;  ;  ;  ;  ;  7  7  7  7  7  7  7  !  =  *  *  *  *  *  *  *  z. z. z. z. z. z. z.    +  9  9  9  9  9  9  9  `. `. 0  0  0  0  9  9  0  0  0  0  0  0  0  0  0  0  0  0  0  0  0  0  a  a  a  a  a  a  a  a  a  a  a  a  a  a  a  a  He.He.He.He.He.He.a  a  t. t. t. t. u. u. u. t.    0  0  0  0  0  0  0  0  0  0  0  0  0  0  0  a  a  a  a  a  a  a  a  a  a  a  a  a  a  a  a  a  a  a  a  a  a  a  a  a  a  a  a  a  a  a  a  a  a  a  a  a  a  a  a  :. :. :. :. :. :. :. :. a  a  a  a  a  a  a  a  a  a  a  a  a  a  a  a  ). ). ). ). ). a  :. 2. a  a  a  a  a  a  a  a  He.He.He.He.He.He.He.He.He.He.He.He.a  He.a  ",
"}  q  q  q  q  q  q  q  q  D  C  ]  ;  ~  D  q. q. d+ D  p  7  7  ~  ]  ]  7  !  !  -  -  >  m  m  8  8  t  t  t  +  +  +   +  +  +  +  +  +  +  +  +  +  +  +  +  +  +  + 9  9  9  9  9  9  9  9  `. `. `. `. `. `. `. `. `. `. `. `. `. `. `. `. 0  0  0  0  0  0  0  0  0  0  0  0  0  0  0  0  `. `. `. `. `. `. `. `. t  t  t  t  t  t  t  t  z. z. z. z. z. z. z. z. z. z. z. z. z. z. z. z. z. z. z. t  t  t  *  =  ;  v+ v+ v+ v+ v+ v+ v+ )= )= )= )= )= )= )= 7  8  t  t  t  t  t  t  t  z. z. z. z. z. z. z.    +  9  9  9  9  9  9  9  `. `. `. 0  0  9  9  9  0  0  0  0  0  0  0  0  0  0  0  0  0  0  0  0  a  a  a  a  a  a  a  a  a  a  a  a  a  a  a  a  He.He.He.He.He.He.a  a  t. t. t. t. u. u. u. t.    0  0  0  0  0  0  0  0  0  0  0  0  0  0  0  a  a  a  a  a  a  a  a  a  a  a  a  a  a  a  a  a  a  a  a  a  a  a  a  a  a  a  a  a  a  a  a  a  a  a  a  a  a  a  a  :. :. :. :. :. :. :. :. a  a  a  a  a  a  a  a  a  a  a  a  a  a  a  a  ). ). ). ). a  a  :. :. a  a  a  a  a  a  a  a  He.He.He.He.He.He.a  a  a  a  a  a  t. a  t. ",
"r  q  q  q  q  q  q  q  q  +f.{  o. v  u  m  m  m  ,  m  *. )  u  -. p  -a.7  !  !  -  -  >  m  m  8  t  t  t  +  +  +  +   +  +  +  +  +  +  +  +  +  +  +  +  +  +  +  + 9  9  9  9  9  9  9  9  `. `. `. `. `. `. `. `. `. `. `. `. `. `. `. `. 0  0  0  0  0  0  0  0  0  0  0  0  0  0  0  0  `. `. `. `. `. `. `. `.    z. z. z. z. z. z. z. y. y. y. y. y. y. y. y. z. z. z. z. z. z. z. z. W. W. W. y. y. y. z. *. ~  {  {  {  {  {  {  {  )= )= )= )= )= )= )= 7  *. z. z. z. z. z. z. z. z. z. z. z. z. z. z.    9  9  9  9  9  9  9  9  `. `. `. 0  0  9  9  9  0  0  0  0  0  0  0  0  0  0  0  0  0  0  0  0  a  a  a  a  a  a  a  a  a  a  a  a  a  a  a  a  He.He.He.He.He.He.a  a  t. t. t. t. u. u. u. t.    0  0  0  0  0  0  0  0  0  0  0  0  0  0  0  a  a  a  a  a  a  a  a  a  a  a  a  a  a  a  a  a  a  a  a  a  a  a  a  a  a  a  a  a  a  a  a  a  a  a  a  a  a  a  a  :. :. :. :. :. :. :. :. a  a  a  a  a  a  a  a  a  a  a  a  a  a  a  a  !. !. a  a  a  a  ). !. a  a  a  a  a  a  a  a  He.He.He.He.He.He.a  a  a  a  t. t. t. t. t. ",
"r  q  q  r  r  }  O. _^ _^ p  p  ]  u  ,  #+ $  $  .  .  *  =  -  ;  v+ ;  ;  -  -  -  =  =  =  =  e. e. e. b  b  b  b  b  9  9  9  9  9  9  9  9  9  9  9  9  9  9  9  9  0  0  0  0  0  0  0  0  0  0  0  0  0  0  0  0  0  0  0  0  0  0  0  0  0  0  0  0  0  0  0  0  0  0  0  0  0  0  0  0  0  0  0  0  0  0  0  0                                                                                               z. u  Z. -b.-a.~  C  ;  -b.7  7  7  7  7  7  7  !  t  +  +  +  +  +  +  +  +  +  +        @  @  @  0  0  0  0  0  0  0  0  0  0  0  0  0  0  0  0  0  0  0  0  0  0  0  0  0  0  0  0  0  0  0  0  a  a  a  a  a  a  a  a  a  a  a  a  a  a  a  a  He.He.He.He.He.He.a  a  @f.m. t. #f.$f.%f.&f.*f.   0  0  0  0  0  0  0  0  0  0  0  0  0  0  0  a  a  a  a  a  a  a  a  a  a  a  a  a  a  a  a  a  a  a  a  a  a  a  a  a  :. 2. 2. 2. 2. :. a  a  a  a  a  a  a  a  a  a  a  a  a  a  a  a  a  a  a  a  a  a  a  a  a  a  a  a  a  a  a  a  a  a  a  a  a  a  a  a  a  a  a  a  a  a  a  a  a  He.Ke.He.He.He.He.a  a  =f.-f.k. k. k. k. ;f.",
"r  s  s  q  q  r  }  O. O. p  ]  u  ,  #+ #+ $  .+  + .  *  *  =  -  ;  ;  -  -  -  -  =  =  =  *  *  *  .  .  .  .  .  .  9  9  9  9  9  9  9  9  9  9  9  9  9  9  9  9  0  0  0  0  0  0  0  0  0  0  0  0  0  0  0  0  0  0  0  0  0  0  0  0  0  0  0  0  0  0  0  0  0  0  0  0  0  0  0  0  0  0  0  0  0  0  0  0                                                                                               z. u  ;  ;  C  o. o. ]  -a.7  7  7  7  7  7  7  !  t  +  +  +  +  +  +  +  +  +  +        @  @  @  0  0  0  0  0  0  0  0  0  0  0  0  0  0  0  0  0  0  0  0  0  0  0  0  0  0  0  0  0  0  0  0  a  a  a  a  a  a  a  a  a  a  a  a  a  a  a  a  He.He.He.He.He.He.a  a  @f.m. l. v. c@ >f.,f.l.    0  0  0  0  0  0  0  0  0  0  0  0  0  0  0  a  a  a  a  a  a  a  a  a  a  a  a  a  a  a  a  a  a  a  a  a  a  a  a  :. :. a  a  a  a  :. :. a  a  a  a  a  a  a  a  a  a  a  a  a  a  a  a  a  a  a  a  a  a  a  a  a  a  a  a  a  a  a  a  a  a  a  a  a  a  a  a  a  a  a  a  a  a  a  He.He.Ke.He.He.He.He.a  a  'f.v. )f.$f.u. ;+ ;+ ",
"N  W= q@ q@ _. N  N  k  k  ]  u  u  ,  #+ #+ $  $  b  b  e. e. m  >  >  >  -  =  =  =  =  =  *  *  t  +  +  +  9  9  9  9  9  9  9  9  9  9  9  9   +  +  +  +  +  +  +  + 0  0  0  0  0  0  0  0  0  0  0  0  0  0  0  0  0  0  0  0  0  0  0  0  0  0  0  0  0  0  0  0  0  0  0  0  0  0  0  0  0  0  0  0  0  0  0  0  0  0  0  0  0  0  0  0  0  0  0  0  0  0  0  0  0  0  0  0  0  0  0  0  0  0  0  0  0  0  0     m  -  u  f  R$ n  >  [+ !  !  !  !  !  !  !  8  +  9  9  9  9  9  9  9  9  9  0  0  0  0  `. `. 0  0  0  0  0  0  0  0  0  0  0  0  0  0  0  0  0  0  0  0  0  0  0  0  0  0  0  0  0  0  0  0  a  a  a  a  a  a  a  a  a  a  a  a  a  a  a  a  He.He.He.He.He.He.a  a  t. -f.m. @f.c@ >f.!f.-f.   0  0  0  0  0  0  0  0  0  0  0  0  0  0  0  a  a  a  a  a  a  a  a  a  a  a  a  a  a  a  a  a  a  a  a  a  a  a  a  :. a  ). !. !. ). a  :. a  a  a  a  a  a  a  a  a  a  a  a  a  a  a  a  a  a  a  a  a  a  a  a  a  a  a  a  a  a  a  a  a  a  a  a  a  a  a  a  a  a  a  a  a  a  a  He.He.Ke.He.He.He.He.a  t. u. ;f.~f.N. x+ 6c.6c.",
"k  _. _. _. N  N  k  k  k  >  m  m  m  e. e. e. e. e. e. e. e. m  m  m  m  8  8  8  8  8  t  t  t              0  0  0  0  9  9  9  9  9  9  9  9   +  +  +  +  +  +  +  + 0  0  0  0  0  0  0  0  0  0  0  0  0  0  0  0  0  0  0  0  0  0  0  0  0  0  0  0  0  0  0  0  0  0  0  0  0  0  0  0  0  0  0  0  0  0  0  0  0  0  0  0  0  0  0  0  0  0  0  0  0  0  0  0  0  0  0  0  0  0  0  0  0  0  0  0  0  0  0     z. *. *. =  '  ,  *. P. *. *. *. *. *. *. *. z.    0  0  0  0  0  0  0  0  0  0  0  0  0  0  0  0  0  0  0  0  0  0  0  0  0  0  0  0  0  0  0  0  0  0  0  0  0  0  0  0  0  0  0  0  0  0  0  a  a  a  a  a  a  a  a  a  a  a  a  a  a  a  a  He.He.He.He.He.He.a  a  l. -f.l. 'f.u. {f.c@ v.    0  0  0  0  0  0  0  0  0  0  0  0  0  0  0  a  a  a  a  a  a  a  a  a  a  a  a  a  a  a  a  a  a  a  a  a  a  a  a  :. a  !. Xe.Xe.!. a  :. a  a  a  a  a  a  a  a  a  a  a  a  a  a  a  a  a  a  a  a  a  a  a  a  a  a  a  a  a  a  a  a  a  a  a  a  a  a  a  a  a  a  a  a  a  a  a  He.He.Ke.He.He.He.He.t. t. c@ k. N. N. ]+ ]+ ,e.",
"k  k  k  k  6  6  6  g  h  m  e. e. e. m  m  m  m  m  m  m  m  e. e. e. e. 8  8  8  8  t  t  t  +        0  0  0  0  0  0  9  9  9  9  9  9  9  9   +  +  +  +  +  +  +  + 0  0  0  0  0  0  0  0  0  0  0  0  0  0  0  0  0  0  0  0  0  0  0  0  0  0  0  0  0  0  0  0  0  0  0  0  0  0  0  0  0  0  0  0  0  0  0  0  0  0  0  0  0  0  0  0  0  0  0  0  0  0  0  0  5+ 5+ 5+ 5+ 5+ 5+ 5+ 5+ 5+ 5+ 5+ 5+ 5+ 5+ 5+ 0     y. ]f.]f.W. y. y. y. z. z. z. z. z. z. z.    0  0  0  0  0  0  0  0  0  0  0  0  0  0  0  0  0  0  0  0  0  0  0  0  0  0  0  0  0  0  0  0  0  0  0  0  0  0  0  0  0  0  0  0  0  0  0  0  a  a  a  a  a  a  a  a  a  a  a  a  a  a  a  a  He.He.He.He.He.He.a  a  t. l. t. 'f.$f.u. ;f.^f.   0  0  0  0  0  0  0  0  0  0  0  0  0  0  0  a  a  a  a  a  a  a  a  a  a  a  a  a  a  a  a  a  a  a  a  a  a  a  a  :. a  !. Xe.Xe.!. a  :. a  a  a  a  a  a  a  a  a  a  a  a  a  a  a  a  a  a  a  a  a  a  a  a  a  a  a  a  a  a  a  a  a  a  a  a  a  a  a  a  a  a  a  a  a  a  a  He.He.Ke.Ke.Ke.He.He.t. t. k. ;f.~f./f.(f.(f.L+ ",
"6  g  g  g  g  g  g  g  h  *  .  .  *  =  -  -  ;  ;  -  -  =  *  .  .  .  z. *. *. *. z. z.             0  0  0  0  0  0  9  9  9  9  9  9  9  9  9  9  9  9  9  9  9  9  0  0  0  0  0  0  0  0  0  0  0  0  0  0  0  0  0  0  0  0  0  0  0  0  0  0  0  0  0  0  0  0  0  0  0  0  0  0  0  0  0  0  0  0  0  0  0  0  0  0  0  0  0  0  0  0  0  0  0  0  0  0  0  0  5+ 5+ 5+ 5+ 5+ 5+ 5+ 5+ 5+ 5+ 5+ 5+ 5+ 5+ 5+ 5+  + +  @  l  l  @  +  .  @  @  @  @  @  @  @  @  `. `. `. `. `. `. `. `. `. `. 0  0  0  0  9  9  0  0  0  0  0  0  0  0  0  0  0  0  0  0  0  0  0  0  0  0  0  0  0  0  0  0  0  0  0  0  0  0  a  a  a  a  a  a  a  a  a  a  a  a  a  a  a  a  He.He.He.He.He.He.a  a  'f.@f.@f.t. k. n. n. m.    0  0  0  0  0  0  0  0  0  0  0  0  0  0  0  a  a  a  a  a  a  a  a  a  a  a  a  a  a  a  a  a  a  a  a  a  a  a  a  :. a  ). !. !. ). a  :. a  a  a  a  a  a  a  a  a  a  a  a  a  a  a  a  a  a  a  a  a  a  a  a  a  a  a  a  a  a  a  a  a  a  a  a  a  a  a  a  a  a  a  a  a  a  a  He.He.Ke.Ke.Ke.He.He.t. t. k. N. ,e.{+ {$ _f._f.",
"5  5  5  5  5  5  5  5  1  .   + .  *  -  ;  v+ v+ )= )= 7  !  t  +  9  9  z. *. z. z. z. z.       +  +  9  9  9  9  j+ j+ 9  9  9  9  9  9  9  9  0  0  0  0  0  0  0  0  0  0  0  0  0  0  0  0  0  0  0  0  0  0  0  0  0  0  0  0  0  0  0  0  0  0  0  0  0  0  0  0  0  0  0  0  0  0  0  0  0  0  0  0  0  0  0  0  0  0  0  0  0  0  0  0  0  0  0  0  0  0  0  0  5+ La.La.La.La.La.La.La.La.La.La.La.La.La.La.5+ 9  9  0  `. `. `. 0   + `. `. `. `. `. `. `. `. `. `. `. `. `. `. `. `. `. `. `. 0  0  9  9  9  0  0  0  0  0  0  0  0  0  0  0  0  0  0  0  0  0  0  0  0  0  0  0  0  0  0  0  0  0  0  0  0  a  a  a  a  a  a  a  a  a  a  a  a  a  a  a  a  He.He.He.He.He.He.a  a  @f.@f.t. l. k. k. n. t@    0  0  0  0  0  0  0  0  0  0  0  0  0  0  0  a  a  a  a  a  a  a  a  a  a  a  a  a  a  a  a  a  a  a  a  a  a  a  a  :. :. a  a  a  a  :. :. a  a  a  a  a  a  a  a  a  a  a  a  a  a  a  a  a  a  a  a  a  a  a  a  a  a  a  a  a  a  a  a  a  a  a  a  a  a  a  a  a  a  a  a  a  a  a  He.He.Ke.Ke.Ke.He.He.t. t. n. x+ {+ y+ _f.:f.<f.",
"5  |  |  |  |  |  |  |  s@ .   + .  *  -  ;  ;  v+ ,+ Z. )  *. z. 0  0  0  z. z. z.    z.          +  +  9  9  9  9  j+ j+ 9  9  9  9  9  9  9  9  `. `. `. `. `. `. `. `. 0  0  0  0  0  0  0  0  0  0  0  0  0  0  0  0  0  0  0  0  0  0  0  0  0  0  0  0  0  0  0  0  0  0  0  0  0  0  0  0  0  0  0  0  0  0  0  0  0  0  0  0  0  0  0  0  0  0  0  0  0  0  0  0  5+ La.5+ La.5+ La.5+ La.5+ La.5+ La.5+ La.5+ 5+ /+ ++ 0  9  0  ++ ++ ++ `. `. `. `. `. `. `. `. `. `. `. `. `. `. `. `. `. `. `. 0  0  9  9  9  0  0  0  0  0  0  0  0  0  0  0  0  0  0  0  0  0  0  0  0  0  0  0  0  0  0  0  0  0  0  0  0  a  a  a  a  a  a  a  a  a  a  a  a  a  a  a  a  He.He.He.He.He.He.a  a  m. l. l. m. t. v. )f.@f.0  0  0  0  0  0  0  0  0  0  0  0  0  0  0  0  a  a  a  a  a  a  a  a  a  a  a  a  a  a  a  a  a  a  a  a  a  a  a  a  a  :. 2. 2. 2. 2. :. a  a  a  a  a  a  a  a  a  a  He.a  He.He.He.He.He.a  a  a  a  a  a  a  a  a  a  a  a  a  a  a  a  a  a  a  a  a  a  a  a  a  a  a  a  a  a  a  a  He.Ke.He.He.He.a  a  t. ;f.$f.[f.~f.,e.,e.}f.",
"~  ;  ;  -  -  -  -  -  =  8  t  t  8  8  8  8  8  *. *. z. z.    0  0  0  +  +  +  9  +  9  9  9  0  0  0  0  0  0  0  0  0  0  0  0  0  0  0  0  0  0  0  0  0  0  0  0  a  a  a  a  a  a  a  a  a  a  a  a  a  a  a  a  a  a  a  a  a  a  a  a  a  a  a  a  a  a  a  a  :. a  a  ). ). a  a  :. a  a  a  a  a  a  a  a  a  a  a  a  a  a  a  a  a  a  a  a  a  a  a  a  0  5+ 0  5+ 0  5+ 0  5+ 0  5+ 0  5+ 0  5+ 0  0  a  a  a  a  a  a  a  a  a  a  a  a  a  a  a  a  a  a  a  a  a  a  a  a  a  a  a  a  a  a  a  a  a  a  a  a  a  a  a  a  a  a  a  a  a  a  a  a  0  0  0  0  0  0  0  0  0  0  0  0  0  0  0  0  a  a  a  a  a  a  a  a  a  a  a  a  a  a  a  a  a  a  a  a  a  a  a  a  a  a  a  a  a  a  t. a  a  a  a  a  a  a  a  a  a  a  a  a  a  a  a  a  a  a  a  a  a  a  a  a  a  a  a  a  a  a  a  a  a  a  a  a  a  a  a  a  a  a  a  a  a  a  a  a  a  a  He.He.He.He.He.He.|f.1f.2f.3f.3f.3f.4f.5f.He.a  a  a  a  a  a  a  a  a  a  a  a  a  a  a  a  a  a  a  a  a  a  a  a  a  a  a  a  a  a  a  0  5+ 0  0  0  0  0  0                       ",
"~  ;  ;  -  -  -  -  -  -  8  8  8  8  8  8  t  t  z. z.       0  0  0  0  9  9  9  9  9  9  9  9  0  0  0  0  0  0  0  0  0  0  0  0  0  0  0  0  0  0  0  0  0  0  0  0  a  a  a  a  a  a  a  a  a  a  a  a  a  a  a  a  a  a  a  a  a  a  a  a  a  a  a  a  a  a  a  a  :. a  a  ). ). a  a  :. a  a  a  a  a  a  a  a  a  a  a  a  a  a  a  a  a  a  a  a  a  a  a  a  0  0  0  0  0  0  0  0  0  0  0  0  0  0  0  0  a  a  a  a  a  a  a  a  a  a  a  a  a  a  a  a  a  a  a  a  a  a  a  a  a  a  a  a  a  a  a  a  a  a  a  a  a  a  a  a  a  a  a  a  a  a  a  a  0  0  0  0  0  0  0  0  0  0  0  0  0  0  0  0  a  a  a  a  a  a  a  a  a  a  a  a  a  a  a  a  a  a  a  a  a  a  a  a  a  a  a  a  a  a  a  a  a  a  a  a  a  a  a  a  a  a  a  a  a  a  a  a  a  a  a  a  a  a  a  a  a  a  a  a  a  a  a  a  a  a  a  a  a  a  a  a  a  a  a  a  a  a  a  a  a  a  He.He.He.He.He.He.6f.3f.He.7f.7f.1f.3f.8f.He.a  a  a  a  a  a  a  a  a  a  a  a  a  a  a  a  a  a  a  a  a  a  a  a  a  a  a  a  a  a  a  0  0  0  0  0  0  0  0  0  0  0  0  0  0  0  ",
"~  ;  ;  -  -  -  -  =  =  8  8  8  8  t  t  t  t              0  0  0  0  9  9  9  9  9  9  9  9  0  0  0  0  0  0  0  0  0  0  0  0  0  0  0  0  0  0  0  0  0  0  0  0  a  a  a  a  a  a  a  a  a  a  a  a  a  a  a  a  a  a  a  a  a  a  a  a  a  a  a  a  a  a  a  a  :. a  a  ). ). a  a  :. a  a  a  a  a  a  a  a  a  a  a  a  a  a  a  a  a  a  a  a  a  a  a  a  0  0  0  0  0  0  0  0  0  0  0  0  0  0  0  0  a  a  a  a  a  a  a  a  a  a  a  a  a  a  a  a  a  a  a  a  a  a  a  a  a  a  a  a  a  a  a  a  a  a  a  a  a  a  a  a  a  a  a  a  a  a  a  a  0  0  0  0  0  0  0  0  0  0  0  0  0  0  0  0  a  a  a  a  a  a  a  a  a  a  a  a  a  a  a  a  a  a  a  a  a  a  a  a  a  a  a  a  a  a  a  a  a  a  a  a  a  a  a  a  a  a  a  a  a  a  a  a  a  a  a  a  a  a  a  a  a  a  a  a  a  a  a  a  a  a  a  a  a  a  a  a  a  a  a  a  a  a  a  a  He.He.He.He.He.He.He.He.9f.2f.:. 0f.0f.He.2f.9f.a  a  a  a  a  a  a  a  a  a  a  a  a  a  a  a  a  a  a  a  a  a  a  a  a  a  a  a  a  a  a  a  0  0  0  0  0  0  0  0  0  0  0  0  0  0  0  ",
";  ;  ;  -  -  -  -  =  =  8  8  8  8  t  t  t  t              0  0  0  0  0  0  0  0  0  0  0  0  0  0  0  0  0  0  0  0  0  0  0  0  0  0  0  0  0  0  0  0  0  0  0  0  a  a  a  a  a  a  a  a  a  a  a  a  a  a  a  a  a  a  a  a  a  a  a  a  a  a  a  a  a  a  a  a  :. a  a  ). ). a  a  :. a  a  a  a  a  a  a  a  a  a  a  a  a  a  a  a  a  a  a  a  a  a  a  a  0  0  0  0  0  0  0  0  0  0  0  0  0  0  0  0  a  a  a  a  a  a  a  a  a  a  a  a  a  a  a  a  a  a  a  a  a  a  a  a  a  a  a  a  a  a  a  a  a  a  a  a  a  a  a  a  a  a  a  a  a  a  a  a  0  0  0  0  0  0  0  0  0  0  0  0  0  0  0  0  a  a  a  a  a  a  a  a  a  a  a  a  a  a  a  a  a  a  a  a  a  a  a  a  a  a  a  a  a  a  a  a  a  a  a  a  a  a  a  a  a  a  a  a  a  a  a  a  a  a  a  a  a  a  a  a  a  a  a  a  a  a  a  a  a  a  a  a  a  a  a  a  a  a  a  a  a  a  a  a  He.He.He.He.He.He.He.a  2. 'f.t. -f.-f.t. @f.t. a  a  a  a  a  a  a  a  a  a  a  a  a  a  a  a  a  a  a  a  a  a  a  a  a  a  a  a  a  a  a  a  0  0  0  0  0  0  0  0  0  0  0  0  0  0  0  ",
";  -  -  -  -  =  =  =  =  8  8  t  t  t  t  +  +        0  0  0  0  0  0  0  0  0  0  0  0  0  0  0  0  0  0  0  0  0  0  0  0  0  0  0  0  0  0  0  0  0  0  0  0  0  0  a  a  a  a  a  a  a  a  a  a  a  a  a  a  a  a  a  a  a  a  a  a  a  a  a  a  a  a  a  a  a  a  :. a  a  ). ). a  a  :. a  a  a  a  a  a  a  a  a  a  a  a  a  a  a  a  a  a  a  a  a  a  a  a  0  0  0  0  0  0  0  0  0  0  0  0  0  0  0  0  a  a  a  a  a  a  a  a  a  a  a  a  a  a  a  a  a  a  a  a  a  a  a  a  a  a  a  a  a  a  a  a  a  a  a  a  a  a  a  a  a  a  a  a  a  a  a  a  0  0  0  0  0  0  0  0  0  0  0  0  0  0  0  0  a  a  a  a  a  a  a  a  a  a  a  a  a  a  a  a  a  a  a  a  a  a  a  a  a  a  a  a  a  a  a  a  a  a  a  a  a  a  a  a  a  a  a  a  a  a  a  a  a  a  a  a  a  a  a  a  a  a  a  a  a  a  a  a  a  a  a  a  a  a  a  a  a  a  a  a  a  a  a  a  He.Ke.He.He.He.He.a  t. t. af.)f.n. n. ;f.bf.n. t. a  a  a  a  a  a  a  a  a  a  a  a  a  a  a  a  a  a  a  a  a  a  a  a  a  a  a  a  a  a  a  0  0  0  0  0  0  0  0  0  0  0  0  0  0  0  ",
"7  -  -  -  -  =  =  =  =  8  8  t  t  t  t  +  +        0  0  0  0  0  0  `. `. `. `. `. `. `. `. 0  0  0  0  0  0  0  0  0  0  0  0  0  0  0  0  0  0  0  0  0  0  0  0  a  a  a  a  a  a  a  a  a  a  a  a  a  a  a  a  a  a  a  a  a  a  a  a  a  a  a  a  a  a  a  a  :. a  a  ). ). a  a  :. a  a  a  a  a  a  a  a  a  a  a  a  a  a  a  a  a  a  a  a  a  a  a  a  0  0  0  0  0  0  0  0  0  0  0  0  0  0  0  0  a  a  a  a  a  a  a  a  a  a  a  a  a  a  a  a  a  a  a  a  a  a  a  a  a  a  a  a  a  a  a  a  a  a  a  a  a  a  a  a  a  a  a  a  a  a  a  a  0  0  0  0  0  0  0  0  0  0  0  0  0  0  0  0  a  a  a  a  a  a  a  a  a  a  a  a  a  a  a  a  a  a  a  a  a  a  a  a  a  a  a  a  a  a  a  a  a  a  a  a  a  a  a  a  a  a  a  a  a  a  a  a  a  a  a  a  a  a  a  a  a  a  a  a  a  a  a  a  a  a  a  a  a  a  a  a  a  a  a  a  a  a  a  He.He.Ke.He.He.He.a  t. t. &f.~f.cf.}f.,e.df.vc.ef.t. a  a  a  a  a  a  a  a  a  a  a  a  a  a  a  a  a  a  a  a  a  a  a  a  a  a  a  a  a  a  a  0  0  0  0  0  0  0  0  0  0  0  0  0  0  0  ",
"!  -  -  =  =  =  =  *  *  t  t  t  t  +  +  +  +  0  0  0  0  5+ 5+ 5+ 5+ `. `. `. `. `. `. `. `. 0  0  0  0  0  0  0  0  0  0  0  0  0  0  0  0  0  0  0  0  0  0  0  0  a  a  a  a  a  a  a  a  a  a  a  a  a  a  a  a  a  a  a  a  a  a  a  a  a  a  a  a  a  a  a  a  :. a  a  ). ). a  a  :. a  a  a  a  a  a  a  a  a  a  a  a  a  a  a  a  a  a  a  a  a  a  a  a  0  0  0  0  0  0  0  0  0  0  0  0  0  0  0  0  a  a  a  a  a  a  a  a  a  a  a  a  a  a  a  a  a  a  a  a  a  a  a  a  a  a  a  a  a  a  a  a  a  a  a  a  a  a  a  a  a  a  a  a  a  a  a  a  0  0  0  0  0  0  0  0  0  0  0  0  0  0  0  0  a  a  a  a  a  a  a  a  a  a  a  a  a  a  a  a  a  a  a  a  a  a  a  a  a  a  a  a  a  a  a  a  a  a  a  a  a  a  a  a  a  a  a  a  a  a  a  a  a  a  a  a  a  a  a  a  a  a  a  a  a  a  a  a  a  a  a  a  a  a  a  a  a  a  a  a  a  a  a  He.He.Ke.Ke.He.He.a  t. t. n. [f.}f.ff.:f.5c.gf._f.u. a  a  a  a  a  a  a  a  a  a  a  a  a  a  a  a  a  a  a  a  a  a  a  a  a  a  a  a  a  a  a  0  0  0  0  0  0  0  0  0  0  0  0  0  0  0  ",
"!  -  =  =  =  =  =  *  *  t  t  t  t  +  +  +  +  0  0  0  0  5+ 5+ 5+ 5+ `. `. `. `. `. `. `. `. 0  0  0  0  0  0  0  0  0  0  0  0  0  0  0  0  0  0  0  0  0  0  0  0  a  a  a  a  a  a  a  a  a  a  a  a  a  a  a  a  a  a  a  a  a  a  a  a  a  a  a  a  a  a  a  a  :. a  a  ). ). a  a  :. a  a  a  a  a  a  a  a  a  a  a  a  a  a  a  a  a  a  a  a  a  a  a  a  0  0  0  0  0  0  0  0  0  0  0  0  0  0  0  0  a  a  a  a  a  a  a  a  a  a  a  a  a  a  a  a  a  a  a  a  a  a  a  a  a  a  a  a  a  a  a  a  a  a  a  a  a  a  a  a  a  a  a  a  a  a  a  a  0  0  0  0  0  0  0  0  0  0  0  0  0  0  0  0  a  a  a  a  a  a  a  a  a  a  a  a  a  a  a  a  a  a  a  a  a  a  a  a  a  a  a  a  a  a  a  a  a  a  a  a  a  a  a  a  a  a  a  a  a  a  a  a  a  a  a  a  a  a  a  a  a  a  a  a  a  a  a  a  a  a  a  a  a  a  a  a  a  a  a  a  a  a  a  He.He.Ke.Ke.Ke.a  a  t. t. hf.if.:$ jf.kf.lf.mf.nf.u. a  a  a  a  a  a  a  a  a  a  a  a  a  a  a  a  a  a  a  a  a  a  a  a  a  a  a  a  a  a  a  0  0  0  0  0  0  0  0  0  0  0  0  0  0  0  ",
">  8  8  8  t  t  t  t  t  z. z.             0  0  0  0  5+ 5+ 5+ 5+ La.5+ 0  0  0  0  0  0  0  0  0  0  0  0  0  0  0  0  0  0  0  0  0  0  0  0  0  0  0  0  0  0  0  0  a  a  a  a  a  a  a  a  a  a  a  a  a  a  a  a  a  a  a  a  a  a  a  a  a  a  a  a  a  a  a  a  :. a  a  ). ). a  a  :. a  a  a  a  a  a  a  a  a  :. :. :. :. a  ). !. a  a  a  a  a  a  a  a  0  9  9  9  9  0  `. ++ 0  0  0  0  0  0  0  0  of.2. :. a  a  a  a  a  a  a  a  a  a  a  a  a  a  a  a  a  a  a  a  a  a  a  a  a  a  a  a  a  a  a  a  a  a  a  a  a  a  a  a  a  a  a  a  a  0  0  0  0  0  0  0  0  0  0  0  0  0  0  0  0  a  a  a  a  a  a  a  a  a  a  a  a  a  a  a  a  a  a  a  a  a  a  a  a  a  a  a  a  a  a  a  a  a  a  a  a  a  a  a  a  a  a  a  a  a  a  a  a  a  a  a  a  a  a  a  a  a  a  a  a  a  a  a  a  a  a  a  a  a  a  a  a  a  a  a  a  a  a  a  He.He.Ke.Ke.Ke.a  a  t. t. N. N. (f.(f.pf.pf.qf.(f.u. a  a  a  a  a  a  a  a  a  a  a  a  a  a  a  a  a  a  a  a  a  a  a  a  a  a  a  a  a  a  a  0  0  0  0  0  0  0  0  0  0  0  0  0  0  0  ",
",  8  8  t  t  t  t  t  t  z. z.             0  0  0  5+ 5+ 5+ 5+ 5+ La.La.0  0  0  0  0  0  0  0  0  0  0  0  0  0  0  0  0  0  0  0  0  0  0  0  0  0  0  0  0  0  0  0  a  a  a  a  a  a  a  a  a  a  a  a  a  a  a  a  a  a  a  a  a  a  a  a  a  a  a  a  a  a  a  a  :. a  a  ). ). a  a  :. a  a  a  a  a  a  a  a  a  :. :. :. :. a  ). !. a  a  a  a  a  a  a  a  U. /+ `. 9  '+ .+ Me.Me.0  0  0  0  0  0  0  0  :. :. 2. :. ). !. ). a  a  a  a  a  a  a  a  a  a  a  a  a  a  a  a  a  a  a  a  a  a  a  a  a  a  a  a  a  a  a  a  a  a  a  a  a  a  a  a  a  0  0  0  0  0  0  0  0  0  0  0  0  0  0  0  0  a  a  a  a  a  a  a  a  a  a  a  a  a  a  a  a  a  a  a  a  a  a  a  a  a  a  a  a  a  a  a  a  a  a  a  a  a  a  a  a  a  a  a  a  a  a  a  a  a  a  a  a  a  a  a  a  a  a  a  a  a  a  a  a  a  a  a  a  a  a  a  a  a  a  a  a  a  a  a  He.He.Ke.Ke.He.He.a  t. t. u. N. ,e.(f.(f.(f.pf.(f.u. a  a  a  a  a  a  a  a  a  a  a  a  a  a  a  a  a  a  a  a  a  a  a  a  a  a  a  a  a  a  a  0  0  0  0  0  0  0  0  0  0  0  0  0  0  0  ",
"m  8  t  t  t  +  +  +  +              0  0  0  0  5+ 5+ 5+ La.La.La.La.La.0  0  0  0  0  0  0  0  0  0  0  0  0  0  0  0  0  0  0  0  0  0  0  0  0  0  0  0  0  0  0  0  a  a  a  a  a  a  a  a  a  a  a  a  a  a  a  a  a  a  a  a  a  a  a  a  a  a  a  a  a  a  a  a  :. a  a  ). ). a  a  :. a  a  a  a  a  a  a  a  a  :. :. :. :. a  ). !. a  a  a  a  a  a  a  a  @+ /+ `.  + .+ )+ (+ (+ 0  0  0  0  0  0  0  0  !. :. x. 2. ). 3. !. a  a  a  a  a  a  a  a  a  a  a  a  a  a  a  a  a  a  a  a  a  a  a  a  a  a  a  a  a  a  a  a  a  a  a  a  a  a  a  a  a  0  0  0  0  0  0  0  0  0  0  0  0  0  0  0  0  a  a  a  a  a  a  a  a  a  a  a  a  a  a  a  a  a  a  a  a  a  a  a  a  a  a  a  a  a  a  a  a  a  a  a  a  a  a  a  a  a  a  a  a  a  a  a  a  a  a  a  a  a  a  a  a  a  a  a  a  a  a  a  a  a  a  a  a  a  a  a  a  a  a  a  a  a  a  a  He.He.Ke.He.He.He.a  t. t. u. N. N. ,e.,e.,e.(f.,e.t. a  a  a  a  a  a  a  a  a  a  a  a  a  a  a  a  a  a  a  a  a  a  a  a  a  a  a  a  a  a  a  0  0  0  0  0  0  0  0  0  0  0  0  0  0  0  ",
"=  z. z. z. z.                         0  0  0  0  5+ 5+ La.La.La.La.La.La.5+ 0  0  0  0  0  0  0  0  0  0  0  0  0  0  0  0  0  0  0  0  0  0  0  0  0  0  0  0  0  0  0  a  a  a  a  a  a  a  a  a  a  a  a  a  a  a  a  a  a  a  a  a  a  a  a  a  a  a  a  a  a  a  a  :. a  a  ). ). a  a  :. a  a  a  a  a  a  a  a  a  :. :. :. :. a  ). !. a  a  a  a  a  a  a  a  0  9   +  + '+  +  +  + 0  0  0  0  0  0  0  0  3. :. Je.of.a  !. ). 2. a  a  a  a  a  a  a  a  a  a  a  a  a  a  a  a  a  a  a  a  a  a  a  a  a  a  a  a  a  a  a  a  a  a  a  a  a  a  a  a  0  0  0  0  0  0  0  0  0  0  0  0  0  0  0  0  a  a  a  a  a  a  a  a  a  a  a  a  a  a  a  a  a  a  a  a  a  a  a  a  a  a  a  a  a  a  a  a  a  a  a  a  a  a  a  a  a  a  a  a  a  a  a  a  a  a  a  a  a  a  a  a  a  a  a  a  a  a  a  a  a  a  a  a  a  a  a  a  a  a  a  a  a  a  a  a  He.Ke.He.He.He.He.a  t. t. u. u. u. u. u. N. u. t. a  a  a  a  a  a  a  a  a  a  a  a  a  a  a  a  a  a  a  a  a  a  a  a  a  a  a  a  a  a  a  0  0  0  0  0  0  0  0  0  0  0  0  0  0  0  ",
"*. z. z.                   0  0  0  0  0  0  5+ 5+ 5+ 5+ La.La.La.La./c.La.5+ 0  0  0  0  0  0  0  0  0  0  0  0  0  0  0  0  0  0  0  0  0  0  0  0  0  0  0  0  0  0  0  a  a  a  a  a  a  a  a  a  a  a  a  a  a  a  a  a  a  a  a  a  a  a  a  a  a  a  a  a  a  a  a  :. a  a  ). ). a  a  :. a  a  a  a  a  a  a  a  a  :. :. :. :. a  ). !. a  a  a  a  a  a  a  a   +  +  +  + 9  `. ++ /+ 0  0  0  0  0  0  0  0  ). 2. of.x. :. a  :. x. a  a  a  a  a  a  a  a  a  a  a  a  a  a  a  a  a  a  a  a  a  a  a  a  a  a  a  a  a  a  a  a  a  a  a  a  a  a  a  a  0  0  0  0  0  0  0  0  0  0  0  0  0  0  0  0  a  a  a  a  a  a  a  a  a  a  a  a  a  a  a  a  a  a  a  a  a  a  a  a  a  a  a  a  a  a  a  a  a  a  a  a  a  a  a  a  a  a  a  a  a  a  a  a  a  a  a  a  a  a  a  a  a  a  a  a  a  a  a  a  a  a  a  a  a  a  a  a  a  a  a  a  a  a  a  a  He.He.He.He.He.He.He.a  a  t. t. t. t. t. t. t. a  a  a  a  a  a  a  a  a  a  a  a  a  a  a  a  a  a  a  a  a  a  a  a  a  a  a  a  a  a  a  a  0  0  0  0  0  0  0  0  0  0  0  0  0  0  0  ",
"*. y. y. @  @  @  @  @  @  0  0  0  0  0  0  5+ 5+ 5+ 5+ La.La.La.La./c.La.5+ 0  0  0  0  0  0  0  0  0  0  0  0  0  0  0  0  0  0  0  0  0  0  0  0  0  0  0  0  0  0  0  a  a  a  a  a  a  a  a  a  a  a  a  a  a  a  a  a  a  a  a  a  a  a  a  a  a  a  a  a  a  a  a  :. a  a  ). ). a  a  :. a  a  a  a  a  a  a  a  a  :. :. :. :. a  ). !. a  a  a  a  a  a  a  a  `. `. 0  9  9  0  `. `. 0  0  0  0  0  0  0  0  :. :. a  a  a  :. 2. x. a  a  a  a  a  a  a  a  a  a  a  a  a  a  a  a  a  a  a  a  a  a  a  a  a  a  a  a  a  a  a  a  a  a  a  a  a  a  a  a  0  0  0  0  0  0  0  0  0  0  0  0  0  0  0  0  a  a  a  a  a  a  a  a  a  a  a  a  a  a  a  a  a  a  a  a  a  a  a  a  a  a  a  a  a  a  a  a  a  a  a  a  a  a  a  a  a  a  a  a  a  a  a  a  a  a  a  a  a  a  a  a  a  a  a  a  a  a  a  a  a  a  a  a  a  a  a  a  a  a  a  a  a  a  a  a  He.He.He.He.He.He.He.He.He.He.a  He.He.He.He.He.a  a  a  a  a  a  a  a  a  a  a  a  a  a  a  a  a  a  a  a  a  a  a  a  a  a  a  a  a  a  a  a  0  0  0  0  0  0  0  0  0  0  0  0  0  0  0  ",
"t  y. y. @  @  @  @  @  @  0  0  0  0  0  0  5+ 5+ La.La.La.La./c./c./c.La.5+ 0  0  0  0  0  0  0  0  0  0  0  0  0  0  0  0  0  0  0  0  0  0  0  0  0  0  0  0  0  0  0  a  a  a  a  a  a  a  a  a  a  a  a  a  a  a  a  a  a  a  a  a  a  a  a  a  a  a  a  a  a  a  a  :. a  a  ). ). a  a  :. a  a  a  a  a  a  a  a  a  :. :. :. :. a  ). !. a  a  a  a  a  a  a  a  `. `. 0  9   +  +  + 9  0  0  0  0  0  0  0  0  x. !. rf.rf.!. 2. 2. a  a  a  a  a  a  a  a  a  a  a  a  a  a  a  a  a  a  a  a  a  a  a  a  a  a  a  a  a  a  a  a  a  a  a  a  a  a  a  a  a  0  0  0  0  0  0  0  0  0  0  0  0  0  0  0  0  a  a  a  a  a  a  a  a  a  a  a  a  a  a  a  a  a  a  a  a  a  a  a  a  a  a  a  a  a  a  a  a  a  a  a  a  a  a  a  a  a  a  a  a  a  a  a  a  a  a  a  a  a  a  a  a  a  a  a  a  a  a  a  a  a  a  a  a  a  a  a  a  a  a  a  a  a  a  a  a  a  a  He.He.He.He.He.He.He.Ke.He.Ke.Ke.Ke.Ke.Ke.He.a  a  a  a  a  a  a  a  a  a  a  a  a  a  a  a  a  a  a  a  a  a  a  a  a  a  a  a  a  a  a  0  0  0  0  0  0  0  0  0  0  0  0  0  0  0  ",
"e. y. @  @  @  @  @  @  @  0  0  0  0  0  0  5+ 5+ 5+ La.5+ La.La.La.La.La.5+ 0  0  0  0  0  0  0  0  0  0  0  0  0  0  0  0  0  0  0  0  0  0  0  0  0  0  0  0  0  0  0  a  a  a  a  a  a  a  a  a  a  a  a  a  a  a  a  a  a  a  a  a  a  a  a  a  a  a  a  a  a  a  a  :. a  a  ). ). a  a  :. a  a  a  a  a  a  a  a  a  :. :. :. :. a  ). !. a  a  a  a  a  a  a  a   +  + '+ '+ '+  + 9  9  0  0  0  0  0  0  0  0  of.Xe.Ze.Ze.Xe.:. :. !. a  a  a  a  a  a  a  a  a  a  a  a  a  a  a  a  a  a  a  a  a  a  a  a  a  a  a  a  a  a  a  a  a  a  a  a  a  a  a  a                 0     0  0  0  0  0  0  0  0  0  a  a  a  a  a  a  a  a  a  a  a  a  a  a  a  a  a  a  a  a  a  a  a  a  a  a  a  a  a  a  a  a  a  a  a  a  a  a  a  a  a  a  a  a  a  a  a  a  a  a  a  a  a  a  a  a  a  a  a  a  a  a  a  a  a  a  a  a  a  a  a  a  a  a  a  a  a  a  a  a  a  a  He.He.He.He.He.He.He.Ke.He.Ke.Ke.Ke.Ke.Ke.He.He.a  He.a  He.a  a  a  a  a  a  a  a  a  a  a  a  a  a  a  a  a  a  a  a  a  a  a  a  a  a  0  0  0  0  0  0  0  0  0  0  0  0  0  0  0  ",
"t           0  0  0  0  0  a  a  a  a  a  a  a  a  a  He.a  He.He.He.He.He.Xe.). 2. :. !. 3. !. a  a  a  a  a  a  a  a  a  a  a  a  a  a  a  a  a  a  a  a  2. x. x. :. ). ++ ++ `. 0  0  9   +  + 0  0  9   +  +  + 9  9  a  a  a  a  a  a  a  a  a  a  a  a  a  a  a  a  a  a  a  a  a  a  a  a  2. :. :. a  a  :. :. 2. a  a  a  a  a  a  a  a  a  a  a  a  a  a  a  a  a  a  a  a  a  a  a  a  a  a  a  a  a  a  a  a  x. d. sf.tf.3. x. 2. !. a  a  a  a  a  a  a  a  9  `. /+ ++ 9   +  + 9  0  0  0  0  0  0  0  0  a  a  a  a  a  a  a  a  a  a  a  a  a  a  a  t. uf.$f.n. &f.&f.m. $f.^f.t. t. a  a  a  a  a  a  a  a  a  a  a  a  a  a  a  a  a  a  a  a  a  a  a  a  a  a  a  a  a  a  a  a  a  a  a  a  a  a  a  a  a  a  a  a  a  a  a  a  a  a  a  a  a  a  a  a  a  a  a  a  a  a  a  a  a  a  a  a  a  a  :. :. 2. 2. :. !. d. Ye.a  a  a  a  a  a  a  a  a  a  a  a  a  a  a  a  a  He.a  He.He.He.He.He.He.Ke.He.Ke.He.Ke.He.He.He.He.He.He.a  a  a  a  a  a  a  a  a  a  a  a  a  a  a  a  a  a  a  a  a  a  a  a  a  a  a  a  a  a  a  a  a  a  a  ",
"t        0  0  0  0  0  0  a  a  a  a  a  a  a  a  a  a  a  a  a  a  a  a  a  :. 2. :. a  ). a  2. a  a  a  a  a  a  a  a  a  a  a  a  a  a  a  a  !. !. ). a  2. 2. :. a  ++ ++ `. 0  0  9   +  + 9  9  9  9  0  `. `. ++ a  a  a  a  a  a  a  a  a  a  a  a  a  a  a  a  a  a  a  a  a  a  a  a  :. a  ). ). ). ). a  :. a  a  a  a  a  a  a  a  a  a  a  a  a  a  a  a  a  a  a  a  a  a  a  a  a  a  a  a  a  a  a  a  of.!. Ye.vf.). x. x. a  a  a  a  a  a  a  a  a  9  9  0  0  9  9   + 9  0  0  0  0  0  0  0  0  a  a  a  a  a  a  a  a  a  a  a  a  a  a  a  t. c@ wf.xf.yf.zf.{f.;f.af.t. t. a  a  a  a  a  a  a  a  a  a  a  a  a  a  a  a  a  a  a  a  a  a  a  a  a  a  a  a  a  a  a  a  a  a  a  a  a  a  a  a  a  a  a  a  a  a  a  a  a  a  a  a  a  a  a  a  a  a  a  a  a  a  a  a  a  a  a  a  a  a  :. 2. x. x. 2. ). 3. d. a  a  a  a  a  a  a  a  a  a  a  a  a  a  a  a  a  a  a  a  a  a  a  He.He.Ke.Ke.Ke.Ke.Ke.Ke.Ke.He.He.He.He.a  a  a  a  a  a  a  a  a  a  a  a  a  a  a  a  a  a  a  a  a  a  a  a  a  a  a  a  a  a  a  a  a  a  a  ",
"t        0  0  0  0  0  0  a  a  a  a  a  a  a  a  a  a  a  a  a  a  a  a  2. a  !. 3. ). a  :. a  a  a  a  a  a  a  a  a  a  a  a  a  a  a  a  a  !. !. ). ). a  a  :. :. ++ ++ `. 0  0  9   +  + `. `. `. `. `. `. `. `. a  a  a  a  a  a  a  a  a  a  a  a  a  a  a  a  a  a  a  a  a  a  a  a  a  ). !. !. !. !. ). a  a  a  a  a  a  a  a  a  a  a  a  a  a  a  a  a  a  a  a  a  a  a  a  a  a  a  a  a  a  a  a  a  x. :. ). ). :. 2. 2. :. a  a  a  a  a  a  a  a  9   +  +  + 0  0  9   + 0  0  0  0  0  0  0  0  a  a  a  a  a  a  a  a  a  a  a  a  a  a  a  t. k. x+ Af.wf.{f.k. $f.uf.t. t. a  a  a  a  a  a  a  a  a  a  a  a  a  a  a  a  a  a  a  a  a  a  a  a  a  a  a  a  a  a  a  a  a  a  a  a  a  a  a  a  a  a  a  a  a  a  a  a  a  a  a  a  a  a  a  a  a  a  a  a  a  a  a  a  a  a  a  a  a  a  :. 2. x. x. x. :. ). !. a  a  a  a  a  a  a  a  a  a  a  a  a  a  a  a  a  a  a  a  a  a  a  He.He.Ke.Ke.Ke.He.He.He.He.He.He.He.He.a  a  a  a  a  a  a  a  a  a  a  a  a  a  a  a  a  a  a  a  a  a  a  a  a  a  a  a  a  a  a  a  a  a  a  ",
"t        0  0  0  0  0  0  a  a  a  a  a  a  a  a  a  a  a  a  a  a  a  a  2. 3. vf.vf.Xe.!. !. 3. a  a  a  a  a  a  a  a  a  a  a  a  a  a  a  a  a  :. :. a  ). ). ). :. `. `. `. 0  0  9  9  9  ++ ++ `. `. 0  9   + '+ a  a  a  a  a  a  a  a  a  a  a  a  a  a  a  a  a  a  a  a  a  a  a  a  a  a  ). !. !. ). a  a  a  a  a  a  a  a  a  a  a  a  a  a  a  a  a  a  a  a  a  a  a  a  a  a  a  a  a  a  a  a  a  a  2. x. x. x. :. a  a  a  a  a  a  a  a  a  a  a  `. 9  '+  + 0  ++ `. 9  0  0  0  0  0  0  0  0  a  a  a  a  a  a  a  a  a  a  a  a  a  a  a  t. uf.Bf.bf.;+ k. k. ;f.$f.t. t. a  a  a  a  a  a  a  a  a  a  a  a  a  a  a  a  a  a  a  a  a  a  a  a  a  a  a  a  a  a  a  a  a  a  a  a  a  a  a  a  a  a  a  a  a  a  a  a  a  a  a  a  a  a  a  a  a  a  a  a  a  a  a  a  a  a  a  a  a  a  ). a  :. 2. 2. :. a  a  a  a  a  a  a  a  a  a  a  a  a  a  a  a  a  a  a  a  a  a  a  a  a  a  He.Ke.Ke.Ke.He.He.He.He.He.He.He.He.a  a  a  a  a  a  a  a  a  a  a  a  a  a  a  a  a  a  a  a  a  a  a  a  a  a  a  a  a  a  a  a  a  a  a  ",
"t        0  0  0  0  0  0  a  a  a  a  a  a  a  a  a  a  a  a  a  a  a  a  2. 3. vf.vf.Xe.!. !. 3. a  a  a  a  a  a  a  a  a  a  a  a  a  a  a  a  a  2. x. 2. ). !. !. a  `. `. 0  0  0  0  9  9  .+ '+  + 9  9  9   +  + a  a  a  a  a  a  a  a  a  a  a  a  a  a  a  a  a  a  a  a  a  a  a  a  2. :. a  a  a  a  :. 2. a  a  a  a  a  a  a  a  a  a  a  a  a  a  a  a  a  a  a  a  a  a  a  a  a  a  a  a  a  a  a  a  a  2. of.x. a  !. !. ). a  a  a  a  a  a  a  a  ++ `. 9  9  0  `. `. `. 0  0  0  0  0  0  0  0  a  a  a  a  a  a  a  a  a  a  a  a  a  a  a  t. $f.bf.N. ;+ n. c@ n. n. t. t. a  a  a  a  a  a  a  a  a  a  a  a  a  a  a  a  a  a  a  a  a  a  a  a  a  a  a  a  a  a  a  a  a  a  a  a  a  a  a  a  a  a  a  a  a  a  a  a  a  a  a  a  a  a  a  a  a  a  a  a  a  a  a  a  a  a  a  a  a  a  !. !. ). a  a  a  a  a  a  a  a  a  a  a  a  a  a  a  a  a  a  a  a  a  a  a  a  a  a  a  a  a  He.He.He.He.He.He.He.He.He.He.He.He.He.He.He.He.a  a  a  a  a  a  a  a  a  a  a  a  a  a  a  a  a  a  a  a  a  a  a  a  a  a  a  a  a  a  a  ",
"t        0  0  0  0  0  0  a  a  a  a  a  a  a  a  a  a  a  a  a  a  a  a  2. a  !. 3. ). a  :. a  a  a  a  a  a  a  a  a  a  a  a  a  a  a  a  a  d. ). x. x. a  !. !. a  0  0  0  0  0  0  0  0  Le.Cf.Me. + 0  `. ++ `. a  a  a  a  a  a  a  a  a  a  a  a  a  a  a  a  a  a  a  a  a  a  a  a  2. 2. :. a  a  :. 2. 2. a  a  a  a  a  a  a  a  a  a  a  a  a  a  a  a  a  a  a  a  a  a  a  a  a  a  a  a  a  a  a  a  a  :. 2. 2. a  !. !. ). a  a  a  a  a  a  a  a  ++ ++ ++ 0  '+ '+ 9  ++ 0  0  0  0  0  0  0  0  a  a  a  a  a  a  a  a  a  a  a  a  a  a  a  t. k. ;+ N. N. ;f.;f.;f.;f.t. t. a  a  a  a  a  a  a  a  a  a  a  a  a  a  a  a  a  a  a  a  a  a  a  a  a  a  a  a  a  a  a  a  a  a  a  a  a  a  a  a  a  a  a  a  a  a  a  a  a  a  a  a  a  a  a  a  a  a  a  a  a  a  a  a  a  a  a  a  a  a  !. !. ). ). ). ). ). ). a  a  a  a  a  a  a  a  a  a  a  a  a  a  a  a  a  a  a  a  a  a  a  a  a  He.a  He.a  He.He.He.He.He.He.He.He.He.He.He.a  a  a  a  a  a  a  a  a  a  a  a  a  a  a  a  a  a  a  a  a  a  a  a  a  a  a  a  a  a  a  ",
"t        0  0  0  0  0  0  a  a  a  a  a  a  a  a  a  a  a  a  a  a  a  a  a  :. 2. :. a  ). a  2. a  a  a  a  a  a  a  a  a  a  a  a  a  a  a  a  Df.Ye.). 2. a  !. ). 2. 0  0  0  0  0  0  0  0  Cf.(+ .+ 9  `. `. `. 0  a  a  a  a  a  a  a  a  a  a  a  a  a  a  a  a  a  a  a  a  a  a  a  a  :. :. a  ). ). a  :. :. a  a  a  a  a  a  a  a  a  a  a  a  a  a  a  a  a  a  a  a  a  a  a  a  a  a  a  a  a  a  a  a  :. :. a  a  a  a  a  ). a  a  a  a  a  a  a  a  9  ++ /+ 9  (+ Cf.Me.`. 0  0  0  0  0  0  0  0  a  a  a  a  a  a  a  a  a  a  a  a  a  a  a  t. k. N. bf.~f.$f.$f.;f.u. t. t. a  a  a  a  a  a  a  a  a  a  a  a  a  a  a  a  a  a  a  a  a  a  a  a  a  a  a  a  a  a  a  a  a  a  a  a  a  a  a  a  a  a  a  a  a  a  a  a  a  a  a  a  a  a  a  a  a  a  a  a  a  a  a  a  a  a  a  a  a  a  :. a  a  ). ). ). a  a  a  a  a  a  a  a  a  a  a  a  a  a  a  a  a  a  a  a  a  a  a  a  a  a  a  a  t. a  t. a  a  a  a  a  He.He.He.He.He.He.a  a  a  a  a  a  a  a  a  a  a  a  a  a  a  a  a  a  a  a  a  a  a  a  a  a  a  a  a  a  a  ",
"t        0  0  0  0  0  0  a  a  a  a  a  a  a  a  a  a  a  a  a  a  a  a  Xe.). 2. :. !. 3. !. a  a  a  a  a  a  a  a  a  a  a  a  a  a  a  a  a  Ef.Df.d. a  a  ). a  x. 0  0  0  0  0  0  0  0   + 9  `. ++ `. 9  '+ Me.a  a  a  a  a  a  a  a  a  a  a  a  a  a  a  a  a  a  a  a  a  a  a  a  a  ). ). !. !. ). ). a  a  a  a  a  a  a  a  a  a  a  a  a  a  a  a  a  a  a  a  a  a  a  a  a  a  a  a  a  a  a  a  a  x. :. ). ). :. 2. 2. :. a  a  a  a  a  a  a  a  '+ ++ U.  + Ff.Gf.Re.0  0  0  0  0  0  0  0  0  a  a  a  a  a  a  a  a  a  a  a  a  a  a  a  t. c@ x+ x+ x+ c@ Hf.%f.If.t. t. a  a  a  a  a  a  a  a  a  a  a  a  a  a  a  a  a  a  a  a  a  a  a  a  a  a  a  a  a  a  a  a  a  a  a  a  a  a  a  a  a  a  a  a  a  a  a  a  a  a  a  a  a  a  a  a  a  a  a  a  a  a  a  a  a  a  a  a  a  a  x. 2. :. a  a  a  a  :. a  a  a  a  a  a  a  a  a  a  a  a  a  a  a  a  a  a  a  a  a  a  a  a  t. t. t. t. t. t. t. a  a  a  He.He.He.He.He.He.a  a  a  a  a  a  a  a  a  a  a  a  a  a  a  a  a  a  a  a  a  a  a  a  a  a  a  a  a  a  a  ",
"W.       0  0  0  0  0  0  a  a  a  a  a  a  a  a  a  a  a  a  a  a  a  a  a  a  a  a  a  a  a  a  a  a  a  a  a  a  a  a  a  a  a  a  a  a  a  a  a  a  a  a  a  a  a  a  0  0  0  0  0  0  0  0  0  0  0  0  0  0  0  0  a  a  a  a  a  a  a  a  a  a  a  a  a  a  a  a  a  a  a  a  a  a  a  a  a  a  a  a  a  a  a  a  a  a  a  a  a  a  a  a  a  a  a  a  a  a  a  a  a  a  a  a  a  a  a  a  a  a  a  a  a  a  a  a  a  a  a  a  a  a  a  a  a  a  a  a  a  a  a  a  0  0  0  0  0  0  0  0  0  0  0  0  0  0  0  0  a  a  a  a  a  a  a  a  a  a  a  a  a  a  a  t. af.[f.~f.bf.k. n. c@ {f.t. t. a  a  a  a  a  a  a  :. :. a  !. !. a  2. a  a  :. 2. 2. 2. :. :. a  a  a  a  a  a  a  a  a  a  a  a  a  a  a  a  a  a  a  a  a  a  a  a  a  a  a  a  a  a  a  a  ). ). ). ). ). ). ). ). a  a  a  a  a  a  a  a  a  a  a  a  a  a  a  a  a  a  a  a  a  a  a  a  a  a  a  a  a  a  a  a  a  a  a  a  a  a  a  t. k. n. k. ;f.;f.l. m. l. a  a  He.He.He.He.Ke.He.a  a  a  a  a  a  a  a  a  a  a  a  a  a  a  a  a  a  a  a  a  a  a  a  a  a  a  a  a  a  a  ",
"#+       0  0  0  0  0  0  a  a  a  a  a  a  a  a  a  a  a  a  a  a  a  a  a  a  a  a  a  a  a  a  a  a  a  a  a  a  a  a  a  a  a  a  a  a  a  a  a  a  a  a  a  a  a  a  0  0  0  0  0  0  0  0  0  0  0  0  0  0  0  0  a  a  a  a  a  a  a  a  a  a  a  a  a  a  a  a  a  a  a  a  a  a  a  a  a  a  a  a  a  a  a  a  a  a  a  a  a  a  a  a  a  a  a  a  a  a  a  a  a  a  a  a  a  a  a  a  a  a  a  a  a  a  a  a  a  a  a  a  a  a  a  a  a  a  a  a  a  a  a  a  0  0  0  0  0  0  0  0  0  0  0  0  0  0  0  0  a  a  a  a  a  a  a  a  a  a  a  a  a  a  a  t. )f.~f.~f.bf.k. n. n. c@ t. t. a  a  a  a  a  a  :. 2. 2. :. a  ). :. x. a  a  :. :. :. :. a  ). a  a  a  a  a  a  a  a  a  a  a  a  a  a  a  a  a  a  a  a  a  a  a  a  a  a  a  a  a  a  a  a  ). ). ). ). ). ). ). ). a  a  a  a  a  a  a  a  a  a  a  a  a  a  a  a  a  a  a  a  a  a  a  a  a  a  a  a  a  a  a  a  a  a  a  a  a  a  a  t. af.~f.;+ k. k. k. $f.^f.t. a  He.He.He.He.Ke.Ke.a  a  a  a  a  a  a  a  a  a  a  a  a  a  a  a  a  a  a  a  a  a  a  a  a  a  a  a  a  a  a  ",
"t        0  0  0  0  0  0  a  a  a  a  a  a  a  a  a  a  a  a  a  a  a  a  a  a  a  a  a  a  a  a  a  a  a  a  a  a  a  a  a  a  a  a  a  a  a  a  a  a  a  a  a  a  a  a  0  0  0  0  0  0  0  0  0  0  0  0  0  0  0  0  a  a  a  a  a  a  a  a  a  a  a  a  a  a  a  a  a  a  a  a  a  a  a  a  a  a  a  a  a  a  a  a  a  a  a  a  a  a  a  a  a  a  a  a  a  a  a  a  a  a  a  a  a  a  a  a  a  a  a  a  a  a  a  a  a  a  a  a  a  a  a  a  a  a  a  a  a  a  a  a  0  0  0  0  0  0  0  0  0  0  0  0  0  0  0  0  a  a  a  a  a  a  a  a  a  a  a  a  a  a  a  t. ;f.bf.bf.N. u. k. k. k. t. t. a  a  a  a  a  a  :. 2. x. 2. a  a  2. of.a  :. :. :. a  ). !. 3. a  a  a  a  a  a  a  a  a  a  a  a  a  a  a  a  a  a  a  a  a  a  a  a  a  a  a  a  a  a  a  a  ). ). ). ). ). ). ). ). a  a  a  a  a  a  a  a  a  a  a  a  a  a  a  a  a  a  a  a  a  a  a  a  a  a  a  a  a  a  a  a  a  a  a  a  a  a  a  t. N. ,e.]+ x+ x+ k. u. t. t. a  He.He.He.He.Ke.Ke.a  a  a  a  a  a  a  a  a  a  a  a  a  a  a  a  a  a  a  a  a  a  a  a  a  a  a  a  a  a  a  ",
"]f.      0  0  0  0  0  0  a  a  a  a  a  a  a  a  a  a  a  a  a  a  a  a  a  a  a  a  a  a  a  a  a  a  a  a  a  a  a  a  a  a  a  a  a  a  a  a  a  a  a  a  a  a  a  a  0  0  0  0  0  0  0  0  0  0  0  0  0  0  0  0  a  a  a  a  a  a  a  a  a  a  a  a  a  a  a  a  a  a  a  a  a  a  a  a  a  a  a  a  a  a  a  a  a  a  a  a  a  a  a  a  a  a  a  a  a  a  a  a  a  a  a  a  a  a  a  a  a  a  a  a  a  a  a  a  a  a  a  a  a  a  a  a  a  a  a  a  a  a  a  a  0  0  0  0  0  0  0  0  0  0  0  0  0  0  0  0  a  a  a  a  a  a  a  a  a  a  a  a  a  a  a  t. u. N. N. N. u. u. u. u. t. t. a  a  a  a  a  a  :. 2. 2. :. ). ). :. x. :. :. :. a  ). !. Xe.d. a  a  a  a  a  a  a  a  a  a  a  a  a  a  a  a  a  a  a  a  a  a  a  a  a  a  a  a  a  a  a  a  a  a  a  a  a  a  a  a  a  a  a  a  a  a  a  a  a  a  a  a  a  a  a  a  a  a  a  a  a  a  a  a  a  a  a  a  a  a  a  a  a  a  a  a  a  a  a  t. wf.]+ /f.}f.}f.~f.k. &f.t. a  a  He.He.He.Ke.Ke.a  a  a  a  a  a  a  a  a  a  a  a  a  a  a  a  a  a  a  a  a  a  a  a  a  a  a  a  a  a  a  ",
"t        0  0  0  0  0  0  a  a  a  a  a  a  a  a  a  a  a  a  a  a  a  a  a  a  a  a  a  a  a  a  a  a  a  a  a  a  a  a  a  a  a  a  a  a  a  a  a  a  a  a  a  a  a  a  0  0  0  0  0  0  0  0  0  0  0  0  0  0  0  0  a  a  a  a  a  a  a  a  a  a  a  a  a  a  a  a  a  a  a  a  a  a  a  a  a  a  a  a  a  a  a  a  a  a  a  a  a  a  a  a  a  a  a  a  a  a  a  a  a  a  a  a  a  a  a  a  a  a  a  a  a  a  a  a  a  a  a  a  a  a  a  a  a  a  a  a  a  a  a  a  0  0  0  0  0  0  0  0  0  0  0  0  0  0  0  0  a  a  a  a  a  a  a  a  a  a  a  a  a  a  a  t. k. ;+ N. N. u. u. ;f.;f.t. t. a  a  a  a  a  a  ). a  a  ). !. 3. ). :. :. :. :. a  ). !. Xe.d. a  a  a  a  a  a  a  a  a  a  a  a  a  a  a  a  a  a  a  a  a  a  a  a  a  a  a  a  a  a  a  a  a  a  a  a  a  a  a  a  a  a  a  a  a  a  a  a  a  a  a  a  a  a  a  a  a  a  a  a  a  a  a  a  a  a  a  a  a  a  a  a  a  a  a  a  a  a  a  t. ]+ ad.ad.]+ ]+ [f.)f.k. t. a  a  He.Ke.Ke.Ke.Ke.a  a  a  a  a  a  a  a  a  a  a  a  a  a  a  a  a  a  a  a  a  a  a  a  a  a  a  a  a  a  a  ",
"*        0  0  0  0  0  0  a  a  a  a  a  a  a  a  a  a  a  a  a  a  a  a  a  a  a  a  a  a  a  a  a  a  a  a  a  a  a  a  a  a  a  a  a  a  a  a  a  a  a  a  a  a  a  a  0  0  0  0  0  0  0  0  0  0  0  0  0  0  0  0  a  a  a  a  a  a  a  a  a  a  a  a  a  a  a  a  a  a  a  a  a  a  a  a  a  a  a  a  a  a  a  a  a  a  a  a  a  a  a  a  a  a  a  a  a  a  a  a  a  a  a  a  a  a  a  a  a  a  a  a  a  a  a  a  a  a  a  a  a  a  a  a  a  a  a  a  a  a  a  a  0  0  0  0  0  0  0  0  0  0  0  0  0  0  0  0  a  a  a  a  a  a  a  a  a  a  a  a  a  a  a  t. u. N. N. N. u. u. u. u. t. t. a  a  a  a  a  a  !. ). ). !. 3. Xe.!. a  a  :. :. :. a  ). !. 3. a  a  a  a  a  a  a  a  a  a  a  a  a  a  a  a  a  a  a  a  a  a  a  a  a  a  a  a  a  a  a  a  :. :. :. :. :. :. :. :. a  a  a  a  a  a  a  a  a  a  a  a  a  a  a  a  a  a  a  a  a  a  a  a  a  a  a  a  a  a  a  a  a  a  a  a  a  a  a  t. /f.ad.*$ Jf.Kf.y+ [f.$f.t. a  a  He.Ke.Ke.Ke.Ke.a  a  a  a  a  a  a  a  a  a  a  a  a  a  a  a  a  a  a  a  a  a  a  a  a  a  a  a  a  a  a  ",
"y.       0  0  0  0  0  0  a  a  a  a  a  a  a  a  a  a  a  a  a  a  a  a  a  a  a  a  a  a  a  a  a  a  a  a  a  a  a  a  a  a  a  a  a  a  a  a  a  a  a  a  a  a  a  a  0  0  0  0  0  0  0  0  0  0  0  0  0  0  0  0  a  a  a  a  a  a  a  a  a  a  a  a  a  a  a  a  a  a  a  a  a  a  a  a  a  a  a  a  a  a  a  a  a  a  a  a  a  a  a  a  a  a  a  a  a  a  a  a  a  a  a  a  a  a  a  a  a  a  a  a  a  a  a  a  a  a  a  a  a  a  a  a  a  a  a  a  a  a  a  a  0  0  0  0  0  0  0  0  0  0  0  0  0  0  0  0  a  a  a  a  a  a  a  a  a  a  a  a  a  a  a  t. u. N. N. N. u. u. u. u. t. t. a  a  a  a  a  a  ). ). a  ). 3. 3. ). :. a  a  :. :. :. :. a  ). a  a  a  a  a  a  a  a  a  a  a  a  a  a  a  a  a  a  a  a  a  a  a  a  a  a  a  a  a  a  a  a  :. :. :. :. :. :. :. :. a  a  a  a  a  a  a  a  a  a  a  a  a  a  a  a  a  a  a  a  a  a  a  a  a  a  a  a  a  a  a  a  a  a  a  a  a  a  a  t. {+ Lf.{$ Mf.Nf.l$ bf.n. t. a  a  He.Ke.Ke.Ke.Ke.a  a  a  a  a  a  a  a  a  a  a  a  a  a  a  a  a  a  a  a  a  a  a  a  a  a  a  a  a  a  a  ",
"         0  0  0  0     0  a  a  a  a  a  a  a  a  a  a  a  a  a  a  a  a  a  a  a  a  a  a  a  a  a  a  a  a  a  a  a  a  a  a  a  a  a  a  a  a  a  a  a  a  a  a  a  a  0  0  0  0  0  0  0  0  0  5+ 0  5+ 0  5+ 0  0  a  a  a  a  a  a  a  a  a  a  a  a  a  a  a  a  a  a  a  a  a  a  a  a  a  a  a  a  a  a  a  a  a  a  a  a  a  a  a  a  a  a  a  a  a  a  a  a  a  a  a  a  a  a  a  a  a  a  a  a  a  a  a  a  a  a  a  a  a  a  a  a  a  a  a  a  a  a  a  a  0  0  0  0  0  0  0  0  0  0  0  0  0  0  0  0  a  He.a  He.a  He.a  He.a  He.a  He.a  He.a  a  ;f.;f.;f.u. u. l. k. l. t. t. a  a  a  a  a  a  a  :. :. a  !. !. a  2. a  a  :. 2. 2. 2. :. :. a  a  a  a  a  a  a  a  a  a  a  a  a  a  a  a  a  a  a  a  a  a  a  a  a  a  a  a  a  a  a  a  :. 0f.:. 0f.:. 0f.:. :. a  a  a  a  a  a  a  a  a  a  a  a  a  a  a  a  a  a  a  a  a  a  a  a  a  a  a  a  a  a  a  a  a  a  a  a  a  a  t. t. y+ ne.Of.,e.N. if.af.{f.t. a  a  He.He.Ke.He.He.a  a  a  a  a  a  a  a  t. t. t. t. t. t. t. t. a  a  a  a  a  a  a  a  a  a  a  a  a  a  a  ",
"   +  +  .  .  .  +  z.    0  0  0  0  0  0  0  0  0  0  0  0  0  0  0  0  a  a  a  a  a  a  a  a  a  a  a  a  a  a  a  a  a  a  a  a  a  a  a  a  a  a  a  a  a  a  a  a  a  a  a  a  He.He.He.He.He.Ke.He.Ke.He.Ke.He.He.a  a  a  a  a  a  a  a  a  a  a  a  a  a  a  a  a  a  a  a  a  a  a  a  a  a  a  a  a  a  a  a  a  a  a  a  a  a  a  a  a  a  a  a  a  a  a  a  t. t. t. t. t. t. t. t. @f.@f.t. l. l. t. t. t. a  a  a  a  a  a  a  a  a  a  a  a  a  a  a  a  a  a  a  a  a  a  a  a  a  a  a  a  a  a  a  a  2f.3f.He.Ke.He.3f.6f.Pf.He.Ke.He.Ke.He.Ke.He.He.a  t. t. t. t. a  t. a  a  a  a  a  a  a  a  a  a  a  a  a  a  a  a  a  a  a  a  a  a  a  a  a  a  a  a  a  a  a  a  a  a  a  a  a  a  a  a  a  a  a  a  a  a  a  a  a  a  a  a  a  a  a  a  a  He.Ke.He.Ke.He.Ke.He.He.He.He.He.He.a  a  a  a  a  a  a  a  a  a  a  a  a  a  a  a  a  a  a  a  He.He.He.He.He.He.a  a  'f.t. t@ Qf.Qf.t@ u. 'f.u. t. t. t. t. t. t. t. rf.Xe.). :. 2. 0f.a  ). a  a  a  a  t. t. t. t. $f.u. k. k. u. ;f.;f.u. t. a  a  a  a  a  a  a  a  a  a  a  a  a  a  ",
"0  #  #  #  #  ]f.]f.]f.l     0  0  0  0  0  0  0  0  0  0  0  0  0  0  0  a  a  a  a  a  a  a  a  a  a  a  a  a  a  a  a  a  a  a  a  a  a  a  a  a  a  a  a  a  a  a  a  a  a  a  a  He.He.He.He.Ke.Ke.Ke.Ke.Ke.Ke.Ke.Ke.a  a  a  a  a  a  a  a  a  a  a  a  a  a  a  a  a  a  a  a  a  a  a  a  a  a  a  a  a  a  a  a  a  a  a  a  a  a  a  a  a  a  a  a  a  a  a  a  t. t. t. t. t. t. t. t. m. m. m. m. l. t. t. @f.a  a  a  a  a  a  a  a  a  a  a  a  a  a  a  a  a  a  a  a  a  a  a  a  a  a  a  a  a  a  a  a  He.Ke.Ke.Ke.Ke.3f.3f.3f.Ke.Ke.Ke.Ke.Ke.Ke.Ke.He.a  a  a  a  a  a  a  a  a  a  a  a  a  a  a  a  a  a  a  a  a  a  a  a  a  a  a  a  a  a  a  a  a  a  a  a  a  a  a  a  a  a  a  a  a  a  a  a  a  a  a  a  a  a  a  a  a  a  a  a  a  a  a  He.He.Ke.Ke.Ke.Ke.Ke.Ke.Ke.He.He.He.He.a  a  a  a  a  a  a  a  a  a  a  a  a  a  a  a  a  a  a  a  He.He.He.He.He.He.a  a  @f.l. -f.=f.&f.c@ k. @f.t. a  a  a  a  a  a  a  d. Xe.). :. 2. :. a  ). a  a  a  a  t. t. u. u. ;f.{f.Rf.Sf.x+ bf.x+ Hf.t. a  a  a  a  a  a  a  a  a  a  a  a  a  a  ",
"0        @     t  e. =_ f.    0  0  0  0  0  0  0  0  0  0  0  0  0  0  0  a  a  a  a  a  a  a  a  a  a  a  a  a  a  a  a  a  a  a  a  a  a  a  a  a  a  a  a  a  a  a  a  a  a  a  a  He.He.He.He.He.He.He.He.Ke.Ke.Ke.Ke.a  a  a  a  a  a  a  a  a  a  a  a  a  a  a  a  a  a  a  a  a  a  a  a  a  a  a  a  a  a  a  a  a  a  a  a  a  a  a  a  a  a  a  a  a  a  a  a  t. t. t. t. t. t. t. t. t. t. t. t. t. t. t. t. a  a  a  a  a  a  a  a  a  a  a  a  a  a  a  a  a  a  a  a  a  a  a  a  a  a  a  a  a  a  a  a  0f.He.He.2f.2f.He.0f.0f.He.He.He.He.He.He.He.He.a  a  a  a  a  a  a  a  a  a  a  a  a  a  a  a  a  a  a  a  a  a  a  a  a  a  a  a  a  a  a  a  a  a  a  a  a  a  a  a  a  a  a  a  a  a  a  a  a  a  a  a  a  a  a  a  a  a  a  a  a  a  a  He.He.Ke.Ke.Ke.He.He.He.He.He.He.He.He.a  a  a  a  a  a  a  a  a  a  a  a  a  a  a  a  a  a  a  a  He.He.He.He.He.He.a  a  l. l. m. -f.c@ n. k. l. t. a  a  a  a  a  a  a  Xe.3. ). :. :. :. a  a  a  a  a  a  t. t. t. t. $f.&f.,f.%f.;+ ~f.x+ If.t. a  a  a  a  a  a  a  a  a  a  a  a  a  a  ",
"0  +        .  !+ Tf.Uf.Vf.   0  0  0  0  0  0  0  0  0  0  0  0  0  0  0  a  a  a  a  a  a  a  a  a  a  a  a  a  a  a  a  a  a  a  a  a  a  a  a  a  a  a  a  a  a  a  a  a  a  a  a  He.He.He.He.He.He.He.He.Ke.Ke.Ke.He.a  a  a  a  a  a  a  a  a  a  a  a  a  a  a  a  a  a  a  a  a  a  a  a  a  a  a  a  a  a  a  a  a  a  a  a  a  a  a  a  a  a  a  a  a  a  a  a  t. t. t. t. t. t. t. t. v. v. v. 'f.@f.t. l. m. a  a  a  a  a  a  a  a  a  a  a  a  a  a  a  a  a  a  a  a  a  a  a  a  a  a  a  a  a  a  a  a  :. 0f.a  2f.). He.:. Wf.a  He.a  He.a  He.a  a  a  a  a  a  a  a  a  a  a  a  a  a  a  a  a  a  a  a  a  a  a  a  a  a  a  a  a  a  a  a  a  a  a  a  a  a  a  a  a  a  a  a  a  a  a  a  a  a  a  a  a  a  a  a  a  a  a  a  a  a  a  a  a  a  He.Ke.Ke.Ke.He.He.He.He.He.He.He.He.a  a  a  a  a  a  a  a  a  a  a  a  a  a  a  a  a  a  a  a  He.He.He.He.He.He.a  a  m. l. l. l. k. k. k. m. t. a  a  a  a  a  a  a  3. !. a  :. :. :. a  a  a  a  a  a  t. t. t. t. )f.k. &f.{f.bf.[f.N. c@ t. a  a  a  a  a  a  a  a  a  a  a  a  a  a  ",
"0  @  #  l  l  y. *  =_ c     0  0  0  0  0  0  0  0  0  0  0  0  0  0  0  a  a  a  a  a  a  a  a  a  a  a  a  a  a  a  a  a  a  a  a  a  a  a  a  a  a  a  a  a  a  a  a  He.He.He.He.He.He.He.He.He.He.He.He.He.He.He.He.a  a  a  a  a  a  a  a  a  a  a  a  a  a  a  a  a  a  a  a  a  a  a  a  a  a  a  a  a  a  a  a  a  a  a  a  a  a  a  a  a  a  a  a  a  a  a  a  t. t. t. t. t. t. t. t. -f.m. l. t. t. t. l. l. a  a  a  a  a  a  a  a  a  a  a  a  a  a  a  a  a  a  a  a  a  a  a  a  a  a  a  a  a  a  a  a  2. :. t. a  l. ). l. ). t. a  t. a  t. a  t. a  a  a  a  a  a  a  a  a  a  a  a  a  a  a  a  a  a  a  a  a  a  a  a  a  a  a  a  a  a  a  a  a  a  a  a  a  a  a  a  a  a  a  a  a  a  a  a  a  a  a  a  a  a  a  a  a  a  a  a  a  a  a  a  a  He.He.He.He.He.He.He.He.He.He.He.He.He.He.He.He.a  a  a  a  a  a  a  a  a  a  a  a  a  a  a  a  He.He.He.He.He.He.a  a  m. l. t. t. u. u. k. m. t. a  a  a  a  a  a  a  ). ). a  :. :. :. :. a  a  a  a  a  a  a  t. t. @f.'f.$f.;f.u. u. bf.)f.t. a  a  a  a  a  a  a  a  a  a  a  a  a  a  ",
"0  b  .     #  ]f.]f.]f.#     0  0  0  0  0  0  0  0  0  0  0  0  0  0  0  a  a  a  a  a  a  a  a  a  a  a  a  a  a  a  a  a  a  a  a  a  a  a  a  a  a  a  a  a  a  a  a  He.He.He.He.He.He.He.He.He.He.He.He.a  He.a  a  a  a  a  a  a  a  a  a  a  a  a  a  a  a  a  a  a  a  a  a  a  a  a  a  a  a  a  a  a  a  a  a  a  a  a  a  a  a  a  a  a  a  a  a  a  a  a  a  t. t. t. t. t. t. t. t. Xf.Yf.Zf.-f.l. t. t. t. a  a  a  a  a  a  a  a  a  a  a  a  a  a  a  a  a  a  a  a  a  a  a  a  a  a  a  a  a  a  a  a  @f.@f.@f.@f.l. m. t@ =f.t. t. t. t. t. t. t. t. a  a  a  a  a  a  a  a  a  a  a  a  a  a  a  a  a  a  a  a  a  a  a  a  a  a  a  a  a  a  a  a  a  a  a  a  a  a  a  a  a  a  a  a  a  a  a  a  a  a  a  a  a  a  a  a  a  a  a  a  a  a  a  a  a  He.a  He.a  He.He.He.He.He.He.He.He.He.He.He.a  a  a  a  a  a  a  a  a  a  a  a  a  a  a  a  He.He.He.He.He.He.a  a  l. l. t. t. u. u. k. l. t. a  a  a  a  a  a  a  a  a  a  a  :. :. :. :. a  a  a  a  a  a  t. t. -f.@f.)f.;f.c@ {f.;+ af.t. a  a  a  a  a  a  a  a  a  a  a  a  a  a  ",
"0  %  %  b  .  z. y. W. #     0  0  0  0  0  0  0  0  0  0  0  0  0  0  0  a  a  a  a  a  a  a  a  a  a  a  a  a  a  a  a  a  a  a  a  a  a  a  a  a  a  a  a  a  a  a  a  He.He.He.He.He.He.a  a  a  a  a  a  t. a  t. a  a  a  a  a  a  a  a  a  a  a  a  a  a  a  a  a  a  a  a  a  a  a  a  a  a  a  a  a  a  a  a  a  a  a  a  a  a  a  a  a  a  a  a  a  a  a  a  a  t. t. t. t. t. t. t. t. Yf.`f.=f.m. t. t. t. l. a  a  a  a  a  a  a  a  a  a  a  a  a  a  a  a  a  a  a  a  a  a  a  a  a  a  a  a  a  a  a  a  t. ;f.$f.$f.k. {f.%f.!f.u. u. u. u. u. u. u. t. a  a  a  a  a  a  a  a  a  a  a  a  a  a  a  a  a  a  a  a  a  a  a  a  a  a  a  a  a  a  a  a  a  a  a  a  a  a  a  a  a  a  a  a  a  a  a  a  a  a  a  a  a  a  a  a  a  a  a  a  a  a  a  a  a  a  t. a  t. a  a  a  a  a  He.He.He.He.He.He.a  a  a  a  a  a  a  a  a  a  a  a  a  a  a  a  He.He.He.He.He.He.a  a  t. t. t. t. u. u. u. t. t. a  a  a  a  a  a  a  2. :. :. a  a  :. :. :. He.He.He.He.a  a  a  a  l. t. t. l. c@ c@ k. ;f.t. a  a  a  a  a  a  a  a  a  a  a  a  a  a  ",
"0        +  .  *  t  t        0  0  0  0  0  0  0  0  0  0  0  0  0  0  0  a  a  a  a  a  a  a  a  a  a  a  a  a  a  a  a  a  a  a  a  a  a  a  a  a  a  a  a  a  a  a  a  He.He.He.He.He.He.a  a  a  a  t. t. t. t. t. t. a  a  a  a  a  a  a  a  a  a  a  a  a  a  a  a  a  a  a  a  a  a  a  a  a  a  a  a  a  a  a  a  a  a  a  a  a  a  a  a  a  a  a  a  a  a  a  a  t. t. t. t. t. t. t. t. l. t. 'f.v. 'f.t. m. t@ a  a  a  a  a  a  a  a  a  a  a  a  a  a  a  a  a  a  a  a  a  a  a  a  a  a  a  a  a  a  a  a  k. ;f.$f.$f.u. &f.!f. g.u. u. u. u. u. u. u. t. t. a  a  a  a  a  a  a  a  a  a  a  a  a  a  a  a  a  a  a  a  a  a  a  a  a  a  a  a  a  a  a  a  a  a  a  a  a  a  a  a  a  a  a  a  a  a  a  a  a  a  a  a  a  a  a  a  a  a  a  a  a  a  a  t. t. t. t. t. t. t. a  a  a  He.He.He.He.He.He.a  a  a  a  a  a  a  a  a  a  a  a  a  a  a  a  He.He.He.He.He.He.a  a  @f.t. t. l. k. u. u. @f.t. a  a  a  a  a  a  a  2. 2. :. a  a  a  :. :. He.He.He.He.a  a  a  a  v. t. m. m. u. $f.;f.l. t. a  a  a  a  a  a  a  a  a  a  a  a  a  a  ",
"0              z. z. z.       0  0  0  0  0  0  0  0  0  0  0  0  0  0  0  a  a  a  a  a  a  a  a  a  a  a  a  a  a  a  a  a  a  a  a  a  a  a  a  a  a  a  a  a  a  a  a  He.Ke.He.He.He.He.a  a  m. m. ;f.af.af.;f.n. n. t. a  a  a  a  a  a  a  a  a  a  a  a  a  a  a  a  a  a  a  a  a  a  a  a  a  a  a  a  a  a  a  a  a  a  a  a  a  a  a  a  a  a  a  a  a  a  a  'f.'f.@f.@f.@f.@f.@f.@f.m. 'f.^f.'f.t@ Qf.t@ t. a  a  a  a  a  a  a  a  a  a  a  a  a  a  a  a  a  a  a  a  a  a  a  a  a  a  a  a  a  a  a  a  u. u. u. u. u. u. u. u. u. $f.af.uf.)f.k. &f.`f.`f.d. ). 2. of.of.x. 2. a  a  a  a  a  a  a  a  a  a  a  a  a  a  a  a  a  a  a  a  a  a  a  a  a  a  a  a  a  a  a  a  a  a  a  a  a  a  a  a  2. :. !. Ye.sf.tf.Xe.x. a  a  a  a  a  a  a  t. n. {f.Hf.&f.c@ t. @f.@f.a  a  He.He.He.He.Ke.He.a  a  a  a  a  a  a  a  a  a  a  a  a  a  a  a  He.He.He.He.He.He.a  a  v. t. 'f.^f.u. Hf.&f.'f.t. a  a  a  a  a  a  a  a  a  a  a  a  a  a  a  He.Ke.He.He.He.He.a  a  a  a  t. t. t. t. u. t. t. !. 3. 3. ). :. :. a  a  a  a  a  a  a  a  ",
"0              z. z. z.       0  0  0  0  0  0  0  0  0  0  0  0  0  0  0  a  a  a  a  a  a  a  a  a  a  a  a  a  a  a  a  a  a  a  a  a  a  a  a  a  a  a  a  a  a  a  He.He.Ke.He.He.He.He.a  a  v. t. c@ {f.{f.^+ N. )f.t. a  a  a  a  a  a  a  a  a  a  a  a  a  a  a  a  a  a  a  a  a  a  a  a  a  a  a  a  a  a  a  a  a  a  a  a  a  a  a  a  a  a  a  a  a  a  a  t. t. t. t. @f.@f.@f.@f.m. 'f.^f.'f.-f.Qf.-f.t. a  a  a  a  a  a  a  a  a  a  a  a  a  a  a  a  a  a  a  a  a  a  a  a  a  a  a  a  a  a  a  a  t. u. u. u. u. u. u. u. u. ;f.)f.)f.$f.u. {f.Qf.Xe.!. a  2. 2. 2. a  ). a  a  a  a  a  a  a  a  a  a  a  a  a  a  a  a  a  a  a  a  a  a  a  a  a  a  a  a  a  a  a  a  a  a  a  a  a  a  a  a  :. :. ). rf.Ze..g.Xe.2. a  a  a  a  a  a  a  t. $f.~f.~f.$f.;f.u. k. l. t. a  He.He.He.He.Ke.Ke.a  a  a  a  a  a  a  a  a  a  a  a  a  a  a  a  He.He.He.He.He.He.a  a  t. m. l. 'f.n. zf.Hf.l. t. a  a  a  a  a  a  a  a  a  a  a  a  a  a  He.He.Ke.He.He.He.He.a  a  a  a  t. t. t. t. u. t. 2. 2. 2. :. a  a  ). ). a  a  a  a  a  a  a  ",
"0              z. z. z.       0  0  0  0  0  0  0  0  0  0  0  0  0  0  0  a  a  a  a  a  a  a  a  a  a  a  a  a  a  a  a  a  a  a  a  a  a  a  a  a  a  a  a  a  a  a  He.He.Ke.He.He.He.He.a  t. )f.;f.x+ Af.Af.{+ }f.[f.t. a  a  a  a  a  a  a  a  a  a  a  a  a  a  a  a  a  a  a  a  a  a  a  a  a  a  a  a  a  a  a  a  a  a  a  a  a  a  a  a  a  a  a  a  a  a  a  m. m. l. l. t. t. @f.@f.l. 'f.v. @f.-f.t@ -f.t. a  a  a  a  a  a  a  a  a  a  a  a  a  a  a  a  a  a  a  a  a  a  a  a  a  a  a  a  a  a  a  a  t. t. t. t. t. t. t. t. t. @f.@f.@f.@f.t. l. m. 2. 2. :. :. a  ). !. !. a  a  a  a  a  a  a  a  a  a  a  a  a  a  a  a  a  a  a  a  a  a  a  a  a  a  a  a  a  a  a  a  a  a  a  a  a  a  a  a  :. 2. :. 3. rf.vf.3. :. a  a  a  a  a  a  a  t. Af.}f.ve.cf.~f.k. k. l. t. a  He.He.He.He.Ke.Ke.a  a  a  a  a  a  a  a  a  a  a  a  a  a  a  a  He.He.He.He.He.He.a  a  t. l. l. @f.n. &f.&f.l. t. a  a  a  a  a  a  a  a  a  a  a  a  a  a  He.He.Ke.Ke.Ke.Ke.Ke.He.He.a  a  a  a  t. t. t. t. Xe.a  x. x. a  !. !. a  a  a  a  a  a  a  a  ",
"0              z. z. z.       0  0  0  0  0  0  0  0  0  0  0  0  0  0  0  a  a  a  a  a  a  a  a  a  a  a  a  a  a  a  a  a  a  a  a  a  a  a  a  a  a  a  a  a  a  a  He.He.Ke.He.He.He.He.t. t. n. ;f.[f.~f./f.df.}f.x+ t. a  a  a  a  a  a  a  a  a  a  a  a  a  a  a  a  a  a  a  a  a  a  a  a  a  a  a  a  a  a  a  a  a  a  a  a  a  a  a  a  a  a  a  a  a  a  a  t@ -f.-f.m. l. t. @f.@f.t. @f.'f.@f.m. -f.m. t. a  a  a  a  a  a  a  a  a  a  a  a  a  a  a  a  a  a  a  a  a  a  a  a  a  a  a  a  a  a  a  a  a  a  t. a  t. a  t. a  t. a  t. ). l. a  t. :. of.x. :. ). !. !. !. ). a  a  a  a  a  a  a  a  a  a  a  a  a  a  a  a  a  a  a  a  a  a  a  a  a  a  a  a  a  a  a  a  a  a  a  a  a  a  a  a  a  :. 2. a  !. 3. !. :. a  a  a  a  a  a  a  t. +g.ef.,e.ne.}f.;+ u. $f.t. a  a  He.He.He.Ke.Ke.a  a  a  a  a  a  a  a  a  a  a  a  a  a  a  a  He.He.He.He.He.He.a  a  'f.'f.'f.'f.;f.k. k. t. t. a  a  a  a  a  a  a  a  a  a  a  a  a  a  He.Ke.Ke.Ke.Ke.Ke.Ke.He.He.a  a  a  a  t. t. t. t. @g.vf.). :. !. Xe.). 2. a  a  a  a  a  a  a  ",
"0              z. z. z.       0  0  0  0  0  0  0  0  0  0  0  0  0  0  0  a  a  a  a  a  a  a  a  a  a  a  a  a  a  a  a  a  a  a  a  a  a  a  a  a  a  a  a  a  a  a  He.He.Ke.Ke.Ke.He.He.t. t. {f.;f.~f.{+ 5c.nf.L+ y+ t. a  a  a  a  a  a  a  a  a  a  a  a  a  a  a  a  a  a  a  a  a  a  a  a  a  a  a  a  a  a  a  a  a  a  a  a  a  a  a  a  a  a  a  a  a  a  a  t@ -f.-f.m. l. t. @f.@f.t. @f.'f.@f.t. l. l. t. a  a  a  a  a  a  a  a  a  a  a  a  a  a  a  a  a  a  a  a  a  a  a  a  a  a  a  a  a  a  a  a  a  He.a  He.a  He.a  He.a  He.). 2f.). He.:. 2. x. :. a  !. !. ). a  :. a  a  a  a  a  a  a  a  a  a  a  a  a  a  a  a  a  a  a  a  a  a  a  a  a  a  a  a  a  a  a  a  a  a  a  a  a  a  a  a  a  :. 2. 2. :. a  ). a  a  a  a  a  a  a  a  t. #g.$g.P# /f.,e.;+ u. )f.t. a  a  He.Ke.Ke.Ke.Ke.a  a  a  a  a  a  a  a  a  a  a  a  a  a  a  a  He.He.He.He.He.He.a  a  'f.'f.'f.@f.;f.$f.;f.t. t. a  a  a  a  a  a  a  a  a  a  a  a  a  a  He.Ke.%g.Ke.Ke.Ke.Ke.He.He.He.He.a  a  a  a  a  a  @g.vf.). :. !. Xe.). 2. a  a  a  a  a  a  a  ",
"0              z. z. z.       0  0  0  0  0  0  0  0  0  0  0  0  0  0  0  a  a  a  a  a  a  a  a  a  a  a  a  a  a  a  a  a  a  a  a  a  a  a  a  a  a  a  a  a  a  a  He.He.Ke.Ke.Ke.He.He.t. t. k. bf.6c.&g.$g.P# L+ ]+ t. a  a  a  a  a  a  a  a  a  a  a  a  a  a  a  a  a  a  a  a  a  a  a  a  a  a  a  a  a  a  a  a  a  a  a  a  a  a  a  a  a  a  a  a  a  a  a  m. m. l. l. t. t. @f.@f.@f.@f.@f.@f.@f.t. t. t. a  a  a  a  a  a  a  a  a  a  a  a  a  a  a  a  a  a  a  a  a  a  a  a  a  a  a  a  a  a  a  a  He.He.He.He.He.He.He.He.He.He.2f.2f.2f.He.0f.0f.:. a  ). !. ). a  :. 2. a  a  a  a  a  a  a  a  a  a  a  a  a  a  a  a  a  a  a  a  a  a  a  a  a  a  a  a  a  a  a  a  a  a  a  a  a  a  a  a  a  a  :. 2. :. :. a  a  a  a  a  a  a  a  a  t. *g.{$ (f.nf.}f.]+ N. ;f.t. a  a  He.Ke.Ke.Ke.Ke.a  a  a  a  a  a  a  a  a  a  a  a  a  a  a  a  He.He.He.He.He.He.a  a  t. @f.t. -f.k. $f.;f.-f.t. a  a  a  a  a  a  a  a  a  a  a  a  a  a  He.Ke.%g.Ke.Ke.Ke.Ke.He.He.He.He.a  a  a  a  a  a  Xe.a  x. x. a  !. !. a  a  a  a  a  a  a  a  ",
"0              z. z. z.       0  0  0  0  0  0  0  0  0  0  0  0  0  0  0  a  a  a  a  a  a  a  a  a  a  a  a  a  a  a  a  a  a  a  a  a  a  a  a  a  a  a  a  a  a  a  He.He.Ke.Ke.Ke.He.He.t. t. k. [f.{+ =g.-g.5c.;g.]+ t. a  a  a  a  a  a  a  a  a  a  a  a  a  a  a  a  a  a  a  a  a  a  a  a  a  a  a  a  a  a  a  a  a  a  a  a  a  a  a  a  a  a  a  a  a  a  a  t. t. t. t. @f.@f.@f.@f.@f.@f.t. t. @f.'f.@f.@f.a  a  a  a  a  a  a  a  a  a  a  a  a  a  a  a  a  a  a  a  a  a  a  a  a  a  a  a  a  a  a  a  He.Ke.Ke.Ke.Ke.Ke.Ke.Ke.Ke.Ke.Ke.Ke.Ke.Ke.Ke.2f.:. a  a  ). ). a  a  :. a  a  a  a  a  a  a  a  a  a  a  a  a  a  a  a  a  a  a  a  a  a  a  a  a  a  a  a  a  a  a  a  a  a  a  a  a  a  a  a  a  a  a  a  :. :. a  a  a  a  a  a  a  a  a  t. }f.Lf.L+ L+ ,e.,e.N. u. t. a  a  He.Ke.Ke.Ke.Ke.a  a  a  a  a  a  a  a  a  a  a  a  a  a  a  a  He.He.He.He.He.He.a  a  l. @f.t. -f.k. af.$f.t@ t. a  a  a  a  a  a  a  a  a  a  a  a  a  a  He.Ke.%g.%g.%g.Ke.Ke.Ke.Ke.He.He.a  a  a  a  a  a  2. 2. 2. :. a  a  ). ). a  a  a  a  a  a  a  ",
"0                    z.    0  0  0  0  0  0  0  0  0  0  0  0  0  0  0  0  a  a  a  a  a  a  a  a  a  a  a  a  a  a  a  a  a  a  a  a  a  a  a  a  a  a  a  a  a  a  a  a  He.Ke.He.He.He.a  a  t. {f.af.Bf.Af.y+ ne.ne.Af.t. a  a  a  a  a  a  a  a  a  a  a  a  a  a  a  a  a  a  a  a  a  a  a  a  a  a  a  a  a  t. a  a  a  a  a  a  a  a  a  a  a  a  a  a  a  a  a  'f.'f.@f.@f.@f.@f.@f.@f.'f.t. t. t. 'f.'f.'f.@f.a  a  a  a  a  a  a  a  a  a  a  a  a  a  a  a  a  a  a  a  a  a  a  a  a  a  a  a  a  a  a  a  He.Ke.He.Ke.He.Ke.He.Ke.He.1f.0f.1f.0f.Ke.2f.6f.2. :. :. a  a  ). ). !. a  a  a  a  a  a  a  a  a  a  a  a  a  a  a  a  a  a  a  a  a  a  a  a  a  He.a  a  a  a  a  a  a  a  a  a  a  a  a  a  :. ). ). ). a  :. :. a  a  a  a  a  a  a  a  t. Bf.}f.]+ {+ ;+ N. u. u. t. a  a  He.He.Ke.He.He.a  a  a  a  a  a  a  a  a  a  a  a  a  a  a  a  a  a  a  a  a  a  a  t. 'f.^f.'f.m. ;f.>g.uf.m. t. a  a  a  a  a  a  a  a  a  a  a  a  a  a  He.Ke.Ke.Ke.Ke.Ke.Ke.He.He.He.He.a  a  a  a  a  a  a  !. 3. 3. ). :. :. a  a  a  a  a  a  a  a  ",
"a  ). ). ). ). ). ). l. ). a  a  a  a  a  a  a  a  a  a  a  a  a  a  a  a  a  a  a  a  a  a  a  a  a  a  a  a  a  a  a  a  a  a  a  a  a  a  a  a  a  a  a  a  a  a  a  a  :. 0f.2. 2. 2. :. a  ). t. t. t. t. t. t. t. t. a  a  a  a  a  a  a  a  a  a  a  a  a  a  a  a  He.He.He.He.He.He.a  a  @f.'f.v. @f.m. -f.k. @f.a  a  a  a  a  a  a  a  a  a  a  a  a  a  a  a  a  a  a  a  a  a  a  a  a  a  a  a  a  a  a  a  a  a  a  a  a  a  a  a  a  a  a  a  a  a  a  a  a  a  a  a  a  a  a  a  a  a  a  a  a  a  a  a  a  He.a  He.a  He.a  He.a  He.a  He.a  He.a  a  a  a  a  a  a  a  a  a  a  a  a  a  a  a  a  a  a  a  a  a  a  a  a  a  a  a  a  a  a  a  a  a  0f.Ke.He.2f.2f.He.He.0f.2. 2. :. a  t. @f.@f.@f.a  a  a  a  a  a  a  a  a  a  a  a  a  a  a  a  t. t. t. t. t. t. t. t. a  a  a  a  a  He.a  a  a  a  a  a  a  a  a  a  a  a  a  a  a  a  a  a  @f.@f.t. l. l. m. -f.c@ u. u. u. u. u. u. u. t. t. a  a  a  a  a  a  a  a  a  a  a  a  a  a  a  He.He.He.He.He.He.a  a  a  a  a  a  a  a  a  a  a  a  a  a  a  a  a  a  a  a  a  a  a  a  a  ",
"a  a  a  a  a  a  a  a  a  a  a  a  a  a  a  a  a  a  a  a  a  a  a  a  a  a  a  a  a  a  a  a  a  a  a  a  a  a  a  a  a  a  a  a  a  a  a  a  a  a  a  a  a  a  a  a  a  ). ). a  a  :. :. :. :. a  a  a  a  a  a  a  a  a  a  a  a  a  a  a  a  a  a  a  a  a  a  a  a  He.He.He.He.He.He.a  a  t. l. -f.-f.k. u. u. l. t. a  a  a  a  a  a  a  a  a  a  a  a  a  a  a  a  a  a  a  a  a  a  a  a  a  a  a  a  a  a  a  a  a  a  a  a  a  a  a  a  a  a  a  a  a  a  a  a  a  a  a  a  a  a  a  a  a  a  a  a  a  a  a  a  a  a  a  a  a  a  a  a  a  a  a  a  a  a  a  a  a  a  a  a  a  a  a  a  a  a  a  a  a  a  a  a  a  a  a  a  a  a  a  a  a  a  a  a  a  a  a  0f.0f.He.He.2f.2f.a  a  ). ). ). ). t. @f.@f.'f.a  a  a  a  a  a  a  a  a  a  a  a  a  a  a  a  a  a  a  a  a  a  a  a  a  a  a  a  a  a  a  a  a  a  a  a  a  a  a  a  a  a  a  a  a  a  a  a  u. u. u. u. u. u. ;f.;f.u. u. u. u. u. u. u. t. t. a  a  a  a  a  a  a  a  a  a  a  a  a  a  a  a  a  a  a  a  a  a  a  a  a  a  a  a  a  a  a  a  a  a  a  a  a  a  a  a  a  a  a  a  a  a  ",
"a  :. :. :. :. :. :. :. :. a  a  a  a  a  a  a  a  a  a  a  a  a  a  a  a  a  a  a  a  a  a  a  a  a  a  a  a  a  a  a  a  a  a  a  a  a  a  a  a  a  a  a  a  a  a  a  a  ). ). ). ). ). :. 2. 2. a  a  a  a  a  a  a  a  a  a  a  a  a  a  a  a  a  a  a  a  a  a  a  a  He.He.He.He.He.He.a  a  'f.m. =f.t@ ;f.af.$f.l. t. a  a  a  a  a  a  a  a  a  a  a  a  a  a  a  a  a  a  a  a  a  a  a  a  a  a  a  a  a  a  a  a  a  a  a  a  a  a  a  a  a  a  a  a  a  a  a  a  a  a  a  a  a  a  a  a  a  a  a  a  a  a  a  a  a  a  a  a  a  a  a  a  a  a  a  a  a  a  a  a  a  a  a  a  a  a  a  a  a  a  a  a  a  a  a  a  a  a  a  a  a  a  a  a  a  a  a  a  a  a  a  2. :. :. a  a  ). l. ). :. :. :. :. :. :. :. :. a  a  a  a  a  a  a  a  a  a  a  a  a  a  a  a  a  a  a  a  a  a  a  a  a  a  a  a  a  a  a  a  a  a  a  a  a  a  a  a  a  a  a  a  a  a  a  a  k. k. u. ;f.$f.$f.)f.)f.u. u. u. u. u. u. u. t. t. a  a  a  a  a  a  a  a  a  a  a  a  a  a  a  a  a  a  a  a  a  a  a  a  a  a  a  a  a  a  a  a  a  a  a  a  a  a  a  a  a  a  a  a  a  a  ",
"a  :. :. :. :. :. :. :. :. a  a  a  a  a  a  a  a  a  a  a  a  a  a  a  a  a  a  a  a  a  a  a  a  a  a  a  a  a  a  a  a  a  a  a  a  a  a  a  a  a  a  a  a  a  a  a  a  :. :. a  ). a  a  :. 2. a  a  a  a  a  a  a  a  a  a  a  a  a  a  a  a  a  a  a  a  a  a  a  a  He.He.He.He.He.He.a  a  'f.@f.l. l. ;f.$f.$f.@f.t. a  a  a  a  a  a  a  a  a  a  a  a  a  a  a  a  a  a  a  a  a  a  a  a  a  a  a  a  a  a  a  a  a  a  a  a  a  a  a  a  a  a  a  a  a  a  a  a  a  a  a  a  a  a  a  a  a  a  a  a  a  a  a  a  a  a  a  a  a  a  a  a  a  a  a  a  a  a  a  a  a  a  a  a  a  a  a  a  a  a  a  a  a  a  a  a  a  a  a  a  a  a  a  a  a  a  a  a  a  a  a  ;f.;f.;f.;f.u. k. n. m. ^f.of.of.x. 2. :. a  ). a  a  a  a  a  a  a  a  a  a  a  a  a  a  a  a  a  a  a  a  a  a  a  a  a  a  a  a  a  a  a  a  a  a  a  a  a  a  a  a  a  a  a  a  a  a  a  a  l. u. u. u. ;f.;f.$f.$f.u. u. u. u. u. u. u. t. a  a  a  a  a  a  a  a  a  a  a  a  a  a  a  a  a  a  a  a  a  a  a  a  a  a  a  a  a  a  a  a  a  a  a  a  a  a  a  a  a  a  a  a  a  a  a  ",
"a  ). ). ). ). ). ). ). ). a  a  a  a  a  a  a  a  a  a  a  a  a  a  a  a  a  a  a  a  a  a  a  a  a  a  a  a  a  a  a  a  a  a  a  a  a  a  a  a  a  a  a  a  a  a  a  a  of.x. 2. :. :. :. :. :. a  a  a  a  a  a  a  a  a  a  a  a  a  a  a  a  a  a  a  a  a  a  a  a  He.He.He.He.He.He.a  a  l. v. ^f.@f.{f.Hf.c@ @f.t. a  a  a  a  a  a  a  a  a  a  a  a  a  a  a  a  a  a  a  a  a  a  a  a  a  a  a  a  a  a  a  a  a  a  a  a  a  a  a  a  a  a  a  a  a  a  a  a  a  a  a  a  a  a  a  a  a  a  a  a  a  a  a  a  a  a  a  a  a  a  a  a  a  a  a  a  a  a  a  a  a  a  a  a  a  a  a  a  a  a  a  a  a  a  a  a  a  a  a  a  a  a  a  a  a  a  a  a  a  a  t. N. }f.}f.}f.bf.N. x+ n. n. l. t. @f.:. :. He.He.a  a  a  a  a  a  a  a  a  a  a  a  a  a  a  a  a  a  a  a  a  a  a  a  a  a  a  a  a  a  a  a  a  a  a  a  a  a  a  a  a  a  a  a  a  a  a  a  @f.t. t. t. l. l. m. m. t. t. t. t. t. t. t. t. a  a  a  a  a  a  a  a  a  a  a  a  a  a  a  a  a  a  a  a  a  a  a  a  a  a  a  a  a  a  a  a  a  a  a  a  a  a  a  a  a  a  a  a  a  a  a  ",
"a  ). ). ). ). ). ). ). ). a  a  a  a  a  a  a  a  a  a  a  a  a  a  a  a  a  a  a  a  a  a  a  a  a  a  a  a  a  a  a  a  a  a  a  a  a  a  a  a  a  a  a  a  a  a  a  a  :. :. 2. 2. 2. :. a  ). a  a  a  a  a  a  a  a  a  a  a  a  a  a  a  a  a  a  a  a  a  a  a  a  He.He.He.He.He.He.a  a  t@ @f.^f.t. If.,g.%f.m. t. a  a  a  a  a  a  a  a  a  a  a  a  a  a  a  a  a  a  a  a  a  a  a  a  a  a  a  a  a  a  a  a  a  a  a  a  a  a  a  a  a  a  a  a  a  a  a  a  a  a  a  a  a  a  a  a  a  a  a  a  a  a  a  a  a  a  a  a  a  a  a  a  a  a  a  a  a  a  a  a  a  a  a  a  a  a  a  a  a  a  a  a  a  a  a  a  a  a  a  a  a  a  a  a  a  a  a  a  a  a  t. {+ gf.Lf.nf.nf.}f.]+ x+ ,f.If.Qf.m. a  :. 0f.0f.a  a  a  a  a  a  a  a  a  a  a  a  a  a  a  a  a  a  a  a  a  a  a  a  a  a  a  a  a  a  a  a  a  a  a  a  a  a  a  a  a  a  a  a  a  a  a  a  @f.@f.t. l. m. m. -f.-f.t. t. t. t. t. t. t. t. a  a  a  a  a  a  a  a  a  a  a  a  a  a  a  a  a  a  a  a  a  a  a  a  a  a  a  a  a  a  a  a  a  a  a  a  a  a  a  a  a  a  a  a  a  a  a  ",
"a  a  a  a  a  a  a  a  a  a  a  a  a  a  a  a  a  a  a  a  a  a  a  a  a  a  a  a  a  a  a  a  a  a  a  a  a  a  a  a  a  a  a  a  a  a  a  a  a  a  a  a  a  a  a  a  a  rf.Xe.). :. 2. :. a  ). a  a  a  a  a  a  a  a  a  a  a  a  a  a  a  a  a  a  a  a  a  a  a  a  He.He.He.He.He.He.a  a  -f.t. 'f.l. zf.If.Hf.m. t. a  a  a  a  a  a  a  a  a  a  a  a  a  a  a  a  a  a  a  a  a  a  a  a  a  a  a  a  a  a  a  a  a  a  a  a  a  a  a  a  a  a  a  a  a  a  a  a  a  a  a  a  a  a  a  a  a  a  a  a  a  a  a  a  a  a  a  a  a  a  a  a  a  a  a  a  a  a  a  a  a  a  a  a  a  a  a  a  a  a  a  a  a  a  a  a  a  a  a  a  a  a  a  a  a  a  a  a  a  a  u. *$ 'g.qf.)g.;g.nf.}f.N. If.zf.t@ l. :. :. 0f.He.a  a  a  a  a  a  a  a  a  a  a  a  a  a  a  a  a  a  a  a  a  a  a  a  a  a  a  a  a  a  a  a  a  a  a  a  a  a  a  a  a  a  a  a  a  a  a  a  t. t. t. t. t. t. l. l. t. t. t. t. t. t. t. t. a  a  a  a  a  a  a  a  a  a  a  a  a  a  a  a  a  a  a  a  a  a  a  a  a  a  a  a  a  a  a  a  a  a  a  a  a  a  a  a  a  a  a  a  a  a  a  ",
"a  :. :. :. :. :. :. :. :. a  a  a  a  a  a  a  a  a  a  a  a  a  a  a  a  a  a  a  a  a  a  a  a  a  a  a  a  a  a  a  a  a  a  a  a  a  a  a  a  a  a  a  a  a  a  a  a  sf..g.d. a  2. 2. a  ). a  a  a  a  a  a  a  a  a  a  a  a  a  a  a  a  a  a  a  a  a  a  a  a  He.He.He.He.He.He.a  a  @f.@f.@f.t. k. k. u. @f.t. a  a  a  a  a  a  a  a  a  a  a  a  a  a  a  a  a  a  a  a  a  a  a  a  a  a  a  a  a  a  a  a  a  a  a  a  a  a  a  a  a  a  a  a  a  a  a  a  a  a  a  a  a  a  a  a  a  a  a  a  a  a  a  a  a  a  a  a  a  a  a  a  a  a  a  a  a  a  a  a  a  a  a  a  a  a  a  a  a  a  a  a  a  a  a  a  a  a  a  a  a  a  a  a  a  a  a  a  a  a  u. l+ ~$ !g.mf.;g.ad.nf.bf.N. ;f.v. ^f.x. :. 2f.9f.a  a  a  a  a  a  a  a  a  a  a  a  a  a  a  a  a  a  a  a  a  a  a  a  a  a  a  a  a  a  a  a  a  a  a  a  a  a  a  a  a  a  a  a  a  a  a  a  l. l. t. @f.@f.'f.v. v. t. t. t. t. t. t. t. t. a  a  a  a  a  a  a  a  a  a  a  a  a  a  a  a  a  a  a  a  a  a  a  a  a  a  a  a  a  a  a  a  a  a  a  a  a  a  a  a  a  a  a  a  a  a  a  ",
"!. a  a  a  a  a  a  a  a  a  a  a  a  a  a  a  a  a  a  a  a  a  a  a  a  2. :. ). !. !. ). :. 2. a  a  a  a  a  a  a  a  a  a  a  a  a  a  a  a  a  a  a  a  a  a  a  a  a  a  a  a  a  a  a  a  a  a  a  a  a  a  a  a  a  a  a  a  a  a  a  a  a  a  a  a  a  a  a  a  He.He.He.He.He.He.a  a  t. t. t. t. u. u. u. t. t. a  a  a  a  a  a  a  a  a  a  a  a  a  a  a  a  a  a  a  a  a  a  a  a  a  a  a  a  a  a  a  a  a  a  a  a  a  a  a  a  a  a  a  a  a  a  a  x. ). !. 2. x. :. a  2. a  a  a  a  a  a  a  a  a  a  a  a  a  a  a  a  a  a  a  a  a  a  a  a  a  a  a  a  a  a  a  a  a  a  a  a  a  a  a  a  a  a  a  a  a  a  a  a  a  2. of.Je.x. ). d. %f.~g.{g.qf.]g.pf.P# (f.Bf.N. u. t. t. a  a  He.He.a  a  a  a  a  a  a  a  a  a  a  a  a  a  a  a  a  a  a  a  a  a  a  a  a  a  a  a  a  a  a  a  a  a  a  a  a  a  a  a  a  a  a  a  a  a  a  a  a  a  a  a  a  a  a  a  a  a  a  a  a  a  a  a  a  a  a  a  a  a  a  a  a  a  a  a  a  a  a  a  a  a  a  a  a  a  a  a  a  a  a  a  a  a  a  a  :. a  a  ). ). a  :. :. a  a  a  a  a  a  a  ",
"!. a  a  a  a  a  a  a  a  a  a  a  a  a  a  a  a  a  a  a  a  a  a  a  a  2. :. ). !. !. ). :. 2. a  a  a  a  a  a  a  a  a  a  a  a  a  a  a  a  a  a  a  a  a  a  a  a  a  a  a  a  a  a  a  a  a  a  a  a  a  a  a  a  a  a  a  a  a  a  a  a  a  a  a  a  a  a  a  a  He.He.He.He.He.He.a  a  t. t. t. t. u. u. u. t. t. a  a  a  a  a  a  a  a  a  a  a  a  a  a  a  a  a  a  a  a  a  a  a  a  a  a  a  a  a  a  a  a  a  a  a  a  a  a  a  a  a  a  a  a  a  a  a  :. 3. 3. a  :. !. !. a  a  a  a  a  a  a  a  a  a  a  a  a  a  a  a  a  a  a  a  a  a  a  a  a  a  a  a  a  a  a  a  a  a  a  a  a  a  a  a  a  a  a  a  a  a  a  a  a  a  :. x. x. 2. a  Xe.Hf.^g.&$ mf.)g./g.{$ {+ bf.u. u. t. t. a  a  He.He.a  a  a  a  a  a  a  a  a  a  a  a  a  a  a  a  a  a  a  a  a  a  a  a  a  a  a  a  a  a  a  a  a  a  a  a  a  a  a  a  a  a  a  a  a  a  a  a  a  a  a  a  a  a  a  a  a  a  a  a  a  a  a  a  a  a  a  a  a  a  a  a  a  a  a  a  a  a  a  a  a  a  a  a  a  a  a  a  a  a  a  a  a  a  a  a  :. :. a  a  ). ). !. !. a  a  a  a  a  a  a  ",
"!. a  a  a  a  a  a  a  a  a  a  a  a  a  a  a  a  a  a  a  a  a  a  a  a  2. :. ). !. !. ). :. 2. a  a  a  a  a  a  a  a  a  a  a  a  a  a  a  a  a  a  a  a  a  a  a  a  a  a  a  a  a  a  a  a  a  a  a  a  a  a  a  a  a  a  a  a  a  a  a  a  a  a  a  a  a  a  a  a  He.He.He.He.He.He.a  a  t. t. t. t. u. u. u. t. t. a  a  a  a  a  a  a  a  a  a  a  a  a  a  a  a  a  a  a  a  a  a  a  a  a  a  a  a  a  a  a  a  a  a  a  a  a  a  a  a  a  a  a  a  a  a  a  a  3. 3. a  a  3. 3. a  a  a  a  a  a  a  a  a  a  a  a  a  a  a  a  a  a  a  a  a  a  a  a  a  a  a  a  a  a  a  a  a  a  a  a  a  a  a  a  a  a  a  a  a  a  a  a  a  a  :. :. :. :. a  ). m. /f.;g.)g.(f.P# 6c.]+ bf.u. u. t. t. a  a  He.He.a  a  a  a  a  a  a  a  a  a  a  a  a  a  a  a  a  a  a  a  a  a  a  a  a  a  a  a  a  a  a  a  a  a  a  a  a  a  a  a  a  a  a  a  a  a  a  a  He.He.He.He.He.He.He.He.He.He.He.He.He.He.He.He.a  a  a  a  a  a  a  a  a  a  a  a  a  a  a  a  a  a  a  a  a  a  a  a  a  a  a  a  a  a  a  a  3. !. ). a  a  ). !. 3. a  a  a  a  a  a  a  ",
"). a  a  a  a  a  a  a  a  a  a  a  a  a  a  a  a  a  a  a  a  a  a  a  a  :. a  a  ). ). a  a  :. a  a  a  a  a  a  a  a  a  a  a  a  a  a  a  a  a  a  a  a  a  a  a  a  a  a  a  a  a  a  a  a  a  a  a  a  a  a  a  a  a  a  a  a  a  a  a  a  a  a  a  a  a  a  a  a  He.He.He.He.He.He.a  a  t. t. t. t. u. u. u. t. t. a  a  a  a  a  a  a  a  a  a  a  a  a  a  a  a  a  a  a  a  a  a  a  a  a  a  a  a  a  a  a  a  a  a  a  a  a  a  a  a  a  a  a  a  a  a  a  2. a  a  2. :. 3. !. 2. a  a  a  a  a  a  a  a  a  a  a  a  a  a  a  a  a  a  a  a  a  a  a  a  a  a  a  a  a  a  a  a  a  a  a  a  a  a  a  a  a  a  a  a  a  a  a  a  a  a  a  ). ). a  a  @f.[f.}f.]+ {+ ;+ bf.~f.)f.u. t. t. t. a  a  He.He.a  a  a  a  a  a  a  a  a  a  a  a  a  a  a  a  a  a  a  a  a  a  a  a  a  a  a  a  a  a  a  a  a  a  a  a  a  a  a  a  a  a  a  a  a  a  a  a  He.He.He.He.He.He.He.He.He.He.He.He.He.He.He.He.a  a  a  a  a  a  a  a  a  a  a  a  a  a  a  a  a  a  a  a  a  a  a  a  a  a  a  a  a  a  a  a  Ye.rf.3. a  :. :. ). !. a  a  a  a  a  a  a  ",
"). a  a  a  a  a  a  a  a  a  a  a  a  a  a  a  a  a  a  a  a  a  a  a  a  :. a  a  ). ). a  a  :. a  a  a  a  a  a  a  a  a  a  a  a  a  a  a  a  a  a  a  a  a  a  a  a  a  a  a  a  a  a  a  a  a  a  a  a  a  a  a  a  a  a  a  a  a  a  a  a  a  a  a  a  a  a  a  a  He.He.He.He.He.He.a  a  t. t. t. t. u. u. u. t. t. a  a  a  a  a  a  a  a  a  a  a  a  a  a  a  a  a  a  a  a  a  a  a  a  a  a  a  a  a  a  a  a  a  a  a  a  a  a  a  a  a  a  a  a  a  a  a  :. a  :. x. a  Xe.3. 2. a  a  a  a  a  a  a  a  a  a  a  a  a  a  a  a  a  a  a  a  a  a  a  a  a  a  a  a  a  a  a  a  a  a  a  a  a  a  a  a  a  a  a  a  a  a  a  a  a  a  ). ). ). a  :. 2. k. n. c@ n. ;f.)f.$f.t. t. a  a  a  a  a  a  a  a  a  a  a  a  a  a  a  a  a  a  a  a  a  a  a  a  a  a  a  a  a  a  a  a  a  a  a  a  a  a  a  a  a  a  a  a  a  a  a  a  a  a  a  a  a  a  a  He.He.He.He.He.He.He.He.He.He.He.He.He.He.He.He.a  a  a  a  a  a  a  a  a  a  a  a  a  a  a  a  a  a  a  a  a  a  a  a  a  a  a  a  a  a  a  a  d. Xe.). a  :. ). 3. Xe.a  a  a  a  a  a  a  ",
"a  a  a  a  a  a  a  a  a  a  a  a  a  a  a  a  a  a  a  a  a  a  a  a  a  a  a  a  a  a  a  a  a  a  a  a  a  a  a  a  a  a  a  a  a  a  a  a  a  a  a  a  a  a  a  a  a  a  a  a  a  a  a  a  a  a  a  a  a  a  a  a  a  a  a  a  a  a  a  a  a  a  a  a  a  a  a  a  a  He.He.He.He.He.He.a  a  t. t. t. t. u. u. u. t. t. a  a  a  a  a  a  a  a  a  a  a  a  a  a  a  a  a  a  a  a  a  a  a  a  a  a  a  a  a  a  a  a  a  a  a  a  a  a  a  a  a  a  a  a  a  a  a  !. !. a  :. 3. Ye.rf.). a  a  a  a  a  a  a  a  a  a  a  a  a  a  a  a  a  a  a  a  a  a  a  a  a  a  a  a  a  a  a  a  a  a  a  a  a  a  a  a  a  a  a  a  a  a  a  a  a  a  ). ). ). a  :. :. ). ). ). a  :. a  m. d. a  a  a  a  a  a  a  a  a  a  a  a  a  a  a  a  a  a  a  a  a  a  a  a  a  a  a  a  a  a  a  a  a  a  a  a  a  a  a  a  a  a  a  a  a  a  a  a  a  a  a  a  a  a  a  a  He.He.He.He.He.He.He.He.He.He.He.He.He.He.He.He.a  a  a  a  a  a  a  a  a  a  a  a  a  a  a  a  a  a  a  a  a  a  a  a  a  a  a  a  a  a  a  a  :. :. :. :. ). 3. rf.vf.a  a  a  a  a  a  a  ",
"a  a  a  a  a  a  a  a  a  a  a  a  a  a  a  a  a  a  a  a  a  a  a  a  a  ). a  a  :. :. a  a  ). a  a  a  a  a  a  a  a  a  a  a  a  a  a  a  a  a  a  a  a  a  a  a  a  a  a  a  a  a  a  a  a  a  a  a  a  a  a  a  a  a  a  a  a  a  a  a  a  a  a  a  a  a  a  a  a  He.He.He.He.He.He.a  a  t. t. t. t. u. u. u. t. t. a  a  a  a  a  a  a  a  a  a  a  a  a  a  a  a  a  a  a  a  a  a  a  a  a  a  a  a  a  a  a  a  a  a  a  a  a  a  a  a  a  a  a  a  a  a  a  !. !. a  :. Xe.j. vf.). a  a  a  a  a  a  a  a  a  a  a  a  a  a  a  a  a  a  a  a  a  a  a  a  a  a  a  a  a  a  a  a  a  a  a  a  a  a  a  a  a  a  a  a  a  a  a  a  a  a  a  a  a  a  a  ). He.0f.0f.0f.2f.6f.3. 3. a  a  a  a  t. t. t. t. a  a  a  a  a  a  a  a  a  a  a  a  a  a  a  a  a  a  a  a  a  a  a  a  a  a  a  a  a  a  a  a  a  a  a  a  a  a  a  a  a  a  a  a  a  a  a  a  He.He.He.He.He.He.He.He.He.He.He.He.He.He.He.He.a  a  a  a  a  a  a  a  a  a  a  a  a  a  a  a  a  a  a  a  a  a  a  a  a  a  a  a  a  a  a  a  2. :. :. a  ). !. 3. 3. a  a  a  a  a  a  a  ",
"t. t. a  a  a  a  a  a  a  a  a  a  a  a  a  a  a  a  a  a  a  a  a  a  a  ). a  a  :. :. a  a  ). a  a  a  a  a  a  a  a  a  a  a  a  a  a  a  a  a  a  a  a  a  a  a  a  a  a  a  a  a  a  a  a  a  a  a  a  a  a  a  a  a  a  a  a  a  a  a  a  a  a  a  a  a  a  a  a  He.He.He.He.He.He.He.a  a  a  a  a  t. t. t. t. a  a  a  a  a  a  a  a  a  a  a  a  a  a  a  a  a  a  a  a  a  a  a  a  a  a  a  a  a  a  a  a  a  a  a  a  a  a  a  a  a  a  a  a  a  a  a  a  a  a  x. x. !. Ye.d. :. a  a  a  a  a  a  a  a  a  a  a  a  a  a  a  a  a  a  a  a  a  a  a  a  a  a  a  a  a  a  a  a  a  a  a  a  a  a  a  a  a  a  a  a  a  a  a  a  a  :. :. :. :. a  ). !. He.1f.0f.He.6f.6f.He.Wf.a  a  a  a  t. t. t. t. a  a  a  a  a  a  a  a  a  a  a  a  a  a  a  a  a  a  a  a  a  a  a  a  a  a  a  a  a  a  a  a  a  a  a  a  a  a  a  a  a  a  a  a  a  a  a  a  He.He.He.He.He.He.He.He.He.He.He.He.He.He.He.He.a  a  a  a  a  a  a  a  a  a  a  a  a  a  a  a  a  a  a  a  a  a  a  a  a  a  a  a  a  a  a  a  3. 3. !. ). a  2. of.Je.a  a  a  a  a  a  a  ",
"u. u. t. t. t. a  a  He.He.a  a  a  a  a  a  a  a  a  a  a  a  a  a  a  a  a  a  a  a  a  a  a  a  a  a  a  a  a  a  a  a  a  a  a  a  a  a  a  a  a  a  a  a  a  a  a  a  a  a  a  a  a  a  a  a  a  a  a  a  a  a  a  a  a  a  a  a  a  a  a  a  a  a  a  a  a  a  a  a  a  a  He.He.Ke.Ke.Ke.He.He.He.He.He.a  a  a  a  a  a  a  a  a  a  a  a  a  a  a  a  a  a  a  a  a  a  a  a  a  a  a  a  a  a  a  a  a  a  a  a  a  a  a  a  a  a  a  a  a  a  a  a  a  a  a  a  a  a  a  a  a  a  a  a  a  a  a  a  a  a  a  a  a  a  a  a  a  a  a  a  a  a  a  a  a  a  a  a  a  a  a  a  a  a  a  a  a  a  a  a  a  a  a  a  a  a  a  a  a  a  a  a  a  a  a  a  a  a  a  a  a  He.a  a  a  a  a  a  a  a  a  a  a  a  a  a  a  a  a  a  a  a  a  a  a  a  a  a  a  a  a  a  rf.!. 2. x. x. :. a  a  a  a  a  a  a  a  a  a  a  a  a  a  a  a  a  a  a  a  a  a  a  a  a  a  a  a  a  a  a  a  a  a  a  a  a  a  a  a  a  a  a  a  a  a  a  a  a  a  a  a  a  a  a  a  a  a  a  a  a  a  a  a  a  a  a  a  a  a  a  a  a  a  a  a  a  a  a  a  a  a  a  a  a  a  a  a  a  ",
"u. u. u. t. t. a  a  He.He.a  a  a  a  a  a  a  a  a  a  a  a  a  a  a  a  a  a  a  a  a  a  a  a  a  a  a  a  a  a  a  a  a  a  a  a  a  a  a  a  a  a  a  a  a  a  a  a  a  a  a  a  a  a  a  a  a  a  a  a  a  a  a  a  a  a  a  a  a  a  a  a  a  a  a  a  a  a  a  a  a  a  He.He.Ke.Ke.Ke.Ke.Ke.Ke.Ke.Ke.He.He.a  a  a  a  a  a  a  a  a  a  a  a  a  a  a  a  a  a  a  a  a  a  a  a  a  a  a  a  a  a  a  a  a  a  a  a  a  a  a  a  a  a  a  a  a  a  a  a  a  a  a  a  a  a  a  a  a  a  a  a  a  a  a  a  a  a  a  a  a  a  a  a  a  a  a  a  a  a  a  a  a  a  a  a  a  a  a  a  a  a  a  a  a  a  a  a  a  a  a  a  a  a  a  a  a  a  a  a  a  a  a  a  a  a  a  a  a  a  a  a  a  a  a  a  a  a  a  a  a  a  a  a  a  a  a  a  a  a  a  a  a  a  a  a  a  a  ). :. 2. :. ). ). ). a  a  a  a  a  a  a  a  a  a  a  a  a  a  a  a  a  a  a  a  a  a  a  a  a  a  a  a  a  a  a  a  a  a  a  a  a  a  a  a  a  a  a  a  a  a  a  a  a  a  a  a  a  a  a  a  a  a  a  a  a  a  a  a  a  a  a  a  a  a  a  a  a  a  a  a  a  a  a  a  a  a  a  a  a  a  a  a  ",
"u. u. t. t. t. a  a  a  a  a  a  a  a  a  a  a  a  a  a  a  a  a  a  a  a  a  a  a  a  a  a  a  a  a  a  a  a  a  a  a  a  a  a  a  a  a  a  a  a  a  a  a  a  a  a  a  a  a  a  a  a  a  a  a  a  a  a  a  a  a  a  a  a  a  a  a  a  a  a  a  a  a  a  a  a  a  a  a  a  He.He.He.He.He.He.Ke.Ke.Ke.Ke.He.He.He.He.He.He.a  a  a  a  a  a  a  a  a  a  a  a  a  a  a  a  a  a  a  a  a  a  a  a  a  a  a  a  a  a  a  a  a  a  a  a  a  a  a  a  a  a  a  a  a  a  a  a  a  a  a  a  a  a  a  a  a  a  a  a  a  a  a  a  a  a  a  a  a  a  a  a  a  a  a  a  a  a  a  a  a  a  a  a  a  a  a  a  a  a  a  a  a  a  a  a  a  a  a  a  a  a  a  a  a  a  a  a  a  a  a  a  a  a  a  a  a  a  a  a  a  a  a  a  a  a  a  a  a  a  a  a  a  a  a  a  a  a  a  a  a  a  a  a  x. x. 2. a  3. 3. ). :. a  a  a  a  a  a  a  a  a  a  a  a  a  a  a  a  a  a  a  a  a  a  a  a  a  a  a  a  a  a  a  a  a  a  a  a  a  a  a  a  a  a  a  a  a  a  a  a  a  a  a  a  a  a  a  a  a  a  a  a  a  a  a  a  a  a  a  a  a  a  a  a  a  a  a  a  a  a  a  a  a  a  a  a  a  a  a  ",
"t. t. t. t. t. a  a  a  a  a  a  a  a  a  a  a  a  a  a  a  a  a  a  a  a  a  a  a  a  a  a  a  a  a  a  a  a  a  a  a  a  a  a  a  a  a  a  a  a  a  a  a  a  a  a  a  a  a  a  a  a  a  a  a  a  a  a  a  a  a  a  a  a  a  a  a  a  a  a  a  a  a  a  a  a  a  a  a  a  He.He.He.He.He.He.He.Ke.He.He.He.He.He.He.He.He.a  a  a  a  a  a  a  a  a  a  a  a  a  a  a  a  a  a  a  a  a  a  a  a  a  a  a  a  a  a  a  a  a  a  a  a  a  a  a  a  a  a  a  a  a  a  a  a  a  a  a  a  a  a  a  a  a  a  a  a  a  a  a  a  a  a  a  a  a  a  a  a  a  a  a  a  a  a  a  a  a  a  a  a  a  a  a  a  a  a  a  a  a  a  a  a  a  a  a  a  a  a  a  a  a  a  a  a  a  a  a  a  a  a  a  a  a  a  a  a  a  a  a  a  a  a  a  a  a  a  a  a  a  a  a  a  a  a  a  a  a  a  a  a  :. 2. 2. a  !. !. ). :. a  a  a  a  a  a  a  a  a  a  a  a  a  a  a  a  a  a  a  a  a  a  a  a  a  a  a  a  a  a  a  a  a  a  a  a  a  a  a  a  a  a  a  a  a  a  a  a  a  a  a  a  a  a  a  a  a  a  a  a  a  a  a  a  a  a  a  a  a  a  a  a  a  a  a  a  a  a  a  a  a  a  a  a  a  a  a  ",
"a  a  a  a  a  t. t. t. t. a  a  a  a  a  a  a  a  a  a  a  a  a  a  a  a  a  a  a  a  a  a  a  a  a  a  a  a  a  a  a  a  a  a  a  a  a  a  a  a  a  a  a  a  a  a  a  a  a  a  a  a  a  a  a  a  a  a  a  a  a  a  a  a  a  a  a  a  a  a  a  a  a  a  a  a  a  a  a  a  He.He.He.He.He.He.He.He.a  He.He.He.He.He.He.He.a  a  a  a  a  a  a  a  a  a  a  a  a  a  a  a  a  a  a  a  a  a  a  a  a  a  a  a  a  a  a  a  a  a  a  a  a  a  a  a  a  a  a  a  a  a  a  a  a  a  a  a  a  a  a  a  a  a  a  a  a  a  a  a  a  a  a  a  a  a  a  a  a  a  a  a  a  a  a  a  a  a  a  a  a  a  a  a  a  a  a  a  a  a  a  a  a  a  a  a  a  a  a  a  a  a  a  a  a  a  a  a  a  a  a  a  a  a  a  a  a  a  a  a  a  a  a  a  a  a  a  a  a  a  a  a  a  a  a  a  a  a  a  a  d. !. 2. x. 2. a  a  a  a  a  a  a  a  a  a  a  a  a  a  a  a  a  a  a  a  a  a  a  a  a  a  a  a  a  a  a  a  a  a  a  a  a  a  a  a  a  a  a  a  a  a  a  a  a  a  a  a  a  a  a  a  a  a  a  a  a  a  a  a  a  a  a  a  a  a  a  a  a  a  a  a  a  a  a  a  a  a  a  a  a  a  a  a  a  a  ",
"He.He.a  a  a  t. t. t. t. a  a  a  a  a  a  a  a  a  a  a  a  a  a  a  a  a  a  a  a  a  a  a  a  a  a  a  a  a  a  a  a  a  a  a  a  a  a  a  a  a  a  a  a  a  a  a  a  a  a  a  a  a  a  a  a  a  a  a  a  a  a  a  a  a  a  a  a  a  a  a  a  a  a  a  a  a  a  a  a  He.He.He.He.He.a  a  a  a  a  a  He.He.He.He.He.a  a  a  a  a  a  a  a  a  a  a  a  a  a  a  a  a  a  a  a  a  a  a  a  a  a  a  a  a  a  a  a  a  a  a  a  a  a  a  a  a  a  a  a  a  a  a  a  a  a  a  a  a  a  a  a  a  a  a  a  a  a  a  a  a  a  a  a  a  a  a  a  a  a  a  a  a  a  a  a  a  a  a  a  a  a  a  a  a  a  a  a  a  a  a  a  a  a  a  a  a  a  a  a  a  a  a  a  a  a  a  a  a  a  a  a  a  a  a  a  a  a  a  a  a  a  a  a  a  a  a  a  a  a  a  a  a  a  a  a  a  a  a  a  vf.3. 2. of.x. :. a  a  a  a  a  a  a  a  a  a  a  a  a  a  a  a  a  a  a  a  a  a  a  a  a  a  a  a  a  a  a  a  a  a  a  a  a  a  a  a  a  a  a  a  a  a  a  a  a  a  a  a  a  a  a  a  a  a  a  a  a  a  a  a  a  a  a  a  a  a  a  a  a  a  a  a  a  a  a  a  a  a  a  a  a  a  a  a  a  ",
"Ke.Ke.He.a  a  t. t. u. t. a  a  a  a  a  a  a  a  a  a  a  a  a  a  a  a  a  a  a  a  a  a  a  a  a  a  a  a  a  a  a  a  a  a  a  a  a  a  a  a  a  a  a  a  a  a  a  a  a  a  a  a  a  a  a  a  a  a  a  a  a  a  a  a  a  a  a  a  a  a  a  a  a  a  a  a  a  a  a  a  He.He.He.He.a  t. t. t. t. t. t. a  He.He.He.He.a  a  a  a  a  a  a  a  a  a  a  a  a  a  a  a  a  a  a  a  a  a  a  a  a  a  a  a  a  a  a  a  a  a  a  a  a  a  a  a  a  a  a  a  a  a  a  a  a  a  a  a  a  a  a  a  a  a  a  a  a  a  a  a  a  a  a  a  a  a  a  a  a  a  a  a  a  a  a  a  a  a  a  a  a  a  a  a  a  a  a  a  a  a  a  a  a  a  a  a  a  a  a  a  a  a  a  a  a  a  a  a  a  a  a  a  a  a  a  a  a  a  a  a  a  a  a  a  a  a  a  a  a  a  a  a  a  a  a  a  a  a  a  a  3. ). 2. 2. :. ). a  a  a  a  a  a  a  a  a  a  a  a  a  a  a  a  a  a  a  a  a  a  a  a  a  a  a  a  a  a  a  a  a  a  a  a  a  a  a  a  a  a  a  a  a  a  a  a  a  a  a  a  a  a  a  a  a  a  a  a  a  a  a  a  a  a  a  a  a  a  a  a  a  a  a  a  a  a  a  a  a  a  a  a  a  a  a  a  a  ",
"%g.Ke.Ke.He.a  t. t. u. u. t. a  a  a  a  a  a  a  a  a  a  a  a  a  a  a  a  a  a  a  a  a  a  a  a  a  a  a  a  a  a  a  a  a  a  a  a  a  a  a  a  a  a  a  a  a  a  a  a  a  a  a  a  a  a  a  a  a  a  a  a  a  a  a  a  a  a  a  a  a  a  a  a  a  a  a  a  a  a  a  He.He.He.a  t. t. t. t. u. t. t. t. a  He.He.He.a  a  a  a  a  a  a  a  a  a  a  a  a  a  a  a  a  a  a  a  a  a  a  a  a  a  a  a  a  a  a  a  a  a  a  a  a  a  a  a  a  a  a  a  a  a  a  a  a  a  a  a  a  a  a  a  a  a  a  a  a  a  a  a  a  a  a  a  a  a  a  a  a  a  a  a  a  a  a  a  a  a  a  a  a  a  a  a  a  a  a  a  a  a  a  a  a  a  a  a  a  a  a  a  a  a  a  a  a  a  a  a  a  a  a  a  a  a  a  a  a  a  a  a  a  a  a  a  a  a  a  a  a  a  a  a  a  a  a  a  a  a  a  a  2. 2. 2. a  !. 3. ). :. a  a  a  a  a  a  a  a  a  a  a  a  a  a  a  a  a  a  a  a  a  a  a  a  a  a  a  a  a  a  a  a  a  a  a  a  a  a  a  a  a  a  a  a  a  a  a  a  a  a  a  a  a  a  a  a  a  a  a  a  a  a  a  a  a  a  a  a  a  a  a  a  a  a  a  a  a  a  a  a  a  a  a  a  a  a  a  ",
"%g.%g.Ke.He.a  t. u. N. u. t. a  a  a  a  a  a  a  a  a  a  a  a  a  a  a  a  a  a  a  a  a  a  a  a  a  a  a  a  a  a  a  a  a  a  a  a  a  a  a  a  a  a  a  a  a  a  a  :. :. :. a  a  ). ). ). a  a  a  a  a  a  a  a  a  a  a  a  a  a  a  a  a  a  a  a  a  a  a  a  6f.|f.2f.rf.t. u. {f.;f.N. u. u. t. a  He.He.He.a  a  a  a  a  a  a  a  a  a  a  a  a  a  a  a  a  a  a  a  a  a  a  a  a  a  a  a  a  a  a  a  a  a  a  a  a  a  a  a  :. a  a  ). ). a  a  :. :. a  a  2. :. 3. 3. 2. a  a  a  a  a  a  a  a  a  a  a  a  a  a  a  a  a  a  a  a  a  a  a  a  :. !. d. vf.vf.d. !. :. a  a  a  a  a  a  a  a  a  a  a  a  a  a  a  a  a  a  a  a  a  a  a  a  a  a  a  a  a  a  a  a  a  a  a  a  a  a  a  a  a  a  a  a  a  a  a  a  a  a  a  a  a  a  a  a  a  a  a  a  a  a  a  a  a  a  a  a  a  a  a  a  a  a  a  a  a  a  a  a  a  a  a  a  a  a  a  a  a  a  a  a  a  a  a  a  a  a  a  a  a  a  a  a  a  a  a  a  a  a  a  a  a  a  a  a  a  a  a  a  a  a  a  a  a  a  a  a  a  a  a  a  a  a  a  a  a  a  a  a  a  a  a  a  a  a  a  a  a  a  a  ",
"(g.%g.%g.He.a  t. u. N. u. t. a  a  a  a  a  a  a  a  a  a  a  a  a  a  a  a  a  a  a  a  a  a  a  a  a  a  a  a  a  a  a  a  a  a  a  a  a  a  a  a  a  a  a  a  a  a  a  :. :. :. a  a  ). ). ). a  a  a  a  a  a  a  a  a  a  a  a  a  a  a  a  a  a  a  a  a  a  a  He.6f.7f.). =f.$f.bf.x+ Bf.,e.N. N. u. t. He.He.Ke.a  a  a  a  a  a  a  a  a  a  a  a  a  a  a  a  a  a  a  a  a  a  a  a  a  a  a  a  a  a  a  a  a  a  a  a  a  a  a  a  :. a  a  ). ). a  a  :. :. a  a  2. :. 3. 3. 2. a  a  a  a  a  a  a  a  a  a  a  a  a  a  a  a  a  a  a  a  a  a  a  a  2. a  !. Xe.Xe.!. a  2. a  a  a  a  a  a  a  a  a  a  a  a  a  a  a  a  a  a  a  a  a  a  a  a  a  a  a  a  a  a  a  a  a  a  a  a  a  a  a  a  a  a  a  a  a  a  a  a  a  a  a  a  a  a  a  a  a  a  a  a  a  a  a  a  a  a  a  a  a  a  a  a  a  a  a  a  a  a  a  a  a  a  a  a  a  a  a  a  a  a  a  a  a  a  a  a  a  a  a  a  a  a  a  a  a  a  a  a  a  a  a  a  a  a  a  a  a  a  a  a  a  a  a  a  a  a  a  a  a  a  a  a  a  a  a  a  a  a  a  a  a  a  a  a  a  a  a  a  a  a  a  ",
"3f.%g.%g.He.a  t. u. N. u. t. a  a  a  a  a  a  a  a  a  a  a  a  a  a  a  a  a  a  a  a  a  a  a  a  a  a  a  a  a  a  a  a  a  a  a  a  a  a  a  a  a  a  a  a  a  a  a  :. :. :. a  a  ). ). ). a  a  a  a  a  a  a  a  a  a  a  a  a  a  a  a  a  a  a  a  a  a  a  He.9f.4f.). -f.af.~f.{+ ne.(f.,e.N. u. t. He.He.Ke.a  a  a  a  a  a  a  a  a  a  a  a  a  a  a  a  a  a  a  a  a  a  a  a  a  a  a  a  a  a  a  a  a  a  a  a  a  a  a  a  :. a  a  ). ). a  a  :. :. a  a  2. :. 3. 3. 2. a  a  a  a  a  a  a  a  a  a  a  a  a  a  a  a  a  a  a  a  a  a  a  a  2. 2. :. a  a  :. 2. 2. a  a  a  a  a  a  a  a  a  a  a  a  a  a  a  a  a  a  a  a  a  a  a  a  a  a  a  a  a  a  a  a  a  a  a  a  a  a  a  a  a  a  a  a  a  a  a  a  a  a  a  a  a  a  a  a  a  a  a  a  a  a  a  a  a  a  a  a  a  a  a  a  a  a  a  a  a  a  a  a  a  a  a  a  a  a  a  a  a  a  a  a  a  a  a  a  a  a  a  a  a  a  a  a  a  a  a  a  a  a  a  a  a  a  a  a  a  a  a  a  a  a  a  a  a  a  a  a  a  a  a  a  a  a  a  a  a  a  a  a  a  a  a  a  a  a  a  a  a  a  a  ",
"Ke.Ke.Ke.He.He.t. t. N. u. t. a  a  a  a  a  a  a  a  a  a  a  a  a  a  a  a  a  a  a  a  a  a  a  a  a  a  a  a  a  a  a  a  a  a  a  a  a  a  a  a  a  a  a  a  a  a  a  :. :. :. a  a  ). ). ). a  a  a  a  a  a  a  a  a  a  a  a  a  a  a  a  a  a  a  a  a  a  a  He.8f.4f.6f.m. af.]+ _f.(f.(f.(f.,e.u. t. He.Ke.Ke.He.a  a  a  a  a  a  a  a  a  a  a  a  a  a  a  a  a  a  a  a  a  a  a  a  a  a  a  a  a  a  a  a  a  a  a  a  a  a  a  :. a  a  ). ). a  a  :. :. a  a  2. :. 3. 3. 2. a  a  a  a  a  a  a  a  a  a  a  a  a  a  a  a  a  a  a  a  a  a  a  a  :. :. 2. 2. 2. 2. :. :. a  a  a  a  a  a  a  a  a  a  a  a  a  a  a  a  a  a  a  a  a  a  a  a  a  a  a  a  a  a  a  a  a  a  a  a  a  a  a  a  a  a  a  a  a  a  a  a  a  a  a  a  a  a  a  a  a  a  a  a  a  a  a  a  a  a  a  a  a  a  a  a  a  a  a  a  a  a  a  a  a  a  a  a  a  a  a  a  a  a  a  a  a  a  a  a  a  a  a  a  a  a  a  a  a  a  a  a  a  a  a  a  a  a  a  a  a  a  a  a  a  a  a  a  a  a  a  a  a  a  a  a  a  a  a  a  a  a  a  a  a  a  a  a  a  a  a  a  a  a  a  ",
"0f.Ke.Ke.He.He.t. t. N. u. t. a  a  a  a  a  a  a  a  a  a  a  a  a  a  a  a  a  a  a  a  a  a  a  a  a  a  a  a  a  a  a  a  a  a  a  a  a  a  a  a  a  a  a  a  a  a  a  :. :. :. a  a  ). ). ). a  a  a  a  a  a  a  a  a  a  a  a  a  a  a  a  a  a  a  a  a  a  a  He.Ke.4f.6f.l. )f.A$ Jf._g.pf.(f.,e.u. t. He.Ke.Ke.He.a  a  a  a  a  a  a  a  a  a  a  a  a  a  a  a  a  a  a  a  a  a  a  a  a  a  a  a  a  a  a  a  a  a  a  a  a  a  a  :. a  a  ). ). a  a  :. :. a  a  2. :. 3. 3. 2. a  a  a  a  a  a  a  a  a  a  a  a  a  a  a  a  a  a  a  a  a  a  a  a  ). a  :. 2. 2. :. a  ). a  a  a  a  a  a  a  a  a  a  a  a  a  a  a  a  a  a  a  a  a  a  a  a  a  a  a  a  a  a  a  a  a  a  a  a  a  a  a  a  a  a  a  a  a  a  a  a  a  a  a  a  a  a  a  a  a  a  a  a  a  a  a  a  a  a  a  a  a  a  a  a  a  a  a  a  a  a  a  a  a  a  a  a  a  a  a  a  a  a  a  a  a  a  a  a  a  a  a  a  a  a  a  a  a  a  a  a  a  a  a  a  a  a  a  a  a  a  a  a  a  a  a  a  a  a  a  a  a  a  a  a  a  a  a  a  a  a  a  a  a  a  a  a  a  a  a  a  a  a  a  ",
"Wf.He.Ke.He.He.t. t. N. u. t. a  a  a  a  a  a  a  a  a  a  a  a  a  a  a  a  a  a  a  a  a  a  a  a  a  a  a  a  a  a  a  a  a  a  a  a  a  a  a  a  a  a  a  a  a  a  a  :. :. :. a  a  ). ). ). a  a  a  a  a  a  a  a  a  a  a  a  a  a  a  a  a  a  a  a  a  a  a  He.1f.1f.6f.t. )f.ef.:g.<g.pf.(f.,e.u. t. He.Ke.Ke.He.a  a  a  a  a  a  a  a  a  a  a  a  a  a  a  a  a  a  a  a  a  a  a  a  a  a  a  a  a  a  a  a  a  a  a  a  a  a  a  :. a  a  ). ). a  a  :. :. a  a  2. :. 3. 3. 2. a  a  a  a  a  a  a  a  a  a  a  a  a  a  a  a  a  a  a  a  a  a  a  a  ). a  a  :. :. a  a  ). a  a  a  a  a  a  a  a  a  a  a  a  a  a  a  a  a  a  a  a  a  a  a  a  a  a  a  a  a  a  a  a  a  a  a  a  a  a  a  a  a  a  a  a  a  a  a  a  a  a  a  a  a  a  a  a  a  a  a  a  a  a  a  a  a  a  a  a  a  a  a  a  a  a  a  a  a  a  a  a  a  a  a  a  a  a  a  a  a  a  a  a  a  a  a  a  a  a  a  a  a  a  a  a  a  a  a  a  a  a  a  a  a  a  a  a  a  a  a  a  a  a  a  a  a  a  a  a  a  a  a  a  a  a  a  a  a  a  a  a  a  a  a  a  a  a  a  a  a  a  a  "};
